P3
400 225
255
163 200 255
163 200 255
163 200 255
163 200 255
163 200 255
163 200 255
163 200 255
163 200 255
163 200 255
163 200 255
163 200 255
162 200 255
162 200 255
162 200 255
162 199 255
162 199 255
162 199 255
162 199 255
162 199 255
162 199 255
162 199 255
161 199 255
161 199 255
161 199 255
161 199 255
161 199 255
161 199 255
161 199 255
161 199 255
161 199 255
161 199 255
161 199 255
160 198 255
160 198 255
160 198 255
160 198 255
160 198 255
160 198 255
160 198 255
160 198 255
160 198 255
160 198 255
159 198 255
159 198 255
159 198 255
159 198 255
159 198 255
159 198 255
159 198 255
159 197 255
159 197 255
159 197 255
158 197 255
158 197 255
158 197 255
158 197 255
158 197 255
158 197 255
158 197 255
158 197 255
158 197 255
157 197 255
157 197 255
157 197 255
157 196 255
157 196 255
157 196 255
157 196 255
157 196 255
157 196 255
157 196 255
156 196 255
156 196 255
156 196 255
156 196 255
156 196 255
156 196 255
156 196 255
156 196 255
156 196 255
155 195 255
155 195 255
155 195 255
155 195 255
155 195 255
155 195 255
155 195 255
155 195 255
155 195 255
154 195 255
154 195 255
154 195 255
154 195 255
154 195 255
154 195 255
154 194 255
154 194 255
154 194 255
153 194 255
153 194 255
153 194 255
153 194 255
153 194 255
153 194 255
153 194 255
153 194 255
153 194 255
152 194 255
152 194 255
152 194 255
152 194 255
152 193 255
152 193 255
152 193 255
152 193 255
152 193 255
152 193 255
151 193 255
151 193 255
151 193 255
151 193 255
151 193 255
151 193 255
151 193 255
151 193 255
151 193 255
151 193 255
150 192 255
150 192 255
150 192 255
150 192 255
150 192 255
150 192 255
150 192 255
150 192 255
150 192 255
150 192 255
149 192 255
149 192 255
149 192 255
149 192 255
149 192 255
149 192 255
149 192 255
149 192 255
149 191 255
149 191 255
149 191 255
149 191 255
148 191 255
148 191 255
148 191 255
148 191 255
148 191 255
148 191 255
148 191 255
148 191 255
148 191 255
148 191 255
148 191 255
148 191 255
148 191 255
148 191 255
147 191 255
147 191 255
147 191 255
147 191 255
147 191 255
147 191 255
147 190 255
147 190 255
147 190 255
147 190 255
147 190 255
147 190 255
147 190 255
147 190 255
147 190 255
147 190 255
147 190 255
147 190 255
147 190 255
147 190 255
147 190 255
147 190 255
147 190 255
147 190 255
146 190 255
146 190 255
146 190 255
146 190 255
146 190 255
146 190 255
146 190 255
146 190 255
146 190 255
146 190 255
146 190 255
146 190 255
146 190 255
146 190 255
146 190 255
146 190 255
146 190 255
146 190 255
146 190 255
146 190 255
146 190 255
146 190 255
146 190 255
146 190 255
146 190 255
146 190 255
147 190 255
147 190 255
147 190 255
147 190 255
147 190 255
147 190 255
147 190 255
147 190 255
147 190 255
147 190 255
147 190 255
147 190 255
147 190 255
147 190 255
147 190 255
147 190 255
147 190 255
147 191 255
147 191 255
147 191 255
147 191 255
147 191 255
147 191 255
147 191 255
148 191 255
148 191 255
148 191 255
148 191 255
148 191 255
148 191 255
148 191 255
148 191 255
148 191 255
148 191 255
148 191 255
148 191 255
148 191 255
148 191 255
149 191 255
149 191 255
149 191 255
149 191 255
149 192 255
149 192 255
149 192 255
149 192 255
149 192 255
149 192 255
149 192 255
149 192 255
150 192 255
150 192 255
150 192 255
150 192 255
150 192 255
150 192 255
150 192 255
150 192 255
150 192 255
150 192 255
151 193 255
151 193 255
151 193 255
151 193 255
151 193 255
151 193 255
151 193 255
151 193 255
151 193 255
151 193 255
152 193 255
152 193 255
152 193 255
152 193 255
152 193 255
152 193 255
152 194 255
152 194 255
152 194 255
152 194 255
153 194 255
153 194 255
153 194 255
153 194 255
153 194 255
153 194 255
153 194 255
153 194 255
153 194 255
154 194 255
154 194 255
154 194 255
154 195 255
154 195 255
154 195 255
154 195 255
154 195 255
154 195 255
155 195 255
155 195 255
155 195 255
155 195 255
155 195 255
155 195 255
155 195 255
155 195 255
155 195 255
156 196 255
156 196 255
156 196 255
156 196 255
156 196 255
156 196 255
156 196 255
156 196 255
156 196 255
157 196 255
157 196 255
157 196 255
157 196 255
157 196 255
157 196 255
157 196 255
157 197 255
157 197 255
157 197 255
158 197 255
158 197 255
158 197 255
158 197 255
158 197 255
158 197 255
158 197 255
158 197 255
158 197 255
159 197 255
159 197 255
159 197 255
159 197 255
159 198 255
159 198 255
159 198 255
159 198 255
159 198 255
159 198 255
160 198 255
160 198 255
160 198 255
160 198 255
160 198 255
160 198 255
160 198 255
160 198 255
160 198 255
160 198 255
161 199 255
161 199 255
161 199 255
161 199 255
161 199 255
161 199 255
161 199 255
161 199 255
161 199 255
161 199 255
161 199 255
162 199 255
162 199 255
162 199 255
162 199 255
162 199 255
162 199 255
162 199 255
162 200 255
162 200 255
162 200 255
163 200 255
163 200 255
163 200 255
163 200 255
163 200 255
163 200 255
163 200 255
163 200 255
163 200 255
163 200 255
163 200 255
164 200 255
163 200 255
163 200 255
163 200 255
163 200 255
163 200 255
163 200 255
163 200 255
163 200 255
163 200 255
163 200 255
163 200 255
163 200 255
162 200 255
162 200 255
162 200 255
162 200 255
162 199 255
162 199 255
162 199 255
162 199 255
162 199 255
162 199 255
162 199 255
161 199 255
161 199 255
161 199 255
161 199 255
161 199 255
161 199 255
161 199 255
161 199 255
161 199 255
161 199 255
160 198 255
160 198 255
160 198 255
160 198 255
160 198 255
160 198 255
160 198 255
160 198 255
160 198 255
160 198 255
159 198 255
159 198 255
159 198 255
159 198 255
159 198 255
159 198 255
159 197 255
159 197 255
159 197 255
159 197 255
158 197 255
158 197 255
158 197 255
158 197 255
158 197 255
158 197 255
158 197 255
158 197 255
158 197 255
157 197 255
157 197 255
157 197 255
157 196 255
157 196 255
157 196 255
157 196 255
157 196 255
157 196 255
157 196 255
156 196 255
156 196 255
156 196 255
156 196 255
156 196 255
156 196 255
156 196 255
156 196 255
156 196 255
155 195 255
155 195 255
155 195 255
155 195 255
155 195 255
155 195 255
155 195 255
155 195 255
155 195 255
154 195 255
154 195 255
154 195 255
154 195 255
154 195 255
154 195 255
154 194 255
154 194 255
154 194 255
153 194 255
153 194 255
153 194 255
153 194 255
153 194 255
153 194 255
153 194 255
153 194 255
153 194 255
152 194 255
152 194 255
152 194 255
152 193 255
152 193 255
152 193 255
152 193 255
152 193 255
152 193 255
152 193 255
151 193 255
151 193 255
151 193 255
151 193 255
151 193 255
151 193 255
151 193 255
151 193 255
151 193 255
151 193 255
150 192 255
150 192 255
150 192 255
150 192 255
150 192 255
150 192 255
150 192 255
150 192 255
150 192 255
150 192 255
150 192 255
149 192 255
149 192 255
149 192 255
149 192 255
149 192 255
149 192 255
149 192 255
149 192 255
149 191 255
149 191 255
149 191 255
149 191 255
148 191 255
148 191 255
148 191 255
148 191 255
148 191 255
148 191 255
148 191 255
148 191 255
148 191 255
148 191 255
148 191 255
148 191 255
148 191 255
148 191 255
148 191 255
147 191 255
147 191 255
147 191 255
147 191 255
147 191 255
147 191 255
147 191 255
147 190 255
147 190 255
147 190 255
147 190 255
147 190 255
147 190 255
147 190 255
147 190 255
147 190 255
147 190 255
147 190 255
147 190 255
147 190 255
147 190 255
147 190 255
147 190 255
147 190 255
147 190 255
147 190 255
147 190 255
147 190 255
147 190 255
147 190 255
147 190 255
147 190 255
147 190 255
147 190 255
147 190 255
147 190 255
147 190 255
147 190 255
147 190 255
147 190 255
147 190 255
147 190 255
147 190 255
147 190 255
147 190 255
147 190 255
147 190 255
147 190 255
147 190 255
147 190 255
147 190 255
147 190 255
147 190 255
147 190 255
147 190 255
147 190 255
147 190 255
147 190 255
147 190 255
147 191 255
147 191 255
147 191 255
147 191 255
147 191 255
147 191 255
147 191 255
148 191 255
148 191 255
148 191 255
148 191 255
148 191 255
148 191 255
148 191 255
148 191 255
148 191 255
148 191 255
148 191 255
148 191 255
148 191 255
148 191 255
148 191 255
149 191 255
149 191 255
149 191 255
149 191 255
149 192 255
149 192 255
149 192 255
149 192 255
149 192 255
149 192 255
149 192 255
149 192 255
150 192 255
150 192 255
150 192 255
150 192 255
150 192 255
150 192 255
150 192 255
150 192 255
150 192 255
150 192 255
150 192 255
151 193 255
151 193 255
151 193 255
151 193 255
151 193 255
151 193 255
151 193 255
151 193 255
151 193 255
151 193 255
152 193 255
152 193 255
152 193 255
152 193 255
152 193 255
152 193 255
152 194 255
152 194 255
152 194 255
152 194 255
153 194 255
153 194 255
153 194 255
153 194 255
153 194 255
153 194 255
153 194 255
153 194 255
153 194 255
154 194 255
154 194 255
154 194 255
154 195 255
154 195 255
154 195 255
154 195 255
154 195 255
154 195 255
155 195 255
155 195 255
155 195 255
155 195 255
155 195 255
155 195 255
155 195 255
155 195 255
155 195 255
156 196 255
156 196 255
156 196 255
156 196 255
156 196 255
156 196 255
156 196 255
156 196 255
156 196 255
157 196 255
157 196 255
157 196 255
157 196 255
157 196 255
157 196 255
157 196 255
157 197 255
157 197 255
157 197 255
158 197 255
158 197 255
158 197 255
158 197 255
158 197 255
158 197 255
158 197 255
158 197 255
158 197 255
159 197 255
159 197 255
159 197 255
159 198 255
159 198 255
159 198 255
159 198 255
159 198 255
159 198 255
159 198 255
160 198 255
160 198 255
160 198 255
160 198 255
160 198 255
160 198 255
160 198 255
160 198 255
160 198 255
160 198 255
161 199 255
161 199 255
161 199 255
161 199 255
161 199 255
161 199 255
161 199 255
161 199 255
161 199 255
161 199 255
162 199 255
162 199 255
162 199 255
162 199 255
162 199 255
162 199 255
162 199 255
162 200 255
162 200 255
162 200 255
162 200 255
163 200 255
163 200 255
163 200 255
163 200 255
163 200 255
163 200 255
163 200 255
163 200 255
163 200 255
163 200 255
163 200 255
164 200 255
164 200 255
164 200 255
164 200 255
164 200 255
164 200 255
163 200 255
163 200 255
163 200 255
163 200 255
163 200 255
163 200 255
163 200 255
163 200 255
163 200 255
163 200 255
163 200 255
162 200 255
162 200 255
162 200 255
162 200 255
162 199 255
162 199 255
162 199 255
162 199 255
162 199 255
162 199 255
162 199 255
161 199 255
161 199 255
161 199 255
161 199 255
161 199 255
161 199 255
161 199 255
161 199 255
161 199 255
161 199 255
160 198 255
160 198 255
160 198 255
160 198 255
160 198 255
160 198 255
160 198 255
160 198 255
160 198 255
160 198 255
159 198 255
159 198 255
159 198 255
159 198 255
159 198 255
159 198 255
159 198 255
159 197 255
159 197 255
159 197 255
158 197 255
158 197 255
158 197 255
158 197 255
158 197 255
158 197 255
158 197 255
158 197 255
158 197 255
157 197 255
157 197 255
157 197 255
157 196 255
157 196 255
157 196 255
157 196 255
157 196 255
157 196 255
157 196 255
156 196 255
156 196 255
156 196 255
156 196 255
156 196 255
156 196 255
156 196 255
156 196 255
156 196 255
155 195 255
155 195 255
155 195 255
155 195 255
155 195 255
155 195 255
155 195 255
155 195 255
155 195 255
154 195 255
154 195 255
154 195 255
154 195 255
154 195 255
154 195 255
154 194 255
154 194 255
154 194 255
153 194 255
153 194 255
153 194 255
153 194 255
153 194 255
153 194 255
153 194 255
153 194 255
153 194 255
153 194 255
152 194 255
152 194 255
152 194 255
152 193 255
152 193 255
152 193 255
152 193 255
152 193 255
152 193 255
151 193 255
151 193 255
151 193 255
151 193 255
151 193 255
151 193 255
151 193 255
151 193 255
151 193 255
151 193 255
150 192 255
150 192 255
150 192 255
150 192 255
150 192 255
150 192 255
150 192 255
150 192 255
150 192 255
150 192 255
150 192 255
149 192 255
149 192 255
149 192 255
149 192 255
149 192 255
149 192 255
149 192 255
149 192 255
149 191 255
149 191 255
149 191 255
149 191 255
149 191 255
148 191 255
148 191 255
148 191 255
148 191 255
148 191 255
148 191 255
148 191 255
148 191 255
148 191 255
148 191 255
148 191 255
148 191 255
148 191 255
148 191 255
148 191 255
148 191 255
147 191 255
147 191 255
147 191 255
147 191 255
147 191 255
147 191 255
147 191 255
147 191 255
147 190 255
147 190 255
147 190 255
147 190 255
147 190 255
147 190 255
147 190 255
147 190 255
147 190 255
147 190 255
147 190 255
147 190 255
147 190 255
147 190 255
147 190 255
147 190 255
147 190 255
147 190 255
147 190 255
147 190 255
147 190 255
147 190 255
147 190 255
147 190 255
147 190 255
147 190 255
147 190 255
147 190 255
147 190 255
147 190 255
147 190 255
147 190 255
147 190 255
147 190 255
147 190 255
147 190 255
147 190 255
147 190 255
147 190 255
147 190 255
147 190 255
147 190 255
147 191 255
147 191 255
147 191 255
147 191 255
147 191 255
147 191 255
147 191 255
147 191 255
148 191 255
148 191 255
148 191 255
148 191 255
148 191 255
148 191 255
148 191 255
148 191 255
148 191 255
148 191 255
148 191 255
148 191 255
148 191 255
148 191 255
148 191 255
148 191 255
149 191 255
149 191 255
149 191 255
149 191 255
149 191 255
149 192 255
149 192 255
149 192 255
149 192 255
149 192 255
149 192 255
149 192 255
149 192 255
150 192 255
150 192 255
150 192 255
150 192 255
150 192 255
150 192 255
150 192 255
150 192 255
150 192 255
150 192 255
150 192 255
151 193 255
151 193 255
151 193 255
151 193 255
151 193 255
151 193 255
151 193 255
151 193 255
151 193 255
151 193 255
152 193 255
152 193 255
152 193 255
152 193 255
152 193 255
152 193 255
152 194 255
152 194 255
152 194 255
153 194 255
153 194 255
153 194 255
153 194 255
153 194 255
153 194 255
153 194 255
153 194 255
153 194 255
153 194 255
154 194 255
154 194 255
154 194 255
154 195 255
154 195 255
154 195 255
154 195 255
154 195 255
154 195 255
155 195 255
155 195 255
155 195 255
155 195 255
155 195 255
155 195 255
155 195 255
155 195 255
155 195 255
156 196 255
156 196 255
156 196 255
156 196 255
156 196 255
156 196 255
156 196 255
156 196 255
156 196 255
157 196 255
157 196 255
157 196 255
157 196 255
157 196 255
157 196 255
157 197 255
157 197 255
157 197 255
157 197 255
158 197 255
158 197 255
158 197 255
158 197 255
158 197 255
158 197 255
158 197 255
158 197 255
158 197 255
159 197 255
159 197 255
159 197 255
159 198 255
159 198 255
159 198 255
159 198 255
159 198 255
159 198 255
159 198 255
160 198 255
160 198 255
160 198 255
160 198 255
160 198 255
160 198 255
160 198 255
160 198 255
160 198 255
160 198 255
161 199 255
161 199 255
161 199 255
161 199 255
161 199 255
161 199 255
161 199 255
161 199 255
161 199 255
161 199 255
162 199 255
162 199 255
162 199 255
162 199 255
162 199 255
162 199 255
162 199 255
162 200 255
162 200 255
162 200 255
162 200 255
163 200 255
163 200 255
163 200 255
163 200 255
163 200 255
163 200 255
163 200 255
163 200 255
163 200 255
163 200 255
163 200 255
164 200 255
164 200 255
164 200 255
164 200 255
164 201 255
164 201 255
164 200 255
164 200 255
164 200 255
164 200 255
163 200 255
163 200 255
163 200 255
163 200 255
163 200 255
163 200 255
163 200 255
163 200 255
163 200 255
163 200 255
163 200 255
162 200 255
162 200 255
162 200 255
162 200 255
162 199 255
162 199 255
162 199 255
162 199 255
162 199 255
162 199 255
162 199 255
161 199 255
161 199 255
161 199 255
161 199 255
161 199 255
161 199 255
161 199 255
161 199 255
161 199 255
161 199 255
160 198 255
160 198 255
160 198 255
160 198 255
160 198 255
160 198 255
160 198 255
160 198 255
160 198 255
160 198 255
159 198 255
159 198 255
159 198 255
159 198 255
159 198 255
159 198 255
159 198 255
159 197 255
159 197 255
159 197 255
158 197 255
158 197 255
158 197 255
158 197 255
158 197 255
158 197 255
158 197 255
158 197 255
158 197 255
157 197 255
157 197 255
157 197 255
157 196 255
157 196 255
157 196 255
157 196 255
157 196 255
157 196 255
157 196 255
156 196 255
156 196 255
156 196 255
156 196 255
156 196 255
156 196 255
156 196 255
156 196 255
156 196 255
155 195 255
155 195 255
155 195 255
155 195 255
155 195 255
155 195 255
155 195 255
155 195 255
155 195 255
154 195 255
154 195 255
154 195 255
154 195 255
154 195 255
154 195 255
154 194 255
154 194 255
154 194 255
153 194 255
153 194 255
153 194 255
153 194 255
153 194 255
153 194 255
153 194 255
153 194 255
153 194 255
153 194 255
152 194 255
152 194 255
152 194 255
152 193 255
152 193 255
152 193 255
152 193 255
152 193 255
152 193 255
151 193 255
151 193 255
151 193 255
151 193 255
151 193 255
151 193 255
151 193 255
151 193 255
151 193 255
151 193 255
151 193 255
150 192 255
150 192 255
150 192 255
150 192 255
150 192 255
150 192 255
150 192 255
150 192 255
150 192 255
150 192 255
150 192 255
149 192 255
149 192 255
149 192 255
149 192 255
149 192 255
149 192 255
149 192 255
149 192 255
149 191 255
149 191 255
149 191 255
149 191 255
149 191 255
148 191 255
148 191 255
148 191 255
148 191 255
148 191 255
148 191 255
148 191 255
148 191 255
148 191 255
148 191 255
148 191 255
148 191 255
148 191 255
148 191 255
148 191 255
148 191 255
148 191 255
147 191 255
147 191 255
147 191 255
147 191 255
147 191 255
147 191 255
147 191 255
147 191 255
147 191 255
147 191 255
147 190 255
147 190 255
147 190 255
147 190 255
147 190 255
147 190 255
147 190 255
147 190 255
147 190 255
147 190 255
147 190 255
147 190 255
147 190 255
147 190 255
147 190 255
147 190 255
147 190 255
147 190 255
147 190 255
147 190 255
147 190 255
147 190 255
147 190 255
147 190 255
147 190 255
147 190 255
147 190 255
147 190 255
147 190 255
147 191 255
147 191 255
147 191 255
147 191 255
147 191 255
147 191 255
147 191 255
147 191 255
147 191 255
147 191 255
148 191 255
148 191 255
148 191 255
148 191 255
148 191 255
148 191 255
148 191 255
148 191 255
148 191 255
148 191 255
148 191 255
148 191 255
148 191 255
148 191 255
148 191 255
148 191 255
148 191 255
148 191 255
149 191 255
149 191 255
149 191 255
149 191 255
149 191 255
149 192 255
149 192 255
149 192 255
149 192 255
149 192 255
149 192 255
149 192 255
149 192 255
150 192 255
150 192 255
150 192 255
150 192 255
150 192 255
150 192 255
150 192 255
150 192 255
150 192 255
150 192 255
150 192 255
151 193 255
151 193 255
151 193 255
151 193 255
151 193 255
151 193 255
151 193 255
151 193 255
151 193 255
151 193 255
151 193 255
152 193 255
152 193 255
152 193 255
152 193 255
152 193 255
152 193 255
152 194 255
152 194 255
152 194 255
153 194 255
153 194 255
153 194 255
153 194 255
153 194 255
153 194 255
153 194 255
153 194 255
153 194 255
153 194 255
154 194 255
154 194 255
154 194 255
154 195 255
154 195 255
154 195 255
154 195 255
154 195 255
154 195 255
155 195 255
155 195 255
155 195 255
155 195 255
155 195 255
155 195 255
155 195 255
155 195 255
155 195 255
156 196 255
156 196 255
156 196 255
156 196 255
156 196 255
156 196 255
156 196 255
156 196 255
156 196 255
157 196 255
157 196 255
157 196 255
157 196 255
157 196 255
157 196 255
157 197 255
157 197 255
157 197 255
158 197 255
158 197 255
158 197 255
158 197 255
158 197 255
158 197 255
158 197 255
158 197 255
158 197 255
158 197 255
159 197 255
159 197 255
159 197 255
159 198 255
159 198 255
159 198 255
159 198 255
159 198 255
159 198 255
159 198 255
160 198 255
160 198 255
160 198 255
160 198 255
160 198 255
160 198 255
160 198 255
160 198 255
160 198 255
161 199 255
161 199 255
161 199 255
161 199 255
161 199 255
161 199 255
161 199 255
161 199 255
161 199 255
161 199 255
161 199 255
162 199 255
162 199 255
162 199 255
162 199 255
162 199 255
162 199 255
162 199 255
162 200 255
162 200 255
162 200 255
162 200 255
163 200 255
163 200 255
163 200 255
163 200 255
163 200 255
163 200 255
163 200 255
163 200 255
163 200 255
163 200 255
163 200 255
164 200 255
164 200 255
164 200 255
164 200 255
164 201 255
164 201 255
164 201 255
164 201 255
164 201 255
164 201 255
164 201 255
164 200 255
164 200 255
164 200 255
164 200 255
163 200 255
163 200 255
163 200 255
163 200 255
163 200 255
163 200 255
163 200 255
163 200 255
163 200 255
163 200 255
163 200 255
162 200 255
162 200 255
162 200 255
162 199 255
162 199 255
162 199 255
162 199 255
162 199 255
162 199 255
162 199 255
162 199 255
161 199 255
161 199 255
161 199 255
161 199 255
161 199 255
161 199 255
161 199 255
161 199 255
161 199 255
161 199 255
160 198 255
160 198 255
160 198 255
160 198 255
160 198 255
160 198 255
160 198 255
160 198 255
160 198 255
160 198 255
159 198 255
159 198 255
159 198 255
159 198 255
159 198 255
159 198 255
159 197 255
159 197 255
159 197 255
158 197 255
158 197 255
158 197 255
158 197 255
158 197 255
158 197 255
158 197 255
158 197 255
158 197 255
158 197 255
157 197 255
157 197 255
157 197 255
157 196 255
157 196 255
157 196 255
157 196 255
157 196 255
157 196 255
156 196 255
156 196 255
156 196 255
156 196 255
156 196 255
156 196 255
156 196 255
156 196 255
156 196 255
155 195 255
155 195 255
155 195 255
155 195 255
155 195 255
155 195 255
155 195 255
155 195 255
155 195 255
154 195 255
154 195 255
154 195 255
154 195 255
154 195 255
154 195 255
154 194 255
154 194 255
154 194 255
153 194 255
153 194 255
153 194 255
153 194 255
153 194 255
153 194 255
153 194 255
153 194 255
153 194 255
153 194 255
152 194 255
152 194 255
152 194 255
152 193 255
152 193 255
152 193 255
152 193 255
152 193 255
152 193 255
152 193 255
151 193 255
151 193 255
151 193 255
151 193 255
151 193 255
151 193 255
151 193 255
151 193 255
151 193 255
151 193 255
150 192 255
150 192 255
150 192 255
150 192 255
150 192 255
150 192 255
150 192 255
150 192 255
150 192 255
150 192 255
150 192 255
150 192 255
149 192 255
149 192 255
149 192 255
149 192 255
149 192 255
149 192 255
149 192 255
149 192 255
149 191 255
149 191 255
149 191 255
149 191 255
149 191 255
148 191 255
148 191 255
148 191 255
148 191 255
148 191 255
148 191 255
148 191 255
148 191 255
148 191 255
148 191 255
148 191 255
148 191 255
148 191 255
148 191 255
148 191 255
148 191 255
148 191 255
148 191 255
148 191 255
148 191 255
147 191 255
147 191 255
147 191 255
147 191 255
147 191 255
147 191 255
147 191 255
147 191 255
147 191 255
147 191 255
147 191 255
147 191 255
147 191 255
147 191 255
147 191 255
147 191 255
147 191 255
147 190 255
147 191 255
147 191 255
147 191 255
147 191 255
147 191 255
147 191 255
147 191 255
147 191 255
147 191 255
147 191 255
147 191 255
147 191 255
147 191 255
147 191 255
147 191 255
147 191 255
147 191 255
147 191 255
147 191 255
147 191 255
148 191 255
148 191 255
148 191 255
148 191 255
148 191 255
148 191 255
148 191 255
148 191 255
148 191 255
148 191 255
148 191 255
148 191 255
148 191 255
148 191 255
148 191 255
148 191 255
148 191 255
148 191 255
148 191 255
148 191 255
149 191 255
149 191 255
149 191 255
149 191 255
149 191 255
149 192 255
149 192 255
149 192 255
149 192 255
149 192 255
149 192 255
149 192 255
149 192 255
149 192 255
150 192 255
150 192 255
150 192 255
150 192 255
150 192 255
150 192 255
150 192 255
150 192 255
150 192 255
150 192 255
150 192 255
151 193 255
151 193 255
151 193 255
151 193 255
151 193 255
151 193 255
151 193 255
151 193 255
151 193 255
151 193 255
152 193 255
152 193 255
152 193 255
152 193 255
152 193 255
152 193 255
152 193 255
152 194 255
152 194 255
152 194 255
153 194 255
153 194 255
153 194 255
153 194 255
153 194 255
153 194 255
153 194 255
153 194 255
153 194 255
154 194 255
154 194 255
154 194 255
154 194 255
154 195 255
154 195 255
154 195 255
154 195 255
154 195 255
154 195 255
155 195 255
155 195 255
155 195 255
155 195 255
155 195 255
155 195 255
155 195 255
155 195 255
155 195 255
156 196 255
156 196 255
156 196 255
156 196 255
156 196 255
156 196 255
156 196 255
156 196 255
156 196 255
157 196 255
157 196 255
157 196 255
157 196 255
157 196 255
157 196 255
157 197 255
157 197 255
157 197 255
158 197 255
158 197 255
158 197 255
158 197 255
158 197 255
158 197 255
158 197 255
158 197 255
158 197 255
158 197 255
159 197 255
159 197 255
159 197 255
159 198 255
159 198 255
159 198 255
159 198 255
159 198 255
159 198 255
160 198 255
160 198 255
160 198 255
160 198 255
160 198 255
160 198 255
160 198 255
160 198 255
160 198 255
160 198 255
161 199 255
161 199 255
161 199 255
161 199 255
161 199 255
161 199 255
161 199 255
161 199 255
161 199 255
161 199 255
161 199 255
162 199 255
162 199 255
162 199 255
162 199 255
162 199 255
162 199 255
162 199 255
162 200 255
162 200 255
162 200 255
163 200 255
163 200 255
163 200 255
163 200 255
163 200 255
163 200 255
163 200 255
163 200 255
163 200 255
163 200 255
163 200 255
164 200 255
164 200 255
164 200 255
164 200 255
164 201 255
164 201 255
164 201 255
164 201 255
164 201 255
164 201 255
164 201 255
164 201 255
164 201 255
164 201 255
164 201 255
164 201 255
164 200 255
164 200 255
164 200 255
164 200 255
163 200 255
163 200 255
163 200 255
163 200 255
163 200 255
163 200 255
163 200 255
163 200 255
163 200 255
163 200 255
163 200 255
162 200 255
162 200 255
162 200 255
162 200 255
162 199 255
162 199 255
162 199 255
162 199 255
162 199 255
162 199 255
162 199 255
161 199 255
161 199 255
161 199 255
161 199 255
161 199 255
161 199 255
161 199 255
161 199 255
161 199 255
161 199 255
160 198 255
160 198 255
160 198 255
160 198 255
160 198 255
160 198 255
160 198 255
160 198 255
160 198 255
160 198 255
159 198 255
159 198 255
159 198 255
159 198 255
159 198 255
159 198 255
159 197 255
159 197 255
159 197 255
158 197 255
158 197 255
158 197 255
158 197 255
158 197 255
158 197 255
158 197 255
158 197 255
158 197 255
158 197 255
157 197 255
157 197 255
157 197 255
157 196 255
157 196 255
157 196 255
157 196 255
157 196 255
157 196 255
156 196 255
156 196 255
156 196 255
156 196 255
156 196 255
156 196 255
156 196 255
156 196 255
156 196 255
155 195 255
155 195 255
155 195 255
155 195 255
155 195 255
155 195 255
155 195 255
155 195 255
155 195 255
154 195 255
154 195 255
154 195 255
154 195 255
154 195 255
154 195 255
154 194 255
154 194 255
154 194 255
154 194 255
153 194 255
153 194 255
153 194 255
153 194 255
153 194 255
153 194 255
153 194 255
153 194 255
153 194 255
152 194 255
152 194 255
152 194 255
152 193 255
152 193 255
152 193 255
152 193 255
152 193 255
152 193 255
152 193 255
151 193 255
151 193 255
151 193 255
151 193 255
151 193 255
151 193 255
151 193 255
151 193 255
151 193 255
151 193 255
150 192 255
150 192 255
150 192 255
150 192 255
150 192 255
150 192 255
150 192 255
150 192 255
150 192 255
150 192 255
150 192 255
150 192 255
149 192 255
149 192 255
149 192 255
149 192 255
149 192 255
149 192 255
149 192 255
149 192 255
149 192 255
149 191 255
149 191 255
149 191 255
149 191 255
149 191 255
149 191 255
148 191 255
148 191 255
148 191 255
148 191 255
148 191 255
148 191 255
148 191 255
148 191 255
148 191 255
148 191 255
148 191 255
148 191 255
148 191 255
148 191 255
148 191 255
148 191 255
148 191 255
148 191 255
148 191 255
148 191 255
148 191 255
148 191 255
148 191 255
148 191 255
148 191 255
147 191 255
147 191 255
147 191 255
147 191 255
147 191 255
147 191 255
147 191 255
147 191 255
147 191 255
147 191 255
147 191 255
147 191 255
147 191 255
147 191 255
147 191 255
147 191 255
147 191 255
147 191 255
147 191 255
147 191 255
147 191 255
148 191 255
148 191 255
148 191 255
148 191 255
148 191 255
148 191 255
148 191 255
148 191 255
148 191 255
148 191 255
148 191 255
148 191 255
148 191 255
148 191 255
148 191 255
148 191 255
148 191 255
148 191 255
148 191 255
148 191 255
148 191 255
148 191 255
148 191 255
148 191 255
148 191 255
149 191 255
149 191 255
149 191 255
149 191 255
149 191 255
149 192 255
149 192 255
149 192 255
149 192 255
149 192 255
149 192 255
149 192 255
149 192 255
149 192 255
150 192 255
150 192 255
150 192 255
150 192 255
150 192 255
150 192 255
150 192 255
150 192 255
150 192 255
150 192 255
150 192 255
150 192 255
151 193 255
151 193 255
151 193 255
151 193 255
151 193 255
151 193 255
151 193 255
151 193 255
151 193 255
151 193 255
152 193 255
152 193 255
152 193 255
152 193 255
152 193 255
152 193 255
152 193 255
152 194 255
152 194 255
152 194 255
153 194 255
153 194 255
153 194 255
153 194 255
153 194 255
153 194 255
153 194 255
153 194 255
153 194 255
153 194 255
154 194 255
154 194 255
154 194 255
154 195 255
154 195 255
154 195 255
154 195 255
154 195 255
154 195 255
155 195 255
155 195 255
155 195 255
155 195 255
155 195 255
155 195 255
155 195 255
155 195 255
155 195 255
156 196 255
156 196 255
156 196 255
156 196 255
156 196 255
156 196 255
156 196 255
156 196 255
156 196 255
157 196 255
157 196 255
157 196 255
157 196 255
157 196 255
157 196 255
157 197 255
157 197 255
157 197 255
158 197 255
158 197 255
158 197 255
158 197 255
158 197 255
158 197 255
158 197 255
158 197 255
158 197 255
158 197 255
159 197 255
159 197 255
159 197 255
159 198 255
159 198 255
159 198 255
159 198 255
159 198 255
159 198 255
160 198 255
160 198 255
160 198 255
160 198 255
160 198 255
160 198 255
160 198 255
160 198 255
160 198 255
160 198 255
161 199 255
161 199 255
161 199 255
161 199 255
161 199 255
161 199 255
161 199 255
161 199 255
161 199 255
161 199 255
162 199 255
162 199 255
162 199 255
162 199 255
162 199 255
162 199 255
162 199 255
162 200 255
162 200 255
162 200 255
162 200 255
163 200 255
163 200 255
163 200 255
163 200 255
163 200 255
163 200 255
163 200 255
163 200 255
163 200 255
163 200 255
163 200 255
164 200 255
164 200 255
164 200 255
164 200 255
164 201 255
164 201 255
164 201 255
164 201 255
164 201 255
164 201 255
164 201 255
165 201 255
165 201 255
164 201 255
164 201 255
164 201 255
164 201 255
164 201 255
164 201 255
164 201 255
164 201 255
164 200 255
164 200 255
164 200 255
163 200 255
163 200 255
163 200 255
163 200 255
163 200 255
163 200 255
163 200 255
163 200 255
163 200 255
163 200 255
163 200 255
163 200 255
162 200 255
162 200 255
162 200 255
162 199 255
162 199 255
162 199 255
162 199 255
162 199 255
162 199 255
162 199 255
161 199 255
161 199 255
161 199 255
161 199 255
161 199 255
161 199 255
161 199 255
161 199 255
161 199 255
161 199 255
160 198 255
160 198 255
160 198 255
160 198 255
160 198 255
160 198 255
160 198 255
160 198 255
160 198 255
160 198 255
159 198 255
159 198 255
159 198 255
159 198 255
159 198 255
159 198 255
159 197 255
159 197 255
159 197 255
158 197 255
158 197 255
158 197 255
158 197 255
158 197 255
158 197 255
158 197 255
158 197 255
158 197 255
158 197 255
157 197 255
157 197 255
157 197 255
157 196 255
157 196 255
157 196 255
157 196 255
157 196 255
157 196 255
156 196 255
156 196 255
156 196 255
156 196 255
156 196 255
156 196 255
156 196 255
156 196 255
156 196 255
155 195 255
155 195 255
155 195 255
155 195 255
155 195 255
155 195 255
155 195 255
155 195 255
155 195 255
154 195 255
154 195 255
154 195 255
154 195 255
154 195 255
154 195 255
154 195 255
154 194 255
154 194 255
154 194 255
153 194 255
153 194 255
153 194 255
153 194 255
153 194 255
153 194 255
153 194 255
153 194 255
153 194 255
152 194 255
152 194 255
152 194 255
152 193 255
152 193 255
152 193 255
152 193 255
152 193 255
152 193 255
152 193 255
151 193 255
151 193 255
151 193 255
151 193 255
151 193 255
151 193 255
151 193 255
151 193 255
151 193 255
151 193 255
151 193 255
150 192 255
150 192 255
150 192 255
150 192 255
150 192 255
150 192 255
150 192 255
150 192 255
150 192 255
150 192 255
150 192 255
150 192 255
149 192 255
149 192 255
149 192 255
149 192 255
149 192 255
149 192 255
149 192 255
149 192 255
149 192 255
149 192 255
149 191 255
149 191 255
149 191 255
149 191 255
149 191 255
148 191 255
148 191 255
148 191 255
148 191 255
148 191 255
148 191 255
148 191 255
148 191 255
148 191 255
148 191 255
148 191 255
148 191 255
148 191 255
148 191 255
148 191 255
148 191 255
148 191 255
148 191 255
148 191 255
148 191 255
148 191 255
148 191 255
148 191 255
148 191 255
148 191 255
148 191 255
148 191 255
148 191 255
148 191 255
148 191 255
148 191 255
148 191 255
148 191 255
148 191 255
148 191 255
148 191 255
148 191 255
148 191 255
148 191 255
148 191 255
148 191 255
148 191 255
148 191 255
148 191 255
148 191 255
148 191 255
148 191 255
148 191 255
148 191 255
148 191 255
148 191 255
148 191 255
148 191 255
148 191 255
148 191 255
148 191 255
148 191 255
148 191 255
148 191 255
148 191 255
148 191 255
148 191 255
148 191 255
148 191 255
149 191 255
149 191 255
149 191 255
149 191 255
149 191 255
149 192 255
149 192 255
149 192 255
149 192 255
149 192 255
149 192 255
149 192 255
149 192 255
149 192 255
149 192 255
150 192 255
150 192 255
150 192 255
150 192 255
150 192 255
150 192 255
150 192 255
150 192 255
150 192 255
150 192 255
150 192 255
150 192 255
151 193 255
151 193 255
151 193 255
151 193 255
151 193 255
151 193 255
151 193 255
151 193 255
151 193 255
151 193 255
151 193 255
152 193 255
152 193 255
152 193 255
152 193 255
152 193 255
152 193 255
152 194 255
152 194 255
152 194 255
152 194 255
153 194 255
153 194 255
153 194 255
153 194 255
153 194 255
153 194 255
153 194 255
153 194 255
153 194 255
154 194 255
154 194 255
154 194 255
154 195 255
154 195 255
154 195 255
154 195 255
154 195 255
154 195 255
154 195 255
155 195 255
155 195 255
155 195 255
155 195 255
155 195 255
155 195 255
155 195 255
155 195 255
155 195 255
156 196 255
156 196 255
156 196 255
156 196 255
156 196 255
156 196 255
156 196 255
156 196 255
156 196 255
157 196 255
157 196 255
157 196 255
157 196 255
157 196 255
157 196 255
157 197 255
157 197 255
157 197 255
158 197 255
158 197 255
158 197 255
158 197 255
158 197 255
158 197 255
158 197 255
158 197 255
158 197 255
158 197 255
159 197 255
159 197 255
159 197 255
159 198 255
159 198 255
159 198 255
159 198 255
159 198 255
159 198 255
160 198 255
160 198 255
160 198 255
160 198 255
160 198 255
160 198 255
160 198 255
160 198 255
160 198 255
160 198 255
161 199 255
161 199 255
161 199 255
161 199 255
161 199 255
161 199 255
161 199 255
161 199 255
161 199 255
161 199 255
162 199 255
162 199 255
162 199 255
162 199 255
162 199 255
162 199 255
162 199 255
162 200 255
162 200 255
162 200 255
162 200 255
163 200 255
163 200 255
163 200 255
163 200 255
163 200 255
163 200 255
163 200 255
163 200 255
163 200 255
163 200 255
163 200 255
164 200 255
164 200 255
164 200 255
164 201 255
164 201 255
164 201 255
164 201 255
164 201 255
164 201 255
164 201 255
164 201 255
165 201 255
165 201 255
165 201 255
165 201 255
165 201 255
165 201 255
164 201 255
164 201 255
164 201 255
164 201 255
164 201 255
164 201 255
164 201 255
164 201 255
164 200 255
164 200 255
164 200 255
164 200 255
163 200 255
163 200 255
163 200 255
163 200 255
163 200 255
163 200 255
163 200 255
163 200 255
163 200 255
163 200 255
163 200 255
162 200 255
162 200 255
162 200 255
162 199 255
162 199 255
162 199 255
162 199 255
162 199 255
162 199 255
162 199 255
161 199 255
161 199 255
161 199 255
161 199 255
161 199 255
161 199 255
161 199 255
161 199 255
161 199 255
161 199 255
160 198 255
160 198 255
160 198 255
160 198 255
160 198 255
160 198 255
160 198 255
160 198 255
160 198 255
160 198 255
159 198 255
159 198 255
159 198 255
159 198 255
159 198 255
159 198 255
159 197 255
159 197 255
159 197 255
159 197 255
158 197 255
158 197 255
158 197 255
158 197 255
158 197 255
158 197 255
158 197 255
158 197 255
158 197 255
157 197 255
157 197 255
157 197 255
157 196 255
157 196 255
157 196 255
157 196 255
157 196 255
157 196 255
156 196 255
156 196 255
156 196 255
156 196 255
156 196 255
156 196 255
156 196 255
156 196 255
156 196 255
155 195 255
155 195 255
155 195 255
155 195 255
155 195 255
155 195 255
155 195 255
155 195 255
155 195 255
155 195 255
154 195 255
154 195 255
154 195 255
154 195 255
154 195 255
154 195 255
154 194 255
154 194 255
154 194 255
153 194 255
153 194 255
153 194 255
153 194 255
153 194 255
153 194 255
153 194 255
153 194 255
153 194 255
152 194 255
152 194 255
152 194 255
152 194 255
152 193 255
152 193 255
152 193 255
152 193 255
152 193 255
152 193 255
152 193 255
151 193 255
151 193 255
151 193 255
151 193 255
151 193 255
151 193 255
151 193 255
151 193 255
151 193 255
151 193 255
151 193 255
150 192 255
150 192 255
150 192 255
150 192 255
150 192 255
150 192 255
150 192 255
150 192 255
150 192 255
150 192 255
150 192 255
150 192 255
149 192 255
149 192 255
149 192 255
149 192 255
149 192 255
149 192 255
149 192 255
149 192 255
149 192 255
149 192 255
149 191 255
149 191 255
149 191 255
149 191 255
149 191 255
149 191 255
149 191 255
148 191 255
148 191 255
148 191 255
148 191 255
148 191 255
148 191 255
148 191 255
148 191 255
148 191 255
148 191 255
148 191 255
148 191 255
148 191 255
148 191 255
148 191 255
148 191 255
148 191 255
148 191 255
148 191 255
148 191 255
148 191 255
148 191 255
148 191 255
148 191 255
148 191 255
148 191 255
148 191 255
148 191 255
148 191 255
148 191 255
148 191 255
148 191 255
148 191 255
148 191 255
148 191 255
148 191 255
148 191 255
148 191 255
148 191 255
148 191 255
148 191 255
148 191 255
148 191 255
148 191 255
148 191 255
148 191 255
148 191 255
148 191 255
148 191 255
148 191 255
148 191 255
148 191 255
148 191 255
148 191 255
148 191 255
149 191 255
149 191 255
149 191 255
149 191 255
149 191 255
149 191 255
149 192 255
149 192 255
149 192 255
149 192 255
149 192 255
149 192 255
149 192 255
149 192 255
149 192 255
149 192 255
150 192 255
150 192 255
150 192 255
150 192 255
150 192 255
150 192 255
150 192 255
150 192 255
150 192 255
150 192 255
150 192 255
150 192 255
151 193 255
151 193 255
151 193 255
151 193 255
151 193 255
151 193 255
151 193 255
151 193 255
151 193 255
151 193 255
151 193 255
152 193 255
152 193 255
152 193 255
152 193 255
152 193 255
152 193 255
152 193 255
152 194 255
152 194 255
152 194 255
153 194 255
153 194 255
153 194 255
153 194 255
153 194 255
153 194 255
153 194 255
153 194 255
153 194 255
153 194 255
154 194 255
154 194 255
154 194 255
154 195 255
154 195 255
154 195 255
154 195 255
154 195 255
154 195 255
155 195 255
155 195 255
155 195 255
155 195 255
155 195 255
155 195 255
155 195 255
155 195 255
155 195 255
155 195 255
156 196 255
156 196 255
156 196 255
156 196 255
156 196 255
156 196 255
156 196 255
156 196 255
156 196 255
157 196 255
157 196 255
157 196 255
157 196 255
157 196 255
157 196 255
157 197 255
157 197 255
157 197 255
158 197 255
158 197 255
158 197 255
158 197 255
158 197 255
158 197 255
158 197 255
158 197 255
158 197 255
159 197 255
159 197 255
159 197 255
159 197 255
159 198 255
159 198 255
159 198 255
159 198 255
159 198 255
159 198 255
160 198 255
160 198 255
160 198 255
160 198 255
160 198 255
160 198 255
160 198 255
160 198 255
160 198 255
160 198 255
161 199 255
161 199 255
161 199 255
161 199 255
161 199 255
161 199 255
161 199 255
161 199 255
161 199 255
161 199 255
162 199 255
162 199 255
162 199 255
162 199 255
162 199 255
162 199 255
162 199 255
162 200 255
162 200 255
162 200 255
163 200 255
163 200 255
163 200 255
163 200 255
163 200 255
163 200 255
163 200 255
163 200 255
163 200 255
163 200 255
163 200 255
164 200 255
164 200 255
164 200 255
164 200 255
164 201 255
164 201 255
164 201 255
164 201 255
164 201 255
164 201 255
164 201 255
164 201 255
165 201 255
165 201 255
165 201 255
165 201 255
165 201 255
165 201 255
165 201 255
165 201 255
165 201 255
165 201 255
165 201 255
164 201 255
164 201 255
164 201 255
164 201 255
164 201 255
164 201 255
164 201 255
164 200 255
164 200 255
164 200 255
164 200 255
163 200 255
163 200 255
163 200 255
163 200 255
163 200 255
163 200 255
163 200 255
163 200 255
163 200 255
163 200 255
163 200 255
162 200 255
162 200 255
162 200 255
162 200 255
162 199 255
162 199 255
162 199 255
162 199 255
162 199 255
162 199 255
161 199 255
161 199 255
161 199 255
161 199 255
161 199 255
161 199 255
161 199 255
161 199 255
161 199 255
161 199 255
161 199 255
160 198 255
160 198 255
160 198 255
160 198 255
160 198 255
160 198 255
160 198 255
160 198 255
160 198 255
159 198 255
159 198 255
159 198 255
159 198 255
159 198 255
159 198 255
159 198 255
159 197 255
159 197 255
159 197 255
158 197 255
158 197 255
158 197 255
158 197 255
158 197 255
158 197 255
158 197 255
158 197 255
158 197 255
157 197 255
157 197 255
157 197 255
157 196 255
157 196 255
157 196 255
157 196 255
157 196 255
157 196 255
156 196 255
156 196 255
156 196 255
156 196 255
156 196 255
156 196 255
156 196 255
156 196 255
156 196 255
156 196 255
155 195 255
155 195 255
155 195 255
155 195 255
155 195 255
155 195 255
155 195 255
155 195 255
155 195 255
154 195 255
154 195 255
154 195 255
154 195 255
154 195 255
154 195 255
154 194 255
154 194 255
154 194 255
153 194 255
153 194 255
153 194 255
153 194 255
153 194 255
153 194 255
153 194 255
153 194 255
153 194 255
153 194 255
152 194 255
152 194 255
152 194 255
152 193 255
152 193 255
152 193 255
152 193 255
152 193 255
152 193 255
152 193 255
151 193 255
151 193 255
151 193 255
151 193 255
151 193 255
151 193 255
151 193 255
151 193 255
151 193 255
151 193 255
151 193 255
150 192 255
150 192 255
150 192 255
150 192 255
150 192 255
150 192 255
150 192 255
150 192 255
150 192 255
150 192 255
150 192 255
150 192 255
150 192 255
150 192 255
149 192 255
149 192 255
149 192 255
149 192 255
149 192 255
149 192 255
149 192 255
149 192 255
149 192 255
149 192 255
149 192 255
149 191 255
149 191 255
149 191 255
149 191 255
149 191 255
149 191 255
149 191 255
148 191 255
148 191 255
148 191 255
148 191 255
148 191 255
148 191 255
148 191 255
148 191 255
148 191 255
148 191 255
148 191 255
148 191 255
148 191 255
148 191 255
148 191 255
148 191 255
148 191 255
148 191 255
148 191 255
148 191 255
148 191 255
148 191 255
148 191 255
148 191 255
148 191 255
148 191 255
148 191 255
148 191 255
148 191 255
148 191 255
148 191 255
148 191 255
148 191 255
148 191 255
148 191 255
148 191 255
148 191 255
148 191 255
148 191 255
148 191 255
148 191 255
148 191 255
148 191 255
148 191 255
149 191 255
149 191 255
149 191 255
149 191 255
149 191 255
149 191 255
149 191 255
149 191 255
149 192 255
149 192 255
149 192 255
149 192 255
149 192 255
149 192 255
149 192 255
149 192 255
149 192 255
149 192 255
149 192 255
150 192 255
150 192 255
150 192 255
150 192 255
150 192 255
150 192 255
150 192 255
150 192 255
150 192 255
150 192 255
150 192 255
150 192 255
150 192 255
151 193 255
151 193 255
151 193 255
151 193 255
151 193 255
151 193 255
151 193 255
151 193 255
151 193 255
151 193 255
151 193 255
152 193 255
152 193 255
152 193 255
152 193 255
152 193 255
152 193 255
152 193 255
152 194 255
152 194 255
152 194 255
153 194 255
153 194 255
153 194 255
153 194 255
153 194 255
153 194 255
153 194 255
153 194 255
153 194 255
153 194 255
154 194 255
154 194 255
154 194 255
154 195 255
154 195 255
154 195 255
154 195 255
154 195 255
154 195 255
155 195 255
155 195 255
155 195 255
155 195 255
155 195 255
155 195 255
155 195 255
155 195 255
155 195 255
155 195 255
156 196 255
156 196 255
156 196 255
156 196 255
156 196 255
156 196 255
156 196 255
156 196 255
156 196 255
157 196 255
157 196 255
157 196 255
157 196 255
157 196 255
157 196 255
157 197 255
157 197 255
157 197 255
158 197 255
158 197 255
158 197 255
158 197 255
158 197 255
158 197 255
158 197 255
158 197 255
158 197 255
159 197 255
159 197 255
159 197 255
159 198 255
159 198 255
159 198 255
159 198 255
159 198 255
159 198 255
159 198 255
160 198 255
160 198 255
160 198 255
160 198 255
160 198 255
160 198 255
160 198 255
160 198 255
160 198 255
161 199 255
161 199 255
161 199 255
161 199 255
161 199 255
161 199 255
161 199 255
161 199 255
161 199 255
161 199 255
162 199 255
162 199 255
162 199 255
162 199 255
162 199 255
162 199 255
162 199 255
162 200 255
162 200 255
162 200 255
162 200 255
163 200 255
163 200 255
163 200 255
163 200 255
163 200 255
163 200 255
163 200 255
163 200 255
163 200 255
163 200 255
163 200 255
164 200 255
164 200 255
164 200 255
164 201 255
164 201 255
164 201 255
164 201 255
164 201 255
164 201 255
164 201 255
164 201 255
165 201 255
165 201 255
165 201 255
165 201 255
165 201 255
165 201 255
165 201 255
165 201 255
165 201 255
165 201 255
165 201 255
165 201 255
165 201 255
165 201 255
165 201 255
165 201 255
164 201 255
164 201 255
164 201 255
164 201 255
164 201 255
164 201 255
164 201 255
164 201 255
164 200 255
164 200 255
164 200 255
164 200 255
163 200 255
163 200 255
163 200 255
163 200 255
163 200 255
163 200 255
163 200 255
163 200 255
163 200 255
163 200 255
162 200 255
162 200 255
162 200 255
162 200 255
162 199 255
162 199 255
162 199 255
162 199 255
162 199 255
162 199 255
162 199 255
161 199 255
161 199 255
161 199 255
161 199 255
161 199 255
161 199 255
161 199 255
161 199 255
161 199 255
161 199 255
160 198 255
160 198 255
160 198 255
160 198 255
160 198 255
160 198 255
160 198 255
160 198 255
160 198 255
159 198 255
159 198 255
159 198 255
159 198 255
159 198 255
159 198 255
159 198 255
159 197 255
159 197 255
159 197 255
158 197 255
158 197 255
158 197 255
158 197 255
158 197 255
158 197 255
158 197 255
158 197 255
158 197 255
157 197 255
157 197 255
157 197 255
157 196 255
157 196 255
157 196 255
157 196 255
157 196 255
157 196 255
157 196 255
156 196 255
156 196 255
156 196 255
156 196 255
156 196 255
156 196 255
156 196 255
156 196 255
156 196 255
155 195 255
155 195 255
155 195 255
155 195 255
155 195 255
155 195 255
155 195 255
155 195 255
155 195 255
154 195 255
154 195 255
154 195 255
154 195 255
154 195 255
154 195 255
154 194 255
154 194 255
154 194 255
153 194 255
153 194 255
153 194 255
153 194 255
153 194 255
153 194 255
153 194 255
153 194 255
153 194 255
153 194 255
152 194 255
152 194 255
152 194 255
152 194 255
152 193 255
152 193 255
152 193 255
152 193 255
152 193 255
152 193 255
152 193 255
151 193 255
151 193 255
151 193 255
151 193 255
151 193 255
151 193 255
151 193 255
151 193 255
151 193 255
151 193 255
151 193 255
150 192 255
150 192 255
150 192 255
150 192 255
150 192 255
150 192 255
150 192 255
150 192 255
150 192 255
150 192 255
150 192 255
150 192 255
150 192 255
150 192 255
149 192 255
149 192 255
149 192 255
149 192 255
149 192 255
149 192 255
149 192 255
149 192 255
149 192 255
149 192 255
149 192 255
149 192 255
149 191 255
149 191 255
149 191 255
149 191 255
149 191 255
149 191 255
149 191 255
149 191 255
149 191 255
149 191 255
148 191 255
148 191 255
148 191 255
148 191 255
148 191 255
148 191 255
148 191 255
148 191 255
148 191 255
148 191 255
148 191 255
148 191 255
148 191 255
148 191 255
148 191 255
148 191 255
148 191 255
148 191 255
148 191 255
148 191 255
148 191 255
148 191 255
148 191 255
148 191 255
148 191 255
148 191 255
148 191 255
148 191 255
148 191 255
148 191 255
149 191 255
149 191 255
149 191 255
149 191 255
149 191 255
149 191 255
149 191 255
149 191 255
149 191 255
149 191 255
149 192 255
149 192 255
149 192 255
149 192 255
149 192 255
149 192 255
149 192 255
149 192 255
149 192 255
149 192 255
149 192 255
149 192 255
150 192 255
150 192 255
150 192 255
150 192 255
150 192 255
150 192 255
150 192 255
150 192 255
150 192 255
150 192 255
150 192 255
150 192 255
150 192 255
150 192 255
151 193 255
151 193 255
151 193 255
151 193 255
151 193 255
151 193 255
151 193 255
151 193 255
151 193 255
151 193 255
151 193 255
152 193 255
152 193 255
152 193 255
152 193 255
152 193 255
152 193 255
152 193 255
152 194 255
152 194 255
152 194 255
152 194 255
153 194 255
153 194 255
153 194 255
153 194 255
153 194 255
153 194 255
153 194 255
153 194 255
153 194 255
153 194 255
154 194 255
154 194 255
154 194 255
154 195 255
154 195 255
154 195 255
154 195 255
154 195 255
154 195 255
155 195 255
155 195 255
155 195 255
155 195 255
155 195 255
155 195 255
155 195 255
155 195 255
155 195 255
156 196 255
156 196 255
156 196 255
156 196 255
156 196 255
156 196 255
156 196 255
156 196 255
156 196 255
157 196 255
157 196 255
157 196 255
157 196 255
157 196 255
157 196 255
157 196 255
157 197 255
157 197 255
157 197 255
158 197 255
158 197 255
158 197 255
158 197 255
158 197 255
158 197 255
158 197 255
158 197 255
158 197 255
159 197 255
159 197 255
159 197 255
159 198 255
159 198 255
159 198 255
159 198 255
159 198 255
159 198 255
159 198 255
160 198 255
160 198 255
160 198 255
160 198 255
160 198 255
160 198 255
160 198 255
160 198 255
160 198 255
161 199 255
161 199 255
161 199 255
161 199 255
161 199 255
161 199 255
161 199 255
161 199 255
161 199 255
161 199 255
162 199 255
162 199 255
162 199 255
162 199 255
162 199 255
162 199 255
162 199 255
162 200 255
162 200 255
162 200 255
162 200 255
163 200 255
163 200 255
163 200 255
163 200 255
163 200 255
163 200 255
163 200 255
163 200 255
163 200 255
163 200 255
164 200 255
164 200 255
164 200 255
164 200 255
164 201 255
164 201 255
164 201 255
164 201 255
164 201 255
164 201 255
164 201 255
164 201 255
165 201 255
165 201 255
165 201 255
165 201 255
165 201 255
165 201 255
165 201 255
165 201 255
165 201 255
165 201 255
165 201 255
165 201 255
165 201 255
165 201 255
165 201 255
165 201 255
165 201 255
165 201 255
165 201 255
165 201 255
165 201 255
164 201 255
164 201 255
164 201 255
164 201 255
164 201 255
164 201 255
164 201 255
164 200 255
164 200 255
164 200 255
164 200 255
163 200 255
163 200 255
163 200 255
163 200 255
163 200 255
163 200 255
163 200 255
163 200 255
163 200 255
163 200 255
163 200 255
162 200 255
162 200 255
162 200 255
162 199 255
162 199 255
162 199 255
162 199 255
162 199 255
162 199 255
162 199 255
161 199 255
161 199 255
161 199 255
161 199 255
161 199 255
161 199 255
161 199 255
161 199 255
161 199 255
161 199 255
160 198 255
160 198 255
160 198 255
160 198 255
160 198 255
160 198 255
160 198 255
160 198 255
160 198 255
160 198 255
159 198 255
159 198 255
159 198 255
159 198 255
159 198 255
159 198 255
159 197 255
159 197 255
159 197 255
158 197 255
158 197 255
158 197 255
158 197 255
158 197 255
158 197 255
158 197 255
158 197 255
158 197 255
158 197 255
157 197 255
157 197 255
157 197 255
157 196 255
157 196 255
157 196 255
157 196 255
157 196 255
157 196 255
156 196 255
156 196 255
156 196 255
156 196 255
156 196 255
156 196 255
156 196 255
156 196 255
156 196 255
155 195 255
155 195 255
155 195 255
155 195 255
155 195 255
155 195 255
155 195 255
155 195 255
155 195 255
154 195 255
154 195 255
154 195 255
154 195 255
154 195 255
154 195 255
154 194 255
154 194 255
154 194 255
154 194 255
153 194 255
153 194 255
153 194 255
153 194 255
153 194 255
153 194 255
153 194 255
153 194 255
153 194 255
153 194 255
152 194 255
152 194 255
152 194 255
152 193 255
152 193 255
152 193 255
152 193 255
152 193 255
152 193 255
152 193 255
151 193 255
151 193 255
151 193 255
151 193 255
151 193 255
151 193 255
151 193 255
151 193 255
151 193 255
151 193 255
151 193 255
151 193 255
150 192 255
150 192 255
150 192 255
150 192 255
150 192 255
150 192 255
150 192 255
150 192 255
150 192 255
150 192 255
150 192 255
150 192 255
150 192 255
150 192 255
150 192 255
149 192 255
149 192 255
149 192 255
149 192 255
149 192 255
149 192 255
149 192 255
149 192 255
149 192 255
149 192 255
149 192 255
149 192 255
149 192 255
149 192 255
149 191 255
149 191 255
149 191 255
149 191 255
149 191 255
149 191 255
149 191 255
149 191 255
149 191 255
149 191 255
149 191 255
149 191 255
149 191 255
149 191 255
149 191 255
149 191 255
149 191 255
149 191 255
149 191 255
149 191 255
149 191 255
149 191 255
149 191 255
149 191 255
149 191 255
149 191 255
149 191 255
149 191 255
149 191 255
149 191 255
149 191 255
149 191 255
149 191 255
149 191 255
149 191 255
149 191 255
149 191 255
149 191 255
149 192 255
149 192 255
149 192 255
149 192 255
149 192 255
149 192 255
149 192 255
149 192 255
149 192 255
149 192 255
149 192 255
149 192 255
149 192 255
149 192 255
150 192 255
150 192 255
150 192 255
150 192 255
150 192 255
150 192 255
150 192 255
150 192 255
150 192 255
150 192 255
150 192 255
150 192 255
150 192 255
150 192 255
150 192 255
151 193 255
151 193 255
151 193 255
151 193 255
151 193 255
151 193 255
151 193 255
151 193 255
151 193 255
151 193 255
151 193 255
151 193 255
152 193 255
152 193 255
152 193 255
152 193 255
152 193 255
152 193 255
152 193 255
152 194 255
152 194 255
152 194 255
152 194 255
153 194 255
153 194 255
153 194 255
153 194 255
153 194 255
153 194 255
153 194 255
153 194 255
153 194 255
154 194 255
154 194 255
154 194 255
154 194 255
154 195 255
154 195 255
154 195 255
154 195 255
154 195 255
154 195 255
155 195 255
155 195 255
155 195 255
155 195 255
155 195 255
155 195 255
155 195 255
155 195 255
155 195 255
156 196 255
156 196 255
156 196 255
156 196 255
156 196 255
156 196 255
156 196 255
156 196 255
156 196 255
157 196 255
157 196 255
157 196 255
157 196 255
157 196 255
157 196 255
157 197 255
157 197 255
157 197 255
158 197 255
158 197 255
158 197 255
158 197 255
158 197 255
158 197 255
158 197 255
158 197 255
158 197 255
158 197 255
159 197 255
159 197 255
159 197 255
159 198 255
159 198 255
159 198 255
159 198 255
159 198 255
159 198 255
160 198 255
160 198 255
160 198 255
160 198 255
160 198 255
160 198 255
160 198 255
160 198 255
160 198 255
160 198 255
161 199 255
161 199 255
161 199 255
161 199 255
161 199 255
161 199 255
161 199 255
161 199 255
161 199 255
161 199 255
162 199 255
162 199 255
162 199 255
162 199 255
162 199 255
162 199 255
162 199 255
162 200 255
162 200 255
162 200 255
163 200 255
163 200 255
163 200 255
163 200 255
163 200 255
163 200 255
163 200 255
163 200 255
163 200 255
163 200 255
163 200 255
164 200 255
164 200 255
164 200 255
164 200 255
164 201 255
164 201 255
164 201 255
164 201 255
164 201 255
164 201 255
164 201 255
165 201 255
165 201 255
165 201 255
165 201 255
165 201 255
165 201 255
165 201 255
165 201 255
165 201 255
165 201 255
165 201 255
165 201 255
166 202 255
166 202 255
166 202 255
165 201 255
165 201 255
165 201 255
165 201 255
165 201 255
165 201 255
165 201 255
165 201 255
165 201 255
165 201 255
165 201 255
164 201 255
164 201 255
164 201 255
164 201 255
164 201 255
164 201 255
164 201 255
164 201 255
164 200 255
164 200 255
164 200 255
164 200 255
163 200 255
163 200 255
163 200 255
163 200 255
163 200 255
163 200 255
163 200 255
163 200 255
163 200 255
163 200 255
162 200 255
162 200 255
162 200 255
162 200 255
162 199 255
162 199 255
162 199 255
162 199 255
162 199 255
162 199 255
161 199 255
161 199 255
161 199 255
161 199 255
161 199 255
161 199 255
161 199 255
161 199 255
161 199 255
161 199 255
160 198 255
160 198 255
160 198 255
160 198 255
160 198 255
160 198 255
160 198 255
160 198 255
160 198 255
160 198 255
159 198 255
159 198 255
159 198 255
159 198 255
159 198 255
159 198 255
159 197 255
159 197 255
159 197 255
158 197 255
158 197 255
158 197 255
158 197 255
158 197 255
158 197 255
158 197 255
158 197 255
158 197 255
158 197 255
157 197 255
157 197 255
157 197 255
157 196 255
157 196 255
157 196 255
157 196 255
157 196 255
157 196 255
156 196 255
156 196 255
156 196 255
156 196 255
156 196 255
156 196 255
156 196 255
156 196 255
156 196 255
155 195 255
155 195 255
155 195 255
155 195 255
155 195 255
155 195 255
155 195 255
155 195 255
155 195 255
154 195 255
154 195 255
154 195 255
154 195 255
154 195 255
154 195 255
154 195 255
154 194 255
154 194 255
154 194 255
153 194 255
153 194 255
153 194 255
153 194 255
153 194 255
153 194 255
153 194 255
153 194 255
153 194 255
153 194 255
152 194 255
152 194 255
152 194 255
152 194 255
152 193 255
152 193 255
152 193 255
152 193 255
152 193 255
152 193 255
152 193 255
151 193 255
151 193 255
151 193 255
151 193 255
151 193 255
151 193 255
151 193 255
151 193 255
151 193 255
151 193 255
151 193 255
151 193 255
150 192 255
150 192 255
150 192 255
150 192 255
150 192 255
150 192 255
150 192 255
150 192 255
150 192 255
150 192 255
150 192 255
150 192 255
150 192 255
150 192 255
150 192 255
150 192 255
149 192 255
149 192 255
149 192 255
149 192 255
149 192 255
149 192 255
149 192 255
149 192 255
149 192 255
149 192 255
149 192 255
149 192 255
149 192 255
149 192 255
149 192 255
149 192 255
149 192 255
149 192 255
149 192 255
149 191 255
149 191 255
149 191 255
149 191 255
149 191 255
149 191 255
149 191 255
149 191 255
149 191 255
149 191 255
149 191 255
149 191 255
149 191 255
149 191 255
149 191 255
149 191 255
149 191 255
149 191 255
149 191 255
149 192 255
149 192 255
149 192 255
149 192 255
149 192 255
149 192 255
149 192 255
149 192 255
149 192 255
149 192 255
149 192 255
149 192 255
149 192 255
149 192 255
149 192 255
149 192 255
149 192 255
149 192 255
149 192 255
149 192 255
150 192 255
150 192 255
150 192 255
150 192 255
150 192 255
150 192 255
150 192 255
150 192 255
150 192 255
150 192 255
150 192 255
150 192 255
150 192 255
150 192 255
150 192 255
150 192 255
151 193 255
151 193 255
151 193 255
151 193 255
151 193 255
151 193 255
151 193 255
151 193 255
151 193 255
151 193 255
151 193 255
151 193 255
152 193 255
152 193 255
152 193 255
152 193 255
152 193 255
152 193 255
152 193 255
152 194 255
152 194 255
152 194 255
152 194 255
153 194 255
153 194 255
153 194 255
153 194 255
153 194 255
153 194 255
153 194 255
153 194 255
153 194 255
153 194 255
154 194 255
154 194 255
154 194 255
154 195 255
154 195 255
154 195 255
154 195 255
154 195 255
154 195 255
154 195 255
155 195 255
155 195 255
155 195 255
155 195 255
155 195 255
155 195 255
155 195 255
155 195 255
155 195 255
156 196 255
156 196 255
156 196 255
156 196 255
156 196 255
156 196 255
156 196 255
156 196 255
156 196 255
157 196 255
157 196 255
157 196 255
157 196 255
157 196 255
157 196 255
157 197 255
157 197 255
157 197 255
158 197 255
158 197 255
158 197 255
158 197 255
158 197 255
158 197 255
158 197 255
158 197 255
158 197 255
158 197 255
159 197 255
159 197 255
159 197 255
159 198 255
159 198 255
159 198 255
159 198 255
159 198 255
159 198 255
160 198 255
160 198 255
160 198 255
160 198 255
160 198 255
160 198 255
160 198 255
160 198 255
160 198 255
160 198 255
161 199 255
161 199 255
161 199 255
161 199 255
161 199 255
161 199 255
161 199 255
161 199 255
161 199 255
161 199 255
162 199 255
162 199 255
162 199 255
162 199 255
162 199 255
162 199 255
162 200 255
162 200 255
162 200 255
162 200 255
163 200 255
163 200 255
163 200 255
163 200 255
163 200 255
163 200 255
163 200 255
163 200 255
163 200 255
163 200 255
164 200 255
164 200 255
164 200 255
164 200 255
164 201 255
164 201 255
164 201 255
164 201 255
164 201 255
164 201 255
164 201 255
164 201 255
165 201 255
165 201 255
165 201 255
165 201 255
165 201 255
165 201 255
165 201 255
165 201 255
165 201 255
165 201 255
165 201 255
166 202 255
166 202 255
166 202 255
166 202 255
166 202 255
166 202 255
166 202 255
166 202 255
165 201 255
165 201 255
165 201 255
165 201 255
165 201 255
165 201 255
165 201 255
165 201 255
165 201 255
165 201 255
165 201 255
165 201 255
164 201 255
164 201 255
164 201 255
164 201 255
164 201 255
164 201 255
164 201 255
164 200 255
164 200 255
164 200 255
164 200 255
163 200 255
163 200 255
163 200 255
163 200 255
163 200 255
163 200 255
163 200 255
163 200 255
163 200 255
163 200 255
163 200 255
162 200 255
162 200 255
162 200 255
162 199 255
162 199 255
162 199 255
162 199 255
162 199 255
162 199 255
162 199 255
161 199 255
161 199 255
161 199 255
161 199 255
161 199 255
161 199 255
161 199 255
161 199 255
161 199 255
161 199 255
160 198 255
160 198 255
160 198 255
160 198 255
160 198 255
160 198 255
160 198 255
160 198 255
160 198 255
159 198 255
159 198 255
159 198 255
159 198 255
159 198 255
159 198 255
159 198 255
159 197 255
159 197 255
159 197 255
158 197 255
158 197 255
158 197 255
158 197 255
158 197 255
158 197 255
158 197 255
158 197 255
158 197 255
157 197 255
157 197 255
157 197 255
157 196 255
157 196 255
157 196 255
157 196 255
157 196 255
157 196 255
156 196 255
156 196 255
156 196 255
156 196 255
156 196 255
156 196 255
156 196 255
156 196 255
156 196 255
155 195 255
155 195 255
155 195 255
155 195 255
155 195 255
155 195 255
155 195 255
155 195 255
155 195 255
155 195 255
154 195 255
154 195 255
154 195 255
154 195 255
154 195 255
154 195 255
154 194 255
154 194 255
154 194 255
153 194 255
153 194 255
153 194 255
153 194 255
153 194 255
153 194 255
153 194 255
153 194 255
153 194 255
153 194 255
153 194 255
152 194 255
152 194 255
152 194 255
152 193 255
152 193 255
152 193 255
152 193 255
152 193 255
152 193 255
152 193 255
152 193 255
151 193 255
151 193 255
151 193 255
151 193 255
151 193 255
151 193 255
151 193 255
151 193 255
151 193 255
151 193 255
151 193 255
151 193 255
151 193 255
150 192 255
150 192 255
150 192 255
150 192 255
150 192 255
150 192 255
150 192 255
150 192 255
150 192 255
150 192 255
150 192 255
150 192 255
150 192 255
150 192 255
150 192 255
150 192 255
150 192 255
149 192 255
149 192 255
149 192 255
149 192 255
149 192 255
149 192 255
149 192 255
149 192 255
149 192 255
149 192 255
149 192 255
149 192 255
149 192 255
149 192 255
149 192 255
149 192 255
149 192 255
149 192 255
149 192 255
149 192 255
149 192 255
149 192 255
149 192 255
149 192 255
149 192 255
149 192 255
149 192 255
149 192 255
149 192 255
149 192 255
149 192 255
149 192 255
149 192 255
149 192 255
149 192 255
149 192 255
149 192 255
149 192 255
149 192 255
149 192 255
149 192 255
149 192 255
149 192 255
149 192 255
149 192 255
149 192 255
149 192 255
149 192 255
150 192 255
150 192 255
150 192 255
150 192 255
150 192 255
150 192 255
150 192 255
150 192 255
150 192 255
150 192 255
150 192 255
150 192 255
150 192 255
150 192 255
150 192 255
150 192 255
150 192 255
151 193 255
151 193 255
151 193 255
151 193 255
151 193 255
151 193 255
151 193 255
151 193 255
151 193 255
151 193 255
151 193 255
151 193 255
151 193 255
152 193 255
152 193 255
152 193 255
152 193 255
152 193 255
152 193 255
152 193 255
152 193 255
152 194 255
152 194 255
152 194 255
153 194 255
153 194 255
153 194 255
153 194 255
153 194 255
153 194 255
153 194 255
153 194 255
153 194 255
153 194 255
153 194 255
154 194 255
154 194 255
154 194 255
154 195 255
154 195 255
154 195 255
154 195 255
154 195 255
154 195 255
155 195 255
155 195 255
155 195 255
155 195 255
155 195 255
155 195 255
155 195 255
155 195 255
155 195 255
155 195 255
156 196 255
156 196 255
156 196 255
156 196 255
156 196 255
156 196 255
156 196 255
156 196 255
156 196 255
157 196 255
157 196 255
157 196 255
157 196 255
157 196 255
157 196 255
157 197 255
157 197 255
157 197 255
158 197 255
158 197 255
158 197 255
158 197 255
158 197 255
158 197 255
158 197 255
158 197 255
158 197 255
159 197 255
159 197 255
159 197 255
159 198 255
159 198 255
159 198 255
159 198 255
159 198 255
159 198 255
159 198 255
160 198 255
160 198 255
160 198 255
160 198 255
160 198 255
160 198 255
160 198 255
160 198 255
160 198 255
161 199 255
161 199 255
161 199 255
161 199 255
161 199 255
161 199 255
161 199 255
161 199 255
161 199 255
161 199 255
162 199 255
162 199 255
162 199 255
162 199 255
162 199 255
162 199 255
162 199 255
162 200 255
162 200 255
162 200 255
163 200 255
163 200 255
163 200 255
163 200 255
163 200 255
163 200 255
163 200 255
163 200 255
163 200 255
163 200 255
163 200 255
164 200 255
164 200 255
164 200 255
164 200 255
164 201 255
164 201 255
164 201 255
164 201 255
164 201 255
164 201 255
164 201 255
165 201 255
165 201 255
165 201 255
165 201 255
165 201 255
165 201 255
165 201 255
165 201 255
165 201 255
165 201 255
165 201 255
165 201 255
166 202 255
166 202 255
166 202 255
166 202 255
166 202 255
166 202 255
166 202 255
166 202 255
166 202 255
166 202 255
166 202 255
166 202 255
166 202 255
165 201 255
165 201 255
165 201 255
165 201 255
165 201 255
165 201 255
165 201 255
165 201 255
165 201 255
165 201 255
165 201 255
164 201 255
164 201 255
164 201 255
164 201 255
164 201 255
164 201 255
164 201 255
164 201 255
164 200 255
164 200 255
164 200 255
163 200 255
163 200 255
163 200 255
163 200 255
163 200 255
163 200 255
163 200 255
163 200 255
163 200 255
163 200 255
163 200 255
162 200 255
162 200 255
162 200 255
162 199 255
162 199 255
162 199 255
162 199 255
162 199 255
162 199 255
162 199 255
161 199 255
161 199 255
161 199 255
161 199 255
161 199 255
161 199 255
161 199 255
161 199 255
161 199 255
161 199 255
160 198 255
160 198 255
160 198 255
160 198 255
160 198 255
160 198 255
160 198 255
160 198 255
160 198 255
160 198 255
159 198 255
159 198 255
159 198 255
159 198 255
159 198 255
159 198 255
159 197 255
159 197 255
159 197 255
158 197 255
158 197 255
158 197 255
158 197 255
158 197 255
158 197 255
158 197 255
158 197 255
158 197 255
157 197 255
157 197 255
157 197 255
157 196 255
157 196 255
157 196 255
157 196 255
157 196 255
157 196 255
156 196 255
156 196 255
156 196 255
156 196 255
156 196 255
156 196 255
156 196 255
156 196 255
156 196 255
156 196 255
155 195 255
155 195 255
155 195 255
155 195 255
155 195 255
155 195 255
155 195 255
155 195 255
155 195 255
154 195 255
154 195 255
154 195 255
154 195 255
154 195 255
154 195 255
154 195 255
154 194 255
154 194 255
154 194 255
153 194 255
153 194 255
153 194 255
153 194 255
153 194 255
153 194 255
153 194 255
153 194 255
153 194 255
153 194 255
152 194 255
152 194 255
152 194 255
152 194 255
152 193 255
152 193 255
152 193 255
152 193 255
152 193 255
152 193 255
152 193 255
152 193 255
151 193 255
151 193 255
151 193 255
151 193 255
151 193 255
151 193 255
151 193 255
151 193 255
151 193 255
151 193 255
151 193 255
151 193 255
151 193 255
150 192 255
150 192 255
150 192 255
150 192 255
150 192 255
150 192 255
150 192 255
150 192 255
150 192 255
150 192 255
150 192 255
150 192 255
150 192 255
150 192 255
150 192 255
150 192 255
150 192 255
150 192 255
150 192 255
150 192 255
149 192 255
149 192 255
149 192 255
149 192 255
149 192 255
149 192 255
149 192 255
149 192 255
149 192 255
149 192 255
149 192 255
149 192 255
149 192 255
149 192 255
149 192 255
149 192 255
149 192 255
149 192 255
149 192 255
149 192 255
149 192 255
149 192 255
149 192 255
149 192 255
149 192 255
149 192 255
149 192 255
149 192 255
149 192 255
149 192 255
149 192 255
149 192 255
149 192 255
149 192 255
149 192 255
150 192 255
150 192 255
150 192 255
150 192 255
150 192 255
150 192 255
150 192 255
150 192 255
150 192 255
150 192 255
150 192 255
150 192 255
150 192 255
150 192 255
150 192 255
150 192 255
150 192 255
150 192 255
150 192 255
150 192 255
150 192 255
151 193 255
151 193 255
151 193 255
151 193 255
151 193 255
151 193 255
151 193 255
151 193 255
151 193 255
151 193 255
151 193 255
151 193 255
151 193 255
152 193 255
152 193 255
152 193 255
152 193 255
152 193 255
152 193 255
152 193 255
152 193 255
152 194 255
152 194 255
152 194 255
152 194 255
153 194 255
153 194 255
153 194 255
153 194 255
153 194 255
153 194 255
153 194 255
153 194 255
153 194 255
153 194 255
154 194 255
154 194 255
154 194 255
154 195 255
154 195 255
154 195 255
154 195 255
154 195 255
154 195 255
154 195 255
155 195 255
155 195 255
155 195 255
155 195 255
155 195 255
155 195 255
155 195 255
155 195 255
155 195 255
156 196 255
156 196 255
156 196 255
156 196 255
156 196 255
156 196 255
156 196 255
156 196 255
156 196 255
157 196 255
157 196 255
157 196 255
157 196 255
157 196 255
157 196 255
157 196 255
157 197 255
157 197 255
157 197 255
158 197 255
158 197 255
158 197 255
158 197 255
158 197 255
158 197 255
158 197 255
158 197 255
158 197 255
159 197 255
159 197 255
159 197 255
159 198 255
159 198 255
159 198 255
159 198 255
159 198 255
159 198 255
160 198 255
160 198 255
160 198 255
160 198 255
160 198 255
160 198 255
160 198 255
160 198 255
160 198 255
160 198 255
161 199 255
161 199 255
161 199 255
161 199 255
161 199 255
161 199 255
161 199 255
161 199 255
161 199 255
161 199 255
162 199 255
162 199 255
162 199 255
162 199 255
162 199 255
162 199 255
162 199 255
162 200 255
162 200 255
162 200 255
163 200 255
163 200 255
163 200 255
163 200 255
163 200 255
163 200 255
163 200 255
163 200 255
163 200 255
163 200 255
163 200 255
164 200 255
164 200 255
164 200 255
164 201 255
164 201 255
164 201 255
164 201 255
164 201 255
164 201 255
164 201 255
164 201 255
165 201 255
165 201 255
165 201 255
165 201 255
165 201 255
165 201 255
165 201 255
165 201 255
165 201 255
165 201 255
165 201 255
166 202 255
166 202 255
166 202 255
166 202 255
166 202 255
166 202 255
166 202 255
166 202 255
166 202 255
166 202 255
166 202 255
166 202 255
166 202 255
166 202 255
166 202 255
166 202 255
166 202 255
166 202 255
165 201 255
165 201 255
165 201 255
165 201 255
165 201 255
165 201 255
165 201 255
165 201 255
165 201 255
165 201 255
165 201 255
165 201 255
164 201 255
164 201 255
164 201 255
164 201 255
164 201 255
164 201 255
164 201 255
164 200 255
164 200 255
164 200 255
164 200 255
163 200 255
163 200 255
163 200 255
163 200 255
163 200 255
163 200 255
163 200 255
163 200 255
163 200 255
163 200 255
162 200 255
162 200 255
162 200 255
162 200 255
162 199 255
162 199 255
162 199 255
162 199 255
162 199 255
162 199 255
162 199 255
161 199 255
161 199 255
161 199 255
161 199 255
161 199 255
161 199 255
161 199 255
161 199 255
161 199 255
160 198 255
160 198 255
160 198 255
160 198 255
160 198 255
160 198 255
160 198 255
160 198 255
160 198 255
160 198 255
159 198 255
159 198 255
159 198 255
159 198 255
159 198 255
159 198 255
159 197 255
159 197 255
159 197 255
158 197 255
158 197 255
158 197 255
158 197 255
158 197 255
158 197 255
158 197 255
158 197 255
158 197 255
158 197 255
157 197 255
157 197 255
157 197 255
157 196 255
157 196 255
157 196 255
157 196 255
157 196 255
157 196 255
156 196 255
156 196 255
156 196 255
156 196 255
156 196 255
156 196 255
156 196 255
156 196 255
156 196 255
155 195 255
155 195 255
155 195 255
155 195 255
155 195 255
155 195 255
155 195 255
155 195 255
155 195 255
154 195 255
154 195 255
154 195 255
154 195 255
154 195 255
154 195 255
154 195 255
154 194 255
154 194 255
154 194 255
153 194 255
153 194 255
153 194 255
153 194 255
153 194 255
153 194 255
153 194 255
153 194 255
153 194 255
153 194 255
153 194 255
152 194 255
152 194 255
152 194 255
152 194 255
152 193 255
152 193 255
152 193 255
152 193 255
152 193 255
152 193 255
152 193 255
152 193 255
151 193 255
151 193 255
151 193 255
151 193 255
151 193 255
151 193 255
151 193 255
151 193 255
151 193 255
151 193 255
151 193 255
151 193 255
151 193 255
151 193 255
150 192 255
150 192 255
150 192 255
150 192 255
150 192 255
150 192 255
150 192 255
150 192 255
150 192 255
150 192 255
150 192 255
150 192 255
150 192 255
150 192 255
150 192 255
150 192 255
150 192 255
150 192 255
150 192 255
150 192 255
150 192 255
150 192 255
150 192 255
150 192 255
150 192 255
150 192 255
150 192 255
150 192 255
149 192 255
149 192 255
149 192 255
149 192 255
149 192 255
149 192 255
149 192 255
149 192 255
149 192 255
149 192 255
149 192 255
149 192 255
149 192 255
150 192 255
150 192 255
150 192 255
150 192 255
150 192 255
150 192 255
150 192 255
150 192 255
150 192 255
150 192 255
150 192 255
150 192 255
150 192 255
150 192 255
150 192 255
150 192 255
150 192 255
150 192 255
150 192 255
150 192 255
150 192 255
150 192 255
150 192 255
150 192 255
150 192 255
150 192 255
150 192 255
151 193 255
151 193 255
151 193 255
151 193 255
151 193 255
151 193 255
151 193 255
151 193 255
151 193 255
151 193 255
151 193 255
151 193 255
151 193 255
151 193 255
152 193 255
152 193 255
152 193 255
152 193 255
152 193 255
152 193 255
152 193 255
152 193 255
152 194 255
152 194 255
152 194 255
152 194 255
153 194 255
153 194 255
153 194 255
153 194 255
153 194 255
153 194 255
153 194 255
153 194 255
153 194 255
153 194 255
153 194 255
154 194 255
154 194 255
154 194 255
154 195 255
154 195 255
154 195 255
154 195 255
154 195 255
154 195 255
154 195 255
155 195 255
155 195 255
155 195 255
155 195 255
155 195 255
155 195 255
155 195 255
155 195 255
155 195 255
156 196 255
156 196 255
156 196 255
156 196 255
156 196 255
156 196 255
156 196 255
156 196 255
156 196 255
157 196 255
157 196 255
157 196 255
157 196 255
157 196 255
157 196 255
157 196 255
157 197 255
157 197 255
158 197 255
158 197 255
158 197 255
158 197 255
158 197 255
158 197 255
158 197 255
158 197 255
158 197 255
158 197 255
159 197 255
159 197 255
159 197 255
159 198 255
159 198 255
159 198 255
159 198 255
159 198 255
159 198 255
160 198 255
160 198 255
160 198 255
160 198 255
160 198 255
160 198 255
160 198 255
160 198 255
160 198 255
160 198 255
161 199 255
161 199 255
161 199 255
161 199 255
161 199 255
161 199 255
161 199 255
161 199 255
161 199 255
162 199 255
162 199 255
162 199 255
162 199 255
162 199 255
162 199 255
162 199 255
162 200 255
162 200 255
162 200 255
162 200 255
163 200 255
163 200 255
163 200 255
163 200 255
163 200 255
163 200 255
163 200 255
163 200 255
163 200 255
163 200 255
164 200 255
164 200 255
164 200 255
164 200 255
164 201 255
164 201 255
164 201 255
164 201 255
164 201 255
164 201 255
164 201 255
165 201 255
165 201 255
165 201 255
165 201 255
165 201 255
165 201 255
165 201 255
165 201 255
165 201 255
165 201 255
165 201 255
165 201 255
166 202 255
166 202 255
166 202 255
166 202 255
166 202 255
166 202 255
166 202 255
166 202 255
166 202 255
166 202 255
167 202 255
166 202 255
166 202 255
166 202 255
166 202 255
166 202 255
166 202 255
166 202 255
166 202 255
166 202 255
166 202 255
166 202 255
166 202 255
165 201 255
165 201 255
165 201 255
165 201 255
165 201 255
165 201 255
165 201 255
165 201 255
165 201 255
165 201 255
165 201 255
164 201 255
164 201 255
164 201 255
164 201 255
164 201 255
164 201 255
164 201 255
164 201 255
164 200 255
164 200 255
164 200 255
163 200 255
163 200 255
163 200 255
163 200 255
163 200 255
163 200 255
163 200 255
163 200 255
163 200 255
163 200 255
163 200 255
162 200 255
162 200 255
162 200 255
162 199 255
162 199 255
162 199 255
162 199 255
162 199 255
162 199 255
162 199 255
161 199 255
161 199 255
161 199 255
161 199 255
161 199 255
161 199 255
161 199 255
161 199 255
161 199 255
161 199 255
160 198 255
160 198 255
160 198 255
160 198 255
160 198 255
160 198 255
160 198 255
160 198 255
160 198 255
159 198 255
159 198 255
159 198 255
159 198 255
159 198 255
159 198 255
159 197 255
159 197 255
159 197 255
159 197 255
158 197 255
158 197 255
158 197 255
158 197 255
158 197 255
158 197 255
158 197 255
158 197 255
158 197 255
157 197 255
157 197 255
157 197 255
157 196 255
157 196 255
157 196 255
157 196 255
157 196 255
157 196 255
156 196 255
156 196 255
156 196 255
156 196 255
156 196 255
156 196 255
156 196 255
156 196 255
156 196 255
155 195 255
155 195 255
155 195 255
155 195 255
155 195 255
155 195 255
155 195 255
155 195 255
155 195 255
155 195 255
154 195 255
154 195 255
154 195 255
154 195 255
154 195 255
154 195 255
154 195 255
154 194 255
154 194 255
154 194 255
153 194 255
153 194 255
153 194 255
153 194 255
153 194 255
153 194 255
153 194 255
153 194 255
153 194 255
153 194 255
153 194 255
152 194 255
152 194 255
152 194 255
152 194 255
152 193 255
152 193 255
152 193 255
152 193 255
152 193 255
152 193 255
152 193 255
152 193 255
151 193 255
151 193 255
151 193 255
151 193 255
151 193 255
151 193 255
151 193 255
151 193 255
151 193 255
151 193 255
151 193 255
151 193 255
151 193 255
151 193 255
151 193 255
151 193 255
150 192 255
150 192 255
150 192 255
150 192 255
150 192 255
150 192 255
150 192 255
150 192 255
150 192 255
150 192 255
150 192 255
150 192 255
150 192 255
150 192 255
150 192 255
150 192 255
150 192 255
150 192 255
150 192 255
150 192 255
150 192 255
150 192 255
150 192 255
150 192 255
150 192 255
150 192 255
150 192 255
150 192 255
150 192 255
150 192 255
150 192 255
150 192 255
150 192 255
150 192 255
150 192 255
150 192 255
150 192 255
150 192 255
150 192 255
150 192 255
150 192 255
150 192 255
150 192 255
150 192 255
150 192 255
150 192 255
150 192 255
150 192 255
150 192 255
150 192 255
150 192 255
150 192 255
150 192 255
150 192 255
150 192 255
150 192 255
150 192 255
150 192 255
151 193 255
151 193 255
151 193 255
151 193 255
151 193 255
151 193 255
151 193 255
151 193 255
151 193 255
151 193 255
151 193 255
151 193 255
151 193 255
151 193 255
151 193 255
151 193 255
152 193 255
152 193 255
152 193 255
152 193 255
152 193 255
152 193 255
152 193 255
152 193 255
152 194 255
152 194 255
152 194 255
152 194 255
153 194 255
153 194 255
153 194 255
153 194 255
153 194 255
153 194 255
153 194 255
153 194 255
153 194 255
153 194 255
153 194 255
154 194 255
154 194 255
154 194 255
154 195 255
154 195 255
154 195 255
154 195 255
154 195 255
154 195 255
154 195 255
155 195 255
155 195 255
155 195 255
155 195 255
155 195 255
155 195 255
155 195 255
155 195 255
155 195 255
155 195 255
156 196 255
156 196 255
156 196 255
156 196 255
156 196 255
156 196 255
156 196 255
156 196 255
156 196 255
157 196 255
157 196 255
157 196 255
157 196 255
157 196 255
157 196 255
157 197 255
157 197 255
157 197 255
158 197 255
158 197 255
158 197 255
158 197 255
158 197 255
158 197 255
158 197 255
158 197 255
158 197 255
159 197 255
159 197 255
159 197 255
159 197 255
159 198 255
159 198 255
159 198 255
159 198 255
159 198 255
159 198 255
160 198 255
160 198 255
160 198 255
160 198 255
160 198 255
160 198 255
160 198 255
160 198 255
160 198 255
161 199 255
161 199 255
161 199 255
161 199 255
161 199 255
161 199 255
161 199 255
161 199 255
161 199 255
161 199 255
162 199 255
162 199 255
162 199 255
162 199 255
162 199 255
162 199 255
162 199 255
162 200 255
162 200 255
162 200 255
163 200 255
163 200 255
163 200 255
163 200 255
163 200 255
163 200 255
163 200 255
163 200 255
163 200 255
163 200 255
163 200 255
164 200 255
164 200 255
164 200 255
164 201 255
164 201 255
164 201 255
164 201 255
164 201 255
164 201 255
164 201 255
164 201 255
165 201 255
165 201 255
165 201 255
165 201 255
165 201 255
165 201 255
165 201 255
165 201 255
165 201 255
165 201 255
165 201 255
166 202 255
166 202 255
166 202 255
166 202 255
166 202 255
166 202 255
166 202 255
166 202 255
166 202 255
166 202 255
166 202 255
166 202 255
167 202 255
167 202 255
167 202 255
167 202 255
167 202 255
166 202 255
166 202 255
166 202 255
166 202 255
166 202 255
166 202 255
166 202 255
166 202 255
166 202 255
166 202 255
166 202 255
166 202 255
165 201 255
165 201 255
165 201 255
165 201 255
165 201 255
165 201 255
165 201 255
165 201 255
165 201 255
165 201 255
165 201 255
164 201 255
164 201 255
164 201 255
164 201 255
164 201 255
164 201 255
164 201 255
164 200 255
164 200 255
164 200 255
164 200 255
163 200 255
163 200 255
163 200 255
163 200 255
163 200 255
163 200 255
163 200 255
163 200 255
163 200 255
163 200 255
162 200 255
162 200 255
162 200 255
162 200 255
162 199 255
162 199 255
162 199 255
162 199 255
162 199 255
162 199 255
161 199 255
161 199 255
161 199 255
161 199 255
161 199 255
161 199 255
161 199 255
161 199 255
161 199 255
161 199 255
160 198 255
160 198 255
160 198 255
160 198 255
160 198 255
160 198 255
160 198 255
160 198 255
160 198 255
160 198 255
159 198 255
159 198 255
159 198 255
159 198 255
159 198 255
159 198 255
159 197 255
159 197 255
159 197 255
158 197 255
158 197 255
158 197 255
158 197 255
158 197 255
158 197 255
158 197 255
158 197 255
158 197 255
157 197 255
157 197 255
157 197 255
157 196 255
157 196 255
157 196 255
157 196 255
157 196 255
157 196 255
156 196 255
156 196 255
156 196 255
156 196 255
156 196 255
156 196 255
156 196 255
156 196 255
156 196 255
156 196 255
155 195 255
155 195 255
155 195 255
155 195 255
155 195 255
155 195 255
155 195 255
155 195 255
155 195 255
154 195 255
154 195 255
154 195 255
154 195 255
154 195 255
154 195 255
154 195 255
154 194 255
154 194 255
154 194 255
154 194 255
153 194 255
153 194 255
153 194 255
153 194 255
153 194 255
153 194 255
153 194 255
153 194 255
153 194 255
153 194 255
153 194 255
152 194 255
152 194 255
152 194 255
152 194 255
152 193 255
152 193 255
152 193 255
152 193 255
152 193 255
152 193 255
152 193 255
152 193 255
151 193 255
151 193 255
151 193 255
151 193 255
151 193 255
151 193 255
151 193 255
151 193 255
151 193 255
151 193 255
151 193 255
151 193 255
151 193 255
151 193 255
151 193 255
151 193 255
151 193 255
151 193 255
150 192 255
150 192 255
150 192 255
150 192 255
150 192 255
150 192 255
150 192 255
150 192 255
150 192 255
150 192 255
150 192 255
150 192 255
150 192 255
150 192 255
150 192 255
150 192 255
150 192 255
150 192 255
150 192 255
150 192 255
150 192 255
150 192 255
150 192 255
150 192 255
150 192 255
150 192 255
150 192 255
150 192 255
150 192 255
150 192 255
150 192 255
150 192 255
150 192 255
150 192 255
150 192 255
150 192 255
150 192 255
150 192 255
150 192 255
150 192 255
150 192 255
150 192 255
150 192 255
150 192 255
150 192 255
150 192 255
150 192 255
150 192 255
151 193 255
151 193 255
151 193 255
151 193 255
151 193 255
151 193 255
151 193 255
151 193 255
151 193 255
151 193 255
151 193 255
151 193 255
151 193 255
151 193 255
151 193 255
151 193 255
151 193 255
151 193 255
152 193 255
152 193 255
152 193 255
152 193 255
152 193 255
152 193 255
152 193 255
152 193 255
152 194 255
152 194 255
152 194 255
152 194 255
153 194 255
153 194 255
153 194 255
153 194 255
153 194 255
153 194 255
153 194 255
153 194 255
153 194 255
153 194 255
153 194 255
154 194 255
154 194 255
154 194 255
154 194 255
154 195 255
154 195 255
154 195 255
154 195 255
154 195 255
154 195 255
155 195 255
155 195 255
155 195 255
155 195 255
155 195 255
155 195 255
155 195 255
155 195 255
155 195 255
155 195 255
156 196 255
156 196 255
156 196 255
156 196 255
156 196 255
156 196 255
156 196 255
156 196 255
156 196 255
156 196 255
157 196 255
157 196 255
157 196 255
157 196 255
157 196 255
157 196 255
157 197 255
157 197 255
157 197 255
158 197 255
158 197 255
158 197 255
158 197 255
158 197 255
158 197 255
158 197 255
158 197 255
158 197 255
159 197 255
159 197 255
159 197 255
159 198 255
159 198 255
159 198 255
159 198 255
159 198 255
159 198 255
160 198 255
160 198 255
160 198 255
160 198 255
160 198 255
160 198 255
160 198 255
160 198 255
160 198 255
160 198 255
161 199 255
161 199 255
161 199 255
161 199 255
161 199 255
161 199 255
161 199 255
161 199 255
161 199 255
161 199 255
162 199 255
162 199 255
162 199 255
162 199 255
162 199 255
162 199 255
162 200 255
162 200 255
162 200 255
162 200 255
163 200 255
163 200 255
163 200 255
163 200 255
163 200 255
163 200 255
163 200 255
163 200 255
163 200 255
163 200 255
164 200 255
164 200 255
164 200 255
164 200 255
164 201 255
164 201 255
164 201 255
164 201 255
164 201 255
164 201 255
164 201 255
165 201 255
165 201 255
165 201 255
165 201 255
165 201 255
165 201 255
165 201 255
165 201 255
165 201 255
165 201 255
165 201 255
166 202 255
166 202 255
166 202 255
166 202 255
166 202 255
166 202 255
166 202 255
166 202 255
166 202 255
166 202 255
166 202 255
166 202 255
167 202 255
167 202 255
167 202 255
167 202 255
167 202 255
167 202 255
167 202 255
167 202 255
167 202 255
167 202 255
166 202 255
166 202 255
166 202 255
166 202 255
166 202 255
166 202 255
166 202 255
166 202 255
166 202 255
166 202 255
166 202 255
166 202 255
165 201 255
165 201 255
165 201 255
165 201 255
165 201 255
165 201 255
165 201 255
165 201 255
165 201 255
165 201 255
165 201 255
165 201 255
164 201 255
164 201 255
164 201 255
164 201 255
164 201 255
164 201 255
164 201 255
164 200 255
164 200 255
164 200 255
163 200 255
163 200 255
163 200 255
163 200 255
163 200 255
163 200 255
163 200 255
163 200 255
163 200 255
163 200 255
163 200 255
162 200 255
162 200 255
162 200 255
162 199 255
162 199 255
162 199 255
162 199 255
162 199 255
162 199 255
162 199 255
161 199 255
161 199 255
161 199 255
161 199 255
161 199 255
161 199 255
161 199 255
161 199 255
161 199 255
160 198 255
160 198 255
160 198 255
160 198 255
160 198 255
160 198 255
160 198 255
160 198 255
160 198 255
160 198 255
159 198 255
159 198 255
159 198 255
159 198 255
159 198 255
159 198 255
159 197 255
159 197 255
159 197 255
158 197 255
158 197 255
158 197 255
158 197 255
158 197 255
158 197 255
158 197 255
158 197 255
158 197 255
157 197 255
157 197 255
157 197 255
157 197 255
157 196 255
157 196 255
157 196 255
157 196 255
157 196 255
157 196 255
156 196 255
156 196 255
156 196 255
156 196 255
156 196 255
156 196 255
156 196 255
156 196 255
156 196 255
155 195 255
155 195 255
155 195 255
155 195 255
155 195 255
155 195 255
155 195 255
155 195 255
155 195 255
155 195 255
154 195 255
154 195 255
154 195 255
154 195 255
154 195 255
154 195 255
154 195 255
154 194 255
154 194 255
154 194 255
153 194 255
153 194 255
153 194 255
153 194 255
153 194 255
153 194 255
153 194 255
153 194 255
153 194 255
153 194 255
153 194 255
153 194 255
152 194 255
152 194 255
152 194 255
152 194 255
152 193 255
152 193 255
152 193 255
152 193 255
152 193 255
152 193 255
152 193 255
152 193 255
152 193 255
151 193 255
151 193 255
151 193 255
151 193 255
151 193 255
151 193 255
151 193 255
151 193 255
151 193 255
151 193 255
151 193 255
151 193 255
151 193 255
151 193 255
151 193 255
151 193 255
151 193 255
151 193 255
151 193 255
151 193 255
150 192 255
150 192 255
150 192 255
150 192 255
150 192 255
150 192 255
150 192 255
150 192 255
150 192 255
150 192 255
150 192 255
150 192 255
150 192 255
150 192 255
150 192 255
150 192 255
150 192 255
150 192 255
150 192 255
150 192 255
150 192 255
150 192 255
150 192 255
150 192 255
150 192 255
150 192 255
150 192 255
150 192 255
150 192 255
150 192 255
150 192 255
150 192 255
150 192 255
150 192 255
150 192 255
151 193 255
151 193 255
151 193 255
151 193 255
151 193 255
151 193 255
151 193 255
151 193 255
151 193 255
151 193 255
151 193 255
151 193 255
151 193 255
151 193 255
151 193 255
151 193 255
151 193 255
151 193 255
151 193 255
151 193 255
151 193 255
152 193 255
152 193 255
152 193 255
152 193 255
152 193 255
152 193 255
152 193 255
152 193 255
152 193 255
152 194 255
152 194 255
152 194 255
152 194 255
153 194 255
153 194 255
153 194 255
153 194 255
153 194 255
153 194 255
153 194 255
153 194 255
153 194 255
153 194 255
153 194 255
153 194 255
154 194 255
154 194 255
154 194 255
154 195 255
154 195 255
154 195 255
154 195 255
154 195 255
154 195 255
154 195 255
155 195 255
155 195 255
155 195 255
155 195 255
155 195 255
155 195 255
155 195 255
155 195 255
155 195 255
155 195 255
156 196 255
156 196 255
156 196 255
156 196 255
156 196 255
156 196 255
156 196 255
156 196 255
156 196 255
157 196 255
157 196 255
157 196 255
157 196 255
157 196 255
157 196 255
157 197 255
157 197 255
157 197 255
158 197 255
158 197 255
158 197 255
158 197 255
158 197 255
158 197 255
158 197 255
158 197 255
158 197 255
158 197 255
159 197 255
159 197 255
159 197 255
159 198 255
159 198 255
159 198 255
159 198 255
159 198 255
159 198 255
160 198 255
160 198 255
160 198 255
160 198 255
160 198 255
160 198 255
160 198 255
160 198 255
160 198 255
160 198 255
161 199 255
161 199 255
161 199 255
161 199 255
161 199 255
161 199 255
161 199 255
161 199 255
161 199 255
162 199 255
162 199 255
162 199 255
162 199 255
162 199 255
162 199 255
162 199 255
162 200 255
162 200 255
162 200 255
163 200 255
163 200 255
163 200 255
163 200 255
163 200 255
163 200 255
163 200 255
163 200 255
163 200 255
163 200 255
163 200 255
164 200 255
164 200 255
164 200 255
164 201 255
164 201 255
164 201 255
164 201 255
164 201 255
164 201 255
164 201 255
165 201 255
165 201 255
165 201 255
165 201 255
165 201 255
165 201 255
165 201 255
165 201 255
165 201 255
165 201 255
165 201 255
165 201 255
166 202 255
166 202 255
166 202 255
166 202 255
166 202 255
166 202 255
166 202 255
166 202 255
166 202 255
166 202 255
166 202 255
166 202 255
167 202 255
167 202 255
167 202 255
167 202 255
167 202 255
167 202 255
167 203 255
167 202 255
167 202 255
167 202 255
167 202 255
167 202 255
167 202 255
167 202 255
167 202 255
166 202 255
166 202 255
166 202 255
166 202 255
166 202 255
166 202 255
166 202 255
166 202 255
166 202 255
166 202 255
166 202 255
166 202 255
165 201 255
165 201 255
165 201 255
165 201 255
165 201 255
165 201 255
165 201 255
165 201 255
165 201 255
165 201 255
165 201 255
164 201 255
164 201 255
164 201 255
164 201 255
164 201 255
164 201 255
164 201 255
164 200 255
164 200 255
164 200 255
164 200 255
163 200 255
163 200 255
163 200 255
163 200 255
163 200 255
163 200 255
163 200 255
163 200 255
163 200 255
163 200 255
162 200 255
162 200 255
162 200 255
162 200 255
162 199 255
162 199 255
162 199 255
162 199 255
162 199 255
162 199 255
161 199 255
161 199 255
161 199 255
161 199 255
161 199 255
161 199 255
161 199 255
161 199 255
161 199 255
161 199 255
160 198 255
160 198 255
160 198 255
160 198 255
160 198 255
160 198 255
160 198 255
160 198 255
160 198 255
159 198 255
159 198 255
159 198 255
159 198 255
159 198 255
159 198 255
159 197 255
159 197 255
159 197 255
159 197 255
158 197 255
158 197 255
158 197 255
158 197 255
158 197 255
158 197 255
158 197 255
158 197 255
158 197 255
157 197 255
157 197 255
157 197 255
157 196 255
157 196 255
157 196 255
157 196 255
157 196 255
157 196 255
156 196 255
156 196 255
156 196 255
156 196 255
156 196 255
156 196 255
156 196 255
156 196 255
156 196 255
156 196 255
155 195 255
155 195 255
155 195 255
155 195 255
155 195 255
155 195 255
155 195 255
155 195 255
155 195 255
155 195 255
154 195 255
154 195 255
154 195 255
154 195 255
154 195 255
154 195 255
154 195 255
154 194 255
154 194 255
154 194 255
153 194 255
153 194 255
153 194 255
153 194 255
153 194 255
153 194 255
153 194 255
153 194 255
153 194 255
153 194 255
153 194 255
153 194 255
152 194 255
152 194 255
152 194 255
152 194 255
152 194 255
152 193 255
152 193 255
152 193 255
152 193 255
152 193 255
152 193 255
152 193 255
152 193 255
152 193 255
151 193 255
151 193 255
151 193 255
151 193 255
151 193 255
151 193 255
151 193 255
151 193 255
151 193 255
151 193 255
151 193 255
151 193 255
151 193 255
151 193 255
151 193 255
151 193 255
151 193 255
151 193 255
151 193 255
151 193 255
151 193 255
151 193 255
151 193 255
151 193 255
151 193 255
151 193 255
151 193 255
151 193 255
150 192 255
150 192 255
150 192 255
150 192 255
150 192 255
150 192 255
150 192 255
150 192 255
150 192 255
150 192 255
150 192 255
150 192 255
150 192 255
151 193 255
151 193 255
151 193 255
151 193 255
151 193 255
151 193 255
151 193 255
151 193 255
151 193 255
151 193 255
151 193 255
151 193 255
151 193 255
151 193 255
151 193 255
151 193 255
151 193 255
151 193 255
151 193 255
151 193 255
151 193 255
151 193 255
151 193 255
151 193 255
151 193 255
151 193 255
151 193 255
152 193 255
152 193 255
152 193 255
152 193 255
152 193 255
152 193 255
152 193 255
152 193 255
152 193 255
152 193 255
152 194 255
152 194 255
152 194 255
152 194 255
153 194 255
153 194 255
153 194 255
153 194 255
153 194 255
153 194 255
153 194 255
153 194 255
153 194 255
153 194 255
153 194 255
153 194 255
154 194 255
154 194 255
154 194 255
154 195 255
154 195 255
154 195 255
154 195 255
154 195 255
154 195 255
154 195 255
155 195 255
155 195 255
155 195 255
155 195 255
155 195 255
155 195 255
155 195 255
155 195 255
155 195 255
155 195 255
156 196 255
156 196 255
156 196 255
156 196 255
156 196 255
156 196 255
156 196 255
156 196 255
156 196 255
156 196 255
157 196 255
157 196 255
157 196 255
157 196 255
157 196 255
157 196 255
157 197 255
157 197 255
157 197 255
158 197 255
158 197 255
158 197 255
158 197 255
158 197 255
158 197 255
158 197 255
158 197 255
158 197 255
159 197 255
159 197 255
159 197 255
159 198 255
159 198 255
159 198 255
159 198 255
159 198 255
159 198 255
159 198 255
160 198 255
160 198 255
160 198 255
160 198 255
160 198 255
160 198 255
160 198 255
160 198 255
160 198 255
161 199 255
161 199 255
161 199 255
161 199 255
161 199 255
161 199 255
161 199 255
161 199 255
161 199 255
161 199 255
162 199 255
162 199 255
162 199 255
162 199 255
162 199 255
162 199 255
162 200 255
162 200 255
162 200 255
162 200 255
163 200 255
163 200 255
163 200 255
163 200 255
163 200 255
163 200 255
163 200 255
163 200 255
163 200 255
163 200 255
164 200 255
164 200 255
164 200 255
164 200 255
164 201 255
164 201 255
164 201 255
164 201 255
164 201 255
164 201 255
164 201 255
165 201 255
165 201 255
165 201 255
165 201 255
165 201 255
165 201 255
165 201 255
165 201 255
165 201 255
165 201 255
165 201 255
166 202 255
166 202 255
166 202 255
166 202 255
166 202 255
166 202 255
166 202 255
166 202 255
166 202 255
166 202 255
166 202 255
166 202 255
167 202 255
167 202 255
167 202 255
167 202 255
167 202 255
167 202 255
167 202 255
167 202 255
167 203 255
167 203 255
167 203 255
167 203 255
167 203 255
167 202 255
167 202 255
167 202 255
167 202 255
167 202 255
167 202 255
167 202 255
167 202 255
166 202 255
166 202 255
166 202 255
166 202 255
166 202 255
166 202 255
166 202 255
166 202 255
166 202 255
166 202 255
166 202 255
165 201 255
165 201 255
165 201 255
165 201 255
165 201 255
165 201 255
165 201 255
165 201 255
165 201 255
165 201 255
165 201 255
165 201 255
164 201 255
164 201 255
164 201 255
164 201 255
164 201 255
164 201 255
164 201 255
164 200 255
164 200 255
164 200 255
163 200 255
163 200 255
163 200 255
163 200 255
163 200 255
163 200 255
163 200 255
163 200 255
163 200 255
163 200 255
163 200 255
162 200 255
162 200 255
162 200 255
162 199 255
162 199 255
162 199 255
162 199 255
162 199 255
162 199 255
162 199 255
161 199 255
161 199 255
161 199 255
161 199 255
161 199 255
161 199 255
161 199 255
161 199 255
161 199 255
160 198 255
160 198 255
160 198 255
160 198 255
160 198 255
160 198 255
160 198 255
160 198 255
160 198 255
160 198 255
159 198 255
159 198 255
159 198 255
159 198 255
159 198 255
159 198 255
159 197 255
159 197 255
159 197 255
158 197 255
158 197 255
158 197 255
158 197 255
158 197 255
158 197 255
158 197 255
158 197 255
158 197 255
157 197 255
157 197 255
157 197 255
157 196 255
157 196 255
157 196 255
157 196 255
157 196 255
157 196 255
157 196 255
156 196 255
156 196 255
156 196 255
156 196 255
156 196 255
156 196 255
156 196 255
156 196 255
156 196 255
155 195 255
155 195 255
155 195 255
155 195 255
155 195 255
155 195 255
155 195 255
155 195 255
155 195 255
155 195 255
154 195 255
154 195 255
154 195 255
154 195 255
154 195 255
154 195 255
154 195 255
154 194 255
154 194 255
154 194 255
154 194 255
153 194 255
153 194 255
153 194 255
153 194 255
153 194 255
153 194 255
153 194 255
153 194 255
153 194 255
153 194 255
153 194 255
153 194 255
153 194 255
152 194 255
152 194 255
152 194 255
152 194 255
152 193 255
152 193 255
152 193 255
152 193 255
152 193 255
152 193 255
152 193 255
152 193 255
152 193 255
152 193 255
152 193 255
151 193 255
151 193 255
151 193 255
151 193 255
151 193 255
151 193 255
151 193 255
151 193 255
151 193 255
151 193 255
151 193 255
151 193 255
151 193 255
151 193 255
151 193 255
151 193 255
151 193 255
151 193 255
151 193 255
151 193 255
151 193 255
151 193 255
151 193 255
151 193 255
151 193 255
151 193 255
151 193 255
151 193 255
151 193 255
151 193 255
151 193 255
151 193 255
151 193 255
151 193 255
151 193 255
151 193 255
151 193 255
151 193 255
151 193 255
151 193 255
151 193 255
151 193 255
151 193 255
151 193 255
151 193 255
151 193 255
151 193 255
151 193 255
151 193 255
151 193 255
151 193 255
151 193 255
151 193 255
151 193 255
151 193 255
151 193 255
151 193 255
151 193 255
152 193 255
152 193 255
152 193 255
152 193 255
152 193 255
152 193 255
152 193 255
152 193 255
152 193 255
152 193 255
152 193 255
152 194 255
152 194 255
152 194 255
152 194 255
152 194 255
153 194 255
153 194 255
153 194 255
153 194 255
153 194 255
153 194 255
153 194 255
153 194 255
153 194 255
153 194 255
153 194 255
153 194 255
154 194 255
154 194 255
154 194 255
154 195 255
154 195 255
154 195 255
154 195 255
154 195 255
154 195 255
154 195 255
154 195 255
155 195 255
155 195 255
155 195 255
155 195 255
155 195 255
155 195 255
155 195 255
155 195 255
155 195 255
155 195 255
156 196 255
156 196 255
156 196 255
156 196 255
156 196 255
156 196 255
156 196 255
156 196 255
156 196 255
157 196 255
157 196 255
157 196 255
157 196 255
157 196 255
157 196 255
157 196 255
157 197 255
157 197 255
158 197 255
158 197 255
158 197 255
158 197 255
158 197 255
158 197 255
158 197 255
158 197 255
158 197 255
158 197 255
159 197 255
159 197 255
159 197 255
159 198 255
159 198 255
159 198 255
159 198 255
159 198 255
159 198 255
160 198 255
160 198 255
160 198 255
160 198 255
160 198 255
160 198 255
160 198 255
160 198 255
160 198 255
160 198 255
161 199 255
161 199 255
161 199 255
161 199 255
161 199 255
161 199 255
161 199 255
161 199 255
161 199 255
162 199 255
162 199 255
162 199 255
162 199 255
162 199 255
162 199 255
162 199 255
162 200 255
162 200 255
162 200 255
163 200 255
163 200 255
163 200 255
163 200 255
163 200 255
163 200 255
163 200 255
163 200 255
163 200 255
163 200 255
164 200 255
164 200 255
164 200 255
164 200 255
164 201 255
164 201 255
164 201 255
164 201 255
164 201 255
164 201 255
164 201 255
165 201 255
165 201 255
165 201 255
165 201 255
165 201 255
165 201 255
165 201 255
165 201 255
165 201 255
165 201 255
165 201 255
166 202 255
166 202 255
166 202 255
166 202 255
166 202 255
166 202 255
166 202 255
166 202 255
166 202 255
166 202 255
166 202 255
166 202 255
167 202 255
167 202 255
167 202 255
167 202 255
167 202 255
167 202 255
167 202 255
167 202 255
167 203 255
167 203 255
167 203 255
167 203 255
168 203 255
168 203 255
167 203 255
167 203 255
167 203 255
167 203 255
167 203 255
167 202 255
167 202 255
167 202 255
167 202 255
167 202 255
167 202 255
167 202 255
167 202 255
166 202 255
166 202 255
166 202 255
166 202 255
166 202 255
166 202 255
166 202 255
166 202 255
166 202 255
166 202 255
166 202 255
165 201 255
165 201 255
165 201 255
165 201 255
165 201 255
165 201 255
165 201 255
165 201 255
165 201 255
165 201 255
165 201 255
164 201 255
164 201 255
164 201 255
164 201 255
164 201 255
164 201 255
164 201 255
164 200 255
164 200 255
164 200 255
164 200 255
163 200 255
163 200 255
163 200 255
163 200 255
163 200 255
163 200 255
163 200 255
163 200 255
163 200 255
163 200 255
162 200 255
162 200 255
162 200 255
162 200 255
162 199 255
162 199 255
162 199 255
162 199 255
162 199 255
162 199 255
161 199 255
161 199 255
161 199 255
161 199 255
161 199 255
161 199 255
161 199 255
161 199 255
161 199 255
161 199 255
160 198 255
160 198 255
160 198 255
160 198 255
160 198 255
160 198 255
160 198 255
160 198 255
160 198 255
159 198 255
159 198 255
159 198 255
159 198 255
159 198 255
159 198 255
159 197 255
159 197 255
159 197 255
159 197 255
158 197 255
158 197 255
158 197 255
158 197 255
158 197 255
158 197 255
158 197 255
158 197 255
158 197 255
157 197 255
157 197 255
157 197 255
157 196 255
157 196 255
157 196 255
157 196 255
157 196 255
157 196 255
156 196 255
156 196 255
156 196 255
156 196 255
156 196 255
156 196 255
156 196 255
156 196 255
156 196 255
156 196 255
155 195 255
155 195 255
155 195 255
155 195 255
155 195 255
155 195 255
155 195 255
155 195 255
155 195 255
155 195 255
154 195 255
154 195 255
154 195 255
154 195 255
154 195 255
154 195 255
154 195 255
154 194 255
154 194 255
154 194 255
154 194 255
153 194 255
153 194 255
153 194 255
153 194 255
153 194 255
153 194 255
153 194 255
153 194 255
153 194 255
153 194 255
153 194 255
153 194 255
153 194 255
152 194 255
152 194 255
152 194 255
152 194 255
152 194 255
152 193 255
152 193 255
152 193 255
152 193 255
152 193 255
152 193 255
152 193 255
152 193 255
152 193 255
152 193 255
152 193 255
152 193 255
152 193 255
151 193 255
151 193 255
151 193 255
151 193 255
151 193 255
151 193 255
151 193 255
151 193 255
151 193 255
151 193 255
151 193 255
151 193 255
151 193 255
151 193 255
151 193 255
151 193 255
151 193 255
151 193 255
151 193 255
151 193 255
151 193 255
151 193 255
151 193 255
151 193 255
151 193 255
151 193 255
151 193 255
151 193 255
151 193 255
151 193 255
151 193 255
151 193 255
151 193 255
151 193 255
151 193 255
151 193 255
151 193 255
151 193 255
151 193 255
151 193 255
151 193 255
151 193 255
151 193 255
151 193 255
151 193 255
151 193 255
152 193 255
152 193 255
152 193 255
152 193 255
152 193 255
152 193 255
152 193 255
152 193 255
152 193 255
152 193 255
152 193 255
152 193 255
152 193 255
152 194 255
152 194 255
152 194 255
152 194 255
152 194 255
153 194 255
153 194 255
153 194 255
153 194 255
153 194 255
153 194 255
153 194 255
153 194 255
153 194 255
153 194 255
153 194 255
153 194 255
153 194 255
154 194 255
154 194 255
154 194 255
154 194 255
154 195 255
154 195 255
154 195 255
154 195 255
154 195 255
154 195 255
154 195 255
155 195 255
155 195 255
155 195 255
155 195 255
155 195 255
155 195 255
155 195 255
155 195 255
155 195 255
155 195 255
156 196 255
156 196 255
156 196 255
156 196 255
156 196 255
156 196 255
156 196 255
156 196 255
156 196 255
156 196 255
157 196 255
157 196 255
157 196 255
157 196 255
157 196 255
157 196 255
157 197 255
157 197 255
157 197 255
158 197 255
158 197 255
158 197 255
158 197 255
158 197 255
158 197 255
158 197 255
158 197 255
158 197 255
158 197 255
159 197 255
159 197 255
159 197 255
159 198 255
159 198 255
159 198 255
159 198 255
159 198 255
159 198 255
160 198 255
160 198 255
160 198 255
160 198 255
160 198 255
160 198 255
160 198 255
160 198 255
160 198 255
161 199 255
161 199 255
161 199 255
161 199 255
161 199 255
161 199 255
161 199 255
161 199 255
161 199 255
161 199 255
162 199 255
162 199 255
162 199 255
162 199 255
162 199 255
162 199 255
162 200 255
162 200 255
162 200 255
162 200 255
163 200 255
163 200 255
163 200 255
163 200 255
163 200 255
163 200 255
163 200 255
163 200 255
163 200 255
163 200 255
164 200 255
164 200 255
164 200 255
164 201 255
164 201 255
164 201 255
164 201 255
164 201 255
164 201 255
164 201 255
164 201 255
165 201 255
165 201 255
165 201 255
165 201 255
165 201 255
165 201 255
165 201 255
165 201 255
165 201 255
165 201 255
165 201 255
166 202 255
166 202 255
166 202 255
166 202 255
166 202 255
166 202 255
166 202 255
166 202 255
166 202 255
166 202 255
166 202 255
167 202 255
167 202 255
167 202 255
167 202 255
167 202 255
167 202 255
167 202 255
167 202 255
167 203 255
167 203 255
167 203 255
167 203 255
167 203 255
168 203 255
168 203 255
168 203 255
168 203 255
168 203 255
168 203 255
168 203 255
167 203 255
167 203 255
167 203 255
167 203 255
167 202 255
167 202 255
167 202 255
167 202 255
167 202 255
167 202 255
167 202 255
167 202 255
166 202 255
166 202 255
166 202 255
166 202 255
166 202 255
166 202 255
166 202 255
166 202 255
166 202 255
166 202 255
166 202 255
166 202 255
165 201 255
165 201 255
165 201 255
165 201 255
165 201 255
165 201 255
165 201 255
165 201 255
165 201 255
165 201 255
165 201 255
164 201 255
164 201 255
164 201 255
164 201 255
164 201 255
164 201 255
164 201 255
164 200 255
164 200 255
164 200 255
164 200 255
163 200 255
163 200 255
163 200 255
163 200 255
163 200 255
163 200 255
163 200 255
163 200 255
163 200 255
163 200 255
162 200 255
162 200 255
162 200 255
162 199 255
162 199 255
162 199 255
162 199 255
162 199 255
162 199 255
162 199 255
161 199 255
161 199 255
161 199 255
161 199 255
161 199 255
161 199 255
161 199 255
161 199 255
161 199 255
160 198 255
160 198 255
160 198 255
160 198 255
160 198 255
160 198 255
160 198 255
160 198 255
160 198 255
160 198 255
159 198 255
159 198 255
159 198 255
159 198 255
159 198 255
159 198 255
159 197 255
159 197 255
159 197 255
158 197 255
158 197 255
158 197 255
158 197 255
158 197 255
158 197 255
158 197 255
158 197 255
158 197 255
157 197 255
157 197 255
157 197 255
157 196 255
157 196 255
157 196 255
157 196 255
157 196 255
157 196 255
157 196 255
156 196 255
156 196 255
156 196 255
156 196 255
156 196 255
156 196 255
156 196 255
156 196 255
156 196 255
156 196 255
155 195 255
155 195 255
155 195 255
155 195 255
155 195 255
155 195 255
155 195 255
155 195 255
155 195 255
155 195 255
154 195 255
154 195 255
154 195 255
154 195 255
154 195 255
154 195 255
154 195 255
154 195 255
154 194 255
154 194 255
154 194 255
153 194 255
153 194 255
153 194 255
153 194 255
153 194 255
153 194 255
153 194 255
153 194 255
153 194 255
153 194 255
153 194 255
153 194 255
153 194 255
153 194 255
152 194 255
152 194 255
152 194 255
152 194 255
152 194 255
152 194 255
152 193 255
152 193 255
152 193 255
152 193 255
152 193 255
152 193 255
152 193 255
152 193 255
152 193 255
152 193 255
152 193 255
152 193 255
152 193 255
152 193 255
152 193 255
151 193 255
151 193 255
151 193 255
151 193 255
151 193 255
151 193 255
151 193 255
151 193 255
151 193 255
151 193 255
151 193 255
151 193 255
151 193 255
151 193 255
151 193 255
151 193 255
151 193 255
151 193 255
151 193 255
151 193 255
151 193 255
151 193 255
151 193 255
151 193 255
151 193 255
151 193 255
151 193 255
151 193 255
151 193 255
151 193 255
151 193 255
151 193 255
152 193 255
152 193 255
152 193 255
152 193 255
152 193 255
152 193 255
152 193 255
152 193 255
152 193 255
152 193 255
152 193 255
152 193 255
152 193 255
152 193 255
152 193 255
152 194 255
152 194 255
152 194 255
152 194 255
152 194 255
152 194 255
153 194 255
153 194 255
153 194 255
153 194 255
153 194 255
153 194 255
153 194 255
153 194 255
153 194 255
153 194 255
153 194 255
153 194 255
153 194 255
153 194 255
154 194 255
154 194 255
154 194 255
154 195 255
154 195 255
154 195 255
154 195 255
154 195 255
154 195 255
154 195 255
154 195 255
155 195 255
155 195 255
155 195 255
155 195 255
155 195 255
155 195 255
155 195 255
155 195 255
155 195 255
155 195 255
156 196 255
156 196 255
156 196 255
156 196 255
156 196 255
156 196 255
156 196 255
156 196 255
156 196 255
156 196 255
157 196 255
157 196 255
157 196 255
157 196 255
157 196 255
157 196 255
157 196 255
157 197 255
157 197 255
157 197 255
158 197 255
158 197 255
158 197 255
158 197 255
158 197 255
158 197 255
158 197 255
158 197 255
158 197 255
159 197 255
159 197 255
159 197 255
159 198 255
159 198 255
159 198 255
159 198 255
159 198 255
159 198 255
160 198 255
160 198 255
160 198 255
160 198 255
160 198 255
160 198 255
160 198 255
160 198 255
160 198 255
160 198 255
161 199 255
161 199 255
161 199 255
161 199 255
161 199 255
161 199 255
161 199 255
161 199 255
161 199 255
162 199 255
162 199 255
162 199 255
162 199 255
162 199 255
162 199 255
162 199 255
162 200 255
162 200 255
162 200 255
163 200 255
163 200 255
163 200 255
163 200 255
163 200 255
163 200 255
163 200 255
163 200 255
163 200 255
163 200 255
164 200 255
164 200 255
164 200 255
164 200 255
164 201 255
164 201 255
164 201 255
164 201 255
164 201 255
164 201 255
164 201 255
165 201 255
165 201 255
165 201 255
165 201 255
165 201 255
165 201 255
165 201 255
165 201 255
165 201 255
165 201 255
165 201 255
166 202 255
166 202 255
166 202 255
166 202 255
166 202 255
166 202 255
166 202 255
166 202 255
166 202 255
166 202 255
166 202 255
167 202 255
167 202 255
167 202 255
167 202 255
167 202 255
167 202 255
167 202 255
167 202 255
167 203 255
167 203 255
167 203 255
167 203 255
167 203 255
168 203 255
168 203 255
168 203 255
168 203 255
168 203 255
168 203 255
168 203 255
168 203 255
168 203 255
168 203 255
168 203 255
168 203 255
168 203 255
167 203 255
167 203 255
167 203 255
167 203 255
167 202 255
167 202 255
167 202 255
167 202 255
167 202 255
167 202 255
167 202 255
167 202 255
166 202 255
166 202 255
166 202 255
166 202 255
166 202 255
166 202 255
166 202 255
166 202 255
166 202 255
166 202 255
166 202 255
166 202 255
165 201 255
165 201 255
165 201 255
165 201 255
165 201 255
165 201 255
165 201 255
165 201 255
165 201 255
165 201 255
165 201 255
164 201 255
164 201 255
164 201 255
164 201 255
164 201 255
164 201 255
164 201 255
164 200 255
164 200 255
164 200 255
163 200 255
163 200 255
163 200 255
163 200 255
163 200 255
163 200 255
163 200 255
163 200 255
163 200 255
163 200 255
162 200 255
162 200 255
162 200 255
162 200 255
162 199 255
162 199 255
162 199 255
162 199 255
162 199 255
162 199 255
161 199 255
161 199 255
161 199 255
161 199 255
161 199 255
161 199 255
161 199 255
161 199 255
161 199 255
161 199 255
160 198 255
160 198 255
160 198 255
160 198 255
160 198 255
160 198 255
160 198 255
160 198 255
160 198 255
159 198 255
159 198 255
159 198 255
159 198 255
159 198 255
159 198 255
159 197 255
159 197 255
159 197 255
159 197 255
158 197 255
158 197 255
158 197 255
158 197 255
158 197 255
158 197 255
158 197 255
158 197 255
158 197 255
157 197 255
157 197 255
157 197 255
157 196 255
157 196 255
157 196 255
157 196 255
157 196 255
157 196 255
156 196 255
156 196 255
156 196 255
156 196 255
156 196 255
156 196 255
156 196 255
156 196 255
156 196 255
156 196 255
155 195 255
155 195 255
155 195 255
155 195 255
155 195 255
155 195 255
155 195 255
155 195 255
155 195 255
155 195 255
155 195 255
154 195 255
154 195 255
154 195 255
154 195 255
154 195 255
154 195 255
154 195 255
154 195 255
154 194 255
154 194 255
154 194 255
154 194 255
153 194 255
153 194 255
153 194 255
153 194 255
153 194 255
153 194 255
153 194 255
153 194 255
153 194 255
153 194 255
153 194 255
153 194 255
153 194 255
153 194 255
152 194 255
152 194 255
152 194 255
152 194 255
152 194 255
152 194 255
152 194 255
152 193 255
152 193 255
152 193 255
152 193 255
152 193 255
152 193 255
152 193 255
152 193 255
152 193 255
152 193 255
152 193 255
152 193 255
152 193 255
152 193 255
152 193 255
152 193 255
152 193 255
152 193 255
152 193 255
152 193 255
152 193 255
152 193 255
152 193 255
152 193 255
152 193 255
152 193 255
152 193 255
152 193 255
152 193 255
152 193 255
152 193 255
152 193 255
152 193 255
152 193 255
152 193 255
152 193 255
152 193 255
152 193 255
152 193 255
152 193 255
152 193 255
152 193 255
152 193 255
152 193 255
152 193 255
152 193 255
152 193 255
152 193 255
152 193 255
152 193 255
152 193 255
152 193 255
152 194 255
152 194 255
152 194 255
152 194 255
152 194 255
152 194 255
152 194 255
153 194 255
153 194 255
153 194 255
153 194 255
153 194 255
153 194 255
153 194 255
153 194 255
153 194 255
153 194 255
153 194 255
153 194 255
153 194 255
153 194 255
154 194 255
154 194 255
154 194 255
154 194 255
154 195 255
154 195 255
154 195 255
154 195 255
154 195 255
154 195 255
154 195 255
154 195 255
155 195 255
155 195 255
155 195 255
155 195 255
155 195 255
155 195 255
155 195 255
155 195 255
155 195 255
155 195 255
155 195 255
156 196 255
156 196 255
156 196 255
156 196 255
156 196 255
156 196 255
156 196 255
156 196 255
156 196 255
156 196 255
157 196 255
157 196 255
157 196 255
157 196 255
157 196 255
157 196 255
157 197 255
157 197 255
157 197 255
158 197 255
158 197 255
158 197 255
158 197 255
158 197 255
158 197 255
158 197 255
158 197 255
158 197 255
159 197 255
159 197 255
159 197 255
159 197 255
159 198 255
159 198 255
159 198 255
159 198 255
159 198 255
159 198 255
160 198 255
160 198 255
160 198 255
160 198 255
160 198 255
160 198 255
160 198 255
160 198 255
160 198 255
161 199 255
161 199 255
161 199 255
161 199 255
161 199 255
161 199 255
161 199 255
161 199 255
161 199 255
161 199 255
162 199 255
162 199 255
162 199 255
162 199 255
162 199 255
162 199 255
162 200 255
162 200 255
162 200 255
162 200 255
163 200 255
163 200 255
163 200 255
163 200 255
163 200 255
163 200 255
163 200 255
163 200 255
163 200 255
163 200 255
164 200 255
164 200 255
164 200 255
164 201 255
164 201 255
164 201 255
164 201 255
164 201 255
164 201 255
164 201 255
165 201 255
165 201 255
165 201 255
165 201 255
165 201 255
165 201 255
165 201 255
165 201 255
165 201 255
165 201 255
165 201 255
166 202 255
166 202 255
166 202 255
166 202 255
166 202 255
166 202 255
166 202 255
166 202 255
166 202 255
166 202 255
166 202 255
166 202 255
167 202 255
167 202 255
167 202 255
167 202 255
167 202 255
167 202 255
167 202 255
167 202 255
167 203 255
167 203 255
167 203 255
167 203 255
168 203 255
168 203 255
168 203 255
168 203 255
168 203 255
168 203 255
168 203 255
168 203 255
168 203 255
168 203 255
168 203 255
168 203 255
168 203 255
168 203 255
168 203 255
168 203 255
168 203 255
168 203 255
168 203 255
167 203 255
167 203 255
167 203 255
167 203 255
167 202 255
167 202 255
167 202 255
167 202 255
167 202 255
167 202 255
167 202 255
167 202 255
166 202 255
166 202 255
166 202 255
166 202 255
166 202 255
166 202 255
166 202 255
166 202 255
166 202 255
166 202 255
166 202 255
165 201 255
165 201 255
165 201 255
165 201 255
165 201 255
165 201 255
165 201 255
165 201 255
165 201 255
165 201 255
165 201 255
164 201 255
164 201 255
164 201 255
164 201 255
164 201 255
164 201 255
164 201 255
164 200 255
164 200 255
164 200 255
164 200 255
163 200 255
163 200 255
163 200 255
163 200 255
163 200 255
163 200 255
163 200 255
163 200 255
163 200 255
163 200 255
162 200 255
162 200 255
162 200 255
162 199 255
162 199 255
162 199 255
162 199 255
162 199 255
162 199 255
162 199 255
161 199 255
161 199 255
161 199 255
161 199 255
161 199 255
161 199 255
161 199 255
161 199 255
161 199 255
160 198 255
160 198 255
160 198 255
160 198 255
160 198 255
160 198 255
160 198 255
160 198 255
160 198 255
160 198 255
159 198 255
159 198 255
159 198 255
159 198 255
159 198 255
159 198 255
159 197 255
159 197 255
159 197 255
158 197 255
158 197 255
158 197 255
158 197 255
158 197 255
158 197 255
158 197 255
158 197 255
158 197 255
157 197 255
157 197 255
157 197 255
157 197 255
157 196 255
157 196 255
157 196 255
157 196 255
157 196 255
157 196 255
156 196 255
156 196 255
156 196 255
156 196 255
156 196 255
156 196 255
156 196 255
156 196 255
156 196 255
156 196 255
155 195 255
155 195 255
155 195 255
155 195 255
155 195 255
155 195 255
155 195 255
155 195 255
155 195 255
155 195 255
155 195 255
154 195 255
154 195 255
154 195 255
154 195 255
154 195 255
154 195 255
154 195 255
154 195 255
154 194 255
154 194 255
154 194 255
154 194 255
153 194 255
153 194 255
153 194 255
153 194 255
153 194 255
153 194 255
153 194 255
153 194 255
153 194 255
153 194 255
153 194 255
153 194 255
153 194 255
153 194 255
153 194 255
153 194 255
152 194 255
152 194 255
152 194 255
152 194 255
152 194 255
152 194 255
152 194 255
152 194 255
152 193 255
152 193 255
152 193 255
152 193 255
152 193 255
152 193 255
152 193 255
152 193 255
152 193 255
152 193 255
152 193 255
152 193 255
152 193 255
152 193 255
152 193 255
152 193 255
152 193 255
152 193 255
152 193 255
152 193 255
152 193 255
152 193 255
152 193 255
152 193 255
152 193 255
152 193 255
152 193 255
152 193 255
152 193 255
152 193 255
152 193 255
152 193 255
152 193 255
152 193 255
152 193 255
152 193 255
152 193 255
152 193 255
152 193 255
152 193 255
152 194 255
152 194 255
152 194 255
152 194 255
152 194 255
152 194 255
152 194 255
152 194 255
153 194 255
153 194 255
153 194 255
153 194 255
153 194 255
153 194 255
153 194 255
153 194 255
153 194 255
153 194 255
153 194 255
153 194 255
153 194 255
153 194 255
153 194 255
153 194 255
154 194 255
154 194 255
154 194 255
154 194 255
154 195 255
154 195 255
154 195 255
154 195 255
154 195 255
154 195 255
154 195 255
154 195 255
155 195 255
155 195 255
155 195 255
155 195 255
155 195 255
155 195 255
155 195 255
155 195 255
155 195 255
155 195 255
155 195 255
156 196 255
156 196 255
156 196 255
156 196 255
156 196 255
156 196 255
156 196 255
156 196 255
156 196 255
156 196 255
157 196 255
157 196 255
157 196 255
157 196 255
157 196 255
157 196 255
157 197 255
157 197 255
157 197 255
157 197 255
158 197 255
158 197 255
158 197 255
158 197 255
158 197 255
158 197 255
158 197 255
158 197 255
158 197 255
159 197 255
159 197 255
159 197 255
159 198 255
159 198 255
159 198 255
159 198 255
159 198 255
159 198 255
160 198 255
160 198 255
160 198 255
160 198 255
160 198 255
160 198 255
160 198 255
160 198 255
160 198 255
160 198 255
161 199 255
161 199 255
161 199 255
161 199 255
161 199 255
161 199 255
161 199 255
161 199 255
161 199 255
162 199 255
162 199 255
162 199 255
162 199 255
162 199 255
162 199 255
162 199 255
162 200 255
162 200 255
162 200 255
163 200 255
163 200 255
163 200 255
163 200 255
163 200 255
163 200 255
163 200 255
163 200 255
163 200 255
163 200 255
164 200 255
164 200 255
164 200 255
164 200 255
164 201 255
164 201 255
164 201 255
164 201 255
164 201 255
164 201 255
164 201 255
165 201 255
165 201 255
165 201 255
165 201 255
165 201 255
165 201 255
165 201 255
165 201 255
165 201 255
165 201 255
165 201 255
166 202 255
166 202 255
166 202 255
166 202 255
166 202 255
166 202 255
166 202 255
166 202 255
166 202 255
166 202 255
166 202 255
167 202 255
167 202 255
167 202 255
167 202 255
167 202 255
167 202 255
167 202 255
167 202 255
167 203 255
167 203 255
167 203 255
167 203 255
168 203 255
168 203 255
168 203 255
168 203 255
168 203 255
168 203 255
168 203 255
168 203 255
168 203 255
168 203 255
168 203 255
169 203 255
168 203 255
168 203 255
168 203 255
168 203 255
168 203 255
168 203 255
168 203 255
168 203 255
168 203 255
168 203 255
168 203 255
168 203 255
168 203 255
167 203 255
167 203 255
167 203 255
167 203 255
167 202 255
167 202 255
167 202 255
167 202 255
167 202 255
167 202 255
167 202 255
167 202 255
166 202 255
166 202 255
166 202 255
166 202 255
166 202 255
166 202 255
166 202 255
166 202 255
166 202 255
166 202 255
166 202 255
165 201 255
165 201 255
165 201 255
165 201 255
165 201 255
165 201 255
165 201 255
165 201 255
165 201 255
165 201 255
165 201 255
164 201 255
164 201 255
164 201 255
164 201 255
164 201 255
164 201 255
164 201 255
164 200 255
164 200 255
164 200 255
163 200 255
163 200 255
163 200 255
163 200 255
163 200 255
163 200 255
163 200 255
163 200 255
163 200 255
163 200 255
162 200 255
162 200 255
162 200 255
162 200 255
162 199 255
162 199 255
162 199 255
162 199 255
162 199 255
162 199 255
161 199 255
161 199 255
161 199 255
161 199 255
161 199 255
161 199 255
161 199 255
161 199 255
161 199 255
161 199 255
160 198 255
160 198 255
160 198 255
160 198 255
160 198 255
160 198 255
160 198 255
160 198 255
160 198 255
159 198 255
159 198 255
159 198 255
159 198 255
159 198 255
159 198 255
159 197 255
159 197 255
159 197 255
159 197 255
158 197 255
158 197 255
158 197 255
158 197 255
158 197 255
158 197 255
158 197 255
158 197 255
158 197 255
157 197 255
157 197 255
157 197 255
157 196 255
157 196 255
157 196 255
157 196 255
157 196 255
157 196 255
157 196 255
156 196 255
156 196 255
156 196 255
156 196 255
156 196 255
156 196 255
156 196 255
156 196 255
156 196 255
156 196 255
155 195 255
155 195 255
155 195 255
155 195 255
155 195 255
155 195 255
155 195 255
155 195 255
155 195 255
155 195 255
155 195 255
154 195 255
154 195 255
154 195 255
154 195 255
154 195 255
154 195 255
154 195 255
154 195 255
154 195 255
154 194 255
154 194 255
154 194 255
154 194 255
154 194 255
153 194 255
153 194 255
153 194 255
153 194 255
153 194 255
153 194 255
153 194 255
153 194 255
153 194 255
153 194 255
153 194 255
153 194 255
153 194 255
153 194 255
153 194 255
153 194 255
153 194 255
153 194 255
152 194 255
152 194 255
152 194 255
152 194 255
152 194 255
152 194 255
152 194 255
152 194 255
152 194 255
152 194 255
152 194 255
152 193 255
152 193 255
152 193 255
152 193 255
152 193 255
152 193 255
152 193 255
152 193 255
152 193 255
152 193 255
152 193 255
152 193 255
152 193 255
152 193 255
152 193 255
152 193 255
152 193 255
152 193 255
152 193 255
152 193 255
152 194 255
152 194 255
152 194 255
152 194 255
152 194 255
152 194 255
152 194 255
152 194 255
152 194 255
152 194 255
152 194 255
153 194 255
153 194 255
153 194 255
153 194 255
153 194 255
153 194 255
153 194 255
153 194 255
153 194 255
153 194 255
153 194 255
153 194 255
153 194 255
153 194 255
153 194 255
153 194 255
153 194 255
153 194 255
153 194 255
154 194 255
154 194 255
154 194 255
154 194 255
154 195 255
154 195 255
154 195 255
154 195 255
154 195 255
154 195 255
154 195 255
154 195 255
154 195 255
155 195 255
155 195 255
155 195 255
155 195 255
155 195 255
155 195 255
155 195 255
155 195 255
155 195 255
155 195 255
155 195 255
156 196 255
156 196 255
156 196 255
156 196 255
156 196 255
156 196 255
156 196 255
156 196 255
156 196 255
156 196 255
157 196 255
157 196 255
157 196 255
157 196 255
157 196 255
157 196 255
157 196 255
157 197 255
157 197 255
157 197 255
158 197 255
158 197 255
158 197 255
158 197 255
158 197 255
158 197 255
158 197 255
158 197 255
158 197 255
159 197 255
159 197 255
159 197 255
159 197 255
159 198 255
159 198 255
159 198 255
159 198 255
159 198 255
159 198 255
160 198 255
160 198 255
160 198 255
160 198 255
160 198 255
160 198 255
160 198 255
160 198 255
160 198 255
161 199 255
161 199 255
161 199 255
161 199 255
161 199 255
161 199 255
161 199 255
161 199 255
161 199 255
161 199 255
162 199 255
162 199 255
162 199 255
162 199 255
162 199 255
162 199 255
162 200 255
162 200 255
162 200 255
163 200 255
163 200 255
163 200 255
163 200 255
163 200 255
163 200 255
163 200 255
163 200 255
163 200 255
163 200 255
163 200 255
164 200 255
164 200 255
164 200 255
164 201 255
164 201 255
164 201 255
164 201 255
164 201 255
164 201 255
164 201 255
165 201 255
165 201 255
165 201 255
165 201 255
165 201 255
165 201 255
165 201 255
165 201 255
165 201 255
165 201 255
165 201 255
166 202 255
166 202 255
166 202 255
166 202 255
166 202 255
166 202 255
166 202 255
166 202 255
166 202 255
166 202 255
166 202 255
167 202 255
167 202 255
167 202 255
167 202 255
167 202 255
167 202 255
167 202 255
167 202 255
167 203 255
167 203 255
167 203 255
167 203 255
168 203 255
168 203 255
168 203 255
168 203 255
168 203 255
168 203 255
168 203 255
168 203 255
168 203 255
168 203 255
168 203 255
168 203 255
168 203 255
169 203 255
169 203 255
169 203 255
169 203 255
169 203 255
168 203 255
168 203 255
168 203 255
168 203 255
168 203 255
168 203 255
168 203 255
168 203 255
168 203 255
168 203 255
168 203 255
168 203 255
168 203 255
167 203 255
167 203 255
167 203 255
167 203 255
167 202 255
167 202 255
167 202 255
167 202 255
167 202 255
167 202 255
167 202 255
167 202 255
166 202 255
166 202 255
166 202 255
166 202 255
166 202 255
166 202 255
166 202 255
166 202 255
166 202 255
166 202 255
166 202 255
165 201 255
165 201 255
165 201 255
165 201 255
165 201 255
165 201 255
165 201 255
165 201 255
165 201 255
165 201 255
165 201 255
164 201 255
164 201 255
164 201 255
164 201 255
164 201 255
164 201 255
164 200 255
164 200 255
164 200 255
164 200 255
163 200 255
163 200 255
163 200 255
163 200 255
163 200 255
163 200 255
163 200 255
163 200 255
163 200 255
163 200 255
162 200 255
162 200 255
162 200 255
162 199 255
162 199 255
162 199 255
162 199 255
162 199 255
162 199 255
162 199 255
161 199 255
161 199 255
161 199 255
161 199 255
161 199 255
161 199 255
161 199 255
161 199 255
161 199 255
160 198 255
160 198 255
160 198 255
160 198 255
160 198 255
160 198 255
160 198 255
160 198 255
160 198 255
160 198 255
159 198 255
159 198 255
159 198 255
159 198 255
159 198 255
159 198 255
159 197 255
159 197 255
159 197 255
158 197 255
158 197 255
158 197 255
158 197 255
158 197 255
158 197 255
158 197 255
158 197 255
158 197 255
158 197 255
157 197 255
157 197 255
157 197 255
157 196 255
157 196 255
157 196 255
157 196 255
157 196 255
157 196 255
157 196 255
156 196 255
156 196 255
156 196 255
156 196 255
156 196 255
156 196 255
156 196 255
156 196 255
156 196 255
156 196 255
155 195 255
155 195 255
155 195 255
155 195 255
155 195 255
155 195 255
155 195 255
155 195 255
155 195 255
155 195 255
155 195 255
155 195 255
154 195 255
154 195 255
154 195 255
154 195 255
154 195 255
154 195 255
154 195 255
154 195 255
154 195 255
154 194 255
154 194 255
154 194 255
154 194 255
154 194 255
153 194 255
153 194 255
153 194 255
153 194 255
153 194 255
153 194 255
153 194 255
153 194 255
153 194 255
153 194 255
153 194 255
153 194 255
153 194 255
153 194 255
153 194 255
153 194 255
153 194 255
153 194 255
153 194 255
153 194 255
153 194 255
153 194 255
153 194 255
152 194 255
152 194 255
152 194 255
152 194 255
152 194 255
152 194 255
152 194 255
152 194 255
152 194 255
152 194 255
152 194 255
152 194 255
152 194 255
152 194 255
152 194 255
152 194 255
152 194 255
152 194 255
152 194 255
152 194 255
152 194 255
152 194 255
152 194 255
152 194 255
153 194 255
153 194 255
153 194 255
153 194 255
153 194 255
153 194 255
153 194 255
153 194 255
153 194 255
153 194 255
153 194 255
153 194 255
153 194 255
153 194 255
153 194 255
153 194 255
153 194 255
153 194 255
153 194 255
153 194 255
153 194 255
153 194 255
153 194 255
154 194 255
154 194 255
154 194 255
154 194 255
154 194 255
154 195 255
154 195 255
154 195 255
154 195 255
154 195 255
154 195 255
154 195 255
154 195 255
154 195 255
155 195 255
155 195 255
155 195 255
155 195 255
155 195 255
155 195 255
155 195 255
155 195 255
155 195 255
155 195 255
155 195 255
155 195 255
156 196 255
156 196 255
156 196 255
156 196 255
156 196 255
156 196 255
156 196 255
156 196 255
156 196 255
156 196 255
157 196 255
157 196 255
157 196 255
157 196 255
157 196 255
157 196 255
157 196 255
157 197 255
157 197 255
157 197 255
158 197 255
158 197 255
158 197 255
158 197 255
158 197 255
158 197 255
158 197 255
158 197 255
158 197 255
158 197 255
159 197 255
159 197 255
159 197 255
159 198 255
159 198 255
159 198 255
159 198 255
159 198 255
159 198 255
160 198 255
160 198 255
160 198 255
160 198 255
160 198 255
160 198 255
160 198 255
160 198 255
160 198 255
160 198 255
161 199 255
161 199 255
161 199 255
161 199 255
161 199 255
161 199 255
161 199 255
161 199 255
161 199 255
162 199 255
162 199 255
162 199 255
162 199 255
162 199 255
162 199 255
162 199 255
162 200 255
162 200 255
162 200 255
163 200 255
163 200 255
163 200 255
163 200 255
163 200 255
163 200 255
163 200 255
163 200 255
163 200 255
163 200 255
164 200 255
164 200 255
164 200 255
164 201 255
164 201 255
164 201 255
164 201 255
164 201 255
164 201 255
164 201 255
165 201 255
165 201 255
165 201 255
165 201 255
165 201 255
165 201 255
165 201 255
165 201 255
165 201 255
165 201 255
165 201 255
166 202 255
166 202 255
166 202 255
166 202 255
166 202 255
166 202 255
166 202 255
166 202 255
166 202 255
166 202 255
166 202 255
167 202 255
167 202 255
167 202 255
167 202 255
167 202 255
167 202 255
167 202 255
167 202 255
167 203 255
167 203 255
167 203 255
167 203 255
168 203 255
168 203 255
168 203 255
168 203 255
168 203 255
168 203 255
168 203 255
168 203 255
168 203 255
168 203 255
168 203 255
168 203 255
168 203 255
169 203 255
169 203 255
169 203 255
169 203 255
169 204 255
169 204 255
169 204 255
169 203 255
169 203 255
169 203 255
169 203 255
168 203 255
168 203 255
168 203 255
168 203 255
168 203 255
168 203 255
168 203 255
168 203 255
168 203 255
168 203 255
168 203 255
168 203 255
168 203 255
167 203 255
167 203 255
167 203 255
167 203 255
167 202 255
167 202 255
167 202 255
167 202 255
167 202 255
167 202 255
167 202 255
167 202 255
166 202 255
166 202 255
166 202 255
166 202 255
166 202 255
166 202 255
166 202 255
166 202 255
166 202 255
166 202 255
166 202 255
165 201 255
165 201 255
165 201 255
165 201 255
165 201 255
165 201 255
165 201 255
165 201 255
165 201 255
165 201 255
164 201 255
164 201 255
164 201 255
164 201 255
164 201 255
164 201 255
164 201 255
164 200 255
164 200 255
164 200 255
164 200 255
163 200 255
163 200 255
163 200 255
163 200 255
163 200 255
163 200 255
163 200 255
163 200 255
163 200 255
163 200 255
162 200 255
162 200 255
162 200 255
162 199 255
162 199 255
162 199 255
162 199 255
162 199 255
162 199 255
161 199 255
161 199 255
161 199 255
161 199 255
161 199 255
161 199 255
161 199 255
161 199 255
161 199 255
161 199 255
160 198 255
160 198 255
160 198 255
160 198 255
160 198 255
160 198 255
160 198 255
160 198 255
160 198 255
159 198 255
159 198 255
159 198 255
159 198 255
159 198 255
159 198 255
159 198 255
159 197 255
159 197 255
159 197 255
158 197 255
158 197 255
158 197 255
158 197 255
158 197 255
158 197 255
158 197 255
158 197 255
158 197 255
157 197 255
157 197 255
157 197 255
157 197 255
157 196 255
157 196 255
157 196 255
157 196 255
157 196 255
157 196 255
157 196 255
156 196 255
156 196 255
156 196 255
156 196 255
156 196 255
156 196 255
156 196 255
156 196 255
156 196 255
156 196 255
156 196 255
155 195 255
155 195 255
155 195 255
155 195 255
155 195 255
155 195 255
155 195 255
155 195 255
155 195 255
155 195 255
155 195 255
155 195 255
154 195 255
154 195 255
154 195 255
154 195 255
154 195 255
154 195 255
154 195 255
154 195 255
154 195 255
154 194 255
154 194 255
154 194 255
154 194 255
154 194 255
154 194 255
153 194 255
153 194 255
153 194 255
153 194 255
153 194 255
153 194 255
153 194 255
153 194 255
153 194 255
153 194 255
153 194 255
153 194 255
153 194 255
153 194 255
153 194 255
153 194 255
153 194 255
153 194 255
153 194 255
153 194 255
153 194 255
153 194 255
153 194 255
153 194 255
153 194 255
153 194 255
153 194 255
153 194 255
153 194 255
153 194 255
153 194 255
153 194 255
153 194 255
153 194 255
153 194 255
153 194 255
153 194 255
153 194 255
153 194 255
153 194 255
153 194 255
153 194 255
153 194 255
153 194 255
153 194 255
153 194 255
153 194 255
153 194 255
153 194 255
153 194 255
153 194 255
153 194 255
153 194 255
153 194 255
153 194 255
153 194 255
153 194 255
153 194 255
153 194 255
153 194 255
154 194 255
154 194 255
154 194 255
154 194 255
154 194 255
154 194 255
154 195 255
154 195 255
154 195 255
154 195 255
154 195 255
154 195 255
154 195 255
154 195 255
154 195 255
154 195 255
155 195 255
155 195 255
155 195 255
155 195 255
155 195 255
155 195 255
155 195 255
155 195 255
155 195 255
155 195 255
155 195 255
155 195 255
156 196 255
156 196 255
156 196 255
156 196 255
156 196 255
156 196 255
156 196 255
156 196 255
156 196 255
156 196 255
156 196 255
157 196 255
157 196 255
157 196 255
157 196 255
157 196 255
157 196 255
157 197 255
157 197 255
157 197 255
158 197 255
158 197 255
158 197 255
158 197 255
158 197 255
158 197 255
158 197 255
158 197 255
158 197 255
158 197 255
159 197 255
159 197 255
159 197 255
159 198 255
159 198 255
159 198 255
159 198 255
159 198 255
159 198 255
159 198 255
160 198 255
160 198 255
160 198 255
160 198 255
160 198 255
160 198 255
160 198 255
160 198 255
160 198 255
161 199 255
161 199 255
161 199 255
161 199 255
161 199 255
161 199 255
161 199 255
161 199 255
161 199 255
161 199 255
162 199 255
162 199 255
162 199 255
162 199 255
162 199 255
162 199 255
162 200 255
162 200 255
162 200 255
163 200 255
163 200 255
163 200 255
163 200 255
163 200 255
163 200 255
163 200 255
163 200 255
163 200 255
163 200 255
164 200 255
164 200 255
164 200 255
164 200 255
164 201 255
164 201 255
164 201 255
164 201 255
164 201 255
164 201 255
164 201 255
165 201 255
165 201 255
165 201 255
165 201 255
165 201 255
165 201 255
165 201 255
165 201 255
165 201 255
165 201 255
166 202 255
166 202 255
166 202 255
166 202 255
166 202 255
166 202 255
166 202 255
166 202 255
166 202 255
166 202 255
166 202 255
166 202 255
167 202 255
167 202 255
167 202 255
167 202 255
167 202 255
167 202 255
167 202 255
167 203 255
167 203 255
167 203 255
167 203 255
168 203 255
168 203 255
168 203 255
168 203 255
168 203 255
168 203 255
168 203 255
168 203 255
168 203 255
168 203 255
168 203 255
168 203 255
168 203 255
169 203 255
169 203 255
169 203 255
169 203 255
169 204 255
169 204 255
169 204 255
169 204 255
169 204 255
169 204 255
169 204 255
169 204 255
169 204 255
169 203 255
169 203 255
169 203 255
169 203 255
168 203 255
168 203 255
168 203 255
168 203 255
168 203 255
168 203 255
168 203 255
168 203 255
168 203 255
168 203 255
168 203 255
168 203 255
168 203 255
167 203 255
167 203 255
167 203 255
167 202 255
167 202 255
167 202 255
167 202 255
167 202 255
167 202 255
167 202 255
167 202 255
166 202 255
166 202 255
166 202 255
166 202 255
166 202 255
166 202 255
166 202 255
166 202 255
166 202 255
166 202 255
166 202 255
165 201 255
165 201 255
165 201 255
165 201 255
165 201 255
165 201 255
165 201 255
165 201 255
165 201 255
165 201 255
165 201 255
164 201 255
164 201 255
164 201 255
164 201 255
164 201 255
164 201 255
164 201 255
164 200 255
164 200 255
164 200 255
163 200 255
163 200 255
163 200 255
163 200 255
163 200 255
163 200 255
163 200 255
163 200 255
163 200 255
163 200 255
162 200 255
162 200 255
162 200 255
162 200 255
162 199 255
162 199 255
162 199 255
162 199 255
162 199 255
162 199 255
161 199 255
161 199 255
161 199 255
161 199 255
161 199 255
161 199 255
161 199 255
161 199 255
161 199 255
160 198 255
160 198 255
160 198 255
160 198 255
160 198 255
160 198 255
160 198 255
160 198 255
160 198 255
160 198 255
159 198 255
159 198 255
159 198 255
159 198 255
159 198 255
159 198 255
159 197 255
159 197 255
159 197 255
159 197 255
158 197 255
158 197 255
158 197 255
158 197 255
158 197 255
158 197 255
158 197 255
158 197 255
158 197 255
157 197 255
157 197 255
157 197 255
157 197 255
157 196 255
157 196 255
157 196 255
157 196 255
157 196 255
157 196 255
157 196 255
156 196 255
156 196 255
156 196 255
156 196 255
156 196 255
156 196 255
156 196 255
156 196 255
156 196 255
156 196 255
155 195 255
155 195 255
155 195 255
155 195 255
155 195 255
155 195 255
155 195 255
155 195 255
155 195 255
155 195 255
155 195 255
155 195 255
155 195 255
154 195 255
154 195 255
154 195 255
154 195 255
154 195 255
154 195 255
154 195 255
154 195 255
154 195 255
154 195 255
154 194 255
154 194 255
154 194 255
154 194 255
154 194 255
154 194 255
154 194 255
153 194 255
153 194 255
153 194 255
153 194 255
153 194 255
153 194 255
153 194 255
153 194 255
153 194 255
153 194 255
153 194 255
153 194 255
153 194 255
153 194 255
153 194 255
153 194 255
153 194 255
153 194 255
153 194 255
153 194 255
153 194 255
153 194 255
153 194 255
153 194 255
153 194 255
153 194 255
153 194 255
153 194 255
153 194 255
153 194 255
153 194 255
153 194 255
153 194 255
153 194 255
153 194 255
153 194 255
153 194 255
153 194 255
153 194 255
153 194 255
153 194 255
153 194 255
153 194 255
153 194 255
153 194 255
153 194 255
153 194 255
153 194 255
153 194 255
154 194 255
154 194 255
154 194 255
154 194 255
154 194 255
154 194 255
154 194 255
154 195 255
154 195 255
154 195 255
154 195 255
154 195 255
154 195 255
154 195 255
154 195 255
154 195 255
154 195 255
154 195 255
155 195 255
155 195 255
155 195 255
155 195 255
155 195 255
155 195 255
155 195 255
155 195 255
155 195 255
155 195 255
155 195 255
155 195 255
156 196 255
156 196 255
156 196 255
156 196 255
156 196 255
156 196 255
156 196 255
156 196 255
156 196 255
156 196 255
156 196 255
157 196 255
157 196 255
157 196 255
157 196 255
157 196 255
157 196 255
157 196 255
157 197 255
157 197 255
157 197 255
157 197 255
158 197 255
158 197 255
158 197 255
158 197 255
158 197 255
158 197 255
158 197 255
158 197 255
158 197 255
159 197 255
159 197 255
159 197 255
159 197 255
159 198 255
159 198 255
159 198 255
159 198 255
159 198 255
159 198 255
160 198 255
160 198 255
160 198 255
160 198 255
160 198 255
160 198 255
160 198 255
160 198 255
160 198 255
161 199 255
161 199 255
161 199 255
161 199 255
161 199 255
161 199 255
161 199 255
161 199 255
161 199 255
161 199 255
162 199 255
162 199 255
162 199 255
162 199 255
162 199 255
162 199 255
162 200 255
162 200 255
162 200 255
162 200 255
163 200 255
163 200 255
163 200 255
163 200 255
163 200 255
163 200 255
163 200 255
163 200 255
163 200 255
163 200 255
164 200 255
164 200 255
164 200 255
164 201 255
164 201 255
164 201 255
164 201 255
164 201 255
164 201 255
164 201 255
165 201 255
165 201 255
165 201 255
165 201 255
165 201 255
165 201 255
165 201 255
165 201 255
165 201 255
165 201 255
165 201 255
166 202 255
166 202 255
166 202 255
166 202 255
166 202 255
166 202 255
166 202 255
166 202 255
166 202 255
166 202 255
166 202 255
167 202 255
167 202 255
167 202 255
167 202 255
167 202 255
167 202 255
167 202 255
167 202 255
167 203 255
167 203 255
167 203 255
168 203 255
168 203 255
168 203 255
168 203 255
168 203 255
168 203 255
168 203 255
168 203 255
168 203 255
168 203 255
168 203 255
168 203 255
168 203 255
169 203 255
169 203 255
169 203 255
169 203 255
169 204 255
169 204 255
169 204 255
169 204 255
169 204 255
169 204 255
169 204 255
169 204 255
169 204 255
169 204 255
169 204 255
169 204 255
169 204 255
169 204 255
169 204 255
169 203 255
169 203 255
169 203 255
169 203 255
168 203 255
168 203 255
168 203 255
168 203 255
168 203 255
168 203 255
168 203 255
168 203 255
168 203 255
168 203 255
168 203 255
168 203 255
167 203 255
167 203 255
167 203 255
167 203 255
167 202 255
167 202 255
167 202 255
167 202 255
167 202 255
167 202 255
167 202 255
167 202 255
166 202 255
166 202 255
166 202 255
166 202 255
166 202 255
166 202 255
166 202 255
166 202 255
166 202 255
166 202 255
166 202 255
165 201 255
165 201 255
165 201 255
165 201 255
165 201 255
165 201 255
165 201 255
165 201 255
165 201 255
165 201 255
165 201 255
164 201 255
164 201 255
164 201 255
164 201 255
164 201 255
164 201 255
164 201 255
164 200 255
164 200 255
164 200 255
163 200 255
163 200 255
163 200 255
163 200 255
163 200 255
163 200 255
163 200 255
163 200 255
163 200 255
163 200 255
162 200 255
162 200 255
162 200 255
162 199 255
162 199 255
162 199 255
162 199 255
162 199 255
162 199 255
162 199 255
161 199 255
161 199 255
161 199 255
161 199 255
161 199 255
161 199 255
161 199 255
161 199 255
161 199 255
160 198 255
160 198 255
160 198 255
160 198 255
160 198 255
160 198 255
160 198 255
160 198 255
160 198 255
160 198 255
159 198 255
159 198 255
159 198 255
159 198 255
159 198 255
159 198 255
159 197 255
159 197 255
159 197 255
158 197 255
158 197 255
158 197 255
158 197 255
158 197 255
158 197 255
158 197 255
158 197 255
158 197 255
158 197 255
157 197 255
157 197 255
157 197 255
157 197 255
157 196 255
157 196 255
157 196 255
157 196 255
157 196 255
157 196 255
157 196 255
156 196 255
156 196 255
156 196 255
156 196 255
156 196 255
156 196 255
156 196 255
156 196 255
156 196 255
156 196 255
156 196 255
155 195 255
155 195 255
155 195 255
155 195 255
155 195 255
155 195 255
155 195 255
155 195 255
155 195 255
155 195 255
155 195 255
155 195 255
155 195 255
155 195 255
154 195 255
154 195 255
154 195 255
154 195 255
154 195 255
154 195 255
154 195 255
154 195 255
154 195 255
154 195 255
154 195 255
154 194 255
154 194 255
154 194 255
154 194 255
154 194 255
154 194 255
154 194 255
154 194 255
154 194 255
153 194 255
153 194 255
153 194 255
153 194 255
153 194 255
153 194 255
153 194 255
153 194 255
153 194 255
153 194 255
153 194 255
153 194 255
153 194 255
153 194 255
153 194 255
153 194 255
153 194 255
153 194 255
153 194 255
153 194 255
153 194 255
153 194 255
153 194 255
153 194 255
153 194 255
153 194 255
153 194 255
153 194 255
153 194 255
153 194 255
153 194 255
153 194 255
153 194 255
153 194 255
154 194 255
154 194 255
154 194 255
154 194 255
154 194 255
154 194 255
154 194 255
154 194 255
154 194 255
154 195 255
154 195 255
154 195 255
154 195 255
154 195 255
154 195 255
154 195 255
154 195 255
154 195 255
154 195 255
154 195 255
155 195 255
155 195 255
155 195 255
155 195 255
155 195 255
155 195 255
155 195 255
155 195 255
155 195 255
155 195 255
155 195 255
155 195 255
155 195 255
155 195 255
156 196 255
156 196 255
156 196 255
156 196 255
156 196 255
156 196 255
156 196 255
156 196 255
156 196 255
156 196 255
156 196 255
157 196 255
157 196 255
157 196 255
157 196 255
157 196 255
157 196 255
157 196 255
157 197 255
157 197 255
157 197 255
157 197 255
158 197 255
158 197 255
158 197 255
158 197 255
158 197 255
158 197 255
158 197 255
158 197 255
158 197 255
158 197 255
159 197 255
159 197 255
159 197 255
159 198 255
159 198 255
159 198 255
159 198 255
159 198 255
159 198 255
160 198 255
160 198 255
160 198 255
160 198 255
160 198 255
160 198 255
160 198 255
160 198 255
160 198 255
160 198 255
161 199 255
161 199 255
161 199 255
161 199 255
161 199 255
161 199 255
161 199 255
161 199 255
161 199 255
162 199 255
162 199 255
162 199 255
162 199 255
162 199 255
162 199 255
162 199 255
162 200 255
162 200 255
162 200 255
163 200 255
163 200 255
163 200 255
163 200 255
163 200 255
163 200 255
163 200 255
163 200 255
163 200 255
163 200 255
164 200 255
164 200 255
164 200 255
164 201 255
164 201 255
164 201 255
164 201 255
164 201 255
164 201 255
164 201 255
165 201 255
165 201 255
165 201 255
165 201 255
165 201 255
165 201 255
165 201 255
165 201 255
165 201 255
165 201 255
165 201 255
166 202 255
166 202 255
166 202 255
166 202 255
166 202 255
166 202 255
166 202 255
166 202 255
166 202 255
166 202 255
166 202 255
167 202 255
167 202 255
167 202 255
167 202 255
167 202 255
167 202 255
167 202 255
167 202 255
167 203 255
167 203 255
167 203 255
168 203 255
168 203 255
168 203 255
168 203 255
168 203 255
168 203 255
168 203 255
168 203 255
168 203 255
168 203 255
168 203 255
168 203 255
168 203 255
169 203 255
169 203 255
169 203 255
169 203 255
169 204 255
169 204 255
169 204 255
169 204 255
169 204 255
169 204 255
169 204 255
169 204 255
169 204 255
170 204 255
170 204 255
170 204 255
169 204 255
169 204 255
169 204 255
169 204 255
169 204 255
169 204 255
169 204 255
169 204 255
169 204 255
169 203 255
169 203 255
169 203 255
169 203 255
168 203 255
168 203 255
168 203 255
168 203 255
168 203 255
168 203 255
168 203 255
168 203 255
168 203 255
168 203 255
168 203 255
168 203 255
167 203 255
167 203 255
167 203 255
167 203 255
167 202 255
167 202 255
167 202 255
167 202 255
167 202 255
167 202 255
167 202 255
167 202 255
166 202 255
166 202 255
166 202 255
166 202 255
166 202 255
166 202 255
166 202 255
166 202 255
166 202 255
166 202 255
166 202 255
165 201 255
165 201 255
165 201 255
165 201 255
165 201 255
165 201 255
165 201 255
165 201 255
165 201 255
165 201 255
165 201 255
164 201 255
164 201 255
164 201 255
164 201 255
164 201 255
164 201 255
164 200 255
164 200 255
164 200 255
164 200 255
163 200 255
163 200 255
163 200 255
163 200 255
163 200 255
163 200 255
163 200 255
163 200 255
163 200 255
163 200 255
162 200 255
162 200 255
162 200 255
162 199 255
162 199 255
162 199 255
162 199 255
162 199 255
162 199 255
161 199 255
161 199 255
161 199 255
161 199 255
161 199 255
161 199 255
161 199 255
161 199 255
161 199 255
161 199 255
160 198 255
160 198 255
160 198 255
160 198 255
160 198 255
160 198 255
160 198 255
160 198 255
160 198 255
160 198 255
159 198 255
159 198 255
159 198 255
159 198 255
159 198 255
159 198 255
159 197 255
159 197 255
159 197 255
158 197 255
158 197 255
158 197 255
158 197 255
158 197 255
158 197 255
158 197 255
158 197 255
158 197 255
158 197 255
157 197 255
157 197 255
157 197 255
157 197 255
157 196 255
157 196 255
157 196 255
157 196 255
157 196 255
157 196 255
157 196 255
156 196 255
156 196 255
156 196 255
156 196 255
156 196 255
156 196 255
156 196 255
156 196 255
156 196 255
156 196 255
156 196 255
156 196 255
155 195 255
155 195 255
155 195 255
155 195 255
155 195 255
155 195 255
155 195 255
155 195 255
155 195 255
155 195 255
155 195 255
155 195 255
155 195 255
155 195 255
154 195 255
154 195 255
154 195 255
154 195 255
154 195 255
154 195 255
154 195 255
154 195 255
154 195 255
154 195 255
154 195 255
154 195 255
154 195 255
154 195 255
154 195 255
154 194 255
154 194 255
154 194 255
154 194 255
154 194 255
154 194 255
154 194 255
154 194 255
154 194 255
154 194 255
154 194 255
154 194 255
154 194 255
154 194 255
154 194 255
154 194 255
153 194 255
153 194 255
154 194 255
153 194 255
154 194 255
154 194 255
154 194 255
154 194 255
154 194 255
154 194 255
154 194 255
154 194 255
154 194 255
154 194 255
154 194 255
154 194 255
154 194 255
154 194 255
154 194 255
154 194 255
154 195 255
154 195 255
154 195 255
154 195 255
154 195 255
154 195 255
154 195 255
154 195 255
154 195 255
154 195 255
154 195 255
154 195 255
154 195 255
154 195 255
154 195 255
155 195 255
155 195 255
155 195 255
155 195 255
155 195 255
155 195 255
155 195 255
155 195 255
155 195 255
155 195 255
155 195 255
155 195 255
155 195 255
155 195 255
156 196 255
156 196 255
156 196 255
156 196 255
156 196 255
156 196 255
156 196 255
156 196 255
156 196 255
156 196 255
156 196 255
156 196 255
157 196 255
157 196 255
157 196 255
157 196 255
157 196 255
157 196 255
157 196 255
157 197 255
157 197 255
157 197 255
157 197 255
158 197 255
158 197 255
158 197 255
158 197 255
158 197 255
158 197 255
158 197 255
158 197 255
158 197 255
158 197 255
159 197 255
159 197 255
159 197 255
159 198 255
159 198 255
159 198 255
159 198 255
159 198 255
159 198 255
159 198 255
160 198 255
160 198 255
160 198 255
160 198 255
160 198 255
160 198 255
160 198 255
160 198 255
160 198 255
161 199 255
161 199 255
161 199 255
161 199 255
161 199 255
161 199 255
161 199 255
161 199 255
161 199 255
161 199 255
162 199 255
162 199 255
162 199 255
162 199 255
162 199 255
162 199 255
162 200 255
162 200 255
162 200 255
163 200 255
163 200 255
163 200 255
163 200 255
163 200 255
163 200 255
163 200 255
163 200 255
163 200 255
163 200 255
164 200 255
164 200 255
164 200 255
164 200 255
164 201 255
164 201 255
164 201 255
164 201 255
164 201 255
164 201 255
165 201 255
165 201 255
165 201 255
165 201 255
165 201 255
165 201 255
165 201 255
165 201 255
165 201 255
165 201 255
165 201 255
166 202 255
166 202 255
166 202 255
166 202 255
166 202 255
166 202 255
166 202 255
166 202 255
166 202 255
166 202 255
166 202 255
167 202 255
167 202 255
167 202 255
167 202 255
167 202 255
167 202 255
167 202 255
167 202 255
167 203 255
167 203 255
167 203 255
167 203 255
168 203 255
168 203 255
168 203 255
168 203 255
168 203 255
168 203 255
168 203 255
168 203 255
168 203 255
168 203 255
168 203 255
168 203 255
169 203 255
169 203 255
169 203 255
169 203 255
169 204 255
169 204 255
169 204 255
169 204 255
169 204 255
169 204 255
169 204 255
169 204 255
169 204 255
170 204 255
170 204 255
170 204 255
170 204 255
170 204 255
170 204 255
170 204 255
170 204 255
170 204 255
169 204 255
169 204 255
169 204 255
169 204 255
169 204 255
169 204 255
169 204 255
169 204 255
169 204 255
169 203 255
169 203 255
169 203 255
169 203 255
168 203 255
168 203 255
168 203 255
168 203 255
168 203 255
168 203 255
168 203 255
168 203 255
168 203 255
168 203 255
168 203 255
168 203 255
167 203 255
167 203 255
167 203 255
167 203 255
167 202 255
167 202 255
167 202 255
167 202 255
167 202 255
167 202 255
167 202 255
167 202 255
166 202 255
166 202 255
166 202 255
166 202 255
166 202 255
166 202 255
166 202 255
166 202 255
166 202 255
166 202 255
166 202 255
165 201 255
165 201 255
165 201 255
165 201 255
165 201 255
165 201 255
165 201 255
165 201 255
165 201 255
165 201 255
165 201 255
164 201 255
164 201 255
164 201 255
164 201 255
164 201 255
164 201 255
164 200 255
164 200 255
164 200 255
164 200 255
163 200 255
163 200 255
163 200 255
163 200 255
163 200 255
163 200 255
163 200 255
163 200 255
163 200 255
162 200 255
162 200 255
162 200 255
162 199 255
162 199 255
162 199 255
162 199 255
162 199 255
162 199 255
162 199 255
161 199 255
161 199 255
161 199 255
161 199 255
161 199 255
161 199 255
161 199 255
161 199 255
161 199 255
161 199 255
160 198 255
160 198 255
160 198 255
160 198 255
160 198 255
160 198 255
160 198 255
160 198 255
160 198 255
159 198 255
159 198 255
159 198 255
159 198 255
159 198 255
159 198 255
159 198 255
159 197 255
159 197 255
159 197 255
158 197 255
158 197 255
158 197 255
158 197 255
158 197 255
158 197 255
158 197 255
158 197 255
158 197 255
158 197 255
157 197 255
157 197 255
157 197 255
157 197 255
157 196 255
157 196 255
157 196 255
157 196 255
157 196 255
157 196 255
157 196 255
156 196 255
156 196 255
156 196 255
156 196 255
156 196 255
156 196 255
156 196 255
156 196 255
156 196 255
156 196 255
156 196 255
156 196 255
156 196 255
155 195 255
155 195 255
155 195 255
155 195 255
155 195 255
155 195 255
155 195 255
155 195 255
155 195 255
155 195 255
155 195 255
155 195 255
155 195 255
155 195 255
155 195 255
155 195 255
154 195 255
154 195 255
154 195 255
154 195 255
154 195 255
154 195 255
154 195 255
154 195 255
154 195 255
154 195 255
154 195 255
154 195 255
154 195 255
154 195 255
154 195 255
154 195 255
154 195 255
154 195 255
154 195 255
154 195 255
154 195 255
154 194 255
154 194 255
154 194 255
154 194 255
154 194 255
154 194 255
154 194 255
154 194 255
154 194 255
154 194 255
154 195 255
154 194 255
154 195 255
154 195 255
154 195 255
154 195 255
154 195 255
154 195 255
154 195 255
154 195 255
154 195 255
154 195 255
154 195 255
154 195 255
154 195 255
154 195 255
154 195 255
154 195 255
154 195 255
154 195 255
154 195 255
154 195 255
154 195 255
155 195 255
155 195 255
155 195 255
155 195 255
155 195 255
155 195 255
155 195 255
155 195 255
155 195 255
155 195 255
155 195 255
155 195 255
155 195 255
155 195 255
155 195 255
155 195 255
156 196 255
156 196 255
156 196 255
156 196 255
156 196 255
156 196 255
156 196 255
156 196 255
156 196 255
156 196 255
156 196 255
156 196 255
156 196 255
157 196 255
157 196 255
157 196 255
157 196 255
157 196 255
157 196 255
157 196 255
157 197 255
157 197 255
157 197 255
157 197 255
158 197 255
158 197 255
158 197 255
158 197 255
158 197 255
158 197 255
158 197 255
158 197 255
158 197 255
158 197 255
159 197 255
159 197 255
159 197 255
159 198 255
159 198 255
159 198 255
159 198 255
159 198 255
159 198 255
159 198 255
160 198 255
160 198 255
160 198 255
160 198 255
160 198 255
160 198 255
160 198 255
160 198 255
160 198 255
161 199 255
161 199 255
161 199 255
161 199 255
161 199 255
161 199 255
161 199 255
161 199 255
161 199 255
161 199 255
162 199 255
162 199 255
162 199 255
162 199 255
162 199 255
162 199 255
162 200 255
162 200 255
162 200 255
162 200 255
163 200 255
163 200 255
163 200 255
163 200 255
163 200 255
163 200 255
163 200 255
163 200 255
163 200 255
164 200 255
164 200 255
164 200 255
164 200 255
164 201 255
164 201 255
164 201 255
164 201 255
164 201 255
164 201 255
164 201 255
165 201 255
165 201 255
165 201 255
165 201 255
165 201 255
165 201 255
165 201 255
165 201 255
165 201 255
165 201 255
166 202 255
166 202 255
166 202 255
166 202 255
166 202 255
166 202 255
166 202 255
166 202 255
166 202 255
166 202 255
166 202 255
167 202 255
167 202 255
167 202 255
167 202 255
167 202 255
167 202 255
167 202 255
167 202 255
167 203 255
167 203 255
167 203 255
167 203 255
168 203 255
168 203 255
168 203 255
168 203 255
168 203 255
168 203 255
168 203 255
168 203 255
168 203 255
168 203 255
168 203 255
168 203 255
169 203 255
169 203 255
169 203 255
169 203 255
169 204 255
169 204 255
169 204 255
169 204 255
169 204 255
169 204 255
169 204 255
169 204 255
169 204 255
170 204 255
170 204 255
170 204 255
170 204 255
170 204 255
170 204 255
170 204 255
170 204 255
170 204 255
170 204 255
170 204 255
170 204 255
170 204 255
170 204 255
170 204 255
170 204 255
169 204 255
169 204 255
169 204 255
169 204 255
169 204 255
169 204 255
169 204 255
169 204 255
169 203 255
169 203 255
169 203 255
169 203 255
168 203 255
168 203 255
168 203 255
168 203 255
168 203 255
168 203 255
168 203 255
168 203 255
168 203 255
168 203 255
168 203 255
168 203 255
167 203 255
167 203 255
167 203 255
167 203 255
167 202 255
167 202 255
167 202 255
167 202 255
167 202 255
167 202 255
167 202 255
167 202 255
166 202 255
166 202 255
166 202 255
166 202 255
166 202 255
166 202 255
166 202 255
166 202 255
166 202 255
166 202 255
166 202 255
165 201 255
165 201 255
165 201 255
165 201 255
165 201 255
165 201 255
165 201 255
165 201 255
165 201 255
165 201 255
164 201 255
164 201 255
164 201 255
164 201 255
164 201 255
164 201 255
164 201 255
164 200 255
164 200 255
164 200 255
163 200 255
163 200 255
163 200 255
163 200 255
163 200 255
163 200 255
163 200 255
163 200 255
163 200 255
163 200 255
162 200 255
162 200 255
162 200 255
162 199 255
162 199 255
162 199 255
162 199 255
162 199 255
162 199 255
162 199 255
161 199 255
161 199 255
161 199 255
161 199 255
161 199 255
161 199 255
161 199 255
161 199 255
161 199 255
161 199 255
160 198 255
160 198 255
160 198 255
160 198 255
160 198 255
160 198 255
160 198 255
160 198 255
160 198 255
159 198 255
159 198 255
159 198 255
159 198 255
159 198 255
159 198 255
159 198 255
159 197 255
159 197 255
159 197 255
158 197 255
158 197 255
158 197 255
158 197 255
158 197 255
158 197 255
158 197 255
158 197 255
158 197 255
158 197 255
158 197 255
157 197 255
157 197 255
157 197 255
157 196 255
157 196 255
157 196 255
157 196 255
157 196 255
157 196 255
157 196 255
157 196 255
156 196 255
156 196 255
156 196 255
156 196 255
156 196 255
156 196 255
156 196 255
156 196 255
156 196 255
156 196 255
156 196 255
156 196 255
156 196 255
155 195 255
155 195 255
155 195 255
155 195 255
155 195 255
155 195 255
155 195 255
155 195 255
155 195 255
155 195 255
155 195 255
155 195 255
155 195 255
155 195 255
155 195 255
155 195 255
155 195 255
155 195 255
155 195 255
154 195 255
154 195 255
154 195 255
154 195 255
154 195 255
154 195 255
154 195 255
154 195 255
154 195 255
154 195 255
154 195 255
154 195 255
154 195 255
154 195 255
154 195 255
154 195 255
154 195 255
154 195 255
154 195 255
154 195 255
154 195 255
154 195 255
154 195 255
154 195 255
154 195 255
154 195 255
154 195 255
154 195 255
154 195 255
154 195 255
154 195 255
154 195 255
154 195 255
154 195 255
154 195 255
154 195 255
154 195 255
154 195 255
154 195 255
154 195 255
155 195 255
155 195 255
155 195 255
155 195 255
155 195 255
155 195 255
155 195 255
155 195 255
155 195 255
155 195 255
155 195 255
155 195 255
155 195 255
155 195 255
155 195 255
155 195 255
155 195 255
155 195 255
155 195 255
156 196 255
156 196 255
156 196 255
156 196 255
156 196 255
156 196 255
156 196 255
156 196 255
156 196 255
156 196 255
156 196 255
156 196 255
156 196 255
157 196 255
157 196 255
157 196 255
157 196 255
157 196 255
157 196 255
157 196 255
157 196 255
157 197 255
157 197 255
157 197 255
157 197 255
158 197 255
158 197 255
158 197 255
158 197 255
158 197 255
158 197 255
158 197 255
158 197 255
158 197 255
158 197 255
159 197 255
159 197 255
159 197 255
159 198 255
159 198 255
159 198 255
159 198 255
159 198 255
159 198 255
159 198 255
160 198 255
160 198 255
160 198 255
160 198 255
160 198 255
160 198 255
160 198 255
160 198 255
160 198 255
160 198 255
161 199 255
161 199 255
161 199 255
161 199 255
161 199 255
161 199 255
161 199 255
161 199 255
161 199 255
162 199 255
162 199 255
162 199 255
162 199 255
162 199 255
162 199 255
162 199 255
162 200 255
162 200 255
162 200 255
163 200 255
163 200 255
163 200 255
163 200 255
163 200 255
163 200 255
163 200 255
163 200 255
163 200 255
163 200 255
164 200 255
164 200 255
164 200 255
164 201 255
164 201 255
164 201 255
164 201 255
164 201 255
164 201 255
164 201 255
165 201 255
165 201 255
165 201 255
165 201 255
165 201 255
165 201 255
165 201 255
165 201 255
165 201 255
165 201 255
166 202 255
166 202 255
166 202 255
166 202 255
166 202 255
166 202 255
166 202 255
166 202 255
166 202 255
166 202 255
166 202 255
167 202 255
167 202 255
167 202 255
167 202 255
167 202 255
167 202 255
167 202 255
167 202 255
167 203 255
167 203 255
167 203 255
167 203 255
168 203 255
168 203 255
168 203 255
168 203 255
168 203 255
168 203 255
168 203 255
168 203 255
168 203 255
168 203 255
168 203 255
168 203 255
169 203 255
169 203 255
169 203 255
169 203 255
169 204 255
169 204 255
169 204 255
169 204 255
169 204 255
169 204 255
169 204 255
169 204 255
169 204 255
170 204 255
170 204 255
170 204 255
170 204 255
170 204 255
170 204 255
170 204 255
170 204 255
170 204 255
170 204 255
170 204 255
170 204 255
170 204 255
170 204 255
170 204 255
170 204 255
170 204 255
170 204 255
170 204 255
170 204 255
170 204 255
170 204 255
169 204 255
169 204 255
169 204 255
169 204 255
169 204 255
169 204 255
169 204 255
169 204 255
169 203 255
169 203 255
169 203 255
169 203 255
168 203 255
168 203 255
168 203 255
168 203 255
168 203 255
168 203 255
168 203 255
168 203 255
168 203 255
168 203 255
168 203 255
168 203 255
167 203 255
167 203 255
167 203 255
167 203 255
167 202 255
167 202 255
167 202 255
167 202 255
167 202 255
167 202 255
167 202 255
167 202 255
166 202 255
166 202 255
166 202 255
166 202 255
166 202 255
166 202 255
166 202 255
166 202 255
166 202 255
166 202 255
165 201 255
165 201 255
165 201 255
165 201 255
165 201 255
165 201 255
165 201 255
165 201 255
165 201 255
165 201 255
165 201 255
164 201 255
164 201 255
164 201 255
164 201 255
164 201 255
164 201 255
164 201 255
164 200 255
164 200 255
164 200 255
163 200 255
163 200 255
163 200 255
163 200 255
163 200 255
163 200 255
163 200 255
163 200 255
163 200 255
163 200 255
162 200 255
162 200 255
162 200 255
162 199 255
162 199 255
162 199 255
162 199 255
162 199 255
162 199 255
162 199 255
161 199 255
161 199 255
161 199 255
161 199 255
161 199 255
161 199 255
161 199 255
161 199 255
161 199 255
160 198 255
160 198 255
160 198 255
160 198 255
160 198 255
160 198 255
160 198 255
160 198 255
160 198 255
160 198 255
159 198 255
159 198 255
159 198 255
159 198 255
159 198 255
159 198 255
159 198 255
159 197 255
159 197 255
159 197 255
158 197 255
158 197 255
158 197 255
158 197 255
158 197 255
158 197 255
158 197 255
158 197 255
158 197 255
158 197 255
158 197 255
157 197 255
157 197 255
157 197 255
157 197 255
157 196 255
157 196 255
157 196 255
157 196 255
157 196 255
157 196 255
157 196 255
156 196 255
156 196 255
156 196 255
156 196 255
156 196 255
156 196 255
156 196 255
156 196 255
156 196 255
156 196 255
156 196 255
156 196 255
156 196 255
156 196 255
156 196 255
155 195 255
155 195 255
155 195 255
155 195 255
155 195 255
155 195 255
155 195 255
155 195 255
155 195 255
155 195 255
155 195 255
155 195 255
155 195 255
155 195 255
155 195 255
155 195 255
155 195 255
155 195 255
155 195 255
155 195 255
155 195 255
155 195 255
155 195 255
155 195 255
154 195 255
154 195 255
154 195 255
154 195 255
154 195 255
154 195 255
154 195 255
154 195 255
154 195 255
154 195 255
154 195 255
154 195 255
154 195 255
154 195 255
154 195 255
154 195 255
154 195 255
154 195 255
154 195 255
154 195 255
155 195 255
155 195 255
155 195 255
155 195 255
155 195 255
155 195 255
155 195 255
155 195 255
155 195 255
155 195 255
155 195 255
155 195 255
155 195 255
155 195 255
155 195 255
155 195 255
155 195 255
155 195 255
155 195 255
155 195 255
155 195 255
155 195 255
155 195 255
155 195 255
156 196 255
156 196 255
156 196 255
156 196 255
156 196 255
156 196 255
156 196 255
156 196 255
156 196 255
156 196 255
156 196 255
156 196 255
156 196 255
156 196 255
157 196 255
157 196 255
157 196 255
157 196 255
157 196 255
157 196 255
157 196 255
157 196 255
157 196 255
157 197 255
157 197 255
157 197 255
158 197 255
158 197 255
158 197 255
158 197 255
158 197 255
158 197 255
158 197 255
158 197 255
158 197 255
158 197 255
158 197 255
159 197 255
159 197 255
159 197 255
159 198 255
159 198 255
159 198 255
159 198 255
159 198 255
159 198 255
159 198 255
160 198 255
160 198 255
160 198 255
160 198 255
160 198 255
160 198 255
160 198 255
160 198 255
160 198 255
160 198 255
161 199 255
161 199 255
161 199 255
161 199 255
161 199 255
161 199 255
161 199 255
161 199 255
161 199 255
162 199 255
162 199 255
162 199 255
162 199 255
162 199 255
162 199 255
162 199 255
162 200 255
162 200 255
162 200 255
163 200 255
163 200 255
163 200 255
163 200 255
163 200 255
163 200 255
163 200 255
163 200 255
163 200 255
163 200 255
164 200 255
164 200 255
164 200 255
164 201 255
164 201 255
164 201 255
164 201 255
164 201 255
164 201 255
164 201 255
165 201 255
165 201 255
165 201 255
165 201 255
165 201 255
165 201 255
165 201 255
165 201 255
165 201 255
165 201 255
165 201 255
166 202 255
166 202 255
166 202 255
166 202 255
166 202 255
166 202 255
166 202 255
166 202 255
166 202 255
166 202 255
167 202 255
167 202 255
167 202 255
167 202 255
167 202 255
167 202 255
167 202 255
167 202 255
167 203 255
167 203 255
167 203 255
167 203 255
168 203 255
168 203 255
168 203 255
168 203 255
168 203 255
168 203 255
168 203 255
168 203 255
168 203 255
168 203 255
168 203 255
168 203 255
169 203 255
169 203 255
169 203 255
169 203 255
169 204 255
169 204 255
169 204 255
169 204 255
169 204 255
169 204 255
169 204 255
169 204 255
170 204 255
170 204 255
170 204 255
170 204 255
170 204 255
170 204 255
170 204 255
170 204 255
170 204 255
170 204 255
170 204 255
170 204 255
170 204 255
171 205 255
171 205 255
170 204 255
170 204 255
170 204 255
170 204 255
170 204 255
170 204 255
170 204 255
170 204 255
170 204 255
170 204 255
170 204 255
170 204 255
170 204 255
170 204 255
169 204 255
169 204 255
169 204 255
169 204 255
169 204 255
169 204 255
169 204 255
169 204 255
169 203 255
169 203 255
169 203 255
169 203 255
168 203 255
168 203 255
168 203 255
168 203 255
168 203 255
168 203 255
168 203 255
168 203 255
168 203 255
168 203 255
168 203 255
168 203 255
168 203 255
167 203 255
167 203 255
167 203 255
167 202 255
167 202 255
167 202 255
167 202 255
167 202 255
167 202 255
167 202 255
167 202 255
166 202 255
166 202 255
166 202 255
166 202 255
166 202 255
166 202 255
166 202 255
166 202 255
166 202 255
166 202 255
165 201 255
165 201 255
165 201 255
165 201 255
165 201 255
165 201 255
165 201 255
165 201 255
165 201 255
165 201 255
165 201 255
164 201 255
164 201 255
164 201 255
164 201 255
164 201 255
164 201 255
164 200 255
164 200 255
164 200 255
164 200 255
163 200 255
163 200 255
163 200 255
163 200 255
163 200 255
163 200 255
163 200 255
163 200 255
163 200 255
163 200 255
162 200 255
162 200 255
162 200 255
162 199 255
162 199 255
162 199 255
162 199 255
162 199 255
162 199 255
161 199 255
161 199 255
161 199 255
161 199 255
161 199 255
161 199 255
161 199 255
161 199 255
161 199 255
161 199 255
160 198 255
160 198 255
160 198 255
160 198 255
160 198 255
160 198 255
160 198 255
160 198 255
160 198 255
160 198 255
159 198 255
159 198 255
159 198 255
159 198 255
159 198 255
159 198 255
159 198 255
159 197 255
159 197 255
159 197 255
158 197 255
158 197 255
158 197 255
158 197 255
158 197 255
158 197 255
158 197 255
158 197 255
158 197 255
158 197 255
158 197 255
157 197 255
157 197 255
157 197 255
157 197 255
157 196 255
157 196 255
157 196 255
157 196 255
157 196 255
157 196 255
157 196 255
157 196 255
157 196 255
156 196 255
156 196 255
156 196 255
156 196 255
156 196 255
156 196 255
156 196 255
156 196 255
156 196 255
156 196 255
156 196 255
156 196 255
156 196 255
156 196 255
156 196 255
155 195 255
155 195 255
155 195 255
155 195 255
155 195 255
155 195 255
155 195 255
155 195 255
155 195 255
155 195 255
155 195 255
155 195 255
155 195 255
155 195 255
155 195 255
155 195 255
155 195 255
155 195 255
155 195 255
155 195 255
155 195 255
155 195 255
155 195 255
155 195 255
155 195 255
155 195 255
155 195 255
155 195 255
155 195 255
155 195 255
155 195 255
155 195 255
155 195 255
155 195 255
155 195 255
155 195 255
155 195 255
155 195 255
155 195 255
155 195 255
155 195 255
155 195 255
155 195 255
155 195 255
155 195 255
155 195 255
155 195 255
155 195 255
155 195 255
155 195 255
155 195 255
155 195 255
155 195 255
155 195 255
155 195 255
155 195 255
155 195 255
155 195 255
156 196 255
156 196 255
156 196 255
156 196 255
156 196 255
156 196 255
156 196 255
156 196 255
156 196 255
156 196 255
156 196 255
156 196 255
156 196 255
156 196 255
156 196 255
157 196 255
157 196 255
157 196 255
157 196 255
157 196 255
157 196 255
157 196 255
157 196 255
157 196 255
157 197 255
157 197 255
157 197 255
157 197 255
158 197 255
158 197 255
158 197 255
158 197 255
158 197 255
158 197 255
158 197 255
158 197 255
158 197 255
158 197 255
158 197 255
159 197 255
159 197 255
159 197 255
159 198 255
159 198 255
159 198 255
159 198 255
159 198 255
159 198 255
159 198 255
160 198 255
160 198 255
160 198 255
160 198 255
160 198 255
160 198 255
160 198 255
160 198 255
160 198 255
160 198 255
161 199 255
161 199 255
161 199 255
161 199 255
161 199 255
161 199 255
161 199 255
161 199 255
161 199 255
162 199 255
162 199 255
162 199 255
162 199 255
162 199 255
162 199 255
162 199 255
162 200 255
162 200 255
162 200 255
163 200 255
163 200 255
163 200 255
163 200 255
163 200 255
163 200 255
163 200 255
163 200 255
163 200 255
163 200 255
164 200 255
164 200 255
164 200 255
164 201 255
164 201 255
164 201 255
164 201 255
164 201 255
164 201 255
164 201 255
165 201 255
165 201 255
165 201 255
165 201 255
165 201 255
165 201 255
165 201 255
165 201 255
165 201 255
165 201 255
165 201 255
166 202 255
166 202 255
166 202 255
166 202 255
166 202 255
166 202 255
166 202 255
166 202 255
166 202 255
166 202 255
167 202 255
167 202 255
167 202 255
167 202 255
167 202 255
167 202 255
167 202 255
167 202 255
167 203 255
167 203 255
167 203 255
167 203 255
168 203 255
168 203 255
168 203 255
168 203 255
168 203 255
168 203 255
168 203 255
168 203 255
168 203 255
168 203 255
168 203 255
168 203 255
169 203 255
169 203 255
169 203 255
169 203 255
169 204 255
169 204 255
169 204 255
169 204 255
169 204 255
169 204 255
169 204 255
169 204 255
170 204 255
170 204 255
170 204 255
170 204 255
170 204 255
170 204 255
170 204 255
170 204 255
170 204 255
170 204 255
170 204 255
170 204 255
170 204 255
170 204 255
171 205 255
171 205 255
171 205 255
171 205 255
171 205 255
171 205 255
171 205 255
171 205 255
170 204 255
170 204 255
170 204 255
170 204 255
170 204 255
170 204 255
170 204 255
170 204 255
170 204 255
170 204 255
170 204 255
170 204 255
170 204 255
169 204 255
169 204 255
169 204 255
169 204 255
169 204 255
169 204 255
169 204 255
169 204 255
169 204 255
169 203 255
169 203 255
169 203 255
169 203 255
168 203 255
168 203 255
168 203 255
168 203 255
168 203 255
168 203 255
168 203 255
168 203 255
168 203 255
168 203 255
168 203 255
168 203 255
167 203 255
167 203 255
167 203 255
167 202 255
167 202 255
167 202 255
167 202 255
167 202 255
167 202 255
167 202 255
167 202 255
166 202 255
166 202 255
166 202 255
166 202 255
166 202 255
166 202 255
166 202 255
166 202 255
166 202 255
166 202 255
165 201 255
165 201 255
165 201 255
165 201 255
165 201 255
165 201 255
165 201 255
165 201 255
165 201 255
165 201 255
165 201 255
164 201 255
164 201 255
164 201 255
164 201 255
164 201 255
164 201 255
164 200 255
164 200 255
164 200 255
164 200 255
163 200 255
163 200 255
163 200 255
163 200 255
163 200 255
163 200 255
163 200 255
163 200 255
163 200 255
163 200 255
162 200 255
162 200 255
162 200 255
162 199 255
162 199 255
162 199 255
162 199 255
162 199 255
162 199 255
161 199 255
161 199 255
161 199 255
161 199 255
161 199 255
161 199 255
161 199 255
161 199 255
161 199 255
161 199 255
160 198 255
160 198 255
160 198 255
160 198 255
160 198 255
160 198 255
160 198 255
160 198 255
160 198 255
160 198 255
159 198 255
159 198 255
159 198 255
159 198 255
159 198 255
159 198 255
159 198 255
159 197 255
159 197 255
159 197 255
159 197 255
158 197 255
158 197 255
158 197 255
158 197 255
158 197 255
158 197 255
158 197 255
158 197 255
158 197 255
158 197 255
158 197 255
157 197 255
157 197 255
157 197 255
157 197 255
157 196 255
157 196 255
157 196 255
157 196 255
157 196 255
157 196 255
157 196 255
157 196 255
157 196 255
156 196 255
156 196 255
156 196 255
156 196 255
156 196 255
156 196 255
156 196 255
156 196 255
156 196 255
156 196 255
156 196 255
156 196 255
156 196 255
156 196 255
156 196 255
156 196 255
156 196 255
156 196 255
155 195 255
155 195 255
155 195 255
155 195 255
155 195 255
155 195 255
155 195 255
155 195 255
155 195 255
155 195 255
155 195 255
155 195 255
155 195 255
155 195 255
155 195 255
155 195 255
155 195 255
155 195 255
155 195 255
155 195 255
155 195 255
155 195 255
155 195 255
155 195 255
155 195 255
155 195 255
155 195 255
155 195 255
155 195 255
155 195 255
155 195 255
155 195 255
155 195 255
155 195 255
155 195 255
155 195 255
155 195 255
155 195 255
155 195 255
155 195 255
155 195 255
155 195 255
155 195 255
155 195 255
156 196 255
156 196 255
156 196 255
156 196 255
156 196 255
156 196 255
156 196 255
156 196 255
156 196 255
156 196 255
156 196 255
156 196 255
156 196 255
156 196 255
156 196 255
156 196 255
156 196 255
156 196 255
157 196 255
157 196 255
157 196 255
157 196 255
157 196 255
157 196 255
157 196 255
157 196 255
157 196 255
157 197 255
157 197 255
157 197 255
157 197 255
158 197 255
158 197 255
158 197 255
158 197 255
158 197 255
158 197 255
158 197 255
158 197 255
158 197 255
158 197 255
158 197 255
159 197 255
159 197 255
159 197 255
159 197 255
159 198 255
159 198 255
159 198 255
159 198 255
159 198 255
159 198 255
159 198 255
160 198 255
160 198 255
160 198 255
160 198 255
160 198 255
160 198 255
160 198 255
160 198 255
160 198 255
160 198 255
161 199 255
161 199 255
161 199 255
161 199 255
161 199 255
161 199 255
161 199 255
161 199 255
161 199 255
161 199 255
162 199 255
162 199 255
162 199 255
162 199 255
162 199 255
162 199 255
162 200 255
162 200 255
162 200 255
163 200 255
163 200 255
163 200 255
163 200 255
163 200 255
163 200 255
163 200 255
163 200 255
163 200 255
163 200 255
164 200 255
164 200 255
164 200 255
164 200 255
164 201 255
164 201 255
164 201 255
164 201 255
164 201 255
164 201 255
165 201 255
165 201 255
165 201 255
165 201 255
165 201 255
165 201 255
165 201 255
165 201 255
165 201 255
165 201 255
165 201 255
166 202 255
166 202 255
166 202 255
166 202 255
166 202 255
166 202 255
166 202 255
166 202 255
166 202 255
166 202 255
167 202 255
167 202 255
167 202 255
167 202 255
167 202 255
167 202 255
167 202 255
167 202 255
167 203 255
167 203 255
167 203 255
167 203 255
168 203 255
168 203 255
168 203 255
168 203 255
168 203 255
168 203 255
168 203 255
168 203 255
168 203 255
168 203 255
168 203 255
169 203 255
169 203 255
169 203 255
169 203 255
169 203 255
169 204 255
169 204 255
169 204 255
169 204 255
169 204 255
169 204 255
169 204 255
169 204 255
170 204 255
170 204 255
170 204 255
170 204 255
170 204 255
170 204 255
170 204 255
170 204 255
170 204 255
170 204 255
170 204 255
170 204 255
170 204 255
171 205 255
171 205 255
171 205 255
171 205 255
171 205 255
171 205 255
171 205 255
171 205 255
171 205 255
171 205 255
171 205 255
171 205 255
171 205 255
171 205 255
171 205 255
170 204 255
170 204 255
170 204 255
170 204 255
170 204 255
170 204 255
170 204 255
170 204 255
170 204 255
170 204 255
170 204 255
170 204 255
170 204 255
169 204 255
169 204 255
169 204 255
169 204 255
169 204 255
169 204 255
169 204 255
169 204 255
169 204 255
169 203 255
169 203 255
169 203 255
169 203 255
168 203 255
168 203 255
168 203 255
168 203 255
168 203 255
168 203 255
168 203 255
168 203 255
168 203 255
168 203 255
168 203 255
167 203 255
167 203 255
167 203 255
167 203 255
167 202 255
167 202 255
167 202 255
167 202 255
167 202 255
167 202 255
167 202 255
167 202 255
166 202 255
166 202 255
166 202 255
166 202 255
166 202 255
166 202 255
166 202 255
166 202 255
166 202 255
166 202 255
165 201 255
165 201 255
165 201 255
165 201 255
165 201 255
165 201 255
165 201 255
165 201 255
165 201 255
165 201 255
165 201 255
164 201 255
164 201 255
164 201 255
164 201 255
164 201 255
164 201 255
164 200 255
164 200 255
164 200 255
164 200 255
163 200 255
163 200 255
163 200 255
163 200 255
163 200 255
163 200 255
163 200 255
163 200 255
163 200 255
162 200 255
162 200 255
162 200 255
162 200 255
162 199 255
162 199 255
162 199 255
162 199 255
162 199 255
162 199 255
161 199 255
161 199 255
161 199 255
161 199 255
161 199 255
161 199 255
161 199 255
161 199 255
161 199 255
161 199 255
160 198 255
160 198 255
160 198 255
160 198 255
160 198 255
160 198 255
160 198 255
160 198 255
160 198 255
160 198 255
159 198 255
159 198 255
159 198 255
159 198 255
159 198 255
159 198 255
159 198 255
159 197 255
159 197 255
159 197 255
159 197 255
158 197 255
158 197 255
158 197 255
158 197 255
158 197 255
158 197 255
158 197 255
158 197 255
158 197 255
158 197 255
158 197 255
158 197 255
157 197 255
157 197 255
157 197 255
157 197 255
157 196 255
157 196 255
157 196 255
157 196 255
157 196 255
157 196 255
157 196 255
157 196 255
157 196 255
157 196 255
156 196 255
156 196 255
156 196 255
156 196 255
156 196 255
156 196 255
156 196 255
156 196 255
156 196 255
156 196 255
156 196 255
156 196 255
156 196 255
156 196 255
156 196 255
156 196 255
156 196 255
156 196 255
156 196 255
156 196 255
156 196 255
156 196 255
155 195 255
155 195 255
155 195 255
155 195 255
155 195 255
155 195 255
155 195 255
155 195 255
155 195 255
155 195 255
155 195 255
155 195 255
155 195 255
155 195 255
155 195 255
155 195 255
155 195 255
155 195 255
155 195 255
155 195 255
155 195 255
155 195 255
155 195 255
155 195 255
155 195 255
155 195 255
156 196 255
156 196 255
156 196 255
156 196 255
156 196 255
156 196 255
156 196 255
156 196 255
156 196 255
156 196 255
156 196 255
156 196 255
156 196 255
156 196 255
156 196 255
156 196 255
156 196 255
156 196 255
156 196 255
156 196 255
156 196 255
156 196 255
157 196 255
157 196 255
157 196 255
157 196 255
157 196 255
157 196 255
157 196 255
157 196 255
157 196 255
157 196 255
157 197 255
157 197 255
157 197 255
157 197 255
158 197 255
158 197 255
158 197 255
158 197 255
158 197 255
158 197 255
158 197 255
158 197 255
158 197 255
158 197 255
158 197 255
158 197 255
159 197 255
159 197 255
159 197 255
159 197 255
159 198 255
159 198 255
159 198 255
159 198 255
159 198 255
159 198 255
160 198 255
160 198 255
160 198 255
160 198 255
160 198 255
160 198 255
160 198 255
160 198 255
160 198 255
160 198 255
160 198 255
161 199 255
161 199 255
161 199 255
161 199 255
161 199 255
161 199 255
161 199 255
161 199 255
161 199 255
161 199 255
162 199 255
162 199 255
162 199 255
162 199 255
162 199 255
162 199 255
162 200 255
162 200 255
162 200 255
163 200 255
163 200 255
163 200 255
163 200 255
163 200 255
163 200 255
163 200 255
163 200 255
163 200 255
163 200 255
164 200 255
164 200 255
164 200 255
164 200 255
164 201 255
164 201 255
164 201 255
164 201 255
164 201 255
164 201 255
165 201 255
165 201 255
165 201 255
165 201 255
165 201 255
165 201 255
165 201 255
165 201 255
165 201 255
165 201 255
165 201 255
166 202 255
166 202 255
166 202 255
166 202 255
166 202 255
166 202 255
166 202 255
166 202 255
166 202 255
166 202 255
167 202 255
167 202 255
167 202 255
167 202 255
167 202 255
167 202 255
167 202 255
167 202 255
167 203 255
167 203 255
167 203 255
167 203 255
168 203 255
168 203 255
168 203 255
168 203 255
168 203 255
168 203 255
168 203 255
168 203 255
168 203 255
168 203 255
168 203 255
169 203 255
169 203 255
169 203 255
169 203 255
169 204 255
169 204 255
169 204 255
169 204 255
169 204 255
169 204 255
169 204 255
169 204 255
169 204 255
170 204 255
170 204 255
170 204 255
170 204 255
170 204 255
170 204 255
170 204 255
170 204 255
170 204 255
170 204 255
170 204 255
170 204 255
170 204 255
171 205 255
171 205 255
171 205 255
171 205 255
171 205 255
171 205 255
171 205 255
171 205 255
171 205 255
171 205 255
171 205 255
171 205 255
171 205 255
171 205 255
171 205 255
171 205 255
171 205 255
171 205 255
171 205 255
171 205 255
171 205 255
170 204 255
170 204 255
170 204 255
170 204 255
170 204 255
170 204 255
170 204 255
170 204 255
170 204 255
170 204 255
170 204 255
170 204 255
170 204 255
169 204 255
169 204 255
169 204 255
169 204 255
169 204 255
169 204 255
169 204 255
169 204 255
169 204 255
169 203 255
169 203 255
169 203 255
169 203 255
168 203 255
168 203 255
168 203 255
168 203 255
168 203 255
168 203 255
168 203 255
168 203 255
168 203 255
168 203 255
168 203 255
168 203 255
167 203 255
167 203 255
167 203 255
167 202 255
167 202 255
167 202 255
167 202 255
167 202 255
167 202 255
167 202 255
167 202 255
166 202 255
166 202 255
166 202 255
166 202 255
166 202 255
166 202 255
166 202 255
166 202 255
166 202 255
166 202 255
165 201 255
165 201 255
165 201 255
165 201 255
165 201 255
165 201 255
165 201 255
165 201 255
165 201 255
165 201 255
165 201 255
164 201 255
164 201 255
164 201 255
164 201 255
164 201 255
164 201 255
164 200 255
164 200 255
164 200 255
164 200 255
163 200 255
163 200 255
163 200 255
163 200 255
163 200 255
163 200 255
163 200 255
163 200 255
163 200 255
162 200 255
162 200 255
162 200 255
162 200 255
162 199 255
162 199 255
162 199 255
162 199 255
162 199 255
162 199 255
161 199 255
161 199 255
161 199 255
161 199 255
161 199 255
161 199 255
161 199 255
161 199 255
161 199 255
161 199 255
160 198 255
160 198 255
160 198 255
160 198 255
160 198 255
160 198 255
160 198 255
160 198 255
160 198 255
160 198 255
160 198 255
159 198 255
159 198 255
159 198 255
159 198 255
159 198 255
159 198 255
159 198 255
159 197 255
159 197 255
159 197 255
159 197 255
158 197 255
158 197 255
158 197 255
158 197 255
158 197 255
158 197 255
158 197 255
158 197 255
158 197 255
158 197 255
158 197 255
158 197 255
157 197 255
157 197 255
157 197 255
157 197 255
157 197 255
157 196 255
157 196 255
157 196 255
157 196 255
157 196 255
157 196 255
157 196 255
157 196 255
157 196 255
157 196 255
156 196 255
156 196 255
156 196 255
156 196 255
156 196 255
156 196 255
156 196 255
156 196 255
156 196 255
156 196 255
156 196 255
156 196 255
156 196 255
156 196 255
156 196 255
156 196 255
156 196 255
156 196 255
156 196 255
156 196 255
156 196 255
156 196 255
156 196 255
156 196 255
156 196 255
156 196 255
156 196 255
156 196 255
156 196 255
156 196 255
156 196 255
156 196 255
156 196 255
156 196 255
156 196 255
156 196 255
156 196 255
156 196 255
156 196 255
156 196 255
156 196 255
156 196 255
156 196 255
156 196 255
156 196 255
156 196 255
156 196 255
156 196 255
156 196 255
156 196 255
156 196 255
156 196 255
156 196 255
156 196 255
156 196 255
156 196 255
156 196 255
156 196 255
156 196 255
157 196 255
157 196 255
157 196 255
157 196 255
157 196 255
157 196 255
157 196 255
157 196 255
157 196 255
157 196 255
157 196 255
157 196 255
157 197 255
157 197 255
157 197 255
157 197 255
158 197 255
158 197 255
158 197 255
158 197 255
158 197 255
158 197 255
158 197 255
158 197 255
158 197 255
158 197 255
158 197 255
158 197 255
159 197 255
159 197 255
159 197 255
159 197 255
159 198 255
159 198 255
159 198 255
159 198 255
159 198 255
159 198 255
159 198 255
160 198 255
160 198 255
160 198 255
160 198 255
160 198 255
160 198 255
160 198 255
160 198 255
160 198 255
160 198 255
160 198 255
161 199 255
161 199 255
161 199 255
161 199 255
161 199 255
161 199 255
161 199 255
161 199 255
161 199 255
161 199 255
162 199 255
162 199 255
162 199 255
162 199 255
162 199 255
162 199 255
162 200 255
162 200 255
162 200 255
163 200 255
163 200 255
163 200 255
163 200 255
163 200 255
163 200 255
163 200 255
163 200 255
163 200 255
163 200 255
164 200 255
164 200 255
164 200 255
164 200 255
164 201 255
164 201 255
164 201 255
164 201 255
164 201 255
164 201 255
165 201 255
165 201 255
165 201 255
165 201 255
165 201 255
165 201 255
165 201 255
165 201 255
165 201 255
165 201 255
165 201 255
166 202 255
166 202 255
166 202 255
166 202 255
166 202 255
166 202 255
166 202 255
166 202 255
166 202 255
166 202 255
167 202 255
167 202 255
167 202 255
167 202 255
167 202 255
167 202 255
167 202 255
167 202 255
167 203 255
167 203 255
167 203 255
167 203 255
168 203 255
168 203 255
168 203 255
168 203 255
168 203 255
168 203 255
168 203 255
168 203 255
168 203 255
168 203 255
168 203 255
169 203 255
169 203 255
169 203 255
169 203 255
169 204 255
169 204 255
169 204 255
169 204 255
169 204 255
169 204 255
169 204 255
169 204 255
169 204 255
170 204 255
170 204 255
170 204 255
170 204 255
170 204 255
170 204 255
170 204 255
170 204 255
170 204 255
170 204 255
170 204 255
170 204 255
170 204 255
171 205 255
171 205 255
171 205 255
171 205 255
171 205 255
171 205 255
171 205 255
171 205 255
171 205 255
171 205 255
171 205 255
171 205 255
172 205 255
172 205 255
171 205 255
171 205 255
171 205 255
171 205 255
171 205 255
171 205 255
171 205 255
171 205 255
171 205 255
171 205 255
171 205 255
171 205 255
171 205 255
171 205 255
170 204 255
170 204 255
170 204 255
170 204 255
170 204 255
170 204 255
170 204 255
170 204 255
170 204 255
170 204 255
170 204 255
170 204 255
170 204 255
169 204 255
169 204 255
169 204 255
169 204 255
169 204 255
169 204 255
169 204 255
169 204 255
169 203 255
169 203 255
169 203 255
169 203 255
168 203 255
168 203 255
168 203 255
168 203 255
168 203 255
168 203 255
168 203 255
168 203 255
168 203 255
168 203 255
168 203 255
168 203 255
167 203 255
167 203 255
167 203 255
167 202 255
167 202 255
167 202 255
167 202 255
167 202 255
167 202 255
167 202 255
167 202 255
166 202 255
166 202 255
166 202 255
166 202 255
166 202 255
166 202 255
166 202 255
166 202 255
166 202 255
166 202 255
165 201 255
165 201 255
165 201 255
165 201 255
165 201 255
165 201 255
165 201 255
165 201 255
165 201 255
165 201 255
165 201 255
164 201 255
164 201 255
164 201 255
164 201 255
164 201 255
164 201 255
164 200 255
164 200 255
164 200 255
164 200 255
163 200 255
163 200 255
163 200 255
163 200 255
163 200 255
163 200 255
163 200 255
163 200 255
163 200 255
163 200 255
162 200 255
162 200 255
162 200 255
162 199 255
162 199 255
162 199 255
162 199 255
162 199 255
162 199 255
161 199 255
161 199 255
161 199 255
161 199 255
161 199 255
161 199 255
161 199 255
161 199 255
161 199 255
161 199 255
161 199 255
160 198 255
160 198 255
160 198 255
160 198 255
160 198 255
160 198 255
160 198 255
160 198 255
160 198 255
160 198 255
159 198 255
159 198 255
159 198 255
159 198 255
159 198 255
159 198 255
159 198 255
159 197 255
159 197 255
159 197 255
159 197 255
158 197 255
158 197 255
158 197 255
158 197 255
158 197 255
158 197 255
158 197 255
158 197 255
158 197 255
158 197 255
158 197 255
158 197 255
158 197 255
158 197 255
157 197 255
157 197 255
157 197 255
157 197 255
157 196 255
157 196 255
157 196 255
157 196 255
157 196 255
157 196 255
157 196 255
157 196 255
157 196 255
157 196 255
157 196 255
157 196 255
157 196 255
156 196 255
156 196 255
156 196 255
156 196 255
156 196 255
156 196 255
156 196 255
156 196 255
156 196 255
156 196 255
156 196 255
156 196 255
156 196 255
156 196 255
156 196 255
156 196 255
156 196 255
156 196 255
156 196 255
156 196 255
156 196 255
156 196 255
156 196 255
156 196 255
156 196 255
156 196 255
156 196 255
156 196 255
156 196 255
156 196 255
156 196 255
156 196 255
156 196 255
156 196 255
156 196 255
156 196 255
156 196 255
156 196 255
156 196 255
156 196 255
156 196 255
156 196 255
156 196 255
156 196 255
156 196 255
156 196 255
157 196 255
157 196 255
157 196 255
157 196 255
157 196 255
157 196 255
157 196 255
157 196 255
157 196 255
157 196 255
157 196 255
157 196 255
157 196 255
157 197 255
157 197 255
157 197 255
157 197 255
157 197 255
158 197 255
158 197 255
158 197 255
158 197 255
158 197 255
158 197 255
158 197 255
158 197 255
158 197 255
158 197 255
158 197 255
158 197 255
159 197 255
159 197 255
159 197 255
159 197 255
159 197 255
159 198 255
159 198 255
159 198 255
159 198 255
159 198 255
159 198 255
159 198 255
160 198 255
160 198 255
160 198 255
160 198 255
160 198 255
160 198 255
160 198 255
160 198 255
160 198 255
160 198 255
160 198 255
161 199 255
161 199 255
161 199 255
161 199 255
161 199 255
161 199 255
161 199 255
161 199 255
161 199 255
161 199 255
162 199 255
162 199 255
162 199 255
162 199 255
162 199 255
162 199 255
162 200 255
162 200 255
162 200 255
163 200 255
163 200 255
163 200 255
163 200 255
163 200 255
163 200 255
163 200 255
163 200 255
163 200 255
163 200 255
164 200 255
164 200 255
164 200 255
164 200 255
164 201 255
164 201 255
164 201 255
164 201 255
164 201 255
164 201 255
165 201 255
165 201 255
165 201 255
165 201 255
165 201 255
165 201 255
165 201 255
165 201 255
165 201 255
165 201 255
165 201 255
166 202 255
166 202 255
166 202 255
166 202 255
166 202 255
166 202 255
166 202 255
166 202 255
166 202 255
166 202 255
167 202 255
167 202 255
167 202 255
167 202 255
167 202 255
167 202 255
167 202 255
167 202 255
167 203 255
167 203 255
167 203 255
168 203 255
168 203 255
168 203 255
168 203 255
168 203 255
168 203 255
168 203 255
168 203 255
168 203 255
168 203 255
168 203 255
168 203 255
169 203 255
169 203 255
169 203 255
169 203 255
169 204 255
169 204 255
169 204 255
169 204 255
169 204 255
169 204 255
169 204 255
169 204 255
170 204 255
170 204 255
170 204 255
170 204 255
170 204 255
170 204 255
170 204 255
170 204 255
170 204 255
170 204 255
170 204 255
170 204 255
170 204 255
171 205 255
171 205 255
171 205 255
171 205 255
171 205 255
171 205 255
171 205 255
171 205 255
171 205 255
171 205 255
171 205 255
171 205 255
171 205 255
171 205 255
172 205 255
172 205 255
172 205 255
172 205 255
172 205 255
172 205 255
172 205 255
171 205 255
171 205 255
171 205 255
171 205 255
171 205 255
171 205 255
171 205 255
171 205 255
171 205 255
171 205 255
171 205 255
171 205 255
171 205 255
171 205 255
170 204 255
170 204 255
170 204 255
170 204 255
170 204 255
170 204 255
170 204 255
170 204 255
170 204 255
170 204 255
170 204 255
170 204 255
170 204 255
169 204 255
169 204 255
169 204 255
169 204 255
169 204 255
169 204 255
169 204 255
169 204 255
169 203 255
169 203 255
169 203 255
169 203 255
168 203 255
168 203 255
168 203 255
168 203 255
168 203 255
168 203 255
168 203 255
168 203 255
168 203 255
168 203 255
168 203 255
168 203 255
167 203 255
167 203 255
167 203 255
167 202 255
167 202 255
167 202 255
167 202 255
167 202 255
167 202 255
167 202 255
167 202 255
166 202 255
166 202 255
166 202 255
166 202 255
166 202 255
166 202 255
166 202 255
166 202 255
166 202 255
166 202 255
165 201 255
165 201 255
165 201 255
165 201 255
165 201 255
165 201 255
165 201 255
165 201 255
165 201 255
165 201 255
165 201 255
164 201 255
164 201 255
164 201 255
164 201 255
164 201 255
164 201 255
164 200 255
164 200 255
164 200 255
164 200 255
163 200 255
163 200 255
163 200 255
163 200 255
163 200 255
163 200 255
163 200 255
163 200 255
163 200 255
163 200 255
162 200 255
162 200 255
162 200 255
162 199 255
162 199 255
162 199 255
162 199 255
162 199 255
162 199 255
161 199 255
161 199 255
161 199 255
161 199 255
161 199 255
161 199 255
161 199 255
161 199 255
161 199 255
161 199 255
161 199 255
160 198 255
160 198 255
160 198 255
160 198 255
160 198 255
160 198 255
160 198 255
160 198 255
160 198 255
160 198 255
160 198 255
159 198 255
159 198 255
159 198 255
159 198 255
159 198 255
159 198 255
159 198 255
159 197 255
159 197 255
159 197 255
159 197 255
158 197 255
158 197 255
158 197 255
158 197 255
158 197 255
158 197 255
158 197 255
158 197 255
158 197 255
158 197 255
158 197 255
158 197 255
158 197 255
158 197 255
157 197 255
157 197 255
157 197 255
157 197 255
157 197 255
157 197 255
157 196 255
157 196 255
157 196 255
157 196 255
157 196 255
157 196 255
157 196 255
157 196 255
157 196 255
157 196 255
157 196 255
157 196 255
157 196 255
157 196 255
157 196 255
157 196 255
157 196 255
156 196 255
156 196 255
156 196 255
156 196 255
156 196 255
156 196 255
156 196 255
156 196 255
156 196 255
156 196 255
156 196 255
156 196 255
156 196 255
156 196 255
156 196 255
156 196 255
156 196 255
156 196 255
156 196 255
156 196 255
156 196 255
156 196 255
156 196 255
156 196 255
156 196 255
156 196 255
157 196 255
157 196 255
157 196 255
157 196 255
157 196 255
157 196 255
157 196 255
157 196 255
157 196 255
157 196 255
157 196 255
157 196 255
157 196 255
157 196 255
157 196 255
157 196 255
157 196 255
157 197 255
157 197 255
157 197 255
157 197 255
157 197 255
157 197 255
158 197 255
158 197 255
158 197 255
158 197 255
158 197 255
158 197 255
158 197 255
158 197 255
158 197 255
158 197 255
158 197 255
158 197 255
158 197 255
159 197 255
159 197 255
159 197 255
159 197 255
159 197 255
159 198 255
159 198 255
159 198 255
159 198 255
159 198 255
159 198 255
159 198 255
159 198 255
160 198 255
160 198 255
160 198 255
160 198 255
160 198 255
160 198 255
160 198 255
160 198 255
160 198 255
160 198 255
161 199 255
161 199 255
161 199 255
161 199 255
161 199 255
161 199 255
161 199 255
161 199 255
161 199 255
161 199 255
162 199 255
162 199 255
162 199 255
162 199 255
162 199 255
162 199 255
162 199 255
162 200 255
162 200 255
162 200 255
163 200 255
163 200 255
163 200 255
163 200 255
163 200 255
163 200 255
163 200 255
163 200 255
163 200 255
163 200 255
164 200 255
164 200 255
164 200 255
164 200 255
164 201 255
164 201 255
164 201 255
164 201 255
164 201 255
164 201 255
165 201 255
165 201 255
165 201 255
165 201 255
165 201 255
165 201 255
165 201 255
165 201 255
165 201 255
165 201 255
165 201 255
166 202 255
166 202 255
166 202 255
166 202 255
166 202 255
166 202 255
166 202 255
166 202 255
166 202 255
166 202 255
167 202 255
167 202 255
167 202 255
167 202 255
167 202 255
167 202 255
167 202 255
167 203 255
167 203 255
167 203 255
167 203 255
168 203 255
168 203 255
168 203 255
168 203 255
168 203 255
168 203 255
168 203 255
168 203 255
168 203 255
168 203 255
168 203 255
168 203 255
169 203 255
169 203 255
169 203 255
169 203 255
169 204 255
169 204 255
169 204 255
169 204 255
169 204 255
169 204 255
169 204 255
169 204 255
170 204 255
170 204 255
170 204 255
170 204 255
170 204 255
170 204 255
170 204 255
170 204 255
170 204 255
170 204 255
170 204 255
170 204 255
170 204 255
171 205 255
171 205 255
171 205 255
171 205 255
171 205 255
171 205 255
171 205 255
171 205 255
171 205 255
171 205 255
171 205 255
171 205 255
171 205 255
171 205 255
172 205 255
172 205 255
172 205 255
172 205 255
172 205 255
172 205 255
172 205 255
172 205 255
172 205 255
172 205 255
172 205 255
172 205 255
172 205 255
172 205 255
171 205 255
171 205 255
171 205 255
171 205 255
171 205 255
171 205 255
171 205 255
171 205 255
171 205 255
171 205 255
171 205 255
171 205 255
171 205 255
170 204 255
170 204 255
170 204 255
170 204 255
170 204 255
170 204 255
170 204 255
170 204 255
170 204 255
170 204 255
170 204 255
170 204 255
170 204 255
169 204 255
169 204 255
169 204 255
169 204 255
169 204 255
169 204 255
169 204 255
169 204 255
169 203 255
169 203 255
169 203 255
169 203 255
168 203 255
168 203 255
168 203 255
168 203 255
168 203 255
168 203 255
168 203 255
168 203 255
168 203 255
168 203 255
168 203 255
168 203 255
167 203 255
167 203 255
167 203 255
167 203 255
167 202 255
167 202 255
167 202 255
167 202 255
167 202 255
167 202 255
167 202 255
166 202 255
166 202 255
166 202 255
166 202 255
166 202 255
166 202 255
166 202 255
166 202 255
166 202 255
166 202 255
165 201 255
165 201 255
165 201 255
165 201 255
165 201 255
165 201 255
165 201 255
165 201 255
165 201 255
165 201 255
165 201 255
164 201 255
164 201 255
164 201 255
164 201 255
164 201 255
164 201 255
164 200 255
164 200 255
164 200 255
164 200 255
163 200 255
163 200 255
163 200 255
163 200 255
163 200 255
163 200 255
163 200 255
163 200 255
163 200 255
163 200 255
162 200 255
162 200 255
162 200 255
162 199 255
162 199 255
162 199 255
162 199 255
162 199 255
162 199 255
162 199 255
161 199 255
161 199 255
161 199 255
161 199 255
161 199 255
161 199 255
161 199 255
161 199 255
161 199 255
161 199 255
160 198 255
160 198 255
160 198 255
160 198 255
160 198 255
160 198 255
160 198 255
160 198 255
160 198 255
160 198 255
160 198 255
159 198 255
159 198 255
159 198 255
159 198 255
159 198 255
159 198 255
159 198 255
159 198 255
159 198 255
159 197 255
159 197 255
159 197 255
158 197 255
158 197 255
158 197 255
158 197 255
158 197 255
158 197 255
158 197 255
158 197 255
158 197 255
158 197 255
158 197 255
158 197 255
158 197 255
158 197 255
158 197 255
158 197 255
157 197 255
157 197 255
157 197 255
157 197 255
157 197 255
157 197 255
157 197 255
157 196 255
157 196 255
157 196 255
157 196 255
157 196 255
157 196 255
157 196 255
157 196 255
157 196 255
157 196 255
157 196 255
157 196 255
157 196 255
157 196 255
157 196 255
157 196 255
157 196 255
157 196 255
157 196 255
157 196 255
157 196 255
157 196 255
157 196 255
157 196 255
157 196 255
157 196 255
157 196 255
157 196 255
157 196 255
157 196 255
157 196 255
157 196 255
157 196 255
157 196 255
157 196 255
157 196 255
157 196 255
157 196 255
157 196 255
157 196 255
157 196 255
157 196 255
157 196 255
157 196 255
157 196 255
157 196 255
157 197 255
157 197 255
157 197 255
157 197 255
157 197 255
157 197 255
157 197 255
158 197 255
158 197 255
158 197 255
158 197 255
158 197 255
158 197 255
158 197 255
158 197 255
158 197 255
158 197 255
158 197 255
158 197 255
158 197 255
158 197 255
158 197 255
159 197 255
159 197 255
159 197 255
159 197 255
159 197 255
159 198 255
159 198 255
159 198 255
159 198 255
159 198 255
159 198 255
159 198 255
159 198 255
160 198 255
160 198 255
160 198 255
160 198 255
160 198 255
160 198 255
160 198 255
160 198 255
160 198 255
160 198 255
160 198 255
161 199 255
161 199 255
161 199 255
161 199 255
161 199 255
161 199 255
161 199 255
161 199 255
161 199 255
161 199 255
162 199 255
162 199 255
162 199 255
162 199 255
162 199 255
162 199 255
162 199 255
162 200 255
162 200 255
162 200 255
163 200 255
163 200 255
163 200 255
163 200 255
163 200 255
163 200 255
163 200 255
163 200 255
163 200 255
163 200 255
164 200 255
164 200 255
164 200 255
164 200 255
164 201 255
164 201 255
164 201 255
164 201 255
164 201 255
164 201 255
165 201 255
165 201 255
165 201 255
165 201 255
165 201 255
165 201 255
165 201 255
165 201 255
165 201 255
165 201 255
165 201 255
166 202 255
166 202 255
166 202 255
166 202 255
166 202 255
166 202 255
166 202 255
166 202 255
166 202 255
166 202 255
167 202 255
167 202 255
167 202 255
167 202 255
167 202 255
167 202 255
167 202 255
167 203 255
167 203 255
167 203 255
167 203 255
168 203 255
168 203 255
168 203 255
168 203 255
168 203 255
168 203 255
168 203 255
168 203 255
168 203 255
168 203 255
168 203 255
168 203 255
169 203 255
169 203 255
169 203 255
169 203 255
169 204 255
169 204 255
169 204 255
169 204 255
169 204 255
169 204 255
169 204 255
169 204 255
170 204 255
170 204 255
170 204 255
170 204 255
170 204 255
170 204 255
170 204 255
170 204 255
170 204 255
170 204 255
170 204 255
170 204 255
170 204 255
171 205 255
171 205 255
171 205 255
171 205 255
171 205 255
171 205 255
171 205 255
171 205 255
171 205 255
171 205 255
171 205 255
171 205 255
171 205 255
172 205 255
172 205 255
172 205 255
172 205 255
172 205 255
172 205 255
172 205 255
172 205 255
172 205 255
172 206 255
172 206 255
172 206 255
172 205 255
172 205 255
172 205 255
172 205 255
172 205 255
172 205 255
172 205 255
172 205 255
172 205 255
171 205 255
171 205 255
171 205 255
171 205 255
171 205 255
171 205 255
171 205 255
171 205 255
171 205 255
171 205 255
171 205 255
171 205 255
171 205 255
171 205 255
170 204 255
170 204 255
170 204 255
170 204 255
170 204 255
170 204 255
170 204 255
170 204 255
170 204 255
170 204 255
170 204 255
170 204 255
170 204 255
169 204 255
169 204 255
169 204 255
169 204 255
169 204 255
169 204 255
169 204 255
169 204 255
169 203 255
169 203 255
169 203 255
169 203 255
168 203 255
168 203 255
168 203 255
168 203 255
168 203 255
168 203 255
168 203 255
168 203 255
168 203 255
168 203 255
168 203 255
167 203 255
167 203 255
167 203 255
167 203 255
167 202 255
167 202 255
167 202 255
167 202 255
167 202 255
167 202 255
167 202 255
166 202 255
166 202 255
166 202 255
166 202 255
166 202 255
166 202 255
166 202 255
166 202 255
166 202 255
166 202 255
165 201 255
165 201 255
165 201 255
165 201 255
165 201 255
165 201 255
165 201 255
165 201 255
165 201 255
165 201 255
165 201 255
164 201 255
164 201 255
164 201 255
164 201 255
164 201 255
164 201 255
164 200 255
164 200 255
164 200 255
164 200 255
163 200 255
163 200 255
163 200 255
163 200 255
163 200 255
163 200 255
163 200 255
163 200 255
163 200 255
163 200 255
162 200 255
162 200 255
162 200 255
162 199 255
162 199 255
162 199 255
162 199 255
162 199 255
162 199 255
162 199 255
161 199 255
161 199 255
161 199 255
161 199 255
161 199 255
161 199 255
161 199 255
161 199 255
161 199 255
161 199 255
161 199 255
160 198 255
160 198 255
160 198 255
160 198 255
160 198 255
160 198 255
160 198 255
160 198 255
160 198 255
160 198 255
160 198 255
159 198 255
159 198 255
159 198 255
159 198 255
159 198 255
159 198 255
159 198 255
159 198 255
159 198 255
159 197 255
159 197 255
159 197 255
159 197 255
158 197 255
158 197 255
158 197 255
158 197 255
158 197 255
158 197 255
158 197 255
158 197 255
158 197 255
158 197 255
158 197 255
158 197 255
158 197 255
158 197 255
158 197 255
158 197 255
158 197 255
158 197 255
157 197 255
157 197 255
157 197 255
157 197 255
157 197 255
157 197 255
157 197 255
157 197 255
157 197 255
157 197 255
157 196 255
157 196 255
157 196 255
157 196 255
157 196 255
157 196 255
157 196 255
157 196 255
157 196 255
157 196 255
157 196 255
157 196 255
157 196 255
157 196 255
157 196 255
157 196 255
157 196 255
157 196 255
157 196 255
157 196 255
157 196 255
157 196 255
157 196 255
157 196 255
157 196 255
157 196 255
157 197 255
157 197 255
157 197 255
157 197 255
157 197 255
157 197 255
157 197 255
157 197 255
157 197 255
157 197 255
158 197 255
158 197 255
158 197 255
158 197 255
158 197 255
158 197 255
158 197 255
158 197 255
158 197 255
158 197 255
158 197 255
158 197 255
158 197 255
158 197 255
158 197 255
158 197 255
158 197 255
158 197 255
159 197 255
159 197 255
159 197 255
159 197 255
159 198 255
159 198 255
159 198 255
159 198 255
159 198 255
159 198 255
159 198 255
159 198 255
159 198 255
160 198 255
160 198 255
160 198 255
160 198 255
160 198 255
160 198 255
160 198 255
160 198 255
160 198 255
160 198 255
160 198 255
161 199 255
161 199 255
161 199 255
161 199 255
161 199 255
161 199 255
161 199 255
161 199 255
161 199 255
161 199 255
161 199 255
162 199 255
162 199 255
162 199 255
162 199 255
162 199 255
162 199 255
162 200 255
162 200 255
162 200 255
162 200 255
163 200 255
163 200 255
163 200 255
163 200 255
163 200 255
163 200 255
163 200 255
163 200 255
163 200 255
163 200 255
164 200 255
164 200 255
164 200 255
164 200 255
164 201 255
164 201 255
164 201 255
164 201 255
164 201 255
164 201 255
165 201 255
165 201 255
165 201 255
165 201 255
165 201 255
165 201 255
165 201 255
165 201 255
165 201 255
165 201 255
165 201 255
166 202 255
166 202 255
166 202 255
166 202 255
166 202 255
166 202 255
166 202 255
166 202 255
166 202 255
166 202 255
167 202 255
167 202 255
167 202 255
167 202 255
167 202 255
167 202 255
167 202 255
167 203 255
167 203 255
167 203 255
167 203 255
168 203 255
168 203 255
168 203 255
168 203 255
168 203 255
168 203 255
168 203 255
168 203 255
168 203 255
168 203 255
168 203 255
169 203 255
169 203 255
169 203 255
169 203 255
169 204 255
169 204 255
169 204 255
169 204 255
169 204 255
169 204 255
169 204 255
169 204 255
170 204 255
170 204 255
170 204 255
170 204 255
170 204 255
170 204 255
170 204 255
170 204 255
170 204 255
170 204 255
170 204 255
170 204 255
170 204 255
171 205 255
171 205 255
171 205 255
171 205 255
171 205 255
171 205 255
171 205 255
171 205 255
171 205 255
171 205 255
171 205 255
171 205 255
171 205 255
171 205 255
172 205 255
172 205 255
172 205 255
172 205 255
172 205 255
172 205 255
172 205 255
172 205 255
172 205 255
172 206 255
172 206 255
172 206 255
173 206 255
172 206 255
172 206 255
172 206 255
172 206 255
172 206 255
172 205 255
172 205 255
172 205 255
172 205 255
172 205 255
172 205 255
172 205 255
172 205 255
172 205 255
172 205 255
171 205 255
171 205 255
171 205 255
171 205 255
171 205 255
171 205 255
171 205 255
171 205 255
171 205 255
171 205 255
171 205 255
171 205 255
171 205 255
170 204 255
170 204 255
170 204 255
170 204 255
170 204 255
170 204 255
170 204 255
170 204 255
170 204 255
170 204 255
170 204 255
170 204 255
170 204 255
169 204 255
169 204 255
169 204 255
169 204 255
169 204 255
169 204 255
169 204 255
169 204 255
169 203 255
169 203 255
169 203 255
169 203 255
168 203 255
168 203 255
168 203 255
168 203 255
168 203 255
168 203 255
168 203 255
168 203 255
168 203 255
168 203 255
168 203 255
167 203 255
167 203 255
167 203 255
167 203 255
167 202 255
167 202 255
167 202 255
167 202 255
167 202 255
167 202 255
167 202 255
166 202 255
166 202 255
166 202 255
166 202 255
166 202 255
166 202 255
166 202 255
166 202 255
166 202 255
166 202 255
166 202 255
165 201 255
165 201 255
165 201 255
165 201 255
165 201 255
165 201 255
165 201 255
165 201 255
165 201 255
165 201 255
164 201 255
164 201 255
164 201 255
164 201 255
164 201 255
164 201 255
164 201 255
164 200 255
164 200 255
164 200 255
163 200 255
163 200 255
163 200 255
163 200 255
163 200 255
163 200 255
163 200 255
163 200 255
163 200 255
163 200 255
162 200 255
162 200 255
162 200 255
162 200 255
162 199 255
162 199 255
162 199 255
162 199 255
162 199 255
162 199 255
162 199 255
161 199 255
161 199 255
161 199 255
161 199 255
161 199 255
161 199 255
161 199 255
161 199 255
161 199 255
161 199 255
161 199 255
160 198 255
160 198 255
160 198 255
160 198 255
160 198 255
160 198 255
160 198 255
160 198 255
160 198 255
160 198 255
160 198 255
160 198 255
159 198 255
159 198 255
159 198 255
159 198 255
159 198 255
159 198 255
159 198 255
159 198 255
159 197 255
159 197 255
159 197 255
159 197 255
159 197 255
158 197 255
158 197 255
158 197 255
158 197 255
158 197 255
158 197 255
158 197 255
158 197 255
158 197 255
158 197 255
158 197 255
158 197 255
158 197 255
158 197 255
158 197 255
158 197 255
158 197 255
158 197 255
158 197 255
158 197 255
158 197 255
158 197 255
158 197 255
157 197 255
157 197 255
157 197 255
157 197 255
157 197 255
157 197 255
157 197 255
157 197 255
157 197 255
157 197 255
157 197 255
157 197 255
157 197 255
157 197 255
157 197 255
157 197 255
157 197 255
157 197 255
157 197 255
157 197 255
157 197 255
157 197 255
157 197 255
157 197 255
157 197 255
158 197 255
158 197 255
158 197 255
158 197 255
158 197 255
158 197 255
158 197 255
158 197 255
158 197 255
158 197 255
158 197 255
158 197 255
158 197 255
158 197 255
158 197 255
158 197 255
158 197 255
158 197 255
158 197 255
158 197 255
158 197 255
158 197 255
158 197 255
159 197 255
159 197 255
159 197 255
159 197 255
159 197 255
159 197 255
159 198 255
159 198 255
159 198 255
159 198 255
159 198 255
159 198 255
159 198 255
159 198 255
160 198 255
160 198 255
160 198 255
160 198 255
160 198 255
160 198 255
160 198 255
160 198 255
160 198 255
160 198 255
160 198 255
160 198 255
161 199 255
161 199 255
161 199 255
161 199 255
161 199 255
161 199 255
161 199 255
161 199 255
161 199 255
161 199 255
161 199 255
162 199 255
162 199 255
162 199 255
162 199 255
162 199 255
162 199 255
162 199 255
162 200 255
162 200 255
162 200 255
162 200 255
163 200 255
163 200 255
163 200 255
163 200 255
163 200 255
163 200 255
163 200 255
163 200 255
163 200 255
163 200 255
164 200 255
164 200 255
164 200 255
164 201 255
164 201 255
164 201 255
164 201 255
164 201 255
164 201 255
164 201 255
165 201 255
165 201 255
165 201 255
165 201 255
165 201 255
165 201 255
165 201 255
165 201 255
165 201 255
165 201 255
166 202 255
166 202 255
166 202 255
166 202 255
166 202 255
166 202 255
166 202 255
166 202 255
166 202 255
166 202 255
166 202 255
167 202 255
167 202 255
167 202 255
167 202 255
167 202 255
167 202 255
167 202 255
167 203 255
167 203 255
167 203 255
167 203 255
168 203 255
168 203 255
168 203 255
168 203 255
168 203 255
168 203 255
168 203 255
168 203 255
168 203 255
168 203 255
168 203 255
169 203 255
169 203 255
169 203 255
169 203 255
169 204 255
169 204 255
169 204 255
169 204 255
169 204 255
169 204 255
169 204 255
169 204 255
170 204 255
170 204 255
170 204 255
170 204 255
170 204 255
170 204 255
170 204 255
170 204 255
170 204 255
170 204 255
170 204 255
170 204 255
170 204 255
171 205 255
171 205 255
171 205 255
171 205 255
171 205 255
171 205 255
171 205 255
171 205 255
171 205 255
171 205 255
171 205 255
171 205 255
171 205 255
172 205 255
172 205 255
172 205 255
172 205 255
172 205 255
172 205 255
172 205 255
172 205 255
172 205 255
172 205 255
172 206 255
172 206 255
172 206 255
172 206 255
172 206 255
173 206 255
173 206 255
173 206 255
173 206 255
173 206 255
173 206 255
172 206 255
172 206 255
172 206 255
172 206 255
172 206 255
172 205 255
172 205 255
172 205 255
172 205 255
172 205 255
172 205 255
172 205 255
172 205 255
172 205 255
171 205 255
171 205 255
171 205 255
171 205 255
171 205 255
171 205 255
171 205 255
171 205 255
171 205 255
171 205 255
171 205 255
171 205 255
171 205 255
171 205 255
170 204 255
170 204 255
170 204 255
170 204 255
170 204 255
170 204 255
170 204 255
170 204 255
170 204 255
170 204 255
170 204 255
170 204 255
169 204 255
169 204 255
169 204 255
169 204 255
169 204 255
169 204 255
169 204 255
169 204 255
169 203 255
169 203 255
169 203 255
169 203 255
168 203 255
168 203 255
168 203 255
168 203 255
168 203 255
168 203 255
168 203 255
168 203 255
168 203 255
168 203 255
168 203 255
168 203 255
167 203 255
167 203 255
167 203 255
167 202 255
167 202 255
167 202 255
167 202 255
167 202 255
167 202 255
167 202 255
166 202 255
166 202 255
166 202 255
166 202 255
166 202 255
166 202 255
166 202 255
166 202 255
166 202 255
166 202 255
166 202 255
165 201 255
165 201 255
165 201 255
165 201 255
165 201 255
165 201 255
165 201 255
165 201 255
165 201 255
165 201 255
164 201 255
164 201 255
164 201 255
164 201 255
164 201 255
164 201 255
164 201 255
164 200 255
164 200 255
164 200 255
163 200 255
163 200 255
163 200 255
163 200 255
163 200 255
163 200 255
163 200 255
163 200 255
163 200 255
163 200 255
163 200 255
162 200 255
162 200 255
162 200 255
162 199 255
162 199 255
162 199 255
162 199 255
162 199 255
162 199 255
162 199 255
161 199 255
161 199 255
161 199 255
161 199 255
161 199 255
161 199 255
161 199 255
161 199 255
161 199 255
161 199 255
161 199 255
160 198 255
160 198 255
160 198 255
160 198 255
160 198 255
160 198 255
160 198 255
160 198 255
160 198 255
160 198 255
160 198 255
160 198 255
160 198 255
159 198 255
159 198 255
159 198 255
159 198 255
159 198 255
159 198 255
159 198 255
159 198 255
159 198 255
159 198 255
159 197 255
159 197 255
159 197 255
159 197 255
159 197 255
159 197 255
158 197 255
158 197 255
158 197 255
158 197 255
158 197 255
158 197 255
158 197 255
158 197 255
158 197 255
158 197 255
158 197 255
158 197 255
158 197 255
158 197 255
158 197 255
158 197 255
158 197 255
158 197 255
158 197 255
158 197 255
158 197 255
158 197 255
158 197 255
158 197 255
158 197 255
158 197 255
158 197 255
158 197 255
158 197 255
158 197 255
158 197 255
158 197 255
158 197 255
158 197 255
158 197 255
158 197 255
158 197 255
158 197 255
158 197 255
158 197 255
158 197 255
158 197 255
158 197 255
158 197 255
158 197 255
158 197 255
158 197 255
158 197 255
158 197 255
158 197 255
158 197 255
158 197 255
158 197 255
158 197 255
158 197 255
158 197 255
158 197 255
158 197 255
158 197 255
159 197 255
159 197 255
159 197 255
159 197 255
159 197 255
159 198 255
159 198 255
159 198 255
159 198 255
159 198 255
159 198 255
159 198 255
159 198 255
159 198 255
159 198 255
160 198 255
160 198 255
160 198 255
160 198 255
160 198 255
160 198 255
160 198 255
160 198 255
160 198 255
160 198 255
160 198 255
160 198 255
160 198 255
161 199 255
161 199 255
161 199 255
161 199 255
161 199 255
161 199 255
161 199 255
161 199 255
161 199 255
161 199 255
161 199 255
162 199 255
162 199 255
162 199 255
162 199 255
162 199 255
162 199 255
162 199 255
162 200 255
162 200 255
162 200 255
163 200 255
163 200 255
163 200 255
163 200 255
163 200 255
163 200 255
163 200 255
163 200 255
163 200 255
163 200 255
163 200 255
164 200 255
164 200 255
164 200 255
164 201 255
164 201 255
164 201 255
164 201 255
164 201 255
164 201 255
164 201 255
165 201 255
165 201 255
165 201 255
165 201 255
165 201 255
165 201 255
165 201 255
165 201 255
165 201 255
165 201 255
166 202 255
166 202 255
166 202 255
166 202 255
166 202 255
166 202 255
166 202 255
166 202 255
166 202 255
166 202 255
166 202 255
167 202 255
167 202 255
167 202 255
167 202 255
167 202 255
167 202 255
167 202 255
167 203 255
167 203 255
167 203 255
167 203 255
168 203 255
168 203 255
168 203 255
168 203 255
168 203 255
168 203 255
168 203 255
168 203 255
168 203 255
168 203 255
168 203 255
169 203 255
169 203 255
169 203 255
169 203 255
169 204 255
169 204 255
169 204 255
169 204 255
169 204 255
169 204 255
169 204 255
169 204 255
170 204 255
170 204 255
170 204 255
170 204 255
170 204 255
170 204 255
170 204 255
170 204 255
170 204 255
170 204 255
170 204 255
170 204 255
171 205 255
171 205 255
171 205 255
171 205 255
171 205 255
171 205 255
171 205 255
171 205 255
171 205 255
171 205 255
171 205 255
171 205 255
171 205 255
171 205 255
172 205 255
172 205 255
172 205 255
172 205 255
172 205 255
172 205 255
172 205 255
172 205 255
172 205 255
172 206 255
172 206 255
172 206 255
172 206 255
172 206 255
173 206 255
173 206 255
173 206 255
173 206 255
173 206 255
173 206 255
173 206 255
173 206 255
173 206 255
173 206 255
173 206 255
173 206 255
173 206 255
173 206 255
172 206 255
172 206 255
172 206 255
172 206 255
172 206 255
172 205 255
172 205 255
172 205 255
172 205 255
172 205 255
172 205 255
172 205 255
172 205 255
172 205 255
171 205 255
171 205 255
171 205 255
171 205 255
171 205 255
171 205 255
171 205 255
171 205 255
171 205 255
171 205 255
171 205 255
171 205 255
171 205 255
170 204 255
170 204 255
170 204 255
170 204 255
170 204 255
170 204 255
170 204 255
170 204 255
170 204 255
170 204 255
170 204 255
170 204 255
170 204 255
169 204 255
169 204 255
169 204 255
169 204 255
169 204 255
169 204 255
169 204 255
169 204 255
169 203 255
169 203 255
169 203 255
169 203 255
168 203 255
168 203 255
168 203 255
168 203 255
168 203 255
168 203 255
168 203 255
168 203 255
168 203 255
168 203 255
168 203 255
167 203 255
167 203 255
167 203 255
167 202 255
167 202 255
167 202 255
167 202 255
167 202 255
167 202 255
167 202 255
167 202 255
166 202 255
166 202 255
166 202 255
166 202 255
166 202 255
166 202 255
166 202 255
166 202 255
166 202 255
166 202 255
165 201 255
165 201 255
165 201 255
165 201 255
165 201 255
165 201 255
165 201 255
165 201 255
165 201 255
165 201 255
164 201 255
164 201 255
164 201 255
164 201 255
164 201 255
164 201 255
164 201 255
164 200 255
164 200 255
164 200 255
164 200 255
163 200 255
163 200 255
163 200 255
163 200 255
163 200 255
163 200 255
163 200 255
163 200 255
163 200 255
163 200 255
162 200 255
162 200 255
162 200 255
162 200 255
162 199 255
162 199 255
162 199 255
162 199 255
162 199 255
162 199 255
162 199 255
161 199 255
161 199 255
161 199 255
161 199 255
161 199 255
161 199 255
161 199 255
161 199 255
161 199 255
161 199 255
161 199 255
160 198 255
160 198 255
160 198 255
160 198 255
160 198 255
160 198 255
160 198 255
160 198 255
160 198 255
160 198 255
160 198 255
160 198 255
160 198 255
160 198 255
159 198 255
159 198 255
159 198 255
159 198 255
159 198 255
159 198 255
159 198 255
159 198 255
159 198 255
159 198 255
159 197 255
159 197 255
159 197 255
159 197 255
159 197 255
159 197 255
159 197 255
159 197 255
158 197 255
158 197 255
158 197 255
158 197 255
158 197 255
158 197 255
158 197 255
158 197 255
158 197 255
158 197 255
158 197 255
158 197 255
158 197 255
158 197 255
158 197 255
158 197 255
158 197 255
158 197 255
158 197 255
158 197 255
158 197 255
158 197 255
158 197 255
158 197 255
158 197 255
158 197 255
158 197 255
158 197 255
158 197 255
158 197 255
158 197 255
158 197 255
158 197 255
158 197 255
158 197 255
158 197 255
158 197 255
158 197 255
158 197 255
158 197 255
158 197 255
158 197 255
158 197 255
158 197 255
159 197 255
159 197 255
159 197 255
159 197 255
159 197 255
159 197 255
159 197 255
159 198 255
159 198 255
159 198 255
159 198 255
159 198 255
159 198 255
159 198 255
159 198 255
159 198 255
159 198 255
159 198 255
160 198 255
160 198 255
160 198 255
160 198 255
160 198 255
160 198 255
160 198 255
160 198 255
160 198 255
160 198 255
160 198 255
160 198 255
160 198 255
160 198 255
161 199 255
161 199 255
161 199 255
161 199 255
161 199 255
161 199 255
161 199 255
161 199 255
161 199 255
161 199 255
161 199 255
162 199 255
162 199 255
162 199 255
162 199 255
162 199 255
162 199 255
162 199 255
162 200 255
162 200 255
162 200 255
162 200 255
163 200 255
163 200 255
163 200 255
163 200 255
163 200 255
163 200 255
163 200 255
163 200 255
163 200 255
163 200 255
164 200 255
164 200 255
164 200 255
164 200 255
164 201 255
164 201 255
164 201 255
164 201 255
164 201 255
164 201 255
164 201 255
165 201 255
165 201 255
165 201 255
165 201 255
165 201 255
165 201 255
165 201 255
165 201 255
165 201 255
165 201 255
166 202 255
166 202 255
166 202 255
166 202 255
166 202 255
166 202 255
166 202 255
166 202 255
166 202 255
166 202 255
166 202 255
167 202 255
167 202 255
167 202 255
167 202 255
167 202 255
167 202 255
167 202 255
167 203 255
167 203 255
167 203 255
168 203 255
168 203 255
168 203 255
168 203 255
168 203 255
168 203 255
168 203 255
168 203 255
168 203 255
168 203 255
168 203 255
169 203 255
169 203 255
169 203 255
169 203 255
169 204 255
169 204 255
169 204 255
169 204 255
169 204 255
169 204 255
169 204 255
169 204 255
170 204 255
170 204 255
170 204 255
170 204 255
170 204 255
170 204 255
170 204 255
170 204 255
170 204 255
170 204 255
170 204 255
170 204 255
170 204 255
171 205 255
171 205 255
171 205 255
171 205 255
171 205 255
171 205 255
171 205 255
171 205 255
171 205 255
171 205 255
171 205 255
171 205 255
171 205 255
172 205 255
172 205 255
172 205 255
172 205 255
172 205 255
172 205 255
172 205 255
172 205 255
172 205 255
172 205 255
172 206 255
172 206 255
172 206 255
172 206 255
173 206 255
173 206 255
173 206 255
173 206 255
173 206 255
173 206 255
173 206 255
173 206 255
173 206 255
173 206 255
173 206 255
173 206 255
173 206 255
173 206 255
173 206 255
173 206 255
173 206 255
173 206 255
173 206 255
173 206 255
173 206 255
173 206 255
172 206 255
172 206 255
172 206 255
172 206 255
172 205 255
172 205 255
172 205 255
172 205 255
172 205 255
172 205 255
172 205 255
172 205 255
172 205 255
172 205 255
171 205 255
171 205 255
171 205 255
171 205 255
171 205 255
171 205 255
171 205 255
171 205 255
171 205 255
171 205 255
171 205 255
171 205 255
171 205 255
170 204 255
170 204 255
170 204 255
170 204 255
170 204 255
170 204 255
170 204 255
170 204 255
170 204 255
170 204 255
170 204 255
170 204 255
169 204 255
169 204 255
169 204 255
169 204 255
169 204 255
169 204 255
169 204 255
169 204 255
169 203 255
169 203 255
169 203 255
169 203 255
168 203 255
168 203 255
168 203 255
168 203 255
168 203 255
168 203 255
168 203 255
168 203 255
168 203 255
168 203 255
168 203 255
167 203 255
167 203 255
167 203 255
167 203 255
167 202 255
167 202 255
167 202 255
167 202 255
167 202 255
167 202 255
167 202 255
166 202 255
166 202 255
166 202 255
166 202 255
166 202 255
166 202 255
166 202 255
166 202 255
166 202 255
166 202 255
165 201 255
165 201 255
165 201 255
165 201 255
165 201 255
165 201 255
165 201 255
165 201 255
165 201 255
165 201 255
165 201 255
164 201 255
164 201 255
164 201 255
164 201 255
164 201 255
164 201 255
164 201 255
164 200 255
164 200 255
164 200 255
163 200 255
163 200 255
163 200 255
163 200 255
163 200 255
163 200 255
163 200 255
163 200 255
163 200 255
163 200 255
163 200 255
162 200 255
162 200 255
162 200 255
162 199 255
162 199 255
162 199 255
162 199 255
162 199 255
162 199 255
162 199 255
162 199 255
161 199 255
161 199 255
161 199 255
161 199 255
161 199 255
161 199 255
161 199 255
161 199 255
161 199 255
161 199 255
161 199 255
161 199 255
160 198 255
160 198 255
160 198 255
160 198 255
160 198 255
160 198 255
160 198 255
160 198 255
160 198 255
160 198 255
160 198 255
160 198 255
160 198 255
160 198 255
159 198 255
159 198 255
159 198 255
159 198 255
159 198 255
159 198 255
159 198 255
159 198 255
159 198 255
159 198 255
159 198 255
159 198 255
159 198 255
159 197 255
159 197 255
159 197 255
159 197 255
159 197 255
159 197 255
159 197 255
159 197 255
159 197 255
159 197 255
159 197 255
159 197 255
158 197 255
158 197 255
158 197 255
158 197 255
158 197 255
158 197 255
158 197 255
158 197 255
158 197 255
158 197 255
158 197 255
158 197 255
158 197 255
158 197 255
158 197 255
158 197 255
158 197 255
158 197 255
158 197 255
158 197 255
159 197 255
159 197 255
159 197 255
159 197 255
159 197 255
159 197 255
159 197 255
159 197 255
159 197 255
159 197 255
159 197 255
159 197 255
159 198 255
159 198 255
159 198 255
159 198 255
159 198 255
159 198 255
159 198 255
159 198 255
159 198 255
159 198 255
159 198 255
159 198 255
159 198 255
160 198 255
160 198 255
160 198 255
160 198 255
160 198 255
160 198 255
160 198 255
160 198 255
160 198 255
160 198 255
160 198 255
160 198 255
160 198 255
160 198 255
161 199 255
161 199 255
161 199 255
161 199 255
161 199 255
161 199 255
161 199 255
161 199 255
161 199 255
161 199 255
161 199 255
161 199 255
162 199 255
162 199 255
162 199 255
162 199 255
162 199 255
162 199 255
162 199 255
162 199 255
162 200 255
162 200 255
162 200 255
162 200 255
163 200 255
163 200 255
163 200 255
163 200 255
163 200 255
163 200 255
163 200 255
163 200 255
163 200 255
163 200 255
164 200 255
164 200 255
164 200 255
164 201 255
164 201 255
164 201 255
164 201 255
164 201 255
164 201 255
164 201 255
165 201 255
165 201 255
165 201 255
165 201 255
165 201 255
165 201 255
165 201 255
165 201 255
165 201 255
165 201 255
165 201 255
166 202 255
166 202 255
166 202 255
166 202 255
166 202 255
166 202 255
166 202 255
166 202 255
166 202 255
166 202 255
167 202 255
167 202 255
167 202 255
167 202 255
167 202 255
167 202 255
167 202 255
167 203 255
167 203 255
167 203 255
167 203 255
168 203 255
168 203 255
168 203 255
168 203 255
168 203 255
168 203 255
168 203 255
168 203 255
168 203 255
168 203 255
168 203 255
169 203 255
169 203 255
169 203 255
169 203 255
169 204 255
169 204 255
169 204 255
169 204 255
169 204 255
169 204 255
169 204 255
169 204 255
170 204 255
170 204 255
170 204 255
170 204 255
170 204 255
170 204 255
170 204 255
170 204 255
170 204 255
170 204 255
170 204 255
170 204 255
171 205 255
171 205 255
171 205 255
171 205 255
171 205 255
171 205 255
171 205 255
171 205 255
171 205 255
171 205 255
171 205 255
171 205 255
171 205 255
172 205 255
172 205 255
172 205 255
172 205 255
172 205 255
172 205 255
172 205 255
172 205 255
172 205 255
172 205 255
172 206 255
172 206 255
172 206 255
172 206 255
172 206 255
173 206 255
173 206 255
173 206 255
173 206 255
173 206 255
173 206 255
173 206 255
173 206 255
173 206 255
173 206 255
173 206 255
173 206 255
174 206 255
173 206 255
173 206 255
173 206 255
173 206 255
173 206 255
173 206 255
173 206 255
173 206 255
173 206 255
173 206 255
173 206 255
173 206 255
173 206 255
173 206 255
173 206 255
172 206 255
172 206 255
172 206 255
172 206 255
172 206 255
172 205 255
172 205 255
172 205 255
172 205 255
172 205 255
172 205 255
172 205 255
172 205 255
172 205 255
171 205 255
171 205 255
171 205 255
171 205 255
171 205 255
171 205 255
171 205 255
171 205 255
171 205 255
171 205 255
171 205 255
171 205 255
171 205 255
170 204 255
170 204 255
170 204 255
170 204 255
170 204 255
170 204 255
170 204 255
170 204 255
170 204 255
170 204 255
170 204 255
170 204 255
170 204 255
169 204 255
169 204 255
169 204 255
169 204 255
169 204 255
169 204 255
169 204 255
169 203 255
169 203 255
169 203 255
169 203 255
168 203 255
168 203 255
168 203 255
168 203 255
168 203 255
168 203 255
168 203 255
168 203 255
168 203 255
168 203 255
168 203 255
167 203 255
167 203 255
167 203 255
167 203 255
167 202 255
167 202 255
167 202 255
167 202 255
167 202 255
167 202 255
167 202 255
166 202 255
166 202 255
166 202 255
166 202 255
166 202 255
166 202 255
166 202 255
166 202 255
166 202 255
166 202 255
166 202 255
165 201 255
165 201 255
165 201 255
165 201 255
165 201 255
165 201 255
165 201 255
165 201 255
165 201 255
165 201 255
164 201 255
164 201 255
164 201 255
164 201 255
164 201 255
164 201 255
164 201 255
164 200 255
164 200 255
164 200 255
163 200 255
163 200 255
163 200 255
163 200 255
163 200 255
163 200 255
163 200 255
163 200 255
163 200 255
163 200 255
163 200 255
162 200 255
162 200 255
162 200 255
162 200 255
162 199 255
162 199 255
162 199 255
162 199 255
162 199 255
162 199 255
162 199 255
162 199 255
161 199 255
161 199 255
161 199 255
161 199 255
161 199 255
161 199 255
161 199 255
161 199 255
161 199 255
161 199 255
161 199 255
161 199 255
160 198 255
160 198 255
160 198 255
160 198 255
160 198 255
160 198 255
160 198 255
160 198 255
160 198 255
160 198 255
160 198 255
160 198 255
160 198 255
160 198 255
160 198 255
160 198 255
160 198 255
159 198 255
159 198 255
159 198 255
159 198 255
159 198 255
159 198 255
159 198 255
159 198 255
159 198 255
159 198 255
159 198 255
159 198 255
159 198 255
159 198 255
159 198 255
159 198 255
159 198 255
159 198 255
159 198 255
159 197 255
159 197 255
159 197 255
159 197 255
159 197 255
159 197 255
159 197 255
159 197 255
159 197 255
159 197 255
159 197 255
159 197 255
159 197 255
159 197 255
159 197 255
159 197 255
159 197 255
159 197 255
159 198 255
159 198 255
159 198 255
159 198 255
159 198 255
159 198 255
159 198 255
159 198 255
159 198 255
159 198 255
159 198 255
159 198 255
159 198 255
159 198 255
159 198 255
159 198 255
159 198 255
159 198 255
159 198 255
160 198 255
160 198 255
160 198 255
160 198 255
160 198 255
160 198 255
160 198 255
160 198 255
160 198 255
160 198 255
160 198 255
160 198 255
160 198 255
160 198 255
160 198 255
160 198 255
160 198 255
161 199 255
161 199 255
161 199 255
161 199 255
161 199 255
161 199 255
161 199 255
161 199 255
161 199 255
161 199 255
161 199 255
161 199 255
161 199 255
162 199 255
162 199 255
162 199 255
162 199 255
162 199 255
162 199 255
162 199 255
162 200 255
162 200 255
162 200 255
162 200 255
163 200 255
163 200 255
163 200 255
163 200 255
163 200 255
163 200 255
163 200 255
163 200 255
163 200 255
163 200 255
164 200 255
164 200 255
164 200 255
164 200 255
164 201 255
164 201 255
164 201 255
164 201 255
164 201 255
164 201 255
164 201 255
165 201 255
165 201 255
165 201 255
165 201 255
165 201 255
165 201 255
165 201 255
165 201 255
165 201 255
165 201 255
166 202 255
166 202 255
166 202 255
166 202 255
166 202 255
166 202 255
166 202 255
166 202 255
166 202 255
166 202 255
166 202 255
167 202 255
167 202 255
167 202 255
167 202 255
167 202 255
167 202 255
167 202 255
167 203 255
167 203 255
167 203 255
168 203 255
168 203 255
168 203 255
168 203 255
168 203 255
168 203 255
168 203 255
168 203 255
168 203 255
168 203 255
168 203 255
168 203 255
169 203 255
169 203 255
169 203 255
169 203 255
169 204 255
169 204 255
169 204 255
169 204 255
169 204 255
169 204 255
169 204 255
170 204 255
170 204 255
170 204 255
170 204 255
170 204 255
170 204 255
170 204 255
170 204 255
170 204 255
170 204 255
170 204 255
170 204 255
170 204 255
171 205 255
171 205 255
171 205 255
171 205 255
171 205 255
171 205 255
171 205 255
171 205 255
171 205 255
171 205 255
171 205 255
171 205 255
171 205 255
172 205 255
172 205 255
172 205 255
172 205 255
172 205 255
172 205 255
172 205 255
172 205 255
172 205 255
172 206 255
172 206 255
172 206 255
172 206 255
172 206 255
173 206 255
173 206 255
173 206 255
173 206 255
173 206 255
173 206 255
173 206 255
173 206 255
173 206 255
173 206 255
173 206 255
173 206 255
173 206 255
173 206 255
173 206 255
174 206 255
174 206 255
174 206 255
174 206 255
174 206 255
174 206 255
173 206 255
173 206 255
173 206 255
173 206 255
173 206 255
173 206 255
173 206 255
173 206 255
173 206 255
173 206 255
173 206 255
173 206 255
173 206 255
173 206 255
173 206 255
172 206 255
172 206 255
172 206 255
172 206 255
172 206 255
172 205 255
172 205 255
172 205 255
172 205 255
172 205 255
172 205 255
172 205 255
172 205 255
172 205 255
171 205 255
171 205 255
171 205 255
171 205 255
171 205 255
171 205 255
171 205 255
171 205 255
171 205 255
171 205 255
171 205 255
171 205 255
171 205 255
170 204 255
170 204 255
170 204 255
170 204 255
170 204 255
170 204 255
170 204 255
170 204 255
170 204 255
170 204 255
170 204 255
170 204 255
169 204 255
169 204 255
169 204 255
169 204 255
169 204 255
169 204 255
169 204 255
169 204 255
169 203 255
169 203 255
169 203 255
169 203 255
168 203 255
168 203 255
168 203 255
168 203 255
168 203 255
168 203 255
168 203 255
168 203 255
168 203 255
168 203 255
168 203 255
167 203 255
167 203 255
167 203 255
167 203 255
167 202 255
167 202 255
167 202 255
167 202 255
167 202 255
167 202 255
167 202 255
166 202 255
166 202 255
166 202 255
166 202 255
166 202 255
166 202 255
166 202 255
166 202 255
166 202 255
166 202 255
165 201 255
165 201 255
165 201 255
165 201 255
165 201 255
165 201 255
165 201 255
165 201 255
165 201 255
165 201 255
165 201 255
164 201 255
164 201 255
164 201 255
164 201 255
164 201 255
164 201 255
164 201 255
164 200 255
164 200 255
164 200 255
163 200 255
163 200 255
163 200 255
163 200 255
163 200 255
163 200 255
163 200 255
163 200 255
163 200 255
163 200 255
163 200 255
162 200 255
162 200 255
162 200 255
162 200 255
162 199 255
162 199 255
162 199 255
162 199 255
162 199 255
162 199 255
162 199 255
162 199 255
161 199 255
161 199 255
161 199 255
161 199 255
161 199 255
161 199 255
161 199 255
161 199 255
161 199 255
161 199 255
161 199 255
161 199 255
161 199 255
161 199 255
160 198 255
160 198 255
160 198 255
160 198 255
160 198 255
160 198 255
160 198 255
160 198 255
160 198 255
160 198 255
160 198 255
160 198 255
160 198 255
160 198 255
160 198 255
160 198 255
160 198 255
160 198 255
160 198 255
159 198 255
159 198 255
159 198 255
159 198 255
159 198 255
159 198 255
159 198 255
159 198 255
159 198 255
159 198 255
159 198 255
159 198 255
159 198 255
159 198 255
159 198 255
159 198 255
159 198 255
159 198 255
159 198 255
159 198 255
159 198 255
159 198 255
159 198 255
159 198 255
159 198 255
159 198 255
159 198 255
159 198 255
159 198 255
159 198 255
159 198 255
159 198 255
159 198 255
159 198 255
159 198 255
159 198 255
159 198 255
159 198 255
159 198 255
159 198 255
160 198 255
160 198 255
160 198 255
160 198 255
160 198 255
160 198 255
160 198 255
160 198 255
160 198 255
160 198 255
160 198 255
160 198 255
160 198 255
160 198 255
160 198 255
160 198 255
160 198 255
160 198 255
160 198 255
161 199 255
161 199 255
161 199 255
161 199 255
161 199 255
161 199 255
161 199 255
161 199 255
161 199 255
161 199 255
161 199 255
161 199 255
161 199 255
161 199 255
162 199 255
162 199 255
162 199 255
162 199 255
162 199 255
162 199 255
162 199 255
162 199 255
162 200 255
162 200 255
162 200 255
162 200 255
163 200 255
163 200 255
163 200 255
163 200 255
163 200 255
163 200 255
163 200 255
163 200 255
163 200 255
163 200 255
163 200 255
164 200 255
164 200 255
164 200 255
164 201 255
164 201 255
164 201 255
164 201 255
164 201 255
164 201 255
164 201 255
165 201 255
165 201 255
165 201 255
165 201 255
165 201 255
165 201 255
165 201 255
165 201 255
165 201 255
165 201 255
165 201 255
166 202 255
166 202 255
166 202 255
166 202 255
166 202 255
166 202 255
166 202 255
166 202 255
166 202 255
166 202 255
167 202 255
167 202 255
167 202 255
167 202 255
167 202 255
167 202 255
167 202 255
167 202 255
167 203 255
167 203 255
167 203 255
168 203 255
168 203 255
168 203 255
168 203 255
168 203 255
168 203 255
168 203 255
168 203 255
168 203 255
168 203 255
168 203 255
169 203 255
169 203 255
169 203 255
169 203 255
169 204 255
169 204 255
169 204 255
169 204 255
169 204 255
169 204 255
169 204 255
169 204 255
170 204 255
170 204 255
170 204 255
170 204 255
170 204 255
170 204 255
170 204 255
170 204 255
170 204 255
170 204 255
170 204 255
170 204 255
171 205 255
171 205 255
171 205 255
171 205 255
171 205 255
171 205 255
171 205 255
171 205 255
171 205 255
171 205 255
171 205 255
171 205 255
171 205 255
172 205 255
172 205 255
172 205 255
172 205 255
172 205 255
172 205 255
172 205 255
172 205 255
172 205 255
172 206 255
172 206 255
172 206 255
172 206 255
172 206 255
173 206 255
173 206 255
173 206 255
173 206 255
173 206 255
173 206 255
173 206 255
173 206 255
173 206 255
173 206 255
173 206 255
173 206 255
173 206 255
173 206 255
173 206 255
174 206 255
174 206 255
174 206 255
174 206 255
174 206 255
174 207 255
174 207 255
174 207 255
174 207 255
174 206 255
174 206 255
174 206 255
174 206 255
174 206 255
173 206 255
173 206 255
173 206 255
173 206 255
173 206 255
173 206 255
173 206 255
173 206 255
173 206 255
173 206 255
173 206 255
173 206 255
173 206 255
173 206 255
173 206 255
172 206 255
172 206 255
172 206 255
172 206 255
172 206 255
172 205 255
172 205 255
172 205 255
172 205 255
172 205 255
172 205 255
172 205 255
172 205 255
172 205 255
171 205 255
171 205 255
171 205 255
171 205 255
171 205 255
171 205 255
171 205 255
171 205 255
171 205 255
171 205 255
171 205 255
171 205 255
171 205 255
170 204 255
170 204 255
170 204 255
170 204 255
170 204 255
170 204 255
170 204 255
170 204 255
170 204 255
170 204 255
170 204 255
170 204 255
169 204 255
169 204 255
169 204 255
169 204 255
169 204 255
169 204 255
169 204 255
169 203 255
169 203 255
169 203 255
169 203 255
168 203 255
168 203 255
168 203 255
168 203 255
168 203 255
168 203 255
168 203 255
168 203 255
168 203 255
168 203 255
168 203 255
167 203 255
167 203 255
167 203 255
167 203 255
167 202 255
167 202 255
167 202 255
167 202 255
167 202 255
167 202 255
167 202 255
166 202 255
166 202 255
166 202 255
166 202 255
166 202 255
166 202 255
166 202 255
166 202 255
166 202 255
166 202 255
166 202 255
165 201 255
165 201 255
165 201 255
165 201 255
165 201 255
165 201 255
165 201 255
165 201 255
165 201 255
165 201 255
164 201 255
164 201 255
164 201 255
164 201 255
164 201 255
164 201 255
164 201 255
164 200 255
164 200 255
164 200 255
164 200 255
163 200 255
163 200 255
163 200 255
163 200 255
163 200 255
163 200 255
163 200 255
163 200 255
163 200 255
163 200 255
163 200 255
162 200 255
162 200 255
162 200 255
162 200 255
162 199 255
162 199 255
162 199 255
162 199 255
162 199 255
162 199 255
162 199 255
162 199 255
162 199 255
161 199 255
161 199 255
161 199 255
161 199 255
161 199 255
161 199 255
161 199 255
161 199 255
161 199 255
161 199 255
161 199 255
161 199 255
161 199 255
161 199 255
161 199 255
160 198 255
160 198 255
160 198 255
160 198 255
160 198 255
160 198 255
160 198 255
160 198 255
160 198 255
160 198 255
160 198 255
160 198 255
160 198 255
160 198 255
160 198 255
160 198 255
160 198 255
160 198 255
160 198 255
160 198 255
160 198 255
160 198 255
160 198 255
160 198 255
160 198 255
158 196 253
136 169 218
135 167 216
110 137 177
112 139 179
97 121 156
72 90 117
96 119 154
96 119 154
90 112 144
97 121 156
109 135 175
120 149 193
132 164 212
144 178 230
154 191 246
160 198 255
160 198 255
160 198 255
160 198 255
160 198 255
160 198 255
160 198 255
160 198 255
160 198 255
160 198 255
160 198 255
160 198 255
160 198 255
160 198 255
160 198 255
160 198 255
160 198 255
160 198 255
160 198 255
160 198 255
160 198 255
160 198 255
160 198 255
160 198 255
160 198 255
160 198 255
161 199 255
161 199 255
161 199 255
161 199 255
161 199 255
161 199 255
161 199 255
161 199 255
161 199 255
161 199 255
161 199 255
161 199 255
161 199 255
161 199 255
162 199 255
162 199 255
162 199 255
162 199 255
162 199 255
162 199 255
162 199 255
162 199 255
162 199 255
162 200 255
162 200 255
162 200 255
162 200 255
163 200 255
163 200 255
163 200 255
163 200 255
163 200 255
163 200 255
163 200 255
163 200 255
163 200 255
163 200 255
163 200 255
164 200 255
164 200 255
164 200 255
164 201 255
164 201 255
164 201 255
164 201 255
164 201 255
164 201 255
164 201 255
164 201 255
165 201 255
165 201 255
165 201 255
165 201 255
165 201 255
165 201 255
165 201 255
165 201 255
165 201 255
165 201 255
166 202 255
166 202 255
166 202 255
166 202 255
166 202 255
166 202 255
166 202 255
166 202 255
166 202 255
166 202 255
166 202 255
167 202 255
167 202 255
167 202 255
167 202 255
167 202 255
167 202 255
167 202 255
167 203 255
167 203 255
167 203 255
167 203 255
168 203 255
168 203 255
168 203 255
168 203 255
168 203 255
168 203 255
168 203 255
168 203 255
168 203 255
168 203 255
168 203 255
169 203 255
169 203 255
169 203 255
169 203 255
169 204 255
169 204 255
169 204 255
169 204 255
169 204 255
169 204 255
169 204 255
170 204 255
170 204 255
170 204 255
170 204 255
170 204 255
170 204 255
170 204 255
170 204 255
170 204 255
170 204 255
170 204 255
170 204 255
171 205 255
171 205 255
171 205 255
171 205 255
171 205 255
171 205 255
171 205 255
171 205 255
171 205 255
171 205 255
171 205 255
171 205 255
171 205 255
172 205 255
172 205 255
172 205 255
172 205 255
172 205 255
172 205 255
172 205 255
172 205 255
172 205 255
172 206 255
172 206 255
172 206 255
172 206 255
172 206 255
173 206 255
173 206 255
173 206 255
173 206 255
173 206 255
173 206 255
173 206 255
173 206 255
173 206 255
173 206 255
173 206 255
173 206 255
173 206 255
173 206 255
173 206 255
174 206 255
174 206 255
174 206 255
174 206 255
174 206 255
174 207 255
174 207 255
174 207 255
174 207 255
174 207 255
174 207 255
174 207 255
174 207 255
174 207 255
174 207 255
174 207 255
174 207 255
174 206 255
174 206 255
174 206 255
174 206 255
174 206 255
173 206 255
173 206 255
173 206 255
173 206 255
173 206 255
173 206 255
173 206 255
173 206 255
173 206 255
173 206 255
173 206 255
173 206 255
173 206 255
173 206 255
173 206 255
172 206 255
172 206 255
172 206 255
172 206 255
172 205 255
172 205 255
172 205 255
172 205 255
172 205 255
172 205 255
172 205 255
172 205 255
172 205 255
171 205 255
171 205 255
171 205 255
171 205 255
171 205 255
171 205 255
171 205 255
171 205 255
171 205 255
171 205 255
171 205 255
171 205 255
171 205 255
170 204 255
170 204 255
170 204 255
170 204 255
170 204 255
170 204 255
170 204 255
170 204 255
170 204 255
170 204 255
170 204 255
170 204 255
169 204 255
169 204 255
169 204 255
169 204 255
169 204 255
169 204 255
169 204 255
169 204 255
169 203 255
169 203 255
169 203 255
169 203 255
168 203 255
168 203 255
168 203 255
168 203 255
168 203 255
168 203 255
168 203 255
168 203 255
168 203 255
168 203 255
168 203 255
167 203 255
167 203 255
167 203 255
167 202 255
167 202 255
167 202 255
167 202 255
167 202 255
167 202 255
167 202 255
167 202 255
166 202 255
166 202 255
166 202 255
166 202 255
166 202 255
166 202 255
166 202 255
166 202 255
166 202 255
166 202 255
165 201 255
165 201 255
165 201 255
165 201 255
165 201 255
165 201 255
165 201 255
165 201 255
165 201 255
165 201 255
165 201 255
164 201 255
164 201 255
164 201 255
164 201 255
164 201 255
164 201 255
164 201 255
164 200 255
164 200 255
164 200 255
164 200 255
163 200 255
163 200 255
163 200 255
163 200 255
163 200 255
163 200 255
163 200 255
163 200 255
163 200 255
163 200 255
163 200 255
162 200 255
162 200 255
162 200 255
162 200 255
162 200 255
162 199 255
162 199 255
162 199 255
162 199 255
162 199 255
162 199 255
162 199 255
162 199 255
162 199 255
161 199 255
161 199 255
161 199 255
161 199 255
161 199 255
161 199 255
161 199 255
161 199 255
161 199 255
161 199 255
161 199 255
161 199 255
161 199 255
161 199 255
161 199 255
161 199 255
160 198 255
160 198 255
160 198 255
160 198 255
160 198 255
160 198 255
160 198 255
160 198 255
160 198 255
160 198 255
160 198 255
160 198 255
160 198 255
156 193 249
119 148 191
94 117 152
75 94 121
48 60 78
29 37 48
14 18 24
14 19 25
14 17 23
14 18 23
14 18 24
14 18 23
14 18 24
14 18 24
14 18 24
14 18 23
14 18 24
15 19 25
13 17 23
14 18 24
14 18 24
18 22 29
35 43 56
54 67 87
77 96 124
93 115 149
128 159 205
156 193 249
160 198 255
160 198 255
160 198 255
160 198 255
160 198 255
160 198 255
160 198 255
160 198 255
160 198 255
160 198 255
160 198 255
160 198 255
160 198 255
161 199 255
161 199 255
161 199 255
161 199 255
161 199 255
161 199 255
161 199 255
161 199 255
161 199 255
161 199 255
161 199 255
161 199 255
161 199 255
161 199 255
161 199 255
161 199 255
162 199 255
162 199 255
162 199 255
162 199 255
162 199 255
162 199 255
162 199 255
162 199 255
162 199 255
162 200 255
162 200 255
162 200 255
162 200 255
162 200 255
163 200 255
163 200 255
163 200 255
163 200 255
163 200 255
163 200 255
163 200 255
163 200 255
163 200 255
163 200 255
163 200 255
164 200 255
164 200 255
164 200 255
164 200 255
164 201 255
164 201 255
164 201 255
164 201 255
164 201 255
164 201 255
164 201 255
165 201 255
165 201 255
165 201 255
165 201 255
165 201 255
165 201 255
165 201 255
165 201 255
165 201 255
165 201 255
165 201 255
166 202 255
166 202 255
166 202 255
166 202 255
166 202 255
166 202 255
166 202 255
166 202 255
166 202 255
166 202 255
167 202 255
167 202 255
167 202 255
167 202 255
167 202 255
167 202 255
167 202 255
167 202 255
167 203 255
167 203 255
167 203 255
168 203 255
168 203 255
168 203 255
168 203 255
168 203 255
168 203 255
168 203 255
168 203 255
168 203 255
168 203 255
168 203 255
169 203 255
169 203 255
169 203 255
169 203 255
169 204 255
169 204 255
169 204 255
169 204 255
169 204 255
169 204 255
169 204 255
169 204 255
170 204 255
170 204 255
170 204 255
170 204 255
170 204 255
170 204 255
170 204 255
170 204 255
170 204 255
170 204 255
170 204 255
170 204 255
171 205 255
171 205 255
171 205 255
171 205 255
171 205 255
171 205 255
171 205 255
171 205 255
171 205 255
171 205 255
171 205 255
171 205 255
171 205 255
172 205 255
172 205 255
172 205 255
172 205 255
172 205 255
172 205 255
172 205 255
172 205 255
172 205 255
172 206 255
172 206 255
172 206 255
172 206 255
172 206 255
173 206 255
173 206 255
173 206 255
173 206 255
173 206 255
173 206 255
173 206 255
173 206 255
173 206 255
173 206 255
173 206 255
173 206 255
173 206 255
173 206 255
174 206 255
174 206 255
174 206 255
174 206 255
174 206 255
174 207 255
174 207 255
174 207 255
174 207 255
174 207 255
174 207 255
174 207 255
174 207 255
175 207 255
174 207 255
174 207 255
174 207 255
174 207 255
174 207 255
174 207 255
174 207 255
174 207 255
174 207 255
174 207 255
174 207 255
174 206 255
174 206 255
174 206 255
174 206 255
174 206 255
173 206 255
173 206 255
173 206 255
173 206 255
173 206 255
173 206 255
173 206 255
173 206 255
173 206 255
173 206 255
173 206 255
173 206 255
173 206 255
173 206 255
172 206 255
172 206 255
172 206 255
172 206 255
172 206 255
172 205 255
172 205 255
172 205 255
172 205 255
172 205 255
172 205 255
172 205 255
172 205 255
172 205 255
171 205 255
171 205 255
171 205 255
171 205 255
171 205 255
171 205 255
171 205 255
171 205 255
171 205 255
171 205 255
171 205 255
171 205 255
171 205 255
170 204 255
170 204 255
170 204 255
170 204 255
170 204 255
170 204 255
170 204 255
170 204 255
170 204 255
170 204 255
170 204 255
170 204 255
169 204 255
169 204 255
169 204 255
169 204 255
169 204 255
169 204 255
169 204 255
169 203 255
169 203 255
169 203 255
169 203 255
168 203 255
168 203 255
168 203 255
168 203 255
168 203 255
168 203 255
168 203 255
168 203 255
168 203 255
168 203 255
168 203 255
167 203 255
167 203 255
167 203 255
167 203 255
167 202 255
167 202 255
167 202 255
167 202 255
167 202 255
167 202 255
167 202 255
166 202 255
166 202 255
166 202 255
166 202 255
166 202 255
166 202 255
166 202 255
166 202 255
166 202 255
166 202 255
166 202 255
165 201 255
165 201 255
165 201 255
165 201 255
165 201 255
165 201 255
165 201 255
165 201 255
165 201 255
165 201 255
165 201 255
164 201 255
164 201 255
164 201 255
164 201 255
164 201 255
164 201 255
164 201 255
164 200 255
164 200 255
164 200 255
164 200 255
163 200 255
163 200 255
163 200 255
163 200 255
163 200 255
163 200 255
163 200 255
163 200 255
163 200 255
163 200 255
163 200 255
163 200 255
162 200 255
162 200 255
162 200 255
162 200 255
162 200 255
162 199 255
162 199 255
162 199 255
162 199 255
162 199 255
162 199 255
162 199 255
162 199 255
162 199 255
161 199 255
161 199 255
161 199 255
161 199 255
161 199 255
161 199 255
161 199 255
161 199 255
161 199 255
161 199 255
161 199 255
161 199 255
161 199 255
161 199 255
161 199 255
161 199 255
161 199 255
161 199 255
161 199 255
161 199 255
161 199 255
115 143 184
63 78 100
44 54 71
14 18 24
13 17 22
14 18 24
14 18 24
14 18 23
14 18 24
14 18 23
14 18 23
15 18 24
14 17 23
14 17 23
15 19 24
14 18 24
14 17 23
14 17 23
14 17 23
14 17 23
13 16 22
15 19 24
13 17 22
15 19 25
14 18 24
14 18 23
14 18 23
14 17 23
14 18 24
15 18 24
16 21 27
34 42 55
89 110 142
113 140 181
153 190 244
161 199 255
161 199 255
161 199 255
161 199 255
161 199 255
161 199 255
161 199 255
161 199 255
161 199 255
161 199 255
161 199 255
161 199 255
161 199 255
161 199 255
161 199 255
161 199 255
161 199 255
161 199 255
161 199 255
161 199 255
162 199 255
162 199 255
162 199 255
162 199 255
162 199 255
162 199 255
162 199 255
162 199 255
162 199 255
162 199 255
162 200 255
162 200 255
162 200 255
162 200 255
163 200 255
163 200 255
163 200 255
163 200 255
163 200 255
163 200 255
163 200 255
163 200 255
163 200 255
163 200 255
163 200 255
163 200 255
164 200 255
164 200 255
164 200 255
164 200 255
164 201 255
164 201 255
164 201 255
164 201 255
164 201 255
164 201 255
164 201 255
165 201 255
165 201 255
165 201 255
165 201 255
165 201 255
165 201 255
165 201 255
165 201 255
165 201 255
165 201 255
165 201 255
166 202 255
166 202 255
166 202 255
166 202 255
166 202 255
166 202 255
166 202 255
166 202 255
166 202 255
166 202 255
166 202 255
167 202 255
167 202 255
167 202 255
167 202 255
167 202 255
167 202 255
167 202 255
167 203 255
167 203 255
167 203 255
167 203 255
168 203 255
168 203 255
168 203 255
168 203 255
168 203 255
168 203 255
168 203 255
168 203 255
168 203 255
168 203 255
168 203 255
169 203 255
169 203 255
169 203 255
169 203 255
169 204 255
169 204 255
169 204 255
169 204 255
169 204 255
169 204 255
169 204 255
170 204 255
170 204 255
170 204 255
170 204 255
170 204 255
170 204 255
170 204 255
170 204 255
170 204 255
170 204 255
170 204 255
170 204 255
171 205 255
171 205 255
171 205 255
171 205 255
171 205 255
171 205 255
171 205 255
171 205 255
171 205 255
171 205 255
171 205 255
171 205 255
171 205 255
172 205 255
172 205 255
172 205 255
172 205 255
172 205 255
172 205 255
172 205 255
172 205 255
172 205 255
172 206 255
172 206 255
172 206 255
172 206 255
172 206 255
173 206 255
173 206 255
173 206 255
173 206 255
173 206 255
173 206 255
173 206 255
173 206 255
173 206 255
173 206 255
173 206 255
173 206 255
173 206 255
173 206 255
174 206 255
174 206 255
174 206 255
174 206 255
174 206 255
174 207 255
174 207 255
174 207 255
174 207 255
174 207 255
174 207 255
174 207 255
174 207 255
174 207 255
174 207 255
174 207 255
175 207 255
175 207 255
175 207 255
175 207 255
175 207 255
175 207 255
174 207 255
174 207 255
174 207 255
174 207 255
174 207 255
174 207 255
174 207 255
174 207 255
174 207 255
174 207 255
174 206 255
174 206 255
174 206 255
174 206 255
174 206 255
174 206 255
173 206 255
173 206 255
173 206 255
173 206 255
173 206 255
173 206 255
173 206 255
173 206 255
173 206 255
173 206 255
173 206 255
173 206 255
173 206 255
173 206 255
173 206 255
172 206 255
172 206 255
172 206 255
172 206 255
172 205 255
172 205 255
172 205 255
172 205 255
172 205 255
172 205 255
172 205 255
172 205 255
172 205 255
171 205 255
171 205 255
171 205 255
171 205 255
171 205 255
171 205 255
171 205 255
171 205 255
171 205 255
171 205 255
171 205 255
171 205 255
170 204 255
170 204 255
170 204 255
170 204 255
170 204 255
170 204 255
170 204 255
170 204 255
170 204 255
170 204 255
170 204 255
170 204 255
169 204 255
169 204 255
169 204 255
169 204 255
169 204 255
169 204 255
169 204 255
169 204 255
169 203 255
169 203 255
169 203 255
169 203 255
168 203 255
168 203 255
168 203 255
168 203 255
168 203 255
168 203 255
168 203 255
168 203 255
168 203 255
168 203 255
168 203 255
167 203 255
167 203 255
167 203 255
167 202 255
167 202 255
167 202 255
167 202 255
167 202 255
167 202 255
167 202 255
167 202 255
166 202 255
166 202 255
166 202 255
166 202 255
166 202 255
166 202 255
166 202 255
166 202 255
166 202 255
166 202 255
166 202 255
165 201 255
165 201 255
165 201 255
165 201 255
165 201 255
165 201 255
165 201 255
165 201 255
165 201 255
165 201 255
165 201 255
164 201 255
164 201 255
164 201 255
164 201 255
164 201 255
164 201 255
164 201 255
164 200 255
164 200 255
164 200 255
164 200 255
163 200 255
163 200 255
163 200 255
163 200 255
163 200 255
163 200 255
163 200 255
163 200 255
163 200 255
163 200 255
163 200 255
163 200 255
163 200 255
162 200 255
162 200 255
162 200 255
162 200 255
162 200 255
162 199 255
162 199 255
162 199 255
162 199 255
162 199 255
162 199 255
162 199 255
162 199 255
162 199 255
162 199 255
161 199 255
161 199 255
161 199 255
161 199 255
161 199 255
161 199 255
161 199 255
161 199 255
161 199 255
161 199 255
161 199 255
140 173 223
99 123 158
45 56 72
17 22 29
14 17 23
14 17 23
14 17 22
14 18 23
14 18 23
14 18 24
15 18 24
14 18 24
14 17 23
14 18 24
14 17 23
14 18 23
14 18 23
14 18 23
13 17 22
14 17 23
14 18 24
15 19 24
14 18 24
14 18 23
14 17 23
14 17 23
14 17 23
14 18 23
14 18 23
14 18 23
13 17 22
14 18 23
14 18 23
14 18 23
13 17 22
13 17 22
14 18 23
15 18 24
14 18 23
41 51 66
101 125 161
137 170 218
161 199 255
161 199 255
161 199 255
161 199 255
161 199 255
161 199 255
161 199 255
161 199 255
161 199 255
161 199 255
162 199 255
162 199 255
162 199 255
162 199 255
162 199 255
162 199 255
162 199 255
162 199 255
162 199 255
162 199 255
162 199 255
162 199 255
162 200 255
162 200 255
162 200 255
162 200 255
163 200 255
163 200 255
163 200 255
163 200 255
163 200 255
163 200 255
163 200 255
163 200 255
163 200 255
163 200 255
163 200 255
163 200 255
163 200 255
164 200 255
164 200 255
164 200 255
164 200 255
164 201 255
164 201 255
164 201 255
164 201 255
164 201 255
164 201 255
164 201 255
165 201 255
165 201 255
165 201 255
165 201 255
165 201 255
165 201 255
165 201 255
165 201 255
165 201 255
165 201 255
165 201 255
166 202 255
166 202 255
166 202 255
166 202 255
166 202 255
166 202 255
166 202 255
166 202 255
166 202 255
166 202 255
166 202 255
167 202 255
167 202 255
167 202 255
167 202 255
167 202 255
167 202 255
167 202 255
167 202 255
167 203 255
167 203 255
167 203 255
168 203 255
168 203 255
168 203 255
168 203 255
168 203 255
168 203 255
168 203 255
168 203 255
168 203 255
168 203 255
168 203 255
169 203 255
169 203 255
169 203 255
169 203 255
169 204 255
169 204 255
169 204 255
169 204 255
169 204 255
169 204 255
169 204 255
169 204 255
170 204 255
170 204 255
170 204 255
170 204 255
170 204 255
170 204 255
170 204 255
170 204 255
170 204 255
170 204 255
170 204 255
170 204 255
171 205 255
171 205 255
171 205 255
171 205 255
171 205 255
171 205 255
171 205 255
171 205 255
171 205 255
171 205 255
171 205 255
171 205 255
172 205 255
172 205 255
172 205 255
172 205 255
172 205 255
172 205 255
172 205 255
172 205 255
172 205 255
172 206 255
172 206 255
172 206 255
172 206 255
172 206 255
173 206 255
173 206 255
173 206 255
173 206 255
173 206 255
173 206 255
173 206 255
173 206 255
173 206 255
173 206 255
173 206 255
173 206 255
173 206 255
173 206 255
174 206 255
174 206 255
174 206 255
174 206 255
174 206 255
174 207 255
174 207 255
174 207 255
174 207 255
174 207 255
174 207 255
174 207 255
174 207 255
174 207 255
174 207 255
174 207 255
175 207 255
175 207 255
175 207 255
175 207 255
175 207 255
175 207 255
175 207 255
175 207 255
175 207 255
175 207 255
175 207 255
175 207 255
175 207 255
175 207 255
174 207 255
174 207 255
174 207 255
174 207 255
174 207 255
174 207 255
174 207 255
174 207 255
174 207 255
174 207 255
174 207 255
174 206 255
174 206 255
174 206 255
174 206 255
174 206 255
173 206 255
173 206 255
173 206 255
173 206 255
173 206 255
173 206 255
173 206 255
173 206 255
173 206 255
173 206 255
173 206 255
173 206 255
173 206 255
173 206 255
172 206 255
172 206 255
172 206 255
172 206 255
172 206 255
172 205 255
172 205 255
172 205 255
172 205 255
172 205 255
172 205 255
172 205 255
172 205 255
172 205 255
171 205 255
171 205 255
171 205 255
171 205 255
171 205 255
171 205 255
171 205 255
171 205 255
171 205 255
171 205 255
171 205 255
171 205 255
170 204 255
170 204 255
170 204 255
170 204 255
170 204 255
170 204 255
170 204 255
170 204 255
170 204 255
170 204 255
170 204 255
170 204 255
169 204 255
169 204 255
169 204 255
169 204 255
169 204 255
169 204 255
169 204 255
169 204 255
169 203 255
169 203 255
169 203 255
168 203 255
168 203 255
168 203 255
168 203 255
168 203 255
168 203 255
168 203 255
168 203 255
168 203 255
168 203 255
168 203 255
168 203 255
167 203 255
167 203 255
167 203 255
167 202 255
167 202 255
167 202 255
167 202 255
167 202 255
167 202 255
167 202 255
167 202 255
166 202 255
166 202 255
166 202 255
166 202 255
166 202 255
166 202 255
166 202 255
166 202 255
166 202 255
166 202 255
166 202 255
165 201 255
165 201 255
165 201 255
165 201 255
165 201 255
165 201 255
165 201 255
165 201 255
165 201 255
165 201 255
164 201 255
164 201 255
164 201 255
164 201 255
164 201 255
164 201 255
164 201 255
164 201 255
164 201 255
164 200 255
164 200 255
164 200 255
164 200 255
163 200 255
163 200 255
163 200 255
163 200 255
163 200 255
163 200 255
163 200 255
163 200 255
163 200 255
163 200 255
163 200 255
163 200 255
163 200 255
162 200 255
162 200 255
162 200 255
162 200 255
162 200 255
162 199 255
162 199 255
162 199 255
162 199 255
162 199 255
162 199 255
162 199 255
162 199 255
162 199 255
162 199 255
162 199 255
162 199 255
162 199 255
145 179 230
100 123 158
49 61 79
14 18 23
13 17 23
14 18 23
14 17 23
15 18 24
14 17 23
13 16 21
14 17 23
13 17 23
13 17 22
15 18 23
15 18 24
13 17 22
14 18 23
14 17 22
14 18 23
14 17 23
14 18 23
14 18 23
14 18 23
13 16 21
14 18 23
13 17 22
13 17 22
13 17 22
14 18 23
14 17 23
14 18 24
14 18 24
14 18 23
14 17 23
13 17 22
13 17 23
13 17 23
14 18 23
14 18 23
14 18 24
14 17 23
15 18 24
14 18 24
14 18 23
14 18 23
60 74 95
101 125 161
159 195 251
162 199 255
162 199 255
162 199 255
162 199 255
162 199 255
162 199 255
162 199 255
162 199 255
162 199 255
162 199 255
162 199 255
162 199 255
162 199 255
162 200 255
162 200 255
162 200 255
162 200 255
162 200 255
163 200 255
163 200 255
163 200 255
163 200 255
163 200 255
163 200 255
163 200 255
163 200 255
163 200 255
163 200 255
163 200 255
163 200 255
163 200 255
164 200 255
164 200 255
164 200 255
164 200 255
164 201 255
164 201 255
164 201 255
164 201 255
164 201 255
164 201 255
164 201 255
164 201 255
165 201 255
165 201 255
165 201 255
165 201 255
165 201 255
165 201 255
165 201 255
165 201 255
165 201 255
165 201 255
165 201 255
165 201 255
166 202 255
166 202 255
166 202 255
166 202 255
166 202 255
166 202 255
166 202 255
166 202 255
166 202 255
166 202 255
166 202 255
167 202 255
167 202 255
167 202 255
167 202 255
167 202 255
167 202 255
167 202 255
167 203 255
167 203 255
167 203 255
168 203 255
168 203 255
168 203 255
168 203 255
168 203 255
168 203 255
168 203 255
168 203 255
168 203 255
168 203 255
168 203 255
169 203 255
169 203 255
169 203 255
169 203 255
169 204 255
169 204 255
169 204 255
169 204 255
169 204 255
169 204 255
169 204 255
169 204 255
170 204 255
170 204 255
170 204 255
170 204 255
170 204 255
170 204 255
170 204 255
170 204 255
170 204 255
170 204 255
170 204 255
170 204 255
171 205 255
171 205 255
171 205 255
171 205 255
171 205 255
171 205 255
171 205 255
171 205 255
171 205 255
171 205 255
171 205 255
171 205 255
171 205 255
172 205 255
172 205 255
172 205 255
172 205 255
172 205 255
172 205 255
172 205 255
172 205 255
172 206 255
172 206 255
172 206 255
172 206 255
172 206 255
173 206 255
173 206 255
173 206 255
173 206 255
173 206 255
173 206 255
173 206 255
173 206 255
173 206 255
173 206 255
173 206 255
173 206 255
173 206 255
173 206 255
174 206 255
174 206 255
174 206 255
174 206 255
174 206 255
174 207 255
174 207 255
174 207 255
174 207 255
174 207 255
174 207 255
174 207 255
174 207 255
174 207 255
174 207 255
174 207 255
175 207 255
175 207 255
175 207 255
175 207 255
175 207 255
175 207 255
175 207 255
175 207 255
175 207 255
175 207 255
175 207 255
175 207 255
175 207 255
175 207 255
175 207 255
175 207 255
175 207 255
175 207 255
175 207 255
175 207 255
175 207 255
175 207 255
175 207 255
174 207 255
174 207 255
174 207 255
174 207 255
174 207 255
174 207 255
174 207 255
174 207 255
174 207 255
174 207 255
174 206 255
174 206 255
174 206 255
174 206 255
174 206 255
173 206 255
173 206 255
173 206 255
173 206 255
173 206 255
173 206 255
173 206 255
173 206 255
173 206 255
173 206 255
173 206 255
173 206 255
173 206 255
173 206 255
172 206 255
172 206 255
172 206 255
172 206 255
172 206 255
172 205 255
172 205 255
172 205 255
172 205 255
172 205 255
172 205 255
172 205 255
172 205 255
171 205 255
171 205 255
171 205 255
171 205 255
171 205 255
171 205 255
171 205 255
171 205 255
171 205 255
171 205 255
171 205 255
171 205 255
171 205 255
170 204 255
170 204 255
170 204 255
170 204 255
170 204 255
170 204 255
170 204 255
170 204 255
170 204 255
170 204 255
170 204 255
170 204 255
169 204 255
169 204 255
169 204 255
169 204 255
169 204 255
169 204 255
169 204 255
169 203 255
169 203 255
169 203 255
169 203 255
168 203 255
168 203 255
168 203 255
168 203 255
168 203 255
168 203 255
168 203 255
168 203 255
168 203 255
168 203 255
168 203 255
167 203 255
167 203 255
167 203 255
167 203 255
167 202 255
167 202 255
167 202 255
167 202 255
167 202 255
167 202 255
167 202 255
166 202 255
166 202 255
166 202 255
166 202 255
166 202 255
166 202 255
166 202 255
166 202 255
166 202 255
166 202 255
166 202 255
166 202 255
165 201 255
165 201 255
165 201 255
165 201 255
165 201 255
165 201 255
165 201 255
165 201 255
165 201 255
165 201 255
165 201 255
164 201 255
164 201 255
164 201 255
164 201 255
164 201 255
164 201 255
164 201 255
164 201 255
164 200 255
164 200 255
164 200 255
164 200 255
164 200 255
163 200 255
163 200 255
163 200 255
163 200 255
163 200 255
163 200 255
163 200 255
163 200 255
163 200 255
163 200 255
163 200 255
163 200 255
163 200 255
163 200 255
162 200 255
162 200 255
162 200 255
162 200 255
162 200 255
162 200 255
162 199 255
162 199 255
162 199 255
162 199 255
122 150 193
73 91 116
26 32 41
14 17 23
14 18 23
13 17 22
14 17 23
13 17 23
15 18 24
14 18 23
14 17 23
14 18 23
14 17 23
14 17 23
14 18 23
14 17 23
14 17 23
14 18 23
13 17 22
14 17 23
14 18 23
14 18 23
13 17 22
14 17 23
14 18 23
14 18 23
13 17 22
13 17 22
13 17 22
14 18 23
14 18 24
13 17 22
14 18 23
13 17 22
13 17 22
14 18 24
14 17 23
14 18 23
14 18 23
14 18 23
13 17 23
14 17 23
14 17 22
14 17 23
14 17 23
14 18 24
13 17 22
14 17 22
14 17 23
18 23 30
66 81 104
128 158 203
162 199 255
162 199 255
162 199 255
162 199 255
162 200 255
162 200 255
162 200 255
162 200 255
162 200 255
162 200 255
163 200 255
163 200 255
163 200 255
163 200 255
163 200 255
163 200 255
163 200 255
163 200 255
163 200 255
163 200 255
163 200 255
163 200 255
163 200 255
163 200 255
163 200 255
164 200 255
164 200 255
164 200 255
164 200 255
164 201 255
164 201 255
164 201 255
164 201 255
164 201 255
164 201 255
164 201 255
164 201 255
165 201 255
165 201 255
165 201 255
165 201 255
165 201 255
165 201 255
165 201 255
165 201 255
165 201 255
165 201 255
165 201 255
165 201 255
166 202 255
166 202 255
166 202 255
166 202 255
166 202 255
166 202 255
166 202 255
166 202 255
166 202 255
166 202 255
167 202 255
167 202 255
167 202 255
167 202 255
167 202 255
167 202 255
167 202 255
167 202 255
167 203 255
167 203 255
167 203 255
167 203 255
168 203 255
168 203 255
168 203 255
168 203 255
168 203 255
168 203 255
168 203 255
168 203 255
168 203 255
168 203 255
168 203 255
169 203 255
169 203 255
169 203 255
169 203 255
169 204 255
169 204 255
169 204 255
169 204 255
169 204 255
169 204 255
169 204 255
170 204 255
170 204 255
170 204 255
170 204 255
170 204 255
170 204 255
170 204 255
170 204 255
170 204 255
170 204 255
170 204 255
170 204 255
171 205 255
171 205 255
171 205 255
171 205 255
171 205 255
171 205 255
171 205 255
171 205 255
171 205 255
171 205 255
171 205 255
171 205 255
171 205 255
172 205 255
172 205 255
172 205 255
172 205 255
172 205 255
172 205 255
172 205 255
172 205 255
172 206 255
172 206 255
172 206 255
172 206 255
172 206 255
173 206 255
173 206 255
173 206 255
173 206 255
173 206 255
173 206 255
173 206 255
173 206 255
173 206 255
173 206 255
173 206 255
173 206 255
173 206 255
173 206 255
174 206 255
174 206 255
174 206 255
174 206 255
174 206 255
174 207 255
174 207 255
174 207 255
174 207 255
174 207 255
174 207 255
174 207 255
174 207 255
174 207 255
174 207 255
174 207 255
175 207 255
175 207 255
175 207 255
175 207 255
175 207 255
175 207 255
175 207 255
175 207 255
175 207 255
175 207 255
175 207 255
175 207 255
175 207 255
176 208 255
175 207 255
175 207 255
175 207 255
175 207 255
175 207 255
175 207 255
175 207 255
175 207 255
175 207 255
175 207 255
175 207 255
175 207 255
175 207 255
175 207 255
175 207 255
175 207 255
175 207 255
174 207 255
174 207 255
174 207 255
174 207 255
174 207 255
174 207 255
174 207 255
174 207 255
174 207 255
174 207 255
174 206 255
174 206 255
174 206 255
174 206 255
174 206 255
173 206 255
173 206 255
173 206 255
173 206 255
173 206 255
173 206 255
173 206 255
173 206 255
173 206 255
173 206 255
173 206 255
173 206 255
173 206 255
173 206 255
172 206 255
172 206 255
172 206 255
172 206 255
172 206 255
172 205 255
172 205 255
172 205 255
172 205 255
172 205 255
172 205 255
172 205 255
172 205 255
171 205 255
171 205 255
171 205 255
171 205 255
171 205 255
171 205 255
171 205 255
171 205 255
171 205 255
171 205 255
171 205 255
171 205 255
171 205 255
170 204 255
170 204 255
170 204 255
170 204 255
170 204 255
170 204 255
170 204 255
170 204 255
170 204 255
170 204 255
170 204 255
169 204 255
169 204 255
169 204 255
169 204 255
169 204 255
169 204 255
169 204 255
169 204 255
169 203 255
169 203 255
169 203 255
169 203 255
168 203 255
168 203 255
168 203 255
168 203 255
168 203 255
168 203 255
168 203 255
168 203 255
168 203 255
168 203 255
168 203 255
167 203 255
167 203 255
167 203 255
167 203 255
167 202 255
167 202 255
167 202 255
167 202 255
167 202 255
167 202 255
167 202 255
166 202 255
166 202 255
166 202 255
166 202 255
166 202 255
166 202 255
166 202 255
166 202 255
166 202 255
166 202 255
166 202 255
166 202 255
165 201 255
165 201 255
165 201 255
165 201 255
165 201 255
165 201 255
165 201 255
165 201 255
165 201 255
165 201 255
165 201 255
165 201 255
164 201 255
164 201 255
164 201 255
164 201 255
164 201 255
164 201 255
164 201 255
164 201 255
164 200 255
164 200 255
164 200 255
164 200 255
164 200 255
163 200 255
163 200 255
163 200 255
163 200 255
163 200 255
163 200 255
163 200 255
163 200 255
163 200 255
163 200 255
163 200 255
163 200 255
163 200 255
163 200 255
163 200 255
163 200 255
161 198 253
116 143 184
30 37 48
13 17 23
14 18 23
13 17 23
13 17 23
14 17 23
14 18 23
13 17 22
15 19 24
13 16 22
14 17 22
13 17 22
14 18 23
13 17 22
13 17 22
13 17 22
13 16 21
14 18 24
14 17 23
14 17 23
14 18 23
14 18 23
14 18 23
13 17 22
14 17 22
14 17 23
14 17 22
14 18 23
13 17 22
13 17 22
14 18 23
13 16 22
14 18 23
14 17 22
14 18 23
13 17 22
15 18 23
14 17 23
14 18 23
14 17 22
13 16 21
13 16 21
14 17 23
14 18 23
14 17 22
14 17 23
14 17 23
13 17 22
14 18 23
15 19 24
14 17 23
13 17 22
14 18 24
38 47 61
118 145 186
161 198 253
163 200 255
163 200 255
163 200 255
163 200 255
163 200 255
163 200 255
163 200 255
163 200 255
163 200 255
163 200 255
163 200 255
163 200 255
163 200 255
163 200 255
163 200 255
163 200 255
164 200 255
164 200 255
164 200 255
164 200 255
164 200 255
164 201 255
164 201 255
164 201 255
164 201 255
164 201 255
164 201 255
164 201 255
164 201 255
164 201 255
165 201 255
165 201 255
165 201 255
165 201 255
165 201 255
165 201 255
165 201 255
165 201 255
165 201 255
165 201 255
165 201 255
166 202 255
166 202 255
166 202 255
166 202 255
166 202 255
166 202 255
166 202 255
166 202 255
166 202 255
166 202 255
166 202 255
166 202 255
167 202 255
167 202 255
167 202 255
167 202 255
167 202 255
167 202 255
167 202 255
167 203 255
167 203 255
167 203 255
167 203 255
168 203 255
168 203 255
168 203 255
168 203 255
168 203 255
168 203 255
168 203 255
168 203 255
168 203 255
168 203 255
168 203 255
169 203 255
169 203 255
169 203 255
169 203 255
169 204 255
169 204 255
169 204 255
169 204 255
169 204 255
169 204 255
169 204 255
170 204 255
170 204 255
170 204 255
170 204 255
170 204 255
170 204 255
170 204 255
170 204 255
170 204 255
170 204 255
170 204 255
170 204 255
171 205 255
171 205 255
171 205 255
171 205 255
171 205 255
171 205 255
171 205 255
171 205 255
171 205 255
171 205 255
171 205 255
171 205 255
171 205 255
172 205 255
172 205 255
172 205 255
172 205 255
172 205 255
172 205 255
172 205 255
172 205 255
172 206 255
172 206 255
172 206 255
172 206 255
172 206 255
173 206 255
173 206 255
173 206 255
173 206 255
173 206 255
173 206 255
173 206 255
173 206 255
173 206 255
173 206 255
173 206 255
173 206 255
173 206 255
173 206 255
174 206 255
174 206 255
174 206 255
174 206 255
174 206 255
174 207 255
174 207 255
174 207 255
174 207 255
174 207 255
174 207 255
174 207 255
174 207 255
174 207 255
174 207 255
175 207 255
175 207 255
175 207 255
175 207 255
175 207 255
175 207 255
175 207 255
175 207 255
175 207 255
175 207 255
175 207 255
175 207 255
175 207 255
175 207 255
175 207 255
175 207 255
175 207 255
176 208 255
176 208 255
176 208 255
176 208 255
176 208 255
176 208 255
175 207 255
175 207 255
175 207 255
175 207 255
175 207 255
175 207 255
175 207 255
175 207 255
175 207 255
175 207 255
175 207 255
175 207 255
175 207 255
175 207 255
175 207 255
175 207 255
175 207 255
174 207 255
174 207 255
174 207 255
174 207 255
174 207 255
174 207 255
174 207 255
174 207 255
174 207 255
174 207 255
174 206 255
174 206 255
174 206 255
174 206 255
174 206 255
173 206 255
173 206 255
173 206 255
173 206 255
173 206 255
173 206 255
173 206 255
173 206 255
173 206 255
173 206 255
173 206 255
173 206 255
173 206 255
173 206 255
172 206 255
172 206 255
172 206 255
172 206 255
172 206 255
172 205 255
172 205 255
172 205 255
172 205 255
172 205 255
172 205 255
172 205 255
172 205 255
171 205 255
171 205 255
171 205 255
171 205 255
171 205 255
171 205 255
171 205 255
171 205 255
171 205 255
171 205 255
171 205 255
171 205 255
170 204 255
170 204 255
170 204 255
170 204 255
170 204 255
170 204 255
170 204 255
170 204 255
170 204 255
170 204 255
170 204 255
170 204 255
169 204 255
169 204 255
169 204 255
169 204 255
169 204 255
169 204 255
169 204 255
169 204 255
169 203 255
169 203 255
169 203 255
169 203 255
168 203 255
168 203 255
168 203 255
168 203 255
168 203 255
168 203 255
168 203 255
168 203 255
168 203 255
168 203 255
168 203 255
167 203 255
167 203 255
167 203 255
167 203 255
167 202 255
167 202 255
167 202 255
167 202 255
167 202 255
167 202 255
167 202 255
167 202 255
166 202 255
166 202 255
166 202 255
166 202 255
166 202 255
166 202 255
166 202 255
166 202 255
166 202 255
166 202 255
166 202 255
165 201 255
165 201 255
165 201 255
165 201 255
165 201 255
165 201 255
165 201 255
165 201 255
165 201 255
165 201 255
165 201 255
165 201 255
164 201 255
164 201 255
164 201 255
164 201 255
164 201 255
164 201 255
164 201 255
164 201 255
164 201 255
164 201 255
164 200 255
164 200 255
164 200 255
164 200 255
163 200 255
163 200 255
163 200 255
163 200 255
163 200 255
163 200 255
163 200 255
163 200 255
163 200 255
163 200 255
115 142 182
35 43 55
14 18 24
14 18 23
14 17 23
14 17 23
14 18 23
13 17 22
14 17 22
14 18 23
13 17 22
14 18 23
14 18 23
14 18 23
15 18 24
14 18 23
14 17 22
14 17 22
13 17 22
14 18 24
13 17 22
14 17 23
14 18 23
14 18 23
14 18 23
13 16 21
13 17 22
13 16 21
13 17 22
13 17 22
14 17 22
13 17 22
13 16 22
13 17 22
13 17 23
14 17 23
14 18 23
14 18 23
14 17 23
13 16 21
15 18 23
13 16 21
14 17 23
13 16 21
14 18 23
14 18 23
14 18 23
13 16 22
14 17 23
13 16 22
12 16 20
14 18 24
13 16 21
13 17 22
14 17 23
13 16 22
14 17 23
13 17 22
35 43 55
114 140 179
160 196 251
163 200 255
163 200 255
163 200 255
163 200 255
163 200 255
163 200 255
163 200 255
163 200 255
164 200 255
164 200 255
164 200 255
164 200 255
164 200 255
164 200 255
164 201 255
164 201 255
164 201 255
164 201 255
164 201 255
164 201 255
164 201 255
164 201 255
164 201 255
165 201 255
165 201 255
165 201 255
165 201 255
165 201 255
165 201 255
165 201 255
165 201 255
165 201 255
165 201 255
165 201 255
165 201 255
166 202 255
166 202 255
166 202 255
166 202 255
166 202 255
166 202 255
166 202 255
166 202 255
166 202 255
166 202 255
166 202 255
167 202 255
167 202 255
167 202 255
167 202 255
167 202 255
167 202 255
167 202 255
167 202 255
167 203 255
167 203 255
167 203 255
167 203 255
168 203 255
168 203 255
168 203 255
168 203 255
168 203 255
168 203 255
168 203 255
168 203 255
168 203 255
168 203 255
168 203 255
169 203 255
169 203 255
169 203 255
169 203 255
169 204 255
169 204 255
169 204 255
169 204 255
169 204 255
169 204 255
169 204 255
170 204 255
170 204 255
170 204 255
170 204 255
170 204 255
170 204 255
170 204 255
170 204 255
170 204 255
170 204 255
170 204 255
170 204 255
171 205 255
171 205 255
171 205 255
171 205 255
171 205 255
171 205 255
171 205 255
171 205 255
171 205 255
171 205 255
171 205 255
171 205 255
171 205 255
172 205 255
172 205 255
172 205 255
172 205 255
172 205 255
172 205 255
172 205 255
172 205 255
172 206 255
172 206 255
172 206 255
172 206 255
172 206 255
173 206 255
173 206 255
173 206 255
173 206 255
173 206 255
173 206 255
173 206 255
173 206 255
173 206 255
173 206 255
173 206 255
173 206 255
173 206 255
173 206 255
174 206 255
174 206 255
174 206 255
174 206 255
174 206 255
174 207 255
174 207 255
174 207 255
174 207 255
174 207 255
174 207 255
174 207 255
174 207 255
174 207 255
174 207 255
175 207 255
175 207 255
175 207 255
175 207 255
175 207 255
175 207 255
175 207 255
175 207 255
175 207 255
175 207 255
175 207 255
175 207 255
175 207 255
175 207 255
175 207 255
175 207 255
176 208 255
176 208 255
176 208 255
176 208 255
176 208 255
176 208 255
176 208 255
176 208 255
176 208 255
176 208 255
176 208 255
176 208 255
176 208 255
176 208 255
176 208 255
176 208 255
175 207 255
175 207 255
175 207 255
175 207 255
175 207 255
175 207 255
175 207 255
175 207 255
175 207 255
175 207 255
175 207 255
175 207 255
175 207 255
175 207 255
175 207 255
175 207 255
174 207 255
174 207 255
174 207 255
174 207 255
174 207 255
174 207 255
174 207 255
174 207 255
174 207 255
174 207 255
174 207 255
174 206 255
174 206 255
174 206 255
174 206 255
173 206 255
173 206 255
173 206 255
173 206 255
173 206 255
173 206 255
173 206 255
173 206 255
173 206 255
173 206 255
173 206 255
173 206 255
173 206 255
173 206 255
172 206 255
172 206 255
172 206 255
172 206 255
172 206 255
172 205 255
172 205 255
172 205 255
172 205 255
172 205 255
172 205 255
172 205 255
172 205 255
171 205 255
171 205 255
171 205 255
171 205 255
171 205 255
171 205 255
171 205 255
171 205 255
171 205 255
171 205 255
171 205 255
171 205 255
170 204 255
170 204 255
170 204 255
170 204 255
170 204 255
170 204 255
170 204 255
170 204 255
170 204 255
170 204 255
170 204 255
170 204 255
170 204 255
169 204 255
169 204 255
169 204 255
169 204 255
169 204 255
169 204 255
169 204 255
169 203 255
169 203 255
169 203 255
169 203 255
168 203 255
168 203 255
168 203 255
168 203 255
168 203 255
168 203 255
168 203 255
168 203 255
168 203 255
168 203 255
168 203 255
167 203 255
167 203 255
167 203 255
167 203 255
167 202 255
167 202 255
167 202 255
167 202 255
167 202 255
167 202 255
167 202 255
167 202 255
166 202 255
166 202 255
166 202 255
166 202 255
166 202 255
166 202 255
166 202 255
166 202 255
166 202 255
166 202 255
166 202 255
165 201 255
165 201 255
165 201 255
165 201 255
165 201 255
165 201 255
165 201 255
165 201 255
165 201 255
165 201 255
165 201 255
165 201 255
165 201 255
164 201 255
164 201 255
164 201 255
164 201 255
164 201 255
164 201 255
164 201 255
164 201 255
164 201 255
164 201 255
164 200 255
164 200 255
164 200 255
164 200 255
164 200 255
164 200 255
163 200 255
117 144 184
30 37 47
14 18 23
13 17 23
14 18 23
14 17 23
14 17 23
13 17 22
14 18 23
13 16 22
13 17 22
14 17 22
13 17 22
14 17 22
13 17 22
13 16 21
13 17 23
14 18 23
14 17 22
14 18 23
14 18 23
12 15 20
13 17 22
13 17 22
13 17 22
13 16 21
14 17 22
14 17 23
14 17 22
13 17 22
14 18 23
14 17 23
13 16 21
14 17 22
13 16 21
14 17 23
14 17 22
13 16 21
13 17 22
14 18 23
13 16 21
15 18 23
13 16 22
13 17 22
13 17 22
13 17 22
13 17 22
14 17 22
13 16 21
14 17 23
13 17 22
14 17 22
14 18 23
14 17 23
14 18 23
14 17 23
14 17 23
15 18 24
14 17 23
14 17 23
14 17 23
13 17 22
33 41 53
119 146 186
163 200 255
164 200 255
164 200 255
164 200 255
164 200 255
164 200 255
164 201 255
164 201 255
164 201 255
164 201 255
164 201 255
164 201 255
164 201 255
164 201 255
164 201 255
164 201 255
164 201 255
165 201 255
165 201 255
165 201 255
165 201 255
165 201 255
165 201 255
165 201 255
165 201 255
165 201 255
165 201 255
165 201 255
165 201 255
165 201 255
166 202 255
166 202 255
166 202 255
166 202 255
166 202 255
166 202 255
166 202 255
166 202 255
166 202 255
166 202 255
166 202 255
167 202 255
167 202 255
167 202 255
167 202 255
167 202 255
167 202 255
167 202 255
167 202 255
167 203 255
167 203 255
167 203 255
167 203 255
168 203 255
168 203 255
168 203 255
168 203 255
168 203 255
168 203 255
168 203 255
168 203 255
168 203 255
168 203 255
168 203 255
169 203 255
169 203 255
169 203 255
169 203 255
169 204 255
169 204 255
169 204 255
169 204 255
169 204 255
169 204 255
169 204 255
169 204 255
170 204 255
170 204 255
170 204 255
170 204 255
170 204 255
170 204 255
170 204 255
170 204 255
170 204 255
170 204 255
170 204 255
171 205 255
171 205 255
171 205 255
171 205 255
171 205 255
171 205 255
171 205 255
171 205 255
171 205 255
171 205 255
171 205 255
171 205 255
171 205 255
172 205 255
172 205 255
172 205 255
172 205 255
172 205 255
172 205 255
172 205 255
172 205 255
172 205 255
172 206 255
172 206 255
172 206 255
172 206 255
173 206 255
173 206 255
173 206 255
173 206 255
173 206 255
173 206 255
173 206 255
173 206 255
173 206 255
173 206 255
173 206 255
173 206 255
173 206 255
173 206 255
174 206 255
174 206 255
174 206 255
174 206 255
174 207 255
174 207 255
174 207 255
174 207 255
174 207 255
174 207 255
174 207 255
174 207 255
174 207 255
174 207 255
174 207 255
175 207 255
175 207 255
175 207 255
175 207 255
175 207 255
175 207 255
175 207 255
175 207 255
175 207 255
175 207 255
175 207 255
175 207 255
175 207 255
175 207 255
175 207 255
175 207 255
176 208 255
176 208 255
176 208 255
176 208 255
176 208 255
176 208 255
176 208 255
176 208 255
176 208 255
176 208 255
176 208 255
176 208 255
176 208 255
176 208 255
176 208 255
176 208 255
176 208 255
176 208 255
176 208 255
176 208 255
176 208 255
176 208 255
176 208 255
176 208 255
176 208 255
175 207 255
175 207 255
175 207 255
175 207 255
175 207 255
175 207 255
175 207 255
175 207 255
175 207 255
175 207 255
175 207 255
175 207 255
175 207 255
175 207 255
175 207 255
175 207 255
174 207 255
174 207 255
174 207 255
174 207 255
174 207 255
174 207 255
174 207 255
174 207 255
174 207 255
174 207 255
174 206 255
174 206 255
174 206 255
174 206 255
174 206 255
173 206 255
173 206 255
173 206 255
173 206 255
173 206 255
173 206 255
173 206 255
173 206 255
173 206 255
173 206 255
173 206 255
173 206 255
173 206 255
172 206 255
172 206 255
172 206 255
172 206 255
172 206 255
172 205 255
172 205 255
172 205 255
172 205 255
172 205 255
172 205 255
172 205 255
172 205 255
171 205 255
171 205 255
171 205 255
171 205 255
171 205 255
171 205 255
171 205 255
171 205 255
171 205 255
171 205 255
171 205 255
171 205 255
171 205 255
170 204 255
170 204 255
170 204 255
170 204 255
170 204 255
170 204 255
170 204 255
170 204 255
170 204 255
170 204 255
170 204 255
169 204 255
169 204 255
169 204 255
169 204 255
169 204 255
169 204 255
169 204 255
169 204 255
169 203 255
169 203 255
169 203 255
169 203 255
168 203 255
168 203 255
168 203 255
168 203 255
168 203 255
168 203 255
168 203 255
168 203 255
168 203 255
168 203 255
168 203 255
167 203 255
167 203 255
167 203 255
167 203 255
167 202 255
167 202 255
167 202 255
167 202 255
167 202 255
167 202 255
167 202 255
167 202 255
166 202 255
166 202 255
166 202 255
166 202 255
166 202 255
166 202 255
166 202 255
166 202 255
166 202 255
166 202 255
166 202 255
166 202 255
165 201 255
165 201 255
165 201 255
165 201 255
165 201 255
165 201 255
165 201 255
165 201 255
165 201 255
165 201 255
165 201 255
165 201 255
165 201 255
165 201 255
164 201 255
164 201 255
164 201 255
164 201 255
164 201 255
164 201 255
164 201 255
164 201 255
164 201 255
140 172 219
57 70 90
14 17 22
13 16 22
14 17 23
15 19 24
14 18 23
14 17 23
13 16 21
14 17 22
14 17 22
14 17 22
14 18 23
13 16 20
14 18 23
14 18 23
13 16 21
14 17 23
13 17 22
13 17 22
13 17 22
13 16 21
14 17 22
12 16 20
13 17 22
13 16 21
14 17 22
13 16 20
14 17 22
14 18 23
14 18 23
13 17 22
14 17 23
14 17 23
13 16 20
14 17 22
14 17 22
13 16 21
14 17 23
13 17 22
13 17 22
13 17 22
13 17 22
14 17 22
13 16 22
13 17 22
13 16 21
13 16 22
13 17 22
13 16 21
13 17 22
13 16 21
14 18 23
13 16 21
14 17 22
13 17 23
14 18 23
13 16 21
13 16 22
14 17 22
14 17 23
13 17 22
13 16 21
13 17 22
13 17 22
13 17 22
49 60 77
139 170 216
164 201 255
164 201 255
164 201 255
164 201 255
164 201 255
164 201 255
164 201 255
164 201 255
165 201 255
165 201 255
165 201 255
165 201 255
165 201 255
165 201 255
165 201 255
165 201 255
165 201 255
165 201 255
165 201 255
165 201 255
165 201 255
165 201 255
166 202 255
166 202 255
166 202 255
166 202 255
166 202 255
166 202 255
166 202 255
166 202 255
166 202 255
166 202 255
166 202 255
166 202 255
166 202 255
167 202 255
167 202 255
167 202 255
167 202 255
167 202 255
167 202 255
167 202 255
167 202 255
167 203 255
167 203 255
167 203 255
167 203 255
168 203 255
168 203 255
168 203 255
168 203 255
168 203 255
168 203 255
168 203 255
168 203 255
168 203 255
168 203 255
168 203 255
169 203 255
169 203 255
169 203 255
169 203 255
169 204 255
169 204 255
169 204 255
169 204 255
169 204 255
169 204 255
169 204 255
169 204 255
170 204 255
170 204 255
170 204 255
170 204 255
170 204 255
170 204 255
170 204 255
170 204 255
170 204 255
170 204 255
170 204 255
171 205 255
171 205 255
171 205 255
171 205 255
171 205 255
171 205 255
171 205 255
171 205 255
171 205 255
171 205 255
171 205 255
171 205 255
171 205 255
172 205 255
172 205 255
172 205 255
172 205 255
172 205 255
172 205 255
172 205 255
172 205 255
172 206 255
172 206 255
172 206 255
172 206 255
172 206 255
173 206 255
173 206 255
173 206 255
173 206 255
173 206 255
173 206 255
173 206 255
173 206 255
173 206 255
173 206 255
173 206 255
173 206 255
173 206 255
173 206 255
174 206 255
174 206 255
174 206 255
174 206 255
174 207 255
174 207 255
174 207 255
174 207 255
174 207 255
174 207 255
174 207 255
174 207 255
174 207 255
174 207 255
175 207 255
175 207 255
175 207 255
175 207 255
175 207 255
175 207 255
175 207 255
175 207 255
175 207 255
175 207 255
175 207 255
175 207 255
175 207 255
175 207 255
175 207 255
175 207 255
176 208 255
176 208 255
176 208 255
176 208 255
176 208 255
176 208 255
176 208 255
176 208 255
176 208 255
176 208 255
176 208 255
176 208 255
176 208 255
176 208 255
176 208 255
177 208 255
177 208 255
176 208 255
176 208 255
176 208 255
176 208 255
176 208 255
176 208 255
176 208 255
176 208 255
176 208 255
176 208 255
176 208 255
176 208 255
176 208 255
176 208 255
176 208 255
176 208 255
176 208 255
175 207 255
175 207 255
175 207 255
175 207 255
175 207 255
175 207 255
175 207 255
175 207 255
175 207 255
175 207 255
175 207 255
175 207 255
175 207 255
175 207 255
175 207 255
175 207 255
174 207 255
174 207 255
174 207 255
174 207 255
174 207 255
174 207 255
174 207 255
174 207 255
174 207 255
174 207 255
174 206 255
174 206 255
174 206 255
174 206 255
174 206 255
173 206 255
173 206 255
173 206 255
173 206 255
173 206 255
173 206 255
173 206 255
173 206 255
173 206 255
173 206 255
173 206 255
173 206 255
173 206 255
172 206 255
172 206 255
172 206 255
172 206 255
172 206 255
172 205 255
172 205 255
172 205 255
172 205 255
172 205 255
172 205 255
172 205 255
172 205 255
171 205 255
171 205 255
171 205 255
171 205 255
171 205 255
171 205 255
171 205 255
171 205 255
171 205 255
171 205 255
171 205 255
171 205 255
171 205 255
170 204 255
170 204 255
170 204 255
170 204 255
170 204 255
170 204 255
170 204 255
170 204 255
170 204 255
170 204 255
170 204 255
170 204 255
169 204 255
169 204 255
169 204 255
169 204 255
169 204 255
169 204 255
169 204 255
169 203 255
169 203 255
169 203 255
169 203 255
168 203 255
168 203 255
168 203 255
168 203 255
168 203 255
168 203 255
168 203 255
168 203 255
168 203 255
168 203 255
168 203 255
168 203 255
167 203 255
167 203 255
167 203 255
167 203 255
167 202 255
167 202 255
167 202 255
167 202 255
167 202 255
167 202 255
167 202 255
166 202 255
166 202 255
166 202 255
166 202 255
166 202 255
166 202 255
166 202 255
166 202 255
166 202 255
166 202 255
166 202 255
166 202 255
166 202 255
166 202 255
165 201 255
165 201 255
165 201 255
165 201 255
165 201 255
165 201 255
165 201 255
165 201 255
165 201 255
165 201 255
165 201 255
165 201 255
165 201 255
165 201 255
165 201 255
157 192 244
78 96 122
17 21 28
14 17 22
14 18 23
14 17 23
13 17 22
13 17 23
14 17 23
13 16 21
14 18 23
14 17 22
14 17 22
13 17 22
13 17 22
13 17 21
14 18 23
14 17 22
13 16 21
13 16 22
13 16 20
13 16 21
13 16 21
12 16 20
13 17 22
13 17 22
14 17 22
13 16 21
13 16 21
14 17 22
12 16 20
13 17 22
14 18 23
14 17 23
12 16 21
13 16 21
14 18 23
13 17 22
12 16 21
13 16 21
14 17 22
12 15 19
14 18 23
14 17 22
12 15 20
14 17 22
14 17 23
13 16 21
14 18 23
13 16 21
14 17 23
13 17 22
13 16 21
13 17 22
13 17 22
13 16 20
13 17 22
13 17 22
14 18 23
13 16 21
13 17 22
13 16 21
14 17 23
14 18 23
14 18 23
13 17 22
13 16 21
13 17 22
13 17 22
16 21 27
91 111 141
163 199 253
164 201 255
165 201 255
165 201 255
165 201 255
165 201 255
165 201 255
165 201 255
165 201 255
165 201 255
165 201 255
165 201 255
165 201 255
165 201 255
165 201 255
165 201 255
166 202 255
166 202 255
166 202 255
166 202 255
166 202 255
166 202 255
166 202 255
166 202 255
166 202 255
166 202 255
166 202 255
166 202 255
166 202 255
167 202 255
167 202 255
167 202 255
167 202 255
167 202 255
167 202 255
167 202 255
167 202 255
167 203 255
167 203 255
167 203 255
167 203 255
167 203 255
168 203 255
168 203 255
168 203 255
168 203 255
168 203 255
168 203 255
168 203 255
168 203 255
168 203 255
168 203 255
168 203 255
169 203 255
169 203 255
169 203 255
169 203 255
169 204 255
169 204 255
169 204 255
169 204 255
169 204 255
169 204 255
169 204 255
170 204 255
170 204 255
170 204 255
170 204 255
170 204 255
170 204 255
170 204 255
170 204 255
170 204 255
170 204 255
170 204 255
170 204 255
171 205 255
171 205 255
171 205 255
171 205 255
171 205 255
171 205 255
171 205 255
171 205 255
171 205 255
171 205 255
171 205 255
171 205 255
171 205 255
172 205 255
172 205 255
172 205 255
172 205 255
172 205 255
172 205 255
172 205 255
172 205 255
172 206 255
172 206 255
172 206 255
172 206 255
172 206 255
173 206 255
173 206 255
173 206 255
173 206 255
173 206 255
173 206 255
173 206 255
173 206 255
173 206 255
173 206 255
173 206 255
173 206 255
173 206 255
174 206 255
174 206 255
174 206 255
174 206 255
174 206 255
174 207 255
174 207 255
174 207 255
174 207 255
174 207 255
174 207 255
174 207 255
174 207 255
174 207 255
174 207 255
175 207 255
175 207 255
175 207 255
175 207 255
175 207 255
175 207 255
175 207 255
175 207 255
175 207 255
175 207 255
175 207 255
175 207 255
175 207 255
175 207 255
175 207 255
175 207 255
176 208 255
176 208 255
176 208 255
176 208 255
176 208 255
176 208 255
176 208 255
176 208 255
176 208 255
176 208 255
176 208 255
176 208 255
176 208 255
176 208 255
176 208 255
176 208 255
176 208 255
177 208 255
177 208 255
177 208 255
177 208 255
177 208 255
177 208 255
177 208 255
177 208 255
176 208 255
176 208 255
176 208 255
176 208 255
176 208 255
176 208 255
176 208 255
176 208 255
176 208 255
176 208 255
176 208 255
176 208 255
176 208 255
176 208 255
176 208 255
176 208 255
176 208 255
176 208 255
175 207 255
175 207 255
175 207 255
175 207 255
175 207 255
175 207 255
175 207 255
175 207 255
175 207 255
175 207 255
175 207 255
175 207 255
175 207 255
175 207 255
175 207 255
175 207 255
174 207 255
174 207 255
174 207 255
174 207 255
174 207 255
174 207 255
174 207 255
174 207 255
174 207 255
174 206 255
174 206 255
174 206 255
174 206 255
174 206 255
173 206 255
173 206 255
173 206 255
173 206 255
173 206 255
173 206 255
173 206 255
173 206 255
173 206 255
173 206 255
173 206 255
173 206 255
173 206 255
173 206 255
172 206 255
172 206 255
172 206 255
172 206 255
172 205 255
172 205 255
172 205 255
172 205 255
172 205 255
172 205 255
172 205 255
172 205 255
171 205 255
171 205 255
171 205 255
171 205 255
171 205 255
171 205 255
171 205 255
171 205 255
171 205 255
171 205 255
171 205 255
171 205 255
171 205 255
170 204 255
170 204 255
170 204 255
170 204 255
170 204 255
170 204 255
170 204 255
170 204 255
170 204 255
170 204 255
170 204 255
169 204 255
169 204 255
169 204 255
169 204 255
169 204 255
169 204 255
169 204 255
169 204 255
169 203 255
169 203 255
169 203 255
169 203 255
168 203 255
168 203 255
168 203 255
168 203 255
168 203 255
168 203 255
168 203 255
168 203 255
168 203 255
168 203 255
168 203 255
168 203 255
167 203 255
167 203 255
167 203 255
167 203 255
167 202 255
167 202 255
167 202 255
167 202 255
167 202 255
167 202 255
167 202 255
167 202 255
166 202 255
166 202 255
166 202 255
166 202 255
166 202 255
166 202 255
166 202 255
166 202 255
166 202 255
166 202 255
166 202 255
166 202 255
166 202 255
166 202 255
165 201 255
165 201 255
165 201 255
165 201 255
165 201 255
165 201 255
165 201 255
165 201 255
165 201 255
121 147 187
27 34 43
14 17 23
14 18 23
13 17 22
14 18 23
13 16 21
14 18 23
14 18 23
13 16 21
13 17 22
14 17 22
14 17 22
14 17 23
13 16 21
13 16 21
13 17 23
14 17 22
13 16 21
14 17 22
13 16 21
13 16 21
13 16 21
13 17 22
13 17 22
13 17 22
14 17 22
13 17 21
13 16 21
14 17 22
13 16 21
13 17 22
14 18 23
14 18 23
13 16 21
14 17 23
13 16 21
12 15 20
14 18 23
13 16 22
14 17 22
13 17 22
13 16 21
14 17 22
14 17 22
14 18 23
13 16 21
13 17 22
13 16 20
13 16 21
12 15 20
13 17 22
14 17 22
13 17 22
14 17 22
14 17 22
13 16 21
13 17 22
14 17 22
13 16 21
12 16 20
13 16 21
14 17 23
13 17 23
13 16 20
13 17 22
13 17 21
13 16 22
13 17 22
14 17 23
14 18 23
14 17 23
36 45 58
127 155 198
165 201 255
165 201 255
165 201 255
165 201 255
165 201 255
165 201 255
165 201 255
165 201 255
165 201 255
166 202 255
166 202 255
166 202 255
166 202 255
166 202 255
166 202 255
166 202 255
166 202 255
166 202 255
166 202 255
166 202 255
166 202 255
166 202 255
166 202 255
167 202 255
167 202 255
167 202 255
167 202 255
167 202 255
167 202 255
167 202 255
167 202 255
167 203 255
167 203 255
167 203 255
167 203 255
168 203 255
168 203 255
168 203 255
168 203 255
168 203 255
168 203 255
168 203 255
168 203 255
168 203 255
168 203 255
168 203 255
168 203 255
169 203 255
169 203 255
169 203 255
169 203 255
169 204 255
169 204 255
169 204 255
169 204 255
169 204 255
169 204 255
169 204 255
170 204 255
170 204 255
170 204 255
170 204 255
170 204 255
170 204 255
170 204 255
170 204 255
170 204 255
170 204 255
170 204 255
170 204 255
171 205 255
171 205 255
171 205 255
171 205 255
171 205 255
171 205 255
171 205 255
171 205 255
171 205 255
171 205 255
171 205 255
171 205 255
171 205 255
172 205 255
172 205 255
172 205 255
172 205 255
172 205 255
172 205 255
172 205 255
172 205 255
172 206 255
172 206 255
172 206 255
172 206 255
173 206 255
173 206 255
173 206 255
173 206 255
173 206 255
173 206 255
173 206 255
173 206 255
173 206 255
173 206 255
173 206 255
173 206 255
173 206 255
173 206 255
174 206 255
174 206 255
174 206 255
174 206 255
174 207 255
174 207 255
174 207 255
174 207 255
174 207 255
174 207 255
174 207 255
174 207 255
174 207 255
174 207 255
175 207 255
175 207 255
175 207 255
175 207 255
175 207 255
175 207 255
175 207 255
175 207 255
175 207 255
175 207 255
175 207 255
175 207 255
175 207 255
175 207 255
175 207 255
175 207 255
176 208 255
176 208 255
176 208 255
176 208 255
176 208 255
176 208 255
176 208 255
176 208 255
176 208 255
176 208 255
176 208 255
176 208 255
176 208 255
176 208 255
176 208 255
176 208 255
176 208 255
176 208 255
177 208 255
177 208 255
177 208 255
177 208 255
177 208 255
177 208 255
177 208 255
177 208 255
177 208 255
177 208 255
177 208 255
177 208 255
177 208 255
177 208 255
177 208 255
177 208 255
177 208 255
176 208 255
176 208 255
176 208 255
176 208 255
176 208 255
176 208 255
176 208 255
176 208 255
176 208 255
176 208 255
176 208 255
176 208 255
176 208 255
176 208 255
176 208 255
176 208 255
176 208 255
175 207 255
175 207 255
175 207 255
175 207 255
175 207 255
175 207 255
175 207 255
175 207 255
175 207 255
175 207 255
175 207 255
175 207 255
175 207 255
175 207 255
175 207 255
175 207 255
174 207 255
174 207 255
174 207 255
174 207 255
174 207 255
174 207 255
174 207 255
174 207 255
174 207 255
174 207 255
174 206 255
174 206 255
174 206 255
174 206 255
173 206 255
173 206 255
173 206 255
173 206 255
173 206 255
173 206 255
173 206 255
173 206 255
173 206 255
173 206 255
173 206 255
173 206 255
173 206 255
173 206 255
172 206 255
172 206 255
172 206 255
172 206 255
172 205 255
172 205 255
172 205 255
172 205 255
172 205 255
172 205 255
172 205 255
172 205 255
172 205 255
171 205 255
171 205 255
171 205 255
171 205 255
171 205 255
171 205 255
171 205 255
171 205 255
171 205 255
171 205 255
171 205 255
171 205 255
170 204 255
170 204 255
170 204 255
170 204 255
170 204 255
170 204 255
170 204 255
170 204 255
170 204 255
170 204 255
170 204 255
170 204 255
169 204 255
169 204 255
169 204 255
169 204 255
169 204 255
169 204 255
169 204 255
169 204 255
169 203 255
169 203 255
169 203 255
169 203 255
168 203 255
168 203 255
168 203 255
168 203 255
168 203 255
168 203 255
168 203 255
168 203 255
168 203 255
168 203 255
168 203 255
168 203 255
167 203 255
167 203 255
167 203 255
167 203 255
167 202 255
167 202 255
167 202 255
167 202 255
167 202 255
167 202 255
167 202 255
167 202 255
167 202 255
166 202 255
166 202 255
166 202 255
166 202 255
166 202 255
166 202 255
166 202 255
166 202 255
166 202 255
166 202 255
166 202 255
166 202 255
166 202 255
166 202 255
165 201 255
161 196 248
76 93 118
12 16 20
14 17 23
13 16 21
14 17 22
13 17 21
14 17 22
13 16 21
14 17 22
12 15 20
14 17 23
14 17 23
13 17 22
13 16 21
13 17 22
13 16 21
14 17 23
12 16 20
13 16 20
14 17 22
12 16 20
13 16 20
13 16 21
12 15 20
13 16 21
14 17 22
13 16 21
12 16 20
14 17 22
13 16 20
13 16 21
13 16 20
13 16 21
13 17 22
13 16 20
13 16 21
14 17 22
13 16 21
13 16 21
13 16 21
13 16 21
13 17 22
13 16 20
13 16 21
14 17 22
12 15 20
12 15 20
12 16 20
13 17 22
13 16 21
13 16 21
14 18 23
14 17 22
13 16 21
13 17 21
13 17 22
13 17 22
14 18 23
13 16 21
14 17 22
13 17 23
14 17 22
12 16 20
13 16 21
13 16 21
13 16 20
14 18 23
14 18 23
12 16 20
13 16 21
14 17 23
13 17 22
14 17 22
13 17 22
18 23 29
98 120 153
159 194 246
165 201 255
166 202 255
166 202 255
166 202 255
166 202 255
166 202 255
166 202 255
166 202 255
166 202 255
166 202 255
166 202 255
166 202 255
166 202 255
166 202 255
166 202 255
167 202 255
167 202 255
167 202 255
167 202 255
167 202 255
167 202 255
167 202 255
167 202 255
167 202 255
167 203 255
167 203 255
167 203 255
167 203 255
168 203 255
168 203 255
168 203 255
168 203 255
168 203 255
168 203 255
168 203 255
168 203 255
168 203 255
168 203 255
168 203 255
168 203 255
169 203 255
169 203 255
169 203 255
169 203 255
169 204 255
169 204 255
169 204 255
169 204 255
169 204 255
169 204 255
169 204 255
169 204 255
170 204 255
170 204 255
170 204 255
170 204 255
170 204 255
170 204 255
170 204 255
170 204 255
170 204 255
170 204 255
170 204 255
170 204 255
171 205 255
171 205 255
171 205 255
171 205 255
171 205 255
171 205 255
171 205 255
171 205 255
171 205 255
171 205 255
171 205 255
171 205 255
172 205 255
172 205 255
172 205 255
172 205 255
172 205 255
172 205 255
172 205 255
172 205 255
172 205 255
172 206 255
172 206 255
172 206 255
172 206 255
173 206 255
173 206 255
173 206 255
173 206 255
173 206 255
173 206 255
173 206 255
173 206 255
173 206 255
173 206 255
173 206 255
173 206 255
173 206 255
174 206 255
174 206 255
174 206 255
174 206 255
174 206 255
174 207 255
174 207 255
174 207 255
174 207 255
174 207 255
174 207 255
174 207 255
174 207 255
174 207 255
174 207 255
175 207 255
175 207 255
175 207 255
175 207 255
175 207 255
175 207 255
175 207 255
175 207 255
175 207 255
175 207 255
175 207 255
175 207 255
175 207 255
175 207 255
175 207 255
175 207 255
176 208 255
176 208 255
176 208 255
176 208 255
176 208 255
176 208 255
176 208 255
176 208 255
176 208 255
176 208 255
176 208 255
176 208 255
176 208 255
176 208 255
176 208 255
176 208 255
176 208 255
177 208 255
177 208 255
177 208 255
177 208 255
177 208 255
177 208 255
177 208 255
177 208 255
177 208 255
177 208 255
177 208 255
177 209 255
177 209 255
177 209 255
177 209 255
177 208 255
177 208 255
177 208 255
177 208 255
177 208 255
177 208 255
177 208 255
177 208 255
177 208 255
177 208 255
177 208 255
177 208 255
176 208 255
176 208 255
176 208 255
176 208 255
176 208 255
176 208 255
176 208 255
176 208 255
176 208 255
176 208 255
176 208 255
176 208 255
176 208 255
176 208 255
176 208 255
176 208 255
176 208 255
175 207 255
175 207 255
175 207 255
175 207 255
175 207 255
175 207 255
175 207 255
175 207 255
175 207 255
175 207 255
175 207 255
175 207 255
175 207 255
175 207 255
175 207 255
174 207 255
174 207 255
174 207 255
174 207 255
174 207 255
174 207 255
174 207 255
174 207 255
174 207 255
174 207 255
174 206 255
174 206 255
174 206 255
174 206 255
174 206 255
173 206 255
173 206 255
173 206 255
173 206 255
173 206 255
173 206 255
173 206 255
173 206 255
173 206 255
173 206 255
173 206 255
173 206 255
173 206 255
172 206 255
172 206 255
172 206 255
172 206 255
172 206 255
172 205 255
172 205 255
172 205 255
172 205 255
172 205 255
172 205 255
172 205 255
172 205 255
171 205 255
171 205 255
171 205 255
171 205 255
171 205 255
171 205 255
171 205 255
171 205 255
171 205 255
171 205 255
171 205 255
171 205 255
170 204 255
170 204 255
170 204 255
170 204 255
170 204 255
170 204 255
170 204 255
170 204 255
170 204 255
170 204 255
170 204 255
170 204 255
169 204 255
169 204 255
169 204 255
169 204 255
169 204 255
169 204 255
169 204 255
169 204 255
169 203 255
169 203 255
169 203 255
169 203 255
169 203 255
168 203 255
168 203 255
168 203 255
168 203 255
168 203 255
168 203 255
168 203 255
168 203 255
168 203 255
168 203 255
168 203 255
168 203 255
167 203 255
167 203 255
167 203 255
167 203 255
167 202 255
167 202 255
167 202 255
167 202 255
167 202 255
167 202 255
167 202 255
167 202 255
167 202 255
166 202 255
166 202 255
166 202 255
166 202 255
166 202 255
166 202 255
166 202 255
166 202 255
166 202 255
145 176 223
40 49 62
12 16 20
14 17 23
14 17 23
13 16 21
14 17 23
13 16 21
13 16 21
13 17 22
13 17 22
14 18 23
14 17 23
13 16 21
13 17 22
13 16 21
13 17 22
13 16 21
14 17 22
14 18 23
13 17 22
12 15 19
13 16 21
13 17 22
13 17 21
12 15 19
13 17 22
13 17 22
13 16 21
12 15 20
14 17 21
13 16 20
13 17 22
13 16 21
12 15 20
12 15 20
13 16 21
13 16 21
13 17 22
12 16 21
13 16 21
13 16 21
13 17 22
14 17 23
13 17 22
12 15 20
12 15 20
14 17 22
13 16 21
13 17 22
13 16 21
13 17 21
13 17 22
13 16 20
13 17 21
13 16 20
12 15 20
14 17 22
13 16 21
14 18 23
14 17 22
12 15 20
14 17 23
13 16 21
13 16 21
13 16 21
12 15 20
14 17 22
12 16 20
13 17 22
13 16 21
13 17 22
14 17 23
13 16 21
13 17 22
14 17 23
14 17 23
13 17 22
42 51 65
157 191 242
166 202 255
166 202 255
166 202 255
166 202 255
166 202 255
166 202 255
166 202 255
166 202 255
166 202 255
167 202 255
167 202 255
167 202 255
167 202 255
167 202 255
167 202 255
167 202 255
167 202 255
167 202 255
167 203 255
167 203 255
167 203 255
167 203 255
168 203 255
168 203 255
168 203 255
168 203 255
168 203 255
168 203 255
168 203 255
168 203 255
168 203 255
168 203 255
168 203 255
168 203 255
168 203 255
169 203 255
169 203 255
169 203 255
169 203 255
169 204 255
169 204 255
169 204 255
169 204 255
169 204 255
169 204 255
169 204 255
169 204 255
170 204 255
170 204 255
170 204 255
170 204 255
170 204 255
170 204 255
170 204 255
170 204 255
170 204 255
170 204 255
170 204 255
170 204 255
171 205 255
171 205 255
171 205 255
171 205 255
171 205 255
171 205 255
171 205 255
171 205 255
171 205 255
171 205 255
171 205 255
171 205 255
172 205 255
172 205 255
172 205 255
172 205 255
172 205 255
172 205 255
172 205 255
172 205 255
172 206 255
172 206 255
172 206 255
172 206 255
172 206 255
173 206 255
173 206 255
173 206 255
173 206 255
173 206 255
173 206 255
173 206 255
173 206 255
173 206 255
173 206 255
173 206 255
173 206 255
173 206 255
174 206 255
174 206 255
174 206 255
174 206 255
174 206 255
174 207 255
174 207 255
174 207 255
174 207 255
174 207 255
174 207 255
174 207 255
174 207 255
174 207 255
174 207 255
175 207 255
175 207 255
175 207 255
175 207 255
175 207 255
175 207 255
175 207 255
175 207 255
175 207 255
175 207 255
175 207 255
175 207 255
175 207 255
175 207 255
175 207 255
176 208 255
176 208 255
176 208 255
176 208 255
176 208 255
176 208 255
176 208 255
176 208 255
176 208 255
176 208 255
176 208 255
176 208 255
176 208 255
176 208 255
176 208 255
176 208 255
176 208 255
177 208 255
177 208 255
177 208 255
177 208 255
177 208 255
177 208 255
177 208 255
177 208 255
177 208 255
177 208 255
177 208 255
177 208 255
177 209 255
177 209 255
177 209 255
177 209 255
178 209 255
178 209 255
177 209 255
177 209 255
177 209 255
177 209 255
177 209 255
177 209 255
177 209 255
177 208 255
177 208 255
177 208 255
177 208 255
177 208 255
177 208 255
177 208 255
177 208 255
177 208 255
177 208 255
177 208 255
177 208 255
176 208 255
176 208 255
176 208 255
176 208 255
176 208 255
176 208 255
176 208 255
176 208 255
176 208 255
176 208 255
176 208 255
176 208 255
176 208 255
176 208 255
176 208 255
176 208 255
176 208 255
175 207 255
175 207 255
175 207 255
175 207 255
175 207 255
175 207 255
175 207 255
175 207 255
175 207 255
175 207 255
175 207 255
175 207 255
175 207 255
175 207 255
175 207 255
174 207 255
174 207 255
174 207 255
174 207 255
174 207 255
174 207 255
174 207 255
174 207 255
174 207 255
174 207 255
174 206 255
174 206 255
174 206 255
174 206 255
173 206 255
173 206 255
173 206 255
173 206 255
173 206 255
173 206 255
173 206 255
173 206 255
173 206 255
173 206 255
173 206 255
173 206 255
173 206 255
172 206 255
172 206 255
172 206 255
172 206 255
172 206 255
172 205 255
172 205 255
172 205 255
172 205 255
172 205 255
172 205 255
172 205 255
172 205 255
171 205 255
171 205 255
171 205 255
171 205 255
171 205 255
171 205 255
171 205 255
171 205 255
171 205 255
171 205 255
171 205 255
171 205 255
171 205 255
170 204 255
170 204 255
170 204 255
170 204 255
170 204 255
170 204 255
170 204 255
170 204 255
170 204 255
170 204 255
170 204 255
170 204 255
169 204 255
169 204 255
169 204 255
169 204 255
169 204 255
169 204 255
169 204 255
169 204 255
169 203 255
169 203 255
169 203 255
169 203 255
168 203 255
168 203 255
168 203 255
168 203 255
168 203 255
168 203 255
168 203 255
168 203 255
168 203 255
168 203 255
168 203 255
168 203 255
168 203 255
167 203 255
167 203 255
167 203 255
167 203 255
167 203 255
167 202 255
167 202 255
167 202 255
167 202 255
167 202 255
167 202 255
167 202 255
167 202 255
167 202 255
166 202 255
166 202 255
107 130 165
26 32 41
14 17 23
14 17 22
13 16 21
14 17 23
14 17 22
13 17 22
12 15 20
13 16 21
14 17 21
13 16 21
13 17 22
14 17 22
13 16 21
13 17 22
13 17 22
12 16 20
13 17 22
12 15 20
12 15 20
13 16 21
13 16 21
14 17 22
13 16 21
13 16 21
13 16 21
13 16 21
14 17 23
13 16 21
14 17 23
13 16 21
13 17 21
13 16 21
13 17 21
13 16 21
12 16 20
13 16 20
13 16 20
14 17 23
14 17 22
13 17 22
13 16 21
13 16 21
13 16 21
14 17 23
13 16 21
13 16 20
13 16 20
13 16 20
13 16 21
12 15 20
13 16 21
13 16 21
15 18 23
13 17 22
13 16 21
13 16 21
13 16 21
14 17 22
13 16 21
14 17 21
12 15 20
13 16 21
14 17 23
13 16 20
14 18 23
14 17 22
13 17 21
14 17 23
14 17 22
13 16 20
12 16 20
13 17 22
14 18 23
14 17 23
12 15 20
13 16 21
13 16 21
14 18 23
29 36 46
122 149 188
166 202 255
167 202 255
167 202 255
167 202 255
167 202 255
167 202 255
167 202 255
167 202 255
167 202 255
167 202 255
167 202 255
167 203 255
167 203 255
167 203 255
167 203 255
167 203 255
168 203 255
168 203 255
168 203 255
168 203 255
168 203 255
168 203 255
168 203 255
168 203 255
168 203 255
168 203 255
168 203 255
168 203 255
168 203 255
169 203 255
169 203 255
169 203 255
169 203 255
169 204 255
169 204 255
169 204 255
169 204 255
169 204 255
169 204 255
169 204 255
169 204 255
170 204 255
170 204 255
170 204 255
170 204 255
170 204 255
170 204 255
170 204 255
170 204 255
170 204 255
170 204 255
170 204 255
170 204 255
171 205 255
171 205 255
171 205 255
171 205 255
171 205 255
171 205 255
171 205 255
171 205 255
171 205 255
171 205 255
171 205 255
171 205 255
171 205 255
172 205 255
172 205 255
172 205 255
172 205 255
172 205 255
172 205 255
172 205 255
172 205 255
172 206 255
172 206 255
172 206 255
172 206 255
173 206 255
173 206 255
173 206 255
173 206 255
173 206 255
173 206 255
173 206 255
173 206 255
173 206 255
173 206 255
173 206 255
173 206 255
173 206 255
173 206 255
174 206 255
174 206 255
174 206 255
174 206 255
174 206 255
174 207 255
174 207 255
174 207 255
174 207 255
174 207 255
174 207 255
174 207 255
174 207 255
174 207 255
175 207 255
175 207 255
175 207 255
175 207 255
175 207 255
175 207 255
175 207 255
175 207 255
175 207 255
175 207 255
175 207 255
175 207 255
175 207 255
175 207 255
175 207 255
175 207 255
176 208 255
176 208 255
176 208 255
176 208 255
176 208 255
176 208 255
176 208 255
176 208 255
176 208 255
176 208 255
176 208 255
176 208 255
176 208 255
176 208 255
176 208 255
176 208 255
177 208 255
177 208 255
177 208 255
177 208 255
177 208 255
177 208 255
177 208 255
177 208 255
177 208 255
177 208 255
177 208 255
177 208 255
177 209 255
177 209 255
177 209 255
177 209 255
177 209 255
177 209 255
177 209 255
178 209 255
178 209 255
178 209 255
178 209 255
178 209 255
178 209 255
178 209 255
178 209 255
178 209 255
177 209 255
177 209 255
177 209 255
177 209 255
177 209 255
177 209 255
177 209 255
177 208 255
177 208 255
177 208 255
177 208 255
177 208 255
177 208 255
177 208 255
177 208 255
177 208 255
177 208 255
177 208 255
177 208 255
176 208 255
176 208 255
176 208 255
176 208 255
176 208 255
176 208 255
176 208 255
176 208 255
176 208 255
176 208 255
176 208 255
176 208 255
176 208 255
176 208 255
176 208 255
176 208 255
176 208 255
175 207 255
175 207 255
175 207 255
175 207 255
175 207 255
175 207 255
175 207 255
175 207 255
175 207 255
175 207 255
175 207 255
175 207 255
175 207 255
175 207 255
175 207 255
174 207 255
174 207 255
174 207 255
174 207 255
174 207 255
174 207 255
174 207 255
174 207 255
174 207 255
174 206 255
174 206 255
174 206 255
174 206 255
174 206 255
173 206 255
173 206 255
173 206 255
173 206 255
173 206 255
173 206 255
173 206 255
173 206 255
173 206 255
173 206 255
173 206 255
173 206 255
173 206 255
172 206 255
172 206 255
172 206 255
172 206 255
172 205 255
172 205 255
172 205 255
172 205 255
172 205 255
172 205 255
172 205 255
172 205 255
172 205 255
171 205 255
171 205 255
171 205 255
171 205 255
171 205 255
171 205 255
171 205 255
171 205 255
171 205 255
171 205 255
171 205 255
171 205 255
170 204 255
170 204 255
170 204 255
170 204 255
170 204 255
170 204 255
170 204 255
170 204 255
170 204 255
170 204 255
170 204 255
170 204 255
170 204 255
169 204 255
169 204 255
169 204 255
169 204 255
169 204 255
169 204 255
169 204 255
169 204 255
169 203 255
169 203 255
169 203 255
169 203 255
168 203 255
168 203 255
168 203 255
168 203 255
168 203 255
168 203 255
168 203 255
168 203 255
168 203 255
168 203 255
168 203 255
168 203 255
168 203 255
168 203 255
167 203 255
167 203 255
167 203 255
167 203 255
167 202 255
167 202 255
167 202 255
167 202 255
167 202 255
93 113 144
13 17 22
13 16 22
14 18 23
13 17 22
14 17 23
12 15 20
13 17 22
13 17 22
14 17 22
13 16 21
14 17 23
13 17 22
14 17 22
13 16 20
12 15 20
13 16 21
13 17 22
13 16 21
14 17 22
12 15 20
13 17 22
13 16 21
13 16 21
13 16 20
12 16 21
12 16 20
13 17 21
12 16 20
13 16 21
13 16 20
13 17 22
12 15 20
13 16 21
13 16 21
13 17 21
14 17 22
13 16 20
13 16 22
12 15 19
13 16 21
13 16 21
13 16 21
13 16 21
13 16 21
13 16 21
13 16 20
13 16 21
13 16 21
14 18 23
13 16 20
13 16 20
13 16 21
13 17 22
13 17 22
13 17 21
12 15 19
13 16 21
13 16 20
13 17 21
13 16 21
13 16 21
13 17 21
13 16 21
13 17 22
13 16 21
12 15 20
13 17 22
14 18 23
14 17 22
12 15 20
13 16 21
13 17 22
12 15 20
13 16 21
12 15 20
13 16 21
14 17 22
14 17 22
14 17 23
14 18 23
14 17 23
14 18 23
102 125 158
167 202 255
167 202 255
167 202 255
167 202 255
167 203 255
167 203 255
167 203 255
167 203 255
167 203 255
168 203 255
168 203 255
168 203 255
168 203 255
168 203 255
168 203 255
168 203 255
168 203 255
168 203 255
168 203 255
168 203 255
168 203 255
168 203 255
168 203 255
169 203 255
169 203 255
169 203 255
169 203 255
169 204 255
169 204 255
169 204 255
169 204 255
169 204 255
169 204 255
169 204 255
169 204 255
169 204 255
170 204 255
170 204 255
170 204 255
170 204 255
170 204 255
170 204 255
170 204 255
170 204 255
170 204 255
170 204 255
170 204 255
170 204 255
171 205 255
171 205 255
171 205 255
171 205 255
171 205 255
171 205 255
171 205 255
171 205 255
171 205 255
171 205 255
171 205 255
171 205 255
172 205 255
172 205 255
172 205 255
172 205 255
172 205 255
172 205 255
172 205 255
172 205 255
172 206 255
172 206 255
172 206 255
172 206 255
172 206 255
173 206 255
173 206 255
173 206 255
173 206 255
173 206 255
173 206 255
173 206 255
173 206 255
173 206 255
173 206 255
173 206 255
173 206 255
173 206 255
174 206 255
174 206 255
174 206 255
174 206 255
174 206 255
174 207 255
174 207 255
174 207 255
174 207 255
174 207 255
174 207 255
174 207 255
174 207 255
174 207 255
175 207 255
175 207 255
175 207 255
175 207 255
175 207 255
175 207 255
175 207 255
175 207 255
175 207 255
175 207 255
175 207 255
175 207 255
175 207 255
175 207 255
175 207 255
176 208 255
176 208 255
176 208 255
176 208 255
176 208 255
176 208 255
176 208 255
176 208 255
176 208 255
176 208 255
176 208 255
176 208 255
176 208 255
176 208 255
176 208 255
176 208 255
176 208 255
177 208 255
177 208 255
177 208 255
177 208 255
177 208 255
177 208 255
177 208 255
177 208 255
177 208 255
177 208 255
177 208 255
177 208 255
177 209 255
177 209 255
177 209 255
177 209 255
177 209 255
177 209 255
178 209 255
178 209 255
178 209 255
178 209 255
178 209 255
178 209 255
178 209 255
178 209 255
178 209 255
178 209 255
178 209 255
178 209 255
178 209 255
178 209 255
178 209 255
178 209 255
178 209 255
178 209 255
178 209 255
178 209 255
178 209 255
177 209 255
177 209 255
177 209 255
177 209 255
177 209 255
177 209 255
177 208 255
177 208 255
177 208 255
177 208 255
177 208 255
177 208 255
177 208 255
177 208 255
177 208 255
177 208 255
177 208 255
177 208 255
176 208 255
176 208 255
176 208 255
176 208 255
176 208 255
176 208 255
176 208 255
176 208 255
176 208 255
176 208 255
176 208 255
176 208 255
176 208 255
176 208 255
176 208 255
176 208 255
175 207 255
175 207 255
175 207 255
175 207 255
175 207 255
175 207 255
175 207 255
175 207 255
175 207 255
175 207 255
175 207 255
175 207 255
175 207 255
175 207 255
175 207 255
174 207 255
174 207 255
174 207 255
174 207 255
174 207 255
174 207 255
174 207 255
174 207 255
174 207 255
174 207 255
174 206 255
174 206 255
174 206 255
174 206 255
173 206 255
173 206 255
173 206 255
173 206 255
173 206 255
173 206 255
173 206 255
173 206 255
173 206 255
173 206 255
173 206 255
173 206 255
173 206 255
173 206 255
172 206 255
172 206 255
172 206 255
172 206 255
172 205 255
172 205 255
172 205 255
172 205 255
172 205 255
172 205 255
172 205 255
172 205 255
171 205 255
171 205 255
171 205 255
171 205 255
171 205 255
171 205 255
171 205 255
171 205 255
171 205 255
171 205 255
171 205 255
171 205 255
171 205 255
170 204 255
170 204 255
170 204 255
170 204 255
170 204 255
170 204 255
170 204 255
170 204 255
170 204 255
170 204 255
170 204 255
170 204 255
169 204 255
169 204 255
169 204 255
169 204 255
169 204 255
169 204 255
169 204 255
169 204 255
169 204 255
169 203 255
169 203 255
169 203 255
169 203 255
169 203 255
168 203 255
168 203 255
168 203 255
168 203 255
168 203 255
168 203 255
168 203 255
168 203 255
168 203 255
168 203 255
168 203 255
168 203 255
168 203 255
168 203 255
167 203 255
166 201 253
81 98 124
13 17 22
14 17 22
13 16 21
14 17 22
13 17 22
13 17 22
12 15 20
13 17 22
13 16 20
12 15 20
13 17 21
12 15 20
13 16 21
14 17 22
13 16 21
12 15 19
14 17 22
14 17 22
13 16 21
13 16 20
13 16 20
13 16 21
13 16 21
13 16 21
13 16 21
12 15 19
14 17 22
14 17 22
13 17 22
13 16 20
12 15 19
13 16 21
12 15 19
13 16 21
13 16 21
13 16 21
12 15 20
12 15 20
13 17 22
13 16 21
12 15 20
13 16 21
12 16 20
12 14 19
13 17 22
13 16 21
13 16 21
12 15 20
12 15 20
12 15 19
12 15 20
13 16 21
13 16 21
13 16 20
12 15 20
13 16 20
13 16 20
12 15 20
13 17 21
12 15 20
13 17 22
12 15 19
14 17 22
13 16 21
13 16 21
13 16 21
13 17 22
13 16 21
13 16 21
14 17 22
13 16 21
14 18 23
14 17 22
13 16 21
13 16 21
13 17 22
12 15 20
13 16 20
13 16 21
13 17 22
14 18 23
13 17 22
14 17 22
13 16 21
85 103 130
163 197 249
167 203 255
168 203 255
168 203 255
168 203 255
168 203 255
168 203 255
168 203 255
168 203 255
168 203 255
168 203 255
168 203 255
168 203 255
168 203 255
168 203 255
168 203 255
169 203 255
169 203 255
169 203 255
169 203 255
169 203 255
169 204 255
169 204 255
169 204 255
169 204 255
169 204 255
169 204 255
169 204 255
169 204 255
169 204 255
170 204 255
170 204 255
170 204 255
170 204 255
170 204 255
170 204 255
170 204 255
170 204 255
170 204 255
170 204 255
170 204 255
170 204 255
171 205 255
171 205 255
171 205 255
171 205 255
171 205 255
171 205 255
171 205 255
171 205 255
171 205 255
171 205 255
171 205 255
171 205 255
171 205 255
172 205 255
172 205 255
172 205 255
172 205 255
172 205 255
172 205 255
172 205 255
172 205 255
172 206 255
172 206 255
172 206 255
172 206 255
173 206 255
173 206 255
173 206 255
173 206 255
173 206 255
173 206 255
173 206 255
173 206 255
173 206 255
173 206 255
173 206 255
173 206 255
173 206 255
173 206 255
174 206 255
174 206 255
174 206 255
174 206 255
174 207 255
174 207 255
174 207 255
174 207 255
174 207 255
174 207 255
174 207 255
174 207 255
174 207 255
174 207 255
175 207 255
175 207 255
175 207 255
175 207 255
175 207 255
175 207 255
175 207 255
175 207 255
175 207 255
175 207 255
175 207 255
175 207 255
175 207 255
175 207 255
175 207 255
176 208 255
176 208 255
176 208 255
176 208 255
176 208 255
176 208 255
176 208 255
176 208 255
176 208 255
176 208 255
176 208 255
176 208 255
176 208 255
176 208 255
176 208 255
176 208 255
177 208 255
177 208 255
177 208 255
177 208 255
177 208 255
177 208 255
177 208 255
177 208 255
177 208 255
177 208 255
177 208 255
177 208 255
177 209 255
177 209 255
177 209 255
177 209 255
177 209 255
177 209 255
178 209 255
178 209 255
178 209 255
178 209 255
178 209 255
178 209 255
178 209 255
178 209 255
178 209 255
178 209 255
178 209 255
178 209 255
178 209 255
178 209 255
178 209 255
178 209 255
178 209 255
178 209 255
178 209 255
178 209 255
178 209 255
178 209 255
178 209 255
178 209 255
178 209 255
178 209 255
178 209 255
178 209 255
178 209 255
178 209 255
178 209 255
177 209 255
177 209 255
177 209 255
177 209 255
177 209 255
177 209 255
177 208 255
177 208 255
177 208 255
177 208 255
177 208 255
177 208 255
177 208 255
177 208 255
177 208 255
177 208 255
177 208 255
177 208 255
176 208 255
176 208 255
176 208 255
176 208 255
176 208 255
176 208 255
176 208 255
176 208 255
176 208 255
176 208 255
176 208 255
176 208 255
176 208 255
176 208 255
176 208 255
176 208 255
175 207 255
175 207 255
175 207 255
175 207 255
175 207 255
175 207 255
175 207 255
175 207 255
175 207 255
175 207 255
175 207 255
175 207 255
175 207 255
175 207 255
175 207 255
174 207 255
174 207 255
174 207 255
174 207 255
174 207 255
174 207 255
174 207 255
174 207 255
174 207 255
174 206 255
174 206 255
174 206 255
174 206 255
174 206 255
173 206 255
173 206 255
173 206 255
173 206 255
173 206 255
173 206 255
173 206 255
173 206 255
173 206 255
173 206 255
173 206 255
173 206 255
173 206 255
172 206 255
172 206 255
172 206 255
172 206 255
172 205 255
172 205 255
172 205 255
172 205 255
172 205 255
172 205 255
172 205 255
172 205 255
172 205 255
171 205 255
171 205 255
171 205 255
171 205 255
171 205 255
171 205 255
171 205 255
171 205 255
171 205 255
171 205 255
171 205 255
171 205 255
171 205 255
170 204 255
170 204 255
170 204 255
170 204 255
170 204 255
170 204 255
170 204 255
170 204 255
170 204 255
170 204 255
170 204 255
170 204 255
169 204 255
169 204 255
169 204 255
169 204 255
169 204 255
169 204 255
169 204 255
169 204 255
169 204 255
169 204 255
169 203 255
169 203 255
169 203 255
169 203 255
168 203 255
168 203 255
168 203 255
168 203 255
168 203 255
168 203 255
168 203 255
168 203 255
168 203 255
162 196 246
59 72 91
13 16 21
13 17 22
13 17 22
12 15 20
14 17 22
13 16 21
13 16 21
14 17 23
13 16 21
13 16 21
13 16 21
13 16 21
13 16 20
12 16 20
12 15 20
12 15 20
14 17 23
12 16 20
13 16 21
12 16 20
13 17 22
13 16 20
12 15 20
14 18 23
12 15 20
13 16 21
13 17 22
12 15 19
12 15 20
13 16 21
14 17 22
12 15 20
13 16 21
12 15 20
13 17 22
12 15 20
14 17 22
13 16 21
12 16 20
13 16 21
12 15 20
13 16 20
13 17 21
12 16 20
12 15 20
12 16 20
12 15 20
13 16 20
14 17 23
12 15 20
12 15 19
13 17 21
13 16 21
11 14 19
12 15 19
12 15 20
13 16 21
13 16 21
13 16 21
13 17 22
13 16 21
12 14 19
13 16 21
13 16 21
13 16 21
13 16 20
13 16 20
13 16 21
12 16 20
13 16 20
14 18 23
14 17 21
14 17 22
12 15 20
12 16 20
14 17 22
14 17 23
13 16 21
14 17 22
13 17 22
12 15 20
13 16 20
13 17 22
13 16 21
13 16 21
12 16 20
54 66 83
158 192 241
168 203 255
168 203 255
168 203 255
168 203 255
168 203 255
168 203 255
168 203 255
168 203 255
168 203 255
169 203 255
169 203 255
169 203 255
169 203 255
169 204 255
169 204 255
169 204 255
169 204 255
169 204 255
169 204 255
169 204 255
169 204 255
169 204 255
169 204 255
170 204 255
170 204 255
170 204 255
170 204 255
170 204 255
170 204 255
170 204 255
170 204 255
170 204 255
170 204 255
170 204 255
170 204 255
171 205 255
171 205 255
171 205 255
171 205 255
171 205 255
171 205 255
171 205 255
171 205 255
171 205 255
171 205 255
171 205 255
171 205 255
171 205 255
172 205 255
172 205 255
172 205 255
172 205 255
172 205 255
172 205 255
172 205 255
172 205 255
172 206 255
172 206 255
172 206 255
172 206 255
172 206 255
173 206 255
173 206 255
173 206 255
173 206 255
173 206 255
173 206 255
173 206 255
173 206 255
173 206 255
173 206 255
173 206 255
173 206 255
173 206 255
174 206 255
174 206 255
174 206 255
174 206 255
174 206 255
174 207 255
174 207 255
174 207 255
174 207 255
174 207 255
174 207 255
174 207 255
174 207 255
174 207 255
175 207 255
175 207 255
175 207 255
175 207 255
175 207 255
175 207 255
175 207 255
175 207 255
175 207 255
175 207 255
175 207 255
175 207 255
175 207 255
175 207 255
175 207 255
176 208 255
176 208 255
176 208 255
176 208 255
176 208 255
176 208 255
176 208 255
176 208 255
176 208 255
176 208 255
176 208 255
176 208 255
176 208 255
176 208 255
176 208 255
176 208 255
177 208 255
177 208 255
177 208 255
177 208 255
177 208 255
177 208 255
177 208 255
177 208 255
177 208 255
177 208 255
177 208 255
177 208 255
177 209 255
177 209 255
177 209 255
177 209 255
177 209 255
177 209 255
178 209 255
178 209 255
178 209 255
178 209 255
178 209 255
178 209 255
178 209 255
178 209 255
178 209 255
178 209 255
178 209 255
178 209 255
178 209 255
178 209 255
178 209 255
178 209 255
178 209 255
178 209 255
179 209 255
179 209 255
179 209 255
178 209 255
178 209 255
178 209 255
178 209 255
178 209 255
178 209 255
178 209 255
178 209 255
178 209 255
178 209 255
178 209 255
178 209 255
178 209 255
178 209 255
178 209 255
178 209 255
178 209 255
178 209 255
178 209 255
178 209 255
177 209 255
177 209 255
177 209 255
177 209 255
177 209 255
177 209 255
177 209 255
177 208 255
177 208 255
177 208 255
177 208 255
177 208 255
177 208 255
177 208 255
177 208 255
177 208 255
177 208 255
177 208 255
176 208 255
176 208 255
176 208 255
176 208 255
176 208 255
176 208 255
176 208 255
176 208 255
176 208 255
176 208 255
176 208 255
176 208 255
176 208 255
176 208 255
176 208 255
176 208 255
175 207 255
175 207 255
175 207 255
175 207 255
175 207 255
175 207 255
175 207 255
175 207 255
175 207 255
175 207 255
175 207 255
175 207 255
175 207 255
175 207 255
175 207 255
174 207 255
174 207 255
174 207 255
174 207 255
174 207 255
174 207 255
174 207 255
174 207 255
174 207 255
174 206 255
174 206 255
174 206 255
174 206 255
174 206 255
173 206 255
173 206 255
173 206 255
173 206 255
173 206 255
173 206 255
173 206 255
173 206 255
173 206 255
173 206 255
173 206 255
173 206 255
173 206 255
172 206 255
172 206 255
172 206 255
172 206 255
172 205 255
172 205 255
172 205 255
172 205 255
172 205 255
172 205 255
172 205 255
172 205 255
172 205 255
171 205 255
171 205 255
171 205 255
171 205 255
171 205 255
171 205 255
171 205 255
171 205 255
171 205 255
171 205 255
171 205 255
171 205 255
171 205 255
170 204 255
170 204 255
170 204 255
170 204 255
170 204 255
170 204 255
170 204 255
170 204 255
170 204 255
170 204 255
170 204 255
170 204 255
170 204 255
169 204 255
169 204 255
169 204 255
169 204 255
169 204 255
169 204 255
169 204 255
169 204 255
169 204 255
169 204 255
169 203 255
169 203 255
169 203 255
169 203 255
169 203 255
168 203 255
157 190 239
51 62 79
14 18 23
13 17 22
13 16 22
14 17 22
14 17 22
12 15 20
13 16 21
12 16 20
13 16 21
13 16 21
12 15 20
14 17 22
13 16 21
13 16 21
12 15 19
13 16 20
14 17 22
13 17 22
13 16 21
12 15 20
13 16 21
13 16 21
13 16 21
13 16 21
13 16 20
13 16 21
14 17 22
13 16 21
13 16 21
13 16 21
13 16 21
13 16 21
14 17 22
13 17 21
13 16 21
13 16 21
14 17 22
13 17 21
13 16 20
12 15 20
11 14 18
13 16 21
12 15 20
12 15 20
13 17 22
13 16 20
13 17 22
13 16 21
12 15 20
13 16 21
13 16 21
13 16 21
14 17 22
12 15 19
12 15 19
13 16 21
13 16 20
13 17 22
12 14 19
12 16 20
12 15 20
12 15 20
13 16 20
13 16 21
12 15 19
12 15 20
12 15 20
12 15 20
14 17 23
12 15 20
13 16 21
12 15 19
13 16 21
13 16 21
13 16 20
12 15 20
13 16 21
13 16 20
13 16 21
14 17 22
12 15 20
13 16 21
14 18 23
13 17 22
13 16 21
12 16 20
13 16 21
14 17 22
58 71 90
154 186 234
168 203 255
169 203 255
169 203 255
169 203 255
169 203 255
169 203 255
169 203 255
169 204 255
169 204 255
169 204 255
169 204 255
169 204 255
169 204 255
169 204 255
169 204 255
169 204 255
170 204 255
170 204 255
170 204 255
170 204 255
170 204 255
170 204 255
170 204 255
170 204 255
170 204 255
170 204 255
170 204 255
170 204 255
170 204 255
171 205 255
171 205 255
171 205 255
171 205 255
171 205 255
171 205 255
171 205 255
171 205 255
171 205 255
171 205 255
171 205 255
171 205 255
171 205 255
172 205 255
172 205 255
172 205 255
172 205 255
172 205 255
172 205 255
172 205 255
172 205 255
172 205 255
172 206 255
172 206 255
172 206 255
172 206 255
173 206 255
173 206 255
173 206 255
173 206 255
173 206 255
173 206 255
173 206 255
173 206 255
173 206 255
173 206 255
173 206 255
173 206 255
173 206 255
174 206 255
174 206 255
174 206 255
174 206 255
174 206 255
174 207 255
174 207 255
174 207 255
174 207 255
174 207 255
174 207 255
174 207 255
174 207 255
174 207 255
175 207 255
175 207 255
175 207 255
175 207 255
175 207 255
175 207 255
175 207 255
175 207 255
175 207 255
175 207 255
175 207 255
175 207 255
175 207 255
175 207 255
175 207 255
176 208 255
176 208 255
176 208 255
176 208 255
176 208 255
176 208 255
176 208 255
176 208 255
176 208 255
176 208 255
176 208 255
176 208 255
176 208 255
176 208 255
176 208 255
176 208 255
177 208 255
177 208 255
177 208 255
177 208 255
177 208 255
177 208 255
177 208 255
177 208 255
177 208 255
177 208 255
177 208 255
177 208 255
177 209 255
177 209 255
177 209 255
177 209 255
177 209 255
177 209 255
178 209 255
178 209 255
178 209 255
178 209 255
178 209 255
178 209 255
178 209 255
178 209 255
178 209 255
178 209 255
178 209 255
178 209 255
178 209 255
178 209 255
178 209 255
178 209 255
178 209 255
178 209 255
178 209 255
178 209 255
179 209 255
179 209 255
179 209 255
179 210 255
179 210 255
179 209 255
179 209 255
179 209 255
179 209 255
179 209 255
179 209 255
179 209 255
178 209 255
178 209 255
178 209 255
178 209 255
178 209 255
178 209 255
178 209 255
178 209 255
178 209 255
178 209 255
178 209 255
178 209 255
178 209 255
178 209 255
178 209 255
178 209 255
178 209 255
178 209 255
178 209 255
178 209 255
177 209 255
177 209 255
177 209 255
177 209 255
177 209 255
177 208 255
177 208 255
177 208 255
177 208 255
177 208 255
177 208 255
177 208 255
177 208 255
177 208 255
177 208 255
177 208 255
177 208 255
176 208 255
176 208 255
176 208 255
176 208 255
176 208 255
176 208 255
176 208 255
176 208 255
176 208 255
176 208 255
176 208 255
176 208 255
176 208 255
176 208 255
176 208 255
176 208 255
175 207 255
175 207 255
175 207 255
175 207 255
175 207 255
175 207 255
175 207 255
175 207 255
175 207 255
175 207 255
175 207 255
175 207 255
175 207 255
175 207 255
174 207 255
174 207 255
174 207 255
174 207 255
174 207 255
174 207 255
174 207 255
174 207 255
174 207 255
174 207 255
174 206 255
174 206 255
174 206 255
174 206 255
173 206 255
173 206 255
173 206 255
173 206 255
173 206 255
173 206 255
173 206 255
173 206 255
173 206 255
173 206 255
173 206 255
173 206 255
173 206 255
173 206 255
172 206 255
172 206 255
172 206 255
172 206 255
172 205 255
172 205 255
172 205 255
172 205 255
172 205 255
172 205 255
172 205 255
172 205 255
172 205 255
171 205 255
171 205 255
171 205 255
171 205 255
171 205 255
171 205 255
171 205 255
171 205 255
171 205 255
171 205 255
171 205 255
171 205 255
171 205 255
170 204 255
170 204 255
170 204 255
170 204 255
170 204 255
170 204 255
170 204 255
170 204 255
170 204 255
170 204 255
170 204 255
170 204 255
170 204 255
170 204 255
169 204 255
169 204 255
169 204 255
169 204 255
169 204 255
169 204 255
169 204 255
169 204 255
169 204 255
161 194 244
31 38 49
13 17 22
12 16 21
13 16 21
13 16 21
13 16 21
13 17 21
13 16 21
14 18 23
13 16 21
12 15 20
12 15 20
13 17 21
13 16 21
13 16 21
12 15 20
12 15 19
12 15 20
13 16 21
13 16 20
12 16 20
13 16 20
13 17 22
13 16 20
13 16 20
13 16 21
14 17 22
12 15 19
12 15 20
12 15 20
13 16 21
13 16 20
13 16 21
13 16 21
13 17 22
13 16 21
12 15 20
13 16 20
13 16 20
12 15 20
12 15 20
13 16 21
13 17 21
12 15 19
12 15 20
13 16 20
13 16 21
13 16 20
12 15 20
13 16 20
13 17 22
13 16 21
13 16 20
12 15 20
12 16 20
13 16 21
13 16 21
13 16 21
13 16 20
12 15 19
13 16 20
14 17 22
12 15 19
13 16 21
13 16 20
14 17 22
13 16 21
14 17 22
12 15 20
13 16 21
13 16 21
13 16 21
12 15 20
13 16 21
13 16 21
13 16 21
13 16 21
13 16 21
13 16 20
12 16 20
13 16 21
12 15 20
14 17 22
13 17 22
13 16 21
12 15 20
14 17 22
14 17 23
13 16 21
14 17 22
13 17 21
44 54 68
160 192 242
169 204 255
169 204 255
169 204 255
169 204 255
169 204 255
169 204 255
169 204 255
169 204 255
169 204 255
170 204 255
170 204 255
170 204 255
170 204 255
170 204 255
170 204 255
170 204 255
170 204 255
170 204 255
170 204 255
170 204 255
170 204 255
170 204 255
170 204 255
171 205 255
171 205 255
171 205 255
171 205 255
171 205 255
171 205 255
171 205 255
171 205 255
171 205 255
171 205 255
171 205 255
171 205 255
171 205 255
172 205 255
172 205 255
172 205 255
172 205 255
172 205 255
172 205 255
172 205 255
172 205 255
172 205 255
172 206 255
172 206 255
172 206 255
172 206 255
173 206 255
173 206 255
173 206 255
173 206 255
173 206 255
173 206 255
173 206 255
173 206 255
173 206 255
173 206 255
173 206 255
173 206 255
173 206 255
174 206 255
174 206 255
174 206 255
174 206 255
174 206 255
174 207 255
174 207 255
174 207 255
174 207 255
174 207 255
174 207 255
174 207 255
174 207 255
174 207 255
175 207 255
175 207 255
175 207 255
175 207 255
175 207 255
175 207 255
175 207 255
175 207 255
175 207 255
175 207 255
175 207 255
175 207 255
175 207 255
175 207 255
175 207 255
176 208 255
176 208 255
176 208 255
176 208 255
176 208 255
176 208 255
176 208 255
176 208 255
176 208 255
176 208 255
176 208 255
176 208 255
176 208 255
176 208 255
176 208 255
176 208 255
177 208 255
177 208 255
177 208 255
177 208 255
177 208 255
177 208 255
177 208 255
177 208 255
177 208 255
177 208 255
177 208 255
177 208 255
177 209 255
177 209 255
177 209 255
177 209 255
177 209 255
177 209 255
178 209 255
178 209 255
178 209 255
178 209 255
178 209 255
178 209 255
178 209 255
178 209 255
178 209 255
178 209 255
178 209 255
178 209 255
178 209 255
178 209 255
178 209 255
178 209 255
178 209 255
178 209 255
178 209 255
179 209 255
179 209 255
179 209 255
179 209 255
179 209 255
179 209 255
179 209 255
179 210 255
179 210 255
179 210 255
179 210 255
179 210 255
179 210 255
179 210 255
179 210 255
179 210 255
179 210 255
179 209 255
179 209 255
179 209 255
179 209 255
179 209 255
179 209 255
178 209 255
178 209 255
178 209 255
178 209 255
178 209 255
178 209 255
178 209 255
178 209 255
178 209 255
178 209 255
178 209 255
178 209 255
178 209 255
178 209 255
178 209 255
178 209 255
178 209 255
178 209 255
178 209 255
178 209 255
177 209 255
177 209 255
177 209 255
177 209 255
177 209 255
177 209 255
177 208 255
177 208 255
177 208 255
177 208 255
177 208 255
177 208 255
177 208 255
177 208 255
177 208 255
177 208 255
177 208 255
176 208 255
176 208 255
176 208 255
176 208 255
176 208 255
176 208 255
176 208 255
176 208 255
176 208 255
176 208 255
176 208 255
176 208 255
176 208 255
176 208 255
176 208 255
176 208 255
175 207 255
175 207 255
175 207 255
175 207 255
175 207 255
175 207 255
175 207 255
175 207 255
175 207 255
175 207 255
175 207 255
175 207 255
175 207 255
175 207 255
174 207 255
174 207 255
174 207 255
174 207 255
174 207 255
174 207 255
174 207 255
174 207 255
174 207 255
174 207 255
174 206 255
174 206 255
174 206 255
174 206 255
173 206 255
173 206 255
173 206 255
173 206 255
173 206 255
173 206 255
173 206 255
173 206 255
173 206 255
173 206 255
173 206 255
173 206 255
173 206 255
173 206 255
172 206 255
172 206 255
172 206 255
172 206 255
172 205 255
172 205 255
172 205 255
172 205 255
172 205 255
172 205 255
172 205 255
172 205 255
172 205 255
171 205 255
171 205 255
171 205 255
171 205 255
171 205 255
171 205 255
171 205 255
171 205 255
171 205 255
171 205 255
171 205 255
171 205 255
171 205 255
171 205 255
170 204 255
170 204 255
170 204 255
170 204 255
170 204 255
170 204 255
170 204 255
170 204 255
170 204 255
170 204 255
170 204 255
170 204 255
170 204 255
170 204 255
169 204 255
169 204 255
163 196 246
46 56 71
13 16 21
13 16 21
14 17 22
13 17 22
13 16 20
12 15 19
13 17 21
13 17 21
13 16 21
13 16 20
13 16 21
13 16 20
13 16 21
13 16 21
13 17 21
13 16 20
13 16 21
12 15 20
12 15 20
14 17 22
12 15 20
13 17 21
13 17 22
13 16 21
12 15 19
13 16 20
12 15 19
13 16 21
13 16 21
12 15 20
13 17 21
13 16 21
13 16 20
13 16 20
13 16 20
14 18 23
12 14 19
13 16 21
13 16 21
12 15 20
13 17 21
13 16 21
14 17 23
12 15 20
12 14 19
13 16 20
12 15 19
13 16 20
13 16 21
11 14 18
14 17 22
12 15 20
12 15 20
13 16 21
13 16 21
13 16 21
13 17 22
13 16 20
13 17 21
11 14 18
12 15 20
14 17 22
13 16 20
13 16 21
12 15 20
12 16 20
14 17 22
12 15 19
13 16 21
12 15 20
12 15 20
11 14 18
12 16 20
13 16 21
13 16 20
12 15 19
12 15 20
13 16 21
13 16 20
13 16 20
13 16 21
13 16 20
12 15 20
13 16 20
12 15 20
12 15 20
13 16 21
13 16 21
12 16 20
13 16 20
13 16 21
13 16 21
46 56 71
162 194 244
169 204 255
169 204 255
170 204 255
170 204 255
170 204 255
170 204 255
170 204 255
170 204 255
170 204 255
170 204 255
170 204 255
170 204 255
170 204 255
170 204 255
170 204 255
170 204 255
171 205 255
171 205 255
171 205 255
171 205 255
171 205 255
171 205 255
171 205 255
171 205 255
171 205 255
171 205 255
171 205 255
171 205 255
171 205 255
171 205 255
172 205 255
172 205 255
172 205 255
172 205 255
172 205 255
172 205 255
172 205 255
172 205 255
172 205 255
172 206 255
172 206 255
172 206 255
172 206 255
173 206 255
173 206 255
173 206 255
173 206 255
173 206 255
173 206 255
173 206 255
173 206 255
173 206 255
173 206 255
173 206 255
173 206 255
173 206 255
173 206 255
174 206 255
174 206 255
174 206 255
174 206 255
174 207 255
174 207 255
174 207 255
174 207 255
174 207 255
174 207 255
174 207 255
174 207 255
174 207 255
174 207 255
175 207 255
175 207 255
175 207 255
175 207 255
175 207 255
175 207 255
175 207 255
175 207 255
175 207 255
175 207 255
175 207 255
175 207 255
175 207 255
175 207 255
176 208 255
176 208 255
176 208 255
176 208 255
176 208 255
176 208 255
176 208 255
176 208 255
176 208 255
176 208 255
176 208 255
176 208 255
176 208 255
176 208 255
176 208 255
176 208 255
177 208 255
177 208 255
177 208 255
177 208 255
177 208 255
177 208 255
177 208 255
177 208 255
177 208 255
177 208 255
177 208 255
177 209 255
177 209 255
177 209 255
177 209 255
177 209 255
177 209 255
178 209 255
178 209 255
178 209 255
178 209 255
178 209 255
178 209 255
178 209 255
178 209 255
178 209 255
178 209 255
178 209 255
178 209 255
178 209 255
178 209 255
178 209 255
178 209 255
178 209 255
178 209 255
178 209 255
179 209 255
179 209 255
179 209 255
179 209 255
179 209 255
179 209 255
179 209 255
179 210 255
179 210 255
179 210 255
179 210 255
179 210 255
179 210 255
179 210 255
179 210 255
179 210 255
179 210 255
179 210 255
179 210 255
179 210 255
179 210 255
179 210 255
179 210 255
179 210 255
179 210 255
179 210 255
179 210 255
179 210 255
179 209 255
179 209 255
179 209 255
179 209 255
179 209 255
179 209 255
179 209 255
178 209 255
178 209 255
178 209 255
178 209 255
178 209 255
178 209 255
178 209 255
178 209 255
178 209 255
178 209 255
178 209 255
178 209 255
178 209 255
178 209 255
178 209 255
178 209 255
178 209 255
178 209 255
178 209 255
177 209 255
177 209 255
177 209 255
177 209 255
177 209 255
177 209 255
177 208 255
177 208 255
177 208 255
177 208 255
177 208 255
177 208 255
177 208 255
177 208 255
177 208 255
177 208 255
177 208 255
176 208 255
176 208 255
176 208 255
176 208 255
176 208 255
176 208 255
176 208 255
176 208 255
176 208 255
176 208 255
176 208 255
176 208 255
176 208 255
176 208 255
176 208 255
176 208 255
175 207 255
175 207 255
175 207 255
175 207 255
175 207 255
175 207 255
175 207 255
175 207 255
175 207 255
175 207 255
175 207 255
175 207 255
175 207 255
175 207 255
175 207 255
174 207 255
174 207 255
174 207 255
174 207 255
174 207 255
174 207 255
174 207 255
174 207 255
174 207 255
174 206 255
174 206 255
174 206 255
174 206 255
173 206 255
173 206 255
173 206 255
173 206 255
173 206 255
173 206 255
173 206 255
173 206 255
173 206 255
173 206 255
173 206 255
173 206 255
173 206 255
173 206 255
172 206 255
172 206 255
172 206 255
172 206 255
172 206 255
172 205 255
172 205 255
172 205 255
172 205 255
172 205 255
172 205 255
172 205 255
172 205 255
172 205 255
171 205 255
171 205 255
171 205 255
171 205 255
171 205 255
171 205 255
171 205 255
171 205 255
171 205 255
171 205 255
171 205 255
171 205 255
171 205 255
171 205 255
170 204 255
170 204 255
170 204 255
170 204 255
170 204 255
170 204 255
170 204 255
170 204 255
170 204 255
168 202 253
63 77 97
13 16 21
13 16 21
12 16 20
13 16 21
14 17 21
13 17 21
13 16 21
13 17 22
12 15 19
12 16 21
14 18 23
13 16 21
13 16 21
12 15 19
13 16 20
14 17 22
13 16 21
14 17 22
12 16 21
13 16 21
13 16 21
12 15 20
11 14 18
12 15 20
12 15 20
13 16 21
12 15 20
13 16 20
12 15 20
13 16 20
13 16 20
13 16 20
13 16 20
13 16 21
11 14 19
12 15 20
12 15 20
12 15 19
12 15 20
13 16 21
12 14 19
13 16 20
12 15 19
12 15 19
13 16 21
13 17 21
13 16 21
14 17 22
12 15 20
13 16 20
13 16 20
13 16 20
12 15 20
12 15 20
12 15 19
13 16 20
13 16 20
13 16 21
13 16 20
12 15 19
13 16 20
12 15 20
14 17 21
12 15 20
12 15 19
12 15 19
12 16 20
13 16 21
12 15 19
13 16 21
12 15 20
12 15 19
13 16 21
11 14 18
13 16 21
13 17 21
12 15 19
12 15 20
12 16 20
12 15 19
12 15 20
13 16 21
12 15 20
12 15 20
12 15 20
13 16 21
13 16 21
12 16 20
12 14 19
13 17 22
12 15 20
13 17 21
13 16 21
12 16 20
65 78 98
170 204 255
170 204 255
170 204 255
170 204 255
170 204 255
170 204 255
170 204 255
170 204 255
170 204 255
170 204 255
171 205 255
171 205 255
171 205 255
171 205 255
171 205 255
171 205 255
171 205 255
171 205 255
171 205 255
171 205 255
171 205 255
171 205 255
171 205 255
171 205 255
172 205 255
172 205 255
172 205 255
172 205 255
172 205 255
172 205 255
172 205 255
172 205 255
172 205 255
172 206 255
172 206 255
172 206 255
172 206 255
172 206 255
173 206 255
173 206 255
173 206 255
173 206 255
173 206 255
173 206 255
173 206 255
173 206 255
173 206 255
173 206 255
173 206 255
173 206 255
173 206 255
173 206 255
174 206 255
174 206 255
174 206 255
174 206 255
174 207 255
174 207 255
174 207 255
174 207 255
174 207 255
174 207 255
174 207 255
174 207 255
174 207 255
175 207 255
175 207 255
175 207 255
175 207 255
175 207 255
175 207 255
175 207 255
175 207 255
175 207 255
175 207 255
175 207 255
175 207 255
175 207 255
175 207 255
175 207 255
176 208 255
176 208 255
176 208 255
176 208 255
176 208 255
176 208 255
176 208 255
176 208 255
176 208 255
176 208 255
176 208 255
176 208 255
176 208 255
176 208 255
176 208 255
176 208 255
177 208 255
177 208 255
177 208 255
177 208 255
177 208 255
177 208 255
177 208 255
177 208 255
177 208 255
177 208 255
177 208 255
177 209 255
177 209 255
177 209 255
177 209 255
177 209 255
177 209 255
178 209 255
178 209 255
178 209 255
178 209 255
178 209 255
178 209 255
178 209 255
178 209 255
178 209 255
178 209 255
178 209 255
178 209 255
178 209 255
178 209 255
178 209 255
178 209 255
178 209 255
178 209 255
178 209 255
179 209 255
179 209 255
179 209 255
179 209 255
179 209 255
179 209 255
179 209 255
179 210 255
179 210 255
179 210 255
179 210 255
179 210 255
179 210 255
179 210 255
179 210 255
179 210 255
179 210 255
179 210 255
179 210 255
179 210 255
180 210 255
180 210 255
180 210 255
180 210 255
180 210 255
179 210 255
179 210 255
179 210 255
179 210 255
179 210 255
179 210 255
179 210 255
179 210 255
179 210 255
179 210 255
179 210 255
179 210 255
179 210 255
179 210 255
179 209 255
179 209 255
179 209 255
179 209 255
179 209 255
179 209 255
179 209 255
178 209 255
178 209 255
178 209 255
178 209 255
178 209 255
178 209 255
178 209 255
178 209 255
178 209 255
178 209 255
178 209 255
178 209 255
178 209 255
178 209 255
178 209 255
178 209 255
178 209 255
178 209 255
178 209 255
177 209 255
177 209 255
177 209 255
177 209 255
177 209 255
177 209 255
177 208 255
177 208 255
177 208 255
177 208 255
177 208 255
177 208 255
177 208 255
177 208 255
177 208 255
177 208 255
176 208 255
176 208 255
176 208 255
176 208 255
176 208 255
176 208 255
176 208 255
176 208 255
176 208 255
176 208 255
176 208 255
176 208 255
176 208 255
176 208 255
176 208 255
176 208 255
175 207 255
175 207 255
175 207 255
175 207 255
175 207 255
175 207 255
175 207 255
175 207 255
175 207 255
175 207 255
175 207 255
175 207 255
175 207 255
175 207 255
175 207 255
174 207 255
174 207 255
174 207 255
174 207 255
174 207 255
174 207 255
174 207 255
174 207 255
174 207 255
174 206 255
174 206 255
174 206 255
174 206 255
174 206 255
173 206 255
173 206 255
173 206 255
173 206 255
173 206 255
173 206 255
173 206 255
173 206 255
173 206 255
173 206 255
173 206 255
173 206 255
173 206 255
173 206 255
172 206 255
172 206 255
172 206 255
172 206 255
172 205 255
172 205 255
172 205 255
172 205 255
172 205 255
172 205 255
172 205 255
172 205 255
172 205 255
171 205 255
171 205 255
171 205 255
171 205 255
171 205 255
171 205 255
171 205 255
171 205 255
171 205 255
171 205 255
171 205 255
171 205 255
171 205 255
171 205 255
171 205 255
170 204 255
170 204 255
170 204 255
67 80 101
14 17 23
13 17 21
13 16 21
12 15 19
12 15 20
13 16 21
13 16 21
12 15 20
13 16 21
13 16 21
12 15 20
13 16 20
13 16 21
13 17 22
13 17 22
12 15 19
13 16 20
13 16 21
12 14 18
11 14 18
13 16 21
11 13 17
11 14 19
13 16 21
13 16 20
13 16 20
12 15 20
12 15 20
13 17 21
13 16 21
12 15 20
12 15 19
12 15 20
13 16 21
12 15 20
13 16 21
12 15 20
13 16 20
13 17 21
13 16 20
12 15 19
13 16 21
12 15 19
13 16 20
12 15 20
12 15 20
13 16 21
12 15 19
12 15 20
12 15 19
13 16 20
12 15 20
13 16 20
11 14 18
13 16 20
12 15 20
12 15 20
13 16 21
13 16 20
12 15 19
11 14 19
12 16 20
13 16 21
12 15 19
14 17 22
12 15 19
12 15 19
13 16 21
12 15 20
13 16 21
13 16 20
13 16 20
12 16 20
13 16 21
11 14 19
14 17 22
13 16 21
13 16 20
12 15 20
13 16 20
12 15 20
13 16 20
12 15 19
13 16 21
13 16 20
12 16 20
11 14 19
12 15 20
13 16 20
13 16 21
12 15 19
14 17 22
13 16 21
14 17 22
13 16 21
13 16 20
68 82 103
170 204 255
170 204 255
171 205 255
171 205 255
171 205 255
171 205 255
171 205 255
171 205 255
171 205 255
171 205 255
171 205 255
171 205 255
171 205 255
171 205 255
171 205 255
171 205 255
171 205 255
171 205 255
172 205 255
172 205 255
172 205 255
172 205 255
172 205 255
172 205 255
172 205 255
172 205 255
172 205 255
172 206 255
172 206 255
172 206 255
172 206 255
173 206 255
173 206 255
173 206 255
173 206 255
173 206 255
173 206 255
173 206 255
173 206 255
173 206 255
173 206 255
173 206 255
173 206 255
173 206 255
173 206 255
174 206 255
174 206 255
174 206 255
174 206 255
174 206 255
174 207 255
174 207 255
174 207 255
174 207 255
174 207 255
174 207 255
174 207 255
174 207 255
174 207 255
175 207 255
175 207 255
175 207 255
175 207 255
175 207 255
175 207 255
175 207 255
175 207 255
175 207 255
175 207 255
175 207 255
175 207 255
175 207 255
175 207 255
175 207 255
176 208 255
176 208 255
176 208 255
176 208 255
176 208 255
176 208 255
176 208 255
176 208 255
176 208 255
176 208 255
176 208 255
176 208 255
176 208 255
176 208 255
176 208 255
177 208 255
177 208 255
177 208 255
177 208 255
177 208 255
177 208 255
177 208 255
177 208 255
177 208 255
177 208 255
177 208 255
177 208 255
177 209 255
177 209 255
177 209 255
177 209 255
177 209 255
178 209 255
178 209 255
178 209 255
178 209 255
178 209 255
178 209 255
178 209 255
178 209 255
178 209 255
178 209 255
178 209 255
178 209 255
178 209 255
178 209 255
178 209 255
178 209 255
178 209 255
178 209 255
178 209 255
179 209 255
179 209 255
179 209 255
179 209 255
179 209 255
179 209 255
179 209 255
179 210 255
179 210 255
179 210 255
179 210 255
179 210 255
179 210 255
179 210 255
179 210 255
179 210 255
179 210 255
179 210 255
179 210 255
179 210 255
179 210 255
180 210 255
180 210 255
180 210 255
180 210 255
180 210 255
180 210 255
180 210 255
180 210 255
180 210 255
180 210 255
180 210 255
180 210 255
180 210 255
180 210 255
180 210 255
180 210 255
179 210 255
179 210 255
179 210 255
179 210 255
179 210 255
179 210 255
179 210 255
179 210 255
179 210 255
179 210 255
179 210 255
179 210 255
179 210 255
179 210 255
179 209 255
179 209 255
179 209 255
179 209 255
179 209 255
179 209 255
179 209 255
178 209 255
178 209 255
178 209 255
178 209 255
178 209 255
178 209 255
178 209 255
178 209 255
178 209 255
178 209 255
178 209 255
178 209 255
178 209 255
178 209 255
178 209 255
178 209 255
178 209 255
178 209 255
177 209 255
177 209 255
177 209 255
177 209 255
177 209 255
177 209 255
177 208 255
177 208 255
177 208 255
177 208 255
177 208 255
177 208 255
177 208 255
177 208 255
177 208 255
177 208 255
177 208 255
176 208 255
176 208 255
176 208 255
176 208 255
176 208 255
176 208 255
176 208 255
176 208 255
176 208 255
176 208 255
176 208 255
176 208 255
176 208 255
176 208 255
176 208 255
176 208 255
175 207 255
175 207 255
175 207 255
175 207 255
175 207 255
175 207 255
175 207 255
175 207 255
175 207 255
175 207 255
175 207 255
175 207 255
175 207 255
175 207 255
174 207 255
174 207 255
174 207 255
174 207 255
174 207 255
174 207 255
174 207 255
174 207 255
174 207 255
174 207 255
174 206 255
174 206 255
174 206 255
174 206 255
173 206 255
173 206 255
173 206 255
173 206 255
173 206 255
173 206 255
173 206 255
173 206 255
173 206 255
173 206 255
173 206 255
173 206 255
173 206 255
173 206 255
172 206 255
172 206 255
172 206 255
172 206 255
172 206 255
172 205 255
172 205 255
172 205 255
172 205 255
172 205 255
172 205 255
172 205 255
172 205 255
172 205 255
172 205 255
171 205 255
171 205 255
171 205 255
171 205 255
171 205 255
171 205 255
171 205 255
171 205 255
171 205 255
171 205 255
82 98 123
13 16 21
13 16 21
13 16 21
12 16 20
13 16 21
12 15 20
12 15 20
12 15 20
13 16 21
13 17 21
13 16 20
13 16 20
12 15 20
12 14 18
12 15 20
13 16 20
13 16 20
13 16 20
13 16 20
12 15 20
12 14 19
13 16 21
13 16 21
13 16 20
12 15 19
13 16 21
12 15 20
12 15 20
12 15 20
12 14 18
12 15 19
14 17 21
11 14 19
13 15 20
12 15 20
13 17 22
12 15 19
13 16 20
12 15 19
12 15 20
12 15 20
11 14 18
13 16 21
11 13 17
13 16 21
12 15 19
12 14 19
12 15 19
12 15 19
13 16 20
12 15 19
13 16 20
13 16 20
12 15 19
11 14 18
13 16 21
12 15 20
12 15 19
12 15 19
12 15 19
12 15 20
12 15 19
12 15 20
12 15 19
12 15 19
13 16 21
12 15 20
12 14 19
12 15 20
14 17 22
13 16 21
13 16 20
12 15 19
11 14 19
12 14 19
13 16 21
12 16 20
12 15 19
11 14 18
13 17 22
13 16 20
13 16 20
14 17 22
13 16 20
12 16 20
14 17 22
12 14 19
12 15 20
12 15 19
13 17 21
13 16 21
13 16 20
12 15 20
13 16 21
13 16 20
13 17 22
13 16 21
14 18 23
80 96 120
171 205 255
171 205 255
171 205 255
171 205 255
171 205 255
171 205 255
171 205 255
171 205 255
171 205 255
171 205 255
171 205 255
172 205 255
172 205 255
172 205 255
172 205 255
172 205 255
172 205 255
172 205 255
172 205 255
172 205 255
172 206 255
172 206 255
172 206 255
172 206 255
172 206 255
173 206 255
173 206 255
173 206 255
173 206 255
173 206 255
173 206 255
173 206 255
173 206 255
173 206 255
173 206 255
173 206 255
173 206 255
173 206 255
173 206 255
174 206 255
174 206 255
174 206 255
174 206 255
174 206 255
174 207 255
174 207 255
174 207 255
174 207 255
174 207 255
174 207 255
174 207 255
174 207 255
174 207 255
175 207 255
175 207 255
175 207 255
175 207 255
175 207 255
175 207 255
175 207 255
175 207 255
175 207 255
175 207 255
175 207 255
175 207 255
175 207 255
175 207 255
176 208 255
176 208 255
176 208 255
176 208 255
176 208 255
176 208 255
176 208 255
176 208 255
176 208 255
176 208 255
176 208 255
176 208 255
176 208 255
176 208 255
176 208 255
176 208 255
177 208 255
177 208 255
177 208 255
177 208 255
177 208 255
177 208 255
177 208 255
177 208 255
177 208 255
177 208 255
177 208 255
177 209 255
177 209 255
177 209 255
177 209 255
177 209 255
177 209 255
178 209 255
178 209 255
178 209 255
178 209 255
178 209 255
178 209 255
178 209 255
178 209 255
178 209 255
178 209 255
178 209 255
178 209 255
178 209 255
178 209 255
178 209 255
178 209 255
178 209 255
178 209 255
179 209 255
179 209 255
179 209 255
179 209 255
179 209 255
179 209 255
179 209 255
179 210 255
179 210 255
179 210 255
179 210 255
179 210 255
179 210 255
179 210 255
179 210 255
179 210 255
179 210 255
179 210 255
179 210 255
179 210 255
179 210 255
180 210 255
180 210 255
180 210 255
180 210 255
180 210 255
180 210 255
180 210 255
180 210 255
180 210 255
180 210 255
180 210 255
180 210 255
180 210 255
180 210 255
180 210 255
180 210 255
180 210 255
180 210 255
180 210 255
180 210 255
180 210 255
180 210 255
180 210 255
180 210 255
180 210 255
180 210 255
180 210 255
180 210 255
179 210 255
179 210 255
179 210 255
179 210 255
179 210 255
179 210 255
179 210 255
179 210 255
179 210 255
179 210 255
179 210 255
179 210 255
179 210 255
179 210 255
179 209 255
179 209 255
179 209 255
179 209 255
179 209 255
179 209 255
178 209 255
178 209 255
178 209 255
178 209 255
178 209 255
178 209 255
178 209 255
178 209 255
178 209 255
178 209 255
178 209 255
178 209 255
178 209 255
178 209 255
178 209 255
178 209 255
178 209 255
178 209 255
178 209 255
177 209 255
177 209 255
177 209 255
177 209 255
177 209 255
177 208 255
177 208 255
177 208 255
177 208 255
177 208 255
177 208 255
177 208 255
177 208 255
177 208 255
177 208 255
177 208 255
176 208 255
176 208 255
176 208 255
176 208 255
176 208 255
176 208 255
176 208 255
176 208 255
176 208 255
176 208 255
176 208 255
176 208 255
176 208 255
176 208 255
176 208 255
176 208 255
175 207 255
175 207 255
175 207 255
175 207 255
175 207 255
175 207 255
175 207 255
175 207 255
175 207 255
175 207 255
175 207 255
175 207 255
175 207 255
175 207 255
174 207 255
174 207 255
174 207 255
174 207 255
174 207 255
174 207 255
174 207 255
174 207 255
174 207 255
174 207 255
174 206 255
174 206 255
174 206 255
174 206 255
174 206 255
173 206 255
173 206 255
173 206 255
173 206 255
173 206 255
173 206 255
173 206 255
173 206 255
173 206 255
173 206 255
173 206 255
173 206 255
173 206 255
173 206 255
173 206 255
172 206 255
172 206 255
172 206 255
172 206 255
172 205 255
172 205 255
172 205 255
172 205 255
172 205 255
172 205 255
172 205 255
172 205 255
172 205 255
172 205 255
171 205 255
171 205 255
171 205 255
121 145 180
14 17 22
13 16 20
13 16 21
12 15 20
12 15 19
12 15 20
12 15 20
14 17 22
12 15 20
13 16 21
12 15 19
13 16 20
12 15 20
13 16 20
13 16 21
11 14 18
11 14 18
12 15 19
13 16 21
12 16 20
12 15 20
12 14 19
13 16 21
12 15 20
12 15 19
11 14 19
12 15 19
13 16 20
12 15 19
12 15 19
13 17 21
12 16 20
13 16 20
13 16 21
13 16 20
12 15 19
12 15 19
12 15 20
12 15 20
13 16 21
12 15 20
13 16 20
13 15 20
12 15 19
12 15 20
12 15 20
13 16 20
11 14 18
13 16 21
12 16 20
13 16 20
13 16 21
11 14 18
11 14 18
12 15 20
12 14 19
13 16 20
12 14 19
12 15 19
12 15 20
12 15 19
12 15 20
13 16 21
12 15 20
12 15 19
11 14 19
12 15 20
12 15 19
13 16 20
12 15 19
11 14 18
13 16 21
13 16 20
12 15 20
12 14 19
13 16 20
12 15 19
12 15 20
13 16 20
12 15 20
11 14 19
12 15 19
12 15 20
12 15 20
12 15 20
11 14 18
12 15 20
13 16 21
13 16 20
12 15 19
12 15 20
12 15 20
12 15 20
12 15 19
13 16 21
14 17 22
13 16 20
13 17 22
13 16 20
13 16 20
113 135 169
171 205 255
171 205 255
172 205 255
172 205 255
172 205 255
172 205 255
172 205 255
172 205 255
172 205 255
172 205 255
172 205 255
172 205 255
172 205 255
172 206 255
172 206 255
172 206 255
172 206 255
172 206 255
173 206 255
173 206 255
173 206 255
173 206 255
173 206 255
173 206 255
173 206 255
173 206 255
173 206 255
173 206 255
173 206 255
173 206 255
173 206 255
173 206 255
174 206 255
174 206 255
174 206 255
174 206 255
174 206 255
174 207 255
174 207 255
174 207 255
174 207 255
174 207 255
174 207 255
174 207 255
174 207 255
174 207 255
174 207 255
175 207 255
175 207 255
175 207 255
175 207 255
175 207 255
175 207 255
175 207 255
175 207 255
175 207 255
175 207 255
175 207 255
175 207 255
175 207 255
175 207 255
176 208 255
176 208 255
176 208 255
176 208 255
176 208 255
176 208 255
176 208 255
176 208 255
176 208 255
176 208 255
176 208 255
176 208 255
176 208 255
176 208 255
176 208 255
177 208 255
177 208 255
177 208 255
177 208 255
177 208 255
177 208 255
177 208 255
177 208 255
177 208 255
177 208 255
177 208 255
177 209 255
177 209 255
177 209 255
177 209 255
177 209 255
177 209 255
178 209 255
178 209 255
178 209 255
178 209 255
178 209 255
178 209 255
178 209 255
178 209 255
178 209 255
178 209 255
178 209 255
178 209 255
178 209 255
178 209 255
178 209 255
178 209 255
178 209 255
178 209 255
178 209 255
179 209 255
179 209 255
179 209 255
179 209 255
179 209 255
179 209 255
179 210 255
179 210 255
179 210 255
179 210 255
179 210 255
179 210 255
179 210 255
179 210 255
179 210 255
179 210 255
179 210 255
179 210 255
179 210 255
179 210 255
180 210 255
180 210 255
180 210 255
180 210 255
180 210 255
180 210 255
180 210 255
180 210 255
180 210 255
180 210 255
180 210 255
180 210 255
180 210 255
180 210 255
180 210 255
180 210 255
180 210 255
180 210 255
180 210 255
180 210 255
180 210 255
180 210 255
180 210 255
180 210 255
180 210 255
180 210 255
180 210 255
180 210 255
180 210 255
180 210 255
180 210 255
180 210 255
180 210 255
180 210 255
180 210 255
180 210 255
180 210 255
180 210 255
180 210 255
180 210 255
179 210 255
179 210 255
179 210 255
179 210 255
179 210 255
179 210 255
179 210 255
179 210 255
179 210 255
179 210 255
179 210 255
179 210 255
179 210 255
179 210 255
179 209 255
179 209 255
179 209 255
179 209 255
179 209 255
179 209 255
178 209 255
178 209 255
178 209 255
178 209 255
178 209 255
178 209 255
178 209 255
178 209 255
178 209 255
178 209 255
178 209 255
178 209 255
178 209 255
178 209 255
178 209 255
178 209 255
178 209 255
178 209 255
178 209 255
177 209 255
177 209 255
177 209 255
177 209 255
177 209 255
177 208 255
177 208 255
177 208 255
177 208 255
177 208 255
177 208 255
177 208 255
177 208 255
177 208 255
177 208 255
177 208 255
176 208 255
176 208 255
176 208 255
176 208 255
176 208 255
176 208 255
176 208 255
176 208 255
176 208 255
176 208 255
176 208 255
176 208 255
176 208 255
176 208 255
176 208 255
176 208 255
175 207 255
175 207 255
175 207 255
175 207 255
175 207 255
175 207 255
175 207 255
175 207 255
175 207 255
175 207 255
175 207 255
175 207 255
175 207 255
175 207 255
174 207 255
174 207 255
174 207 255
174 207 255
174 207 255
174 207 255
174 207 255
174 207 255
174 207 255
174 207 255
174 206 255
174 206 255
174 206 255
174 206 255
174 206 255
173 206 255
173 206 255
173 206 255
173 206 255
173 206 255
173 206 255
173 206 255
173 206 255
173 206 255
173 206 255
173 206 255
173 206 255
173 206 255
173 206 255
172 206 255
172 206 255
172 206 255
172 206 255
172 206 255
172 206 255
172 205 255
172 205 255
172 205 255
172 205 255
172 205 255
143 170 212
15 18 23
13 16 21
12 15 20
13 16 20
13 16 20
12 15 19
12 16 20
13 16 21
11 14 18
13 16 20
12 15 20
12 15 20
13 17 21
13 16 20
13 15 20
12 15 20
13 16 20
13 15 20
13 16 21
12 15 19
11 14 18
13 16 21
13 16 21
12 15 20
12 15 19
12 15 20
13 16 20
13 16 21
12 15 19
12 15 19
12 15 20
11 14 18
12 15 20
12 14 19
12 15 20
12 15 20
12 15 19
11 14 18
12 15 20
13 16 21
11 14 18
13 16 21
12 16 20
13 16 21
14 17 22
11 14 18
12 15 20
13 16 20
12 15 19
12 15 20
13 17 21
12 15 20
11 14 19
12 15 20
12 15 19
13 16 20
11 14 18
12 15 19
13 16 20
11 13 17
12 15 19
12 15 19
11 14 18
13 16 21
12 15 20
12 15 19
11 14 18
12 15 19
12 15 20
12 14 18
12 15 20
13 16 20
12 15 19
12 15 19
13 16 20
12 15 19
12 15 19
12 15 20
12 15 20
12 15 19
12 14 19
11 14 18
12 15 20
12 15 20
13 16 20
13 16 20
12 14 18
12 15 20
12 16 20
12 15 20
11 14 18
11 14 19
13 16 20
12 15 19
13 16 21
13 16 20
13 16 20
13 17 22
14 18 23
14 18 23
13 17 21
17 22 28
145 173 215
172 205 255
172 205 255
172 205 255
172 205 255
172 205 255
172 206 255
172 206 255
172 206 255
172 206 255
172 206 255
173 206 255
173 206 255
173 206 255
173 206 255
173 206 255
173 206 255
173 206 255
173 206 255
173 206 255
173 206 255
173 206 255
173 206 255
173 206 255
173 206 255
173 206 255
174 206 255
174 206 255
174 206 255
174 206 255
174 206 255
174 207 255
174 207 255
174 207 255
174 207 255
174 207 255
174 207 255
174 207 255
174 207 255
174 207 255
174 207 255
175 207 255
175 207 255
175 207 255
175 207 255
175 207 255
175 207 255
175 207 255
175 207 255
175 207 255
175 207 255
175 207 255
175 207 255
175 207 255
175 207 255
175 207 255
176 208 255
176 208 255
176 208 255
176 208 255
176 208 255
176 208 255
176 208 255
176 208 255
176 208 255
176 208 255
176 208 255
176 208 255
176 208 255
176 208 255
176 208 255
177 208 255
177 208 255
177 208 255
177 208 255
177 208 255
177 208 255
177 208 255
177 208 255
177 208 255
177 208 255
177 208 255
177 209 255
177 209 255
177 209 255
177 209 255
177 209 255
177 209 255
178 209 255
178 209 255
178 209 255
178 209 255
178 209 255
178 209 255
178 209 255
178 209 255
178 209 255
178 209 255
178 209 255
178 209 255
178 209 255
178 209 255
178 209 255
178 209 255
178 209 255
179 209 255
179 209 255
179 209 255
179 209 255
179 209 255
179 209 255
179 209 255
179 210 255
179 210 255
179 210 255
179 210 255
179 210 255
179 210 255
179 210 255
179 210 255
179 210 255
179 210 255
179 210 255
179 210 255
179 210 255
179 210 255
180 210 255
180 210 255
180 210 255
180 210 255
180 210 255
180 210 255
180 210 255
180 210 255
180 210 255
180 210 255
180 210 255
180 210 255
180 210 255
180 210 255
180 210 255
180 210 255
180 210 255
180 210 255
180 210 255
180 210 255
180 210 255
180 210 255
180 210 255
181 211 255
181 211 255
181 211 255
181 211 255
181 211 255
181 211 255
181 211 255
180 210 255
180 210 255
180 210 255
180 210 255
180 210 255
180 210 255
180 210 255
180 210 255
180 210 255
180 210 255
180 210 255
180 210 255
180 210 255
180 210 255
180 210 255
180 210 255
180 210 255
180 210 255
180 210 255
180 210 255
180 210 255
180 210 255
179 210 255
179 210 255
179 210 255
179 210 255
179 210 255
179 210 255
179 210 255
179 210 255
179 210 255
179 210 255
179 210 255
179 210 255
179 210 255
179 210 255
179 209 255
179 209 255
179 209 255
179 209 255
179 209 255
179 209 255
178 209 255
178 209 255
178 209 255
178 209 255
178 209 255
178 209 255
178 209 255
178 209 255
178 209 255
178 209 255
178 209 255
178 209 255
178 209 255
178 209 255
178 209 255
178 209 255
178 209 255
178 209 255
177 209 255
177 209 255
177 209 255
177 209 255
177 209 255
177 209 255
177 208 255
177 208 255
177 208 255
177 208 255
177 208 255
177 208 255
177 208 255
177 208 255
177 208 255
177 208 255
177 208 255
176 208 255
176 208 255
176 208 255
176 208 255
176 208 255
176 208 255
176 208 255
176 208 255
176 208 255
176 208 255
176 208 255
176 208 255
176 208 255
176 208 255
176 208 255
175 207 255
175 207 255
175 207 255
175 207 255
175 207 255
175 207 255
175 207 255
175 207 255
175 207 255
175 207 255
175 207 255
175 207 255
175 207 255
175 207 255
175 207 255
174 207 255
174 207 255
174 207 255
174 207 255
174 207 255
174 207 255
174 207 255
174 207 255
174 207 255
174 207 255
174 206 255
174 206 255
174 206 255
174 206 255
174 206 255
173 206 255
173 206 255
173 206 255
173 206 255
173 206 255
173 206 255
173 206 255
173 206 255
173 206 255
173 206 255
173 206 255
173 206 255
173 206 255
173 206 255
173 206 255
172 206 255
172 206 255
172 206 255
169 202 251
42 50 63
13 16 21
12 15 20
13 16 20
11 14 18
13 16 21
13 16 21
13 16 20
13 16 20
13 16 21
14 17 22
11 14 18
11 13 17
12 15 19
12 15 20
13 16 21
11 14 18
11 14 18
13 15 20
13 17 22
13 16 21
12 15 20
13 16 20
10 13 17
13 16 20
12 15 20
11 14 18
13 16 20
13 15 20
10 13 17
11 14 18
11 14 17
12 15 20
12 15 20
11 14 18
11 14 18
12 14 18
12 16 20
12 15 20
11 14 19
12 15 20
12 15 19
13 16 20
12 15 19
13 16 21
12 15 19
12 15 20
12 15 20
12 15 19
12 15 19
12 15 20
12 15 20
12 15 20
13 15 20
12 15 20
11 13 17
13 16 20
12 15 19
12 15 19
12 14 18
11 14 18
12 15 20
12 15 20
12 14 19
12 16 20
12 15 19
12 15 19
11 14 18
13 16 20
12 15 20
12 15 19
13 17 21
13 16 20
14 17 22
12 15 20
12 15 20
11 14 18
11 14 18
12 14 19
13 17 21
12 15 19
11 14 18
13 16 20
12 15 19
12 16 20
11 14 18
13 16 20
12 16 20
13 16 21
12 15 20
13 17 21
13 16 21
13 16 21
12 15 20
13 16 20
13 16 20
12 15 20
12 15 20
12 15 20
12 15 19
13 16 21
14 17 22
13 16 21
32 39 50
164 196 244
172 206 255
172 206 255
173 206 255
173 206 255
173 206 255
173 206 255
173 206 255
173 206 255
173 206 255
173 206 255
173 206 255
173 206 255
173 206 255
173 206 255
173 206 255
173 206 255
173 206 255
173 206 255
174 206 255
174 206 255
174 206 255
174 206 255
174 206 255
174 207 255
174 207 255
174 207 255
174 207 255
174 207 255
174 207 255
174 207 255
174 207 255
174 207 255
174 207 255
175 207 255
175 207 255
175 207 255
175 207 255
175 207 255
175 207 255
175 207 255
175 207 255
175 207 255
175 207 255
175 207 255
175 207 255
175 207 255
175 207 255
175 207 255
176 208 255
176 208 255
176 208 255
176 208 255
176 208 255
176 208 255
176 208 255
176 208 255
176 208 255
176 208 255
176 208 255
176 208 255
176 208 255
176 208 255
176 208 255
177 208 255
177 208 255
177 208 255
177 208 255
177 208 255
177 208 255
177 208 255
177 208 255
177 208 255
177 208 255
177 208 255
177 209 255
177 209 255
177 209 255
177 209 255
177 209 255
177 209 255
178 209 255
178 209 255
178 209 255
178 209 255
178 209 255
178 209 255
178 209 255
178 209 255
178 209 255
178 209 255
178 209 255
178 209 255
178 209 255
178 209 255
178 209 255
178 209 255
178 209 255
179 209 255
179 209 255
179 209 255
179 209 255
179 209 255
179 209 255
179 209 255
179 210 255
179 210 255
179 210 255
179 210 255
179 210 255
179 210 255
179 210 255
179 210 255
179 210 255
179 210 255
179 210 255
179 210 255
179 210 255
179 210 255
180 210 255
180 210 255
180 210 255
180 210 255
180 210 255
180 210 255
180 210 255
180 210 255
180 210 255
180 210 255
180 210 255
180 210 255
180 210 255
180 210 255
180 210 255
180 210 255
180 210 255
180 210 255
180 210 255
180 210 255
180 210 255
180 210 255
181 211 255
181 211 255
181 211 255
181 211 255
181 211 255
181 211 255
181 211 255
181 211 255
181 211 255
181 211 255
181 211 255
181 211 255
181 211 255
181 211 255
181 211 255
181 211 255
181 211 255
181 211 255
181 211 255
181 211 255
180 210 255
180 210 255
180 210 255
180 210 255
180 210 255
180 210 255
180 210 255
180 210 255
180 210 255
180 210 255
180 210 255
180 210 255
180 210 255
180 210 255
180 210 255
180 210 255
180 210 255
180 210 255
180 210 255
180 210 255
180 210 255
180 210 255
179 210 255
179 210 255
179 210 255
179 210 255
179 210 255
179 210 255
179 210 255
179 210 255
179 210 255
179 210 255
179 210 255
179 210 255
179 210 255
179 210 255
179 209 255
179 209 255
179 209 255
179 209 255
179 209 255
179 209 255
178 209 255
178 209 255
178 209 255
178 209 255
178 209 255
178 209 255
178 209 255
178 209 255
178 209 255
178 209 255
178 209 255
178 209 255
178 209 255
178 209 255
178 209 255
178 209 255
178 209 255
178 209 255
177 209 255
177 209 255
177 209 255
177 209 255
177 209 255
177 209 255
177 208 255
177 208 255
177 208 255
177 208 255
177 208 255
177 208 255
177 208 255
177 208 255
177 208 255
177 208 255
177 208 255
176 208 255
176 208 255
176 208 255
176 208 255
176 208 255
176 208 255
176 208 255
176 208 255
176 208 255
176 208 255
176 208 255
176 208 255
176 208 255
176 208 255
176 208 255
175 207 255
175 207 255
175 207 255
175 207 255
175 207 255
175 207 255
175 207 255
175 207 255
175 207 255
175 207 255
175 207 255
175 207 255
175 207 255
175 207 255
175 207 255
174 207 255
174 207 255
174 207 255
174 207 255
174 207 255
174 207 255
174 207 255
174 207 255
174 207 255
174 207 255
174 206 255
174 206 255
174 206 255
174 206 255
174 206 255
173 206 255
173 206 255
173 206 255
173 206 255
173 206 255
173 206 255
173 206 255
173 206 255
173 206 255
173 206 255
173 206 255
173 206 255
62 74 93
13 16 21
13 16 21
12 16 20
14 17 22
14 17 22
12 15 20
12 14 19
13 16 20
13 16 20
11 14 18
12 15 19
12 15 19
12 15 19
12 14 19
12 15 19
12 15 20
13 16 21
12 16 20
11 14 18
12 14 19
12 15 20
12 14 19
12 15 19
12 15 19
12 15 19
12 15 19
13 16 21
12 15 19
12 15 19
11 14 18
12 14 19
11 13 17
13 16 21
13 16 20
12 14 19
13 16 20
12 15 19
13 16 20
12 15 20
13 16 20
12 15 19
12 15 19
13 16 21
12 15 19
12 14 19
11 14 17
11 13 17
11 14 19
12 15 20
13 16 20
12 14 19
12 15 20
13 16 21
11 14 18
12 15 19
12 15 19
10 13 17
12 15 19
13 16 21
11 14 19
12 15 20
12 14 18
11 14 17
12 15 19
12 15 19
12 15 20
11 13 17
12 15 19
12 15 20
13 16 21
12 15 19
12 15 19
12 15 20
11 14 18
11 14 18
13 16 20
13 16 20
11 14 18
13 16 20
12 15 20
12 15 19
12 15 19
13 16 20
12 15 19
12 15 19
12 15 19
13 16 20
13 16 20
12 15 20
13 16 20
14 17 22
13 15 20
12 14 18
12 14 18
13 16 21
12 15 20
13 16 20
12 15 20
13 16 20
12 15 20
13 16 20
12 14 19
13 17 21
13 16 20
64 76 96
171 204 253
173 206 255
173 206 255
173 206 255
173 206 255
173 206 255
173 206 255
173 206 255
173 206 255
173 206 255
173 206 255
174 206 255
174 206 255
174 206 255
174 206 255
174 206 255
174 206 255
174 207 255
174 207 255
174 207 255
174 207 255
174 207 255
174 207 255
174 207 255
174 207 255
174 207 255
174 207 255
175 207 255
175 207 255
175 207 255
175 207 255
175 207 255
175 207 255
175 207 255
175 207 255
175 207 255
175 207 255
175 207 255
175 207 255
175 207 255
175 207 255
175 207 255
176 208 255
176 208 255
176 208 255
176 208 255
176 208 255
176 208 255
176 208 255
176 208 255
176 208 255
176 208 255
176 208 255
176 208 255
176 208 255
176 208 255
176 208 255
176 208 255
177 208 255
177 208 255
177 208 255
177 208 255
177 208 255
177 208 255
177 208 255
177 208 255
177 208 255
177 208 255
177 209 255
177 209 255
177 209 255
177 209 255
177 209 255
178 209 255
178 209 255
178 209 255
178 209 255
178 209 255
178 209 255
178 209 255
178 209 255
178 209 255
178 209 255
178 209 255
178 209 255
178 209 255
178 209 255
178 209 255
178 209 255
178 209 255
178 209 255
178 209 255
179 209 255
179 209 255
179 209 255
179 209 255
179 209 255
179 209 255
179 210 255
179 210 255
179 210 255
179 210 255
179 210 255
179 210 255
179 210 255
179 210 255
179 210 255
179 210 255
179 210 255
179 210 255
179 210 255
180 210 255
180 210 255
180 210 255
180 210 255
180 210 255
180 210 255
180 210 255
180 210 255
180 210 255
180 210 255
180 210 255
180 210 255
180 210 255
180 210 255
180 210 255
180 210 255
180 210 255
180 210 255
180 210 255
180 210 255
180 210 255
180 210 255
180 210 255
181 211 255
181 211 255
181 211 255
181 211 255
181 211 255
181 211 255
181 211 255
181 211 255
181 211 255
181 211 255
181 211 255
181 211 255
181 211 255
181 211 255
181 211 255
181 211 255
181 211 255
181 211 255
181 211 255
181 211 255
181 211 255
181 211 255
181 211 255
181 211 255
181 211 255
181 211 255
181 211 255
181 211 255
181 211 255
181 211 255
181 211 255
181 211 255
181 211 255
180 210 255
180 210 255
180 210 255
180 210 255
180 210 255
180 210 255
180 210 255
180 210 255
180 210 255
180 210 255
180 210 255
180 210 255
180 210 255
180 210 255
180 210 255
180 210 255
180 210 255
180 210 255
180 210 255
180 210 255
180 210 255
180 210 255
179 210 255
179 210 255
179 210 255
179 210 255
179 210 255
179 210 255
179 210 255
179 210 255
179 210 255
179 210 255
179 210 255
179 210 255
179 210 255
179 209 255
179 209 255
179 209 255
179 209 255
179 209 255
179 209 255
179 209 255
178 209 255
178 209 255
178 209 255
178 209 255
178 209 255
178 209 255
178 209 255
178 209 255
178 209 255
178 209 255
178 209 255
178 209 255
178 209 255
178 209 255
178 209 255
178 209 255
178 209 255
177 209 255
177 209 255
177 209 255
177 209 255
177 209 255
177 209 255
177 208 255
177 208 255
177 208 255
177 208 255
177 208 255
177 208 255
177 208 255
177 208 255
177 208 255
177 208 255
177 208 255
176 208 255
176 208 255
176 208 255
176 208 255
176 208 255
176 208 255
176 208 255
176 208 255
176 208 255
176 208 255
176 208 255
176 208 255
176 208 255
176 208 255
176 208 255
175 207 255
175 207 255
175 207 255
175 207 255
175 207 255
175 207 255
175 207 255
175 207 255
175 207 255
175 207 255
175 207 255
175 207 255
175 207 255
175 207 255
175 207 255
175 207 255
174 207 255
174 207 255
174 207 255
174 207 255
174 207 255
174 207 255
174 207 255
174 207 255
174 207 255
174 207 255
174 206 255
174 206 255
174 206 255
174 206 255
174 206 255
174 206 255
173 206 255
173 206 255
173 206 255
116 138 171
13 16 20
12 15 20
12 15 20
13 16 21
13 16 20
13 16 20
14 17 22
12 15 20
11 14 18
12 15 19
12 15 19
11 13 17
13 16 20
13 16 20
11 14 18
11 14 18
13 16 20
12 15 20
12 15 20
12 15 19
12 15 19
12 14 19
11 14 17
11 13 17
11 14 17
12 15 19
13 16 21
13 16 20
13 16 20
12 15 20
13 16 20
12 15 19
13 16 21
13 16 20
12 15 19
11 14 18
13 16 20
12 15 19
12 15 20
12 14 18
12 15 19
12 15 19
12 15 19
12 15 19
12 15 19
11 14 18
11 14 18
12 15 19
12 14 18
13 16 20
11 14 18
12 15 19
12 15 19
13 15 20
13 15 19
13 16 20
12 15 19
12 14 18
13 16 20
11 14 18
12 14 19
11 14 18
12 15 19
13 16 20
12 15 19
13 16 20
12 15 19
11 14 18
12 15 20
12 14 19
13 16 20
13 16 21
11 14 18
12 15 19
12 15 20
11 14 18
12 15 20
11 14 18
12 15 19
10 13 17
11 14 18
12 14 18
12 15 19
12 15 19
12 15 20
12 14 18
12 15 20
12 15 20
12 15 19
11 14 18
12 15 19
13 16 21
12 16 20
12 15 20
12 15 19
14 17 21
14 17 22
13 16 20
14 17 22
13 16 20
11 14 18
12 15 20
11 14 18
12 15 20
12 15 20
12 15 20
112 133 166
173 206 255
173 206 255
173 206 255
174 206 255
174 206 255
174 206 255
174 206 255
174 206 255
174 206 255
174 207 255
174 207 255
174 207 255
174 207 255
174 207 255
174 207 255
174 207 255
174 207 255
174 207 255
174 207 255
175 207 255
175 207 255
175 207 255
175 207 255
175 207 255
175 207 255
175 207 255
175 207 255
175 207 255
175 207 255
175 207 255
175 207 255
175 207 255
175 207 255
175 207 255
175 207 255
176 208 255
176 208 255
176 208 255
176 208 255
176 208 255
176 208 255
176 208 255
176 208 255
176 208 255
176 208 255
176 208 255
176 208 255
176 208 255
176 208 255
176 208 255
176 208 255
177 208 255
177 208 255
177 208 255
177 208 255
177 208 255
177 208 255
177 208 255
177 208 255
177 208 255
177 208 255
177 209 255
177 209 255
177 209 255
177 209 255
177 209 255
177 209 255
178 209 255
178 209 255
178 209 255
178 209 255
178 209 255
178 209 255
178 209 255
178 209 255
178 209 255
178 209 255
178 209 255
178 209 255
178 209 255
178 209 255
178 209 255
178 209 255
178 209 255
178 209 255
179 209 255
179 209 255
179 209 255
179 209 255
179 209 255
179 210 255
179 210 255
179 210 255
179 210 255
179 210 255
179 210 255
179 210 255
179 210 255
179 210 255
179 210 255
179 210 255
179 210 255
179 210 255
179 210 255
180 210 255
180 210 255
180 210 255
180 210 255
180 210 255
180 210 255
180 210 255
180 210 255
180 210 255
180 210 255
180 210 255
180 210 255
180 210 255
180 210 255
180 210 255
180 210 255
180 210 255
180 210 255
180 210 255
180 210 255
180 210 255
180 210 255
181 211 255
181 211 255
181 211 255
181 211 255
181 211 255
181 211 255
181 211 255
181 211 255
181 211 255
181 211 255
181 211 255
181 211 255
181 211 255
181 211 255
181 211 255
181 211 255
181 211 255
181 211 255
181 211 255
181 211 255
182 211 255
182 211 255
181 211 255
181 211 255
181 211 255
181 211 255
181 211 255
181 211 255
181 211 255
181 211 255
181 211 255
181 211 255
181 211 255
181 211 255
181 211 255
181 211 255
181 211 255
181 211 255
181 211 255
181 211 255
181 211 255
181 211 255
181 211 255
181 211 255
181 211 255
181 211 255
181 211 255
180 210 255
180 210 255
180 210 255
180 210 255
180 210 255
180 210 255
180 210 255
180 210 255
180 210 255
180 210 255
180 210 255
180 210 255
180 210 255
180 210 255
180 210 255
180 210 255
180 210 255
180 210 255
180 210 255
180 210 255
180 210 255
180 210 255
179 210 255
179 210 255
179 210 255
179 210 255
179 210 255
179 210 255
179 210 255
179 210 255
179 210 255
179 210 255
179 210 255
179 210 255
179 210 255
179 209 255
179 209 255
179 209 255
179 209 255
179 209 255
179 209 255
178 209 255
178 209 255
178 209 255
178 209 255
178 209 255
178 209 255
178 209 255
178 209 255
178 209 255
178 209 255
178 209 255
178 209 255
178 209 255
178 209 255
178 209 255
178 209 255
178 209 255
177 209 255
177 209 255
177 209 255
177 209 255
177 209 255
177 209 255
177 208 255
177 208 255
177 208 255
177 208 255
177 208 255
177 208 255
177 208 255
177 208 255
177 208 255
177 208 255
177 208 255
176 208 255
176 208 255
176 208 255
176 208 255
176 208 255
176 208 255
176 208 255
176 208 255
176 208 255
176 208 255
176 208 255
176 208 255
176 208 255
176 208 255
176 208 255
176 208 255
175 207 255
175 207 255
175 207 255
175 207 255
175 207 255
175 207 255
175 207 255
175 207 255
175 207 255
175 207 255
175 207 255
175 207 255
175 207 255
175 207 255
175 207 255
175 207 255
174 207 255
174 207 255
174 207 255
174 207 255
174 207 255
174 207 255
174 207 255
174 207 255
174 207 255
174 207 255
174 207 255
150 178 220
27 33 42
13 16 21
13 16 21
13 16 20
13 16 21
12 16 20
13 16 20
12 16 20
13 16 20
12 15 19
12 15 19
12 15 19
13 16 20
12 15 19
11 14 18
13 16 21
13 17 22
12 15 20
12 15 19
13 16 21
12 15 19
12 15 19
12 16 20
11 14 18
12 15 19
12 15 20
11 14 18
12 15 19
11 14 18
12 15 20
13 16 20
12 15 20
13 16 20
11 14 18
12 15 20
12 15 19
12 15 20
12 15 20
13 16 20
10 13 17
13 16 20
12 15 19
12 14 19
12 15 19
12 15 20
12 14 18
12 16 20
14 17 22
13 16 20
12 15 19
13 15 20
13 16 20
11 14 17
13 16 20
13 16 20
12 15 20
11 14 18
11 14 18
12 15 19
12 15 20
13 16 20
12 15 20
11 14 17
12 15 19
13 16 20
13 16 20
13 16 21
11 13 17
12 15 19
12 15 19
12 15 19
11 14 18
12 15 20
11 14 18
12 14 18
11 13 17
12 15 20
13 16 21
13 16 20
11 13 17
12 15 19
12 15 19
12 15 19
12 15 20
11 13 17
14 17 22
13 16 21
12 15 19
11 14 18
12 14 18
12 15 20
12 15 19
12 15 19
12 15 20
13 16 20
12 15 20
12 15 20
12 15 19
12 14 18
12 15 20
13 16 21
12 15 20
12 14 19
12 15 19
12 15 20
13 16 21
13 16 20
18 22 28
156 186 230
174 207 255
174 207 255
174 207 255
174 207 255
174 207 255
174 207 255
174 207 255
174 207 255
174 207 255
174 207 255
174 207 255
175 207 255
175 207 255
175 207 255
175 207 255
175 207 255
175 207 255
175 207 255
175 207 255
175 207 255
175 207 255
175 207 255
175 207 255
175 207 255
175 207 255
175 207 255
175 207 255
176 208 255
176 208 255
176 208 255
176 208 255
176 208 255
176 208 255
176 208 255
176 208 255
176 208 255
176 208 255
176 208 255
176 208 255
176 208 255
176 208 255
176 208 255
176 208 255
177 208 255
177 208 255
177 208 255
177 208 255
177 208 255
177 208 255
177 208 255
177 208 255
177 208 255
177 208 255
177 208 255
177 209 255
177 209 255
177 209 255
177 209 255
177 209 255
177 209 255
178 209 255
178 209 255
178 209 255
178 209 255
178 209 255
178 209 255
178 209 255
178 209 255
178 209 255
178 209 255
178 209 255
178 209 255
178 209 255
178 209 255
178 209 255
178 209 255
178 209 255
179 209 255
179 209 255
179 209 255
179 209 255
179 209 255
179 209 255
179 210 255
179 210 255
179 210 255
179 210 255
179 210 255
179 210 255
179 210 255
179 210 255
179 210 255
179 210 255
179 210 255
179 210 255
179 210 255
179 210 255
180 210 255
180 210 255
180 210 255
180 210 255
180 210 255
180 210 255
180 210 255
180 210 255
180 210 255
180 210 255
180 210 255
180 210 255
180 210 255
180 210 255
180 210 255
180 210 255
180 210 255
180 210 255
180 210 255
180 210 255
180 210 255
181 211 255
181 211 255
181 211 255
181 211 255
181 211 255
181 211 255
181 211 255
181 211 255
181 211 255
181 211 255
181 211 255
181 211 255
181 211 255
181 211 255
181 211 255
181 211 255
181 211 255
181 211 255
181 211 255
181 211 255
181 211 255
181 211 255
181 211 255
181 211 255
181 211 255
182 211 255
182 211 255
182 211 255
182 211 255
182 211 255
182 211 255
182 211 255
182 211 255
182 211 255
182 211 255
182 211 255
182 211 255
181 211 255
181 211 255
181 211 255
181 211 255
181 211 255
181 211 255
181 211 255
181 211 255
181 211 255
181 211 255
181 211 255
181 211 255
181 211 255
181 211 255
181 211 255
181 211 255
181 211 255
181 211 255
181 211 255
181 211 255
181 211 255
181 211 255
181 211 255
181 211 255
180 210 255
180 210 255
180 210 255
180 210 255
180 210 255
180 210 255
180 210 255
180 210 255
180 210 255
180 210 255
180 210 255
180 210 255
180 210 255
180 210 255
180 210 255
180 210 255
180 210 255
180 210 255
180 210 255
180 210 255
180 210 255
180 210 255
179 210 255
179 210 255
179 210 255
179 210 255
179 210 255
179 210 255
179 210 255
179 210 255
179 210 255
179 210 255
179 210 255
179 210 255
179 209 255
179 209 255
179 209 255
179 209 255
179 209 255
179 209 255
178 209 255
178 209 255
178 209 255
178 209 255
178 209 255
178 209 255
178 209 255
178 209 255
178 209 255
178 209 255
178 209 255
178 209 255
178 209 255
178 209 255
178 209 255
178 209 255
178 209 255
178 209 255
177 209 255
177 209 255
177 209 255
177 209 255
177 209 255
177 208 255
177 208 255
177 208 255
177 208 255
177 208 255
177 208 255
177 208 255
177 208 255
177 208 255
177 208 255
177 208 255
176 208 255
176 208 255
176 208 255
176 208 255
176 208 255
176 208 255
176 208 255
176 208 255
176 208 255
176 208 255
176 208 255
176 208 255
176 208 255
176 208 255
176 208 255
176 208 255
176 208 255
175 207 255
175 207 255
175 207 255
175 207 255
175 207 255
175 207 255
175 207 255
175 207 255
175 207 255
175 207 255
175 207 255
175 207 255
175 207 255
175 207 255
175 207 255
175 207 255
174 207 255
174 207 255
174 207 255
174 207 255
43 52 65
13 16 20
13 16 21
13 16 20
12 15 20
12 14 18
13 16 21
12 14 19
13 16 20
12 14 18
13 16 20
13 16 20
12 15 19
12 15 20
12 15 19
11 13 17
12 15 20
12 15 19
13 16 20
12 14 18
13 16 20
11 14 19
12 15 19
12 14 19
13 16 21
11 14 19
12 15 19
11 14 18
12 15 19
11 14 17
12 15 19
11 13 17
13 16 20
11 14 18
11 14 18
12 15 19
12 15 19
12 15 19
11 14 18
12 15 19
13 16 20
13 16 20
13 16 20
11 14 18
12 15 19
13 16 20
11 14 18
13 16 20
12 14 18
12 15 20
12 14 18
13 16 20
11 14 18
11 14 18
11 14 18
11 14 18
12 15 19
12 15 19
12 15 20
11 14 18
12 15 20
10 13 17
11 14 17
13 16 20
12 15 19
12 15 19
11 13 17
13 16 20
11 14 19
12 15 20
13 16 21
13 16 20
11 14 17
12 15 19
12 15 19
11 14 18
12 15 20
13 15 20
12 15 19
11 14 18
11 14 18
13 16 21
12 15 19
12 15 19
12 15 19
13 16 21
11 14 18
12 15 20
10 13 17
12 14 19
12 15 20
13 16 20
10 13 16
12 15 20
12 15 20
11 14 18
12 14 18
12 15 19
12 15 19
13 16 20
11 14 17
13 16 20
12 15 20
12 14 19
13 16 21
14 17 21
12 15 20
12 15 19
10 13 17
66 80 99
174 207 255
174 207 255
174 207 255
174 207 255
175 207 255
175 207 255
175 207 255
175 207 255
175 207 255
175 207 255
175 207 255
175 207 255
175 207 255
175 207 255
175 207 255
175 207 255
175 207 255
175 207 255
175 207 255
175 207 255
175 207 255
176 208 255
176 208 255
176 208 255
176 208 255
176 208 255
176 208 255
176 208 255
176 208 255
176 208 255
176 208 255
176 208 255
176 208 255
176 208 255
176 208 255
176 208 255
176 208 255
177 208 255
177 208 255
177 208 255
177 208 255
177 208 255
177 208 255
177 208 255
177 208 255
177 208 255
177 208 255
177 208 255
177 209 255
177 209 255
177 209 255
177 209 255
177 209 255
178 209 255
178 209 255
178 209 255
178 209 255
178 209 255
178 209 255
178 209 255
178 209 255
178 209 255
178 209 255
178 209 255
178 209 255
178 209 255
178 209 255
178 209 255
178 209 255
178 209 255
178 209 255
179 209 255
179 209 255
179 209 255
179 209 255
179 209 255
179 209 255
179 210 255
179 210 255
179 210 255
179 210 255
179 210 255
179 210 255
179 210 255
179 210 255
179 210 255
179 210 255
179 210 255
179 210 255
179 210 255
180 210 255
180 210 255
180 210 255
180 210 255
180 210 255
180 210 255
180 210 255
180 210 255
180 210 255
180 210 255
180 210 255
180 210 255
180 210 255
180 210 255
180 210 255
180 210 255
180 210 255
180 210 255
180 210 255
180 210 255
180 210 255
181 211 255
181 211 255
181 211 255
181 211 255
181 211 255
181 211 255
181 211 255
181 211 255
181 211 255
181 211 255
181 211 255
181 211 255
181 211 255
181 211 255
181 211 255
181 211 255
181 211 255
181 211 255
181 211 255
181 211 255
181 211 255
181 211 255
181 211 255
181 211 255
181 211 255
182 211 255
182 211 255
182 211 255
182 211 255
182 211 255
182 211 255
182 211 255
182 211 255
182 211 255
182 211 255
182 211 255
182 211 255
182 211 255
182 211 255
182 211 255
182 211 255
182 211 255
182 211 255
182 211 255
182 211 255
182 211 255
182 211 255
182 211 255
182 211 255
182 211 255
182 211 255
181 211 255
181 211 255
181 211 255
181 211 255
181 211 255
181 211 255
181 211 255
181 211 255
181 211 255
181 211 255
181 211 255
181 211 255
181 211 255
181 211 255
181 211 255
181 211 255
181 211 255
181 211 255
181 211 255
181 211 255
181 211 255
181 211 255
181 211 255
181 211 255
180 210 255
180 210 255
180 210 255
180 210 255
180 210 255
180 210 255
180 210 255
180 210 255
180 210 255
180 210 255
180 210 255
180 210 255
180 210 255
180 210 255
180 210 255
180 210 255
180 210 255
180 210 255
180 210 255
180 210 255
180 210 255
179 210 255
179 210 255
179 210 255
179 210 255
179 210 255
179 210 255
179 210 255
179 210 255
179 210 255
179 210 255
179 210 255
179 210 255
179 210 255
179 209 255
179 209 255
179 209 255
179 209 255
179 209 255
179 209 255
178 209 255
178 209 255
178 209 255
178 209 255
178 209 255
178 209 255
178 209 255
178 209 255
178 209 255
178 209 255
178 209 255
178 209 255
178 209 255
178 209 255
178 209 255
178 209 255
178 209 255
177 209 255
177 209 255
177 209 255
177 209 255
177 209 255
177 209 255
177 208 255
177 208 255
177 208 255
177 208 255
177 208 255
177 208 255
177 208 255
177 208 255
177 208 255
177 208 255
177 208 255
176 208 255
176 208 255
176 208 255
176 208 255
176 208 255
176 208 255
176 208 255
176 208 255
176 208 255
176 208 255
176 208 255
176 208 255
176 208 255
176 208 255
176 208 255
176 208 255
175 207 255
175 207 255
175 207 255
175 207 255
175 207 255
175 207 255
175 207 255
175 207 255
175 207 255
175 207 255
175 207 255
175 207 255
175 207 255
121 144 178
12 15 20
13 16 20
13 16 20
12 15 19
12 15 20
14 17 22
12 16 20
13 16 20
13 16 21
11 13 17
12 15 20
12 14 19
13 16 20
12 15 19
12 15 19
12 15 20
12 15 19
12 14 19
11 14 18
10 13 16
12 15 20
12 15 20
10 13 17
12 15 19
13 17 21
11 14 18
12 14 18
12 15 20
11 14 17
10 12 16
11 13 17
11 14 18
11 14 17
13 15 20
13 16 20
14 17 22
13 16 20
11 13 17
11 14 18
12 15 19
13 16 20
11 14 18
13 17 21
12 15 19
13 16 20
12 15 19
12 15 19
13 16 21
11 14 18
13 16 20
11 14 18
12 14 19
11 14 18
12 15 19
11 14 18
12 14 18
12 16 20
11 14 18
12 14 19
12 15 20
12 14 18
11 14 17
12 15 19
13 16 20
11 14 18
11 13 17
11 13 17
11 14 17
12 14 18
11 13 17
12 15 20
11 14 18
12 15 20
11 13 17
13 16 20
12 15 19
12 15 19
11 14 18
11 13 17
13 16 20
12 15 20
11 14 18
12 15 19
13 15 19
13 16 20
12 15 19
12 14 18
13 16 21
12 15 19
12 14 19
13 16 21
12 15 19
9 12 15
12 15 19
12 14 18
13 16 20
13 16 20
12 15 19
13 16 20
12 15 19
13 16 20
12 15 20
13 16 20
12 15 20
12 15 19
12 15 20
12 15 20
13 16 20
13 16 21
12 15 20
126 149 185
175 207 255
175 207 255
175 207 255
175 207 255
175 207 255
175 207 255
175 207 255
175 207 255
175 207 255
175 207 255
175 207 255
175 207 255
176 208 255
176 208 255
176 208 255
176 208 255
176 208 255
176 208 255
176 208 255
176 208 255
176 208 255
176 208 255
176 208 255
176 208 255
176 208 255
176 208 255
176 208 255
176 208 255
176 208 255
177 208 255
177 208 255
177 208 255
177 208 255
177 208 255
177 208 255
177 208 255
177 208 255
177 208 255
177 208 255
177 208 255
177 209 255
177 209 255
177 209 255
177 209 255
177 209 255
178 209 255
178 209 255
178 209 255
178 209 255
178 209 255
178 209 255
178 209 255
178 209 255
178 209 255
178 209 255
178 209 255
178 209 255
178 209 255
178 209 255
178 209 255
178 209 255
178 209 255
178 209 255
178 209 255
179 209 255
179 209 255
179 209 255
179 209 255
179 209 255
179 210 255
179 210 255
179 210 255
179 210 255
179 210 255
179 210 255
179 210 255
179 210 255
179 210 255
179 210 255
179 210 255
179 210 255
179 210 255
180 210 255
180 210 255
180 210 255
180 210 255
180 210 255
180 210 255
180 210 255
180 210 255
180 210 255
180 210 255
180 210 255
180 210 255
180 210 255
180 210 255
180 210 255
180 210 255
180 210 255
180 210 255
180 210 255
180 210 255
180 210 255
181 211 255
181 211 255
181 211 255
181 211 255
181 211 255
181 211 255
181 211 255
181 211 255
181 211 255
181 211 255
181 211 255
181 211 255
181 211 255
181 211 255
181 211 255
181 211 255
181 211 255
181 211 255
181 211 255
181 211 255
181 211 255
181 211 255
181 211 255
181 211 255
182 211 255
182 211 255
182 211 255
182 211 255
182 211 255
182 211 255
182 211 255
182 211 255
182 211 255
182 211 255
182 211 255
182 211 255
182 211 255
182 211 255
182 211 255
182 211 255
182 211 255
182 212 255
182 212 255
182 212 255
182 212 255
182 212 255
182 212 255
182 211 255
182 211 255
182 211 255
182 211 255
182 211 255
182 211 255
182 211 255
182 211 255
182 211 255
182 211 255
182 211 255
182 211 255
182 211 255
182 211 255
182 211 255
182 211 255
182 211 255
182 211 255
181 211 255
181 211 255
181 211 255
181 211 255
181 211 255
181 211 255
181 211 255
181 211 255
181 211 255
181 211 255
181 211 255
181 211 255
181 211 255
181 211 255
181 211 255
181 211 255
181 211 255
181 211 255
181 211 255
181 211 255
181 211 255
181 211 255
181 211 255
181 211 255
180 210 255
180 210 255
180 210 255
180 210 255
180 210 255
180 210 255
180 210 255
180 210 255
180 210 255
180 210 255
180 210 255
180 210 255
180 210 255
180 210 255
180 210 255
180 210 255
180 210 255
180 210 255
180 210 255
180 210 255
180 210 255
179 210 255
179 210 255
179 210 255
179 210 255
179 210 255
179 210 255
179 210 255
179 210 255
179 210 255
179 210 255
179 210 255
179 210 255
179 210 255
179 209 255
179 209 255
179 209 255
179 209 255
179 209 255
179 209 255
178 209 255
178 209 255
178 209 255
178 209 255
178 209 255
178 209 255
178 209 255
178 209 255
178 209 255
178 209 255
178 209 255
178 209 255
178 209 255
178 209 255
178 209 255
178 209 255
178 209 255
177 209 255
177 209 255
177 209 255
177 209 255
177 209 255
177 208 255
177 208 255
177 208 255
177 208 255
177 208 255
177 208 255
177 208 255
177 208 255
177 208 255
177 208 255
177 208 255
177 208 255
176 208 255
176 208 255
176 208 255
176 208 255
176 208 255
176 208 255
176 208 255
176 208 255
176 208 255
176 208 255
176 208 255
176 208 255
176 208 255
176 208 255
176 208 255
176 208 255
176 208 255
175 207 255
175 207 255
175 207 255
175 207 255
169 200 246
30 36 45
13 15 20
12 14 18
13 16 21
10 13 17
13 16 21
13 16 20
13 16 21
12 15 20
12 14 19
14 17 22
12 15 20
11 14 18
13 16 20
12 14 19
12 15 20
13 16 20
12 15 20
12 15 19
12 15 19
12 15 19
11 13 17
12 15 19
13 16 20
13 15 20
13 16 20
12 15 19
12 14 19
12 14 19
12 15 19
13 15 20
12 15 19
12 14 19
12 15 19
13 16 20
12 15 20
12 15 20
11 13 17
12 15 20
12 15 19
12 15 20
12 15 19
12 15 19
12 15 19
13 16 21
12 15 19
12 15 20
12 15 20
12 15 20
12 15 19
11 14 18
12 14 19
10 13 17
12 15 19
11 14 18
12 15 19
12 15 19
12 14 18
12 15 19
12 15 19
12 15 20
12 14 18
11 14 18
11 14 18
11 14 18
11 14 17
12 15 19
12 14 18
11 14 17
12 15 19
12 15 19
12 15 20
11 14 17
11 14 18
12 15 20
11 13 17
12 15 20
12 15 19
12 15 19
11 14 18
12 14 19
11 14 17
12 14 18
12 15 19
12 14 19
13 16 20
13 16 20
13 15 20
12 15 20
11 14 18
12 15 19
12 15 19
11 14 18
12 15 19
11 14 18
12 15 19
13 16 20
12 15 19
12 14 19
11 14 18
12 15 20
12 15 19
11 14 18
12 15 20
12 15 19
12 15 19
12 15 19
13 16 21
13 16 21
12 15 19
12 15 20
30 36 46
169 200 246
175 207 255
175 207 255
175 207 255
176 208 255
176 208 255
176 208 255
176 208 255
176 208 255
176 208 255
176 208 255
176 208 255
176 208 255
176 208 255
176 208 255
176 208 255
176 208 255
176 208 255
176 208 255
176 208 255
176 208 255
176 208 255
177 208 255
177 208 255
177 208 255
177 208 255
177 208 255
177 208 255
177 208 255
177 208 255
177 208 255
177 208 255
177 208 255
177 209 255
177 209 255
177 209 255
177 209 255
177 209 255
177 209 255
178 209 255
178 209 255
178 209 255
178 209 255
178 209 255
178 209 255
178 209 255
178 209 255
178 209 255
178 209 255
178 209 255
178 209 255
178 209 255
178 209 255
178 209 255
178 209 255
178 209 255
179 209 255
179 209 255
179 209 255
179 209 255
179 209 255
179 209 255
179 210 255
179 210 255
179 210 255
179 210 255
179 210 255
179 210 255
179 210 255
179 210 255
179 210 255
179 210 255
179 210 255
179 210 255
179 210 255
180 210 255
180 210 255
180 210 255
180 210 255
180 210 255
180 210 255
180 210 255
180 210 255
180 210 255
180 210 255
180 210 255
180 210 255
180 210 255
180 210 255
180 210 255
180 210 255
180 210 255
180 210 255
180 210 255
180 210 255
180 210 255
181 211 255
181 211 255
181 211 255
181 211 255
181 211 255
181 211 255
181 211 255
181 211 255
181 211 255
181 211 255
181 211 255
181 211 255
181 211 255
181 211 255
181 211 255
181 211 255
181 211 255
181 211 255
181 211 255
181 211 255
181 211 255
181 211 255
181 211 255
181 211 255
182 211 255
182 211 255
182 211 255
182 211 255
182 211 255
182 211 255
182 211 255
182 211 255
182 211 255
182 211 255
182 211 255
182 211 255
182 211 255
182 211 255
182 211 255
182 211 255
182 211 255
182 211 255
182 212 255
182 212 255
182 212 255
182 212 255
182 212 255
182 212 255
183 212 255
183 212 255
183 212 255
183 212 255
183 212 255
182 212 255
182 212 255
182 212 255
182 212 255
182 212 255
182 212 255
182 212 255
182 212 255
182 212 255
182 211 255
182 211 255
182 211 255
182 211 255
182 211 255
182 211 255
182 211 255
182 211 255
182 211 255
182 211 255
182 211 255
182 211 255
182 211 255
182 211 255
182 211 255
182 211 255
182 211 255
182 211 255
181 211 255
181 211 255
181 211 255
181 211 255
181 211 255
181 211 255
181 211 255
181 211 255
181 211 255
181 211 255
181 211 255
181 211 255
181 211 255
181 211 255
181 211 255
181 211 255
181 211 255
181 211 255
181 211 255
181 211 255
181 211 255
181 211 255
181 211 255
180 210 255
180 210 255
180 210 255
180 210 255
180 210 255
180 210 255
180 210 255
180 210 255
180 210 255
180 210 255
180 210 255
180 210 255
180 210 255
180 210 255
180 210 255
180 210 255
180 210 255
180 210 255
180 210 255
180 210 255
180 210 255
179 210 255
179 210 255
179 210 255
179 210 255
179 210 255
179 210 255
179 210 255
179 210 255
179 210 255
179 210 255
179 210 255
179 210 255
179 209 255
179 209 255
179 209 255
179 209 255
179 209 255
179 209 255
178 209 255
178 209 255
178 209 255
178 209 255
178 209 255
178 209 255
178 209 255
178 209 255
178 209 255
178 209 255
178 209 255
178 209 255
178 209 255
178 209 255
178 209 255
178 209 255
178 209 255
178 209 255
177 209 255
177 209 255
177 209 255
177 209 255
177 209 255
177 209 255
177 208 255
177 208 255
177 208 255
177 208 255
177 208 255
177 208 255
177 208 255
177 208 255
177 208 255
177 208 255
177 208 255
177 208 255
176 208 255
176 208 255
176 208 255
176 208 255
176 208 255
176 208 255
176 208 255
176 208 255
176 208 255
176 208 255
176 208 255
176 208 255
176 208 255
95 112 138
12 15 20
12 15 19
12 14 18
13 16 20
11 14 19
12 15 19
11 14 18
12 15 20
12 15 19
11 14 18
11 14 18
12 15 19
12 15 20
13 16 20
12 15 19
11 13 17
12 14 19
13 16 20
11 13 17
12 15 20
12 15 19
11 13 17
12 15 19
12 15 20
11 14 18
12 15 20
11 14 18
12 14 18
12 14 18
12 14 18
12 15 19
12 14 18
10 13 17
11 14 18
11 14 17
11 14 18
12 15 19
11 13 17
12 14 18
13 16 20
11 14 17
12 14 18
12 14 18
11 13 17
10 12 16
11 14 18
12 14 19
11 14 18
11 14 17
11 14 18
11 14 18
11 14 17
12 15 19
11 14 18
12 15 19
13 16 21
12 15 20
12 14 18
12 15 19
12 15 20
12 14 18
11 14 18
12 15 19
11 14 18
11 14 19
11 14 18
12 14 18
12 15 20
12 14 18
12 15 20
11 14 18
11 14 18
11 14 18
13 16 21
11 14 18
11 14 18
12 15 19
11 13 17
12 15 20
11 13 17
11 14 18
12 15 19
13 15 20
12 15 19
11 13 17
11 14 18
11 14 18
12 14 18
12 15 19
12 15 19
12 14 19
12 15 19
12 15 20
12 15 20
12 15 19
13 16 20
12 15 20
10 12 16
12 15 19
13 16 20
12 14 18
12 15 19
12 15 19
12 15 19
13 16 20
12 15 19
13 16 20
12 15 19
12 15 19
12 14 19
11 14 19
13 16 20
92 110 135
176 208 255
176 208 255
176 208 255
176 208 255
176 208 255
176 208 255
176 208 255
176 208 255
176 208 255
176 208 255
176 208 255
176 208 255
176 208 255
177 208 255
177 208 255
177 208 255
177 208 255
177 208 255
177 208 255
177 208 255
177 208 255
177 208 255
177 208 255
177 208 255
177 208 255
177 209 255
177 209 255
177 209 255
177 209 255
177 209 255
177 209 255
178 209 255
178 209 255
178 209 255
178 209 255
178 209 255
178 209 255
178 209 255
178 209 255
178 209 255
178 209 255
178 209 255
178 209 255
178 209 255
178 209 255
178 209 255
178 209 255
178 209 255
178 209 255
179 209 255
179 209 255
179 209 255
179 209 255
179 209 255
179 209 255
179 210 255
179 210 255
179 210 255
179 210 255
179 210 255
179 210 255
179 210 255
179 210 255
179 210 255
179 210 255
179 210 255
179 210 255
179 210 255
180 210 255
180 210 255
180 210 255
180 210 255
180 210 255
180 210 255
180 210 255
180 210 255
180 210 255
180 210 255
180 210 255
180 210 255
180 210 255
180 210 255
180 210 255
180 210 255
180 210 255
180 210 255
180 210 255
180 210 255
181 211 255
181 211 255
181 211 255
181 211 255
181 211 255
181 211 255
181 211 255
181 211 255
181 211 255
181 211 255
181 211 255
181 211 255
181 211 255
181 211 255
181 211 255
181 211 255
181 211 255
181 211 255
181 211 255
181 211 255
181 211 255
181 211 255
181 211 255
182 211 255
182 211 255
182 211 255
182 211 255
182 211 255
182 211 255
182 211 255
182 211 255
182 211 255
182 211 255
182 211 255
182 211 255
182 211 255
182 211 255
182 211 255
182 211 255
182 211 255
182 212 255
182 212 255
182 212 255
182 212 255
182 212 255
182 212 255
182 212 255
182 212 255
182 212 255
182 212 255
183 212 255
183 212 255
183 212 255
183 212 255
183 212 255
183 212 255
183 212 255
183 212 255
183 212 255
183 212 255
183 212 255
183 212 255
183 212 255
183 212 255
183 212 255
183 212 255
183 212 255
183 212 255
182 212 255
182 212 255
182 212 255
182 212 255
182 212 255
182 212 255
182 212 255
182 212 255
182 212 255
182 211 255
182 211 255
182 211 255
182 211 255
182 211 255
182 211 255
182 211 255
182 211 255
182 211 255
182 211 255
182 211 255
182 211 255
182 211 255
182 211 255
182 211 255
182 211 255
182 211 255
182 211 255
181 211 255
181 211 255
181 211 255
181 211 255
181 211 255
181 211 255
181 211 255
181 211 255
181 211 255
181 211 255
181 211 255
181 211 255
181 211 255
181 211 255
181 211 255
181 211 255
181 211 255
181 211 255
181 211 255
181 211 255
181 211 255
181 211 255
180 210 255
180 210 255
180 210 255
180 210 255
180 210 255
180 210 255
180 210 255
180 210 255
180 210 255
180 210 255
180 210 255
180 210 255
180 210 255
180 210 255
180 210 255
180 210 255
180 210 255
180 210 255
180 210 255
180 210 255
180 210 255
179 210 255
179 210 255
179 210 255
179 210 255
179 210 255
179 210 255
179 210 255
179 210 255
179 210 255
179 210 255
179 210 255
179 210 255
179 210 255
179 209 255
179 209 255
179 209 255
179 209 255
179 209 255
179 209 255
178 209 255
178 209 255
178 209 255
178 209 255
178 209 255
178 209 255
178 209 255
178 209 255
178 209 255
178 209 255
178 209 255
178 209 255
178 209 255
178 209 255
178 209 255
178 209 255
178 209 255
177 209 255
177 209 255
177 209 255
177 209 255
177 209 255
177 209 255
177 208 255
177 208 255
177 208 255
177 208 255
177 208 255
177 208 255
177 208 255
177 208 255
177 208 255
177 208 255
177 208 255
177 208 255
177 208 255
176 208 255
176 208 255
176 208 255
176 208 255
156 185 227
18 21 27
12 15 20
13 16 21
12 16 20
12 15 20
13 16 20
11 14 18
12 15 20
13 16 20
11 14 18
12 15 19
11 14 18
11 14 17
12 14 18
11 14 17
11 14 17
11 14 18
12 14 18
11 14 17
12 15 20
12 14 19
12 15 19
13 16 20
12 15 20
11 14 18
12 15 20
12 14 19
11 14 18
12 15 19
12 15 19
11 13 17
11 14 18
12 15 19
11 14 18
12 15 19
13 16 20
12 15 20
11 14 18
12 15 19
12 15 19
12 14 19
11 14 18
11 14 18
12 15 20
12 15 19
11 14 18
13 16 20
12 15 19
11 14 17
12 14 18
10 13 17
11 14 17
13 16 20
11 14 17
12 15 19
11 14 18
11 14 17
11 14 18
12 15 19
12 15 19
12 14 18
11 14 18
12 15 19
13 15 20
12 15 20
12 15 19
12 14 18
10 12 16
11 14 17
12 15 19
11 13 17
11 14 18
11 14 18
12 15 19
11 14 18
12 15 19
12 15 19
12 15 20
12 15 19
11 14 18
12 15 19
11 13 17
11 14 18
11 14 18
12 15 20
12 14 18
11 14 19
10 12 16
12 15 20
12 14 18
12 15 20
11 14 18
12 14 19
12 15 19
11 14 18
12 15 20
12 15 19
11 14 18
12 15 19
10 12 16
12 15 19
12 15 20
12 15 19
12 15 20
12 15 19
12 15 19
12 14 18
11 13 17
12 15 19
13 16 20
11 14 18
12 15 19
13 15 20
22 26 33
166 196 241
176 208 255
176 208 255
176 208 255
176 208 255
177 208 255
177 208 255
177 208 255
177 208 255
177 208 255
177 208 255
177 208 255
177 208 255
177 208 255
177 208 255
177 208 255
177 208 255
177 209 255
177 209 255
177 209 255
177 209 255
177 209 255
177 209 255
178 209 255
178 209 255
178 209 255
178 209 255
178 209 255
178 209 255
178 209 255
178 209 255
178 209 255
178 209 255
178 209 255
178 209 255
178 209 255
178 209 255
178 209 255
178 209 255
178 209 255
178 209 255
179 209 255
179 209 255
179 209 255
179 209 255
179 209 255
179 209 255
179 209 255
179 210 255
179 210 255
179 210 255
179 210 255
179 210 255
179 210 255
179 210 255
179 210 255
179 210 255
179 210 255
179 210 255
179 210 255
180 210 255
180 210 255
180 210 255
180 210 255
180 210 255
180 210 255
180 210 255
180 210 255
180 210 255
180 210 255
180 210 255
180 210 255
180 210 255
180 210 255
180 210 255
180 210 255
180 210 255
180 210 255
180 210 255
180 210 255
181 211 255
181 211 255
181 211 255
181 211 255
181 211 255
181 211 255
181 211 255
181 211 255
181 211 255
181 211 255
181 211 255
181 211 255
181 211 255
181 211 255
181 211 255
181 211 255
181 211 255
181 211 255
181 211 255
181 211 255
181 211 255
181 211 255
181 211 255
182 211 255
182 211 255
182 211 255
182 211 255
182 211 255
182 211 255
182 211 255
182 211 255
182 211 255
182 211 255
182 211 255
182 211 255
182 211 255
182 211 255
182 211 255
182 211 255
182 211 255
182 212 255
182 212 255
182 212 255
182 212 255
182 212 255
182 212 255
182 212 255
182 212 255
182 212 255
182 212 255
183 212 255
183 212 255
183 212 255
183 212 255
183 212 255
183 212 255
183 212 255
183 212 255
183 212 255
183 212 255
183 212 255
183 212 255
183 212 255
183 212 255
183 212 255
183 212 255
183 212 255
183 212 255
183 212 255
183 212 255
183 212 255
183 212 255
183 212 255
183 212 255
183 212 255
183 212 255
183 212 255
183 212 255
183 212 255
183 212 255
183 212 255
183 212 255
183 212 255
183 212 255
183 212 255
182 212 255
182 212 255
182 212 255
182 212 255
182 212 255
182 212 255
182 212 255
182 212 255
182 212 255
182 211 255
182 211 255
182 211 255
182 211 255
182 211 255
182 211 255
182 211 255
182 211 255
182 211 255
182 211 255
182 211 255
182 211 255
182 211 255
182 211 255
182 211 255
182 211 255
181 211 255
181 211 255
181 211 255
181 211 255
181 211 255
181 211 255
181 211 255
181 211 255
181 211 255
181 211 255
181 211 255
181 211 255
181 211 255
181 211 255
181 211 255
181 211 255
181 211 255
181 211 255
181 211 255
181 211 255
181 211 255
181 211 255
181 211 255
180 210 255
180 210 255
180 210 255
180 210 255
180 210 255
180 210 255
180 210 255
180 210 255
180 210 255
180 210 255
180 210 255
180 210 255
180 210 255
180 210 255
180 210 255
180 210 255
180 210 255
180 210 255
180 210 255
180 210 255
179 210 255
179 210 255
179 210 255
179 210 255
179 210 255
179 210 255
179 210 255
179 210 255
179 210 255
179 210 255
179 210 255
179 210 255
179 210 255
179 209 255
179 209 255
179 209 255
179 209 255
179 209 255
179 209 255
178 209 255
178 209 255
178 209 255
178 209 255
178 209 255
178 209 255
178 209 255
178 209 255
178 209 255
178 209 255
178 209 255
178 209 255
178 209 255
178 209 255
178 209 255
178 209 255
178 209 255
178 209 255
177 209 255
177 209 255
177 209 255
177 209 255
177 209 255
177 209 255
177 209 255
177 208 255
177 208 255
177 208 255
177 208 255
177 208 255
177 208 255
177 208 255
177 208 255
66 78 97
12 16 20
12 15 19
12 15 19
12 15 20
12 15 19
12 15 19
12 15 19
13 16 20
11 14 18
11 13 17
11 13 17
12 15 20
12 14 19
11 14 18
12 15 19
11 13 17
12 15 19
12 15 19
11 13 17
11 14 18
11 14 18
11 14 18
12 14 19
12 15 20
12 15 19
12 15 19
12 15 19
11 13 17
12 15 19
12 15 19
13 15 20
11 14 18
11 14 18
11 14 18
13 15 20
12 15 19
12 15 20
12 14 18
11 13 17
12 15 19
13 16 20
11 14 18
13 16 20
12 14 18
12 14 18
12 15 19
11 14 18
12 14 19
11 14 18
12 15 20
12 15 19
12 14 18
12 15 19
11 14 18
11 13 17
11 14 18
12 15 19
12 14 18
13 16 20
10 12 16
11 13 17
11 14 18
11 14 18
12 15 19
12 15 20
11 14 18
11 13 17
12 14 19
12 15 19
12 14 18
11 14 18
12 15 20
10 13 17
12 15 19
12 15 19
12 15 19
11 14 18
12 14 19
10 13 17
12 15 20
11 14 18
11 14 18
12 15 19
12 14 18
11 14 17
12 14 18
12 15 19
12 15 19
11 14 18
12 15 19
12 15 19
13 16 20
11 14 18
11 14 18
12 15 20
11 13 17
13 16 20
12 15 19
12 15 20
11 14 18
12 14 19
12 14 18
12 14 18
11 14 18
11 13 17
12 15 19
11 14 18
11 14 18
13 16 20
13 16 20
11 14 18
12 15 20
12 15 20
12 15 19
80 95 117
177 208 255
177 208 255
177 208 255
177 208 255
177 208 255
177 208 255
177 208 255
177 208 255
177 209 255
177 209 255
177 209 255
177 209 255
177 209 255
177 209 255
178 209 255
178 209 255
178 209 255
178 209 255
178 209 255
178 209 255
178 209 255
178 209 255
178 209 255
178 209 255
178 209 255
178 209 255
178 209 255
178 209 255
178 209 255
178 209 255
178 209 255
178 209 255
178 209 255
179 209 255
179 209 255
179 209 255
179 209 255
179 209 255
179 209 255
179 210 255
179 210 255
179 210 255
179 210 255
179 210 255
179 210 255
179 210 255
179 210 255
179 210 255
179 210 255
179 210 255
179 210 255
179 210 255
180 210 255
180 210 255
180 210 255
180 210 255
180 210 255
180 210 255
180 210 255
180 210 255
180 210 255
180 210 255
180 210 255
180 210 255
180 210 255
180 210 255
180 210 255
180 210 255
180 210 255
180 210 255
180 210 255
180 210 255
181 211 255
181 211 255
181 211 255
181 211 255
181 211 255
181 211 255
181 211 255
181 211 255
181 211 255
181 211 255
181 211 255
181 211 255
181 211 255
181 211 255
181 211 255
181 211 255
181 211 255
181 211 255
181 211 255
181 211 255
181 211 255
181 211 255
182 211 255
182 211 255
182 211 255
182 211 255
182 211 255
182 211 255
182 211 255
182 211 255
182 211 255
182 211 255
182 211 255
182 211 255
182 211 255
182 211 255
182 211 255
182 211 255
182 211 255
182 211 255
182 212 255
182 212 255
182 212 255
182 212 255
182 212 255
182 212 255
182 212 255
182 212 255
182 212 255
183 212 255
183 212 255
183 212 255
183 212 255
183 212 255
183 212 255
183 212 255
183 212 255
183 212 255
183 212 255
183 212 255
183 212 255
183 212 255
183 212 255
183 212 255
183 212 255
183 212 255
183 212 255
183 212 255
183 212 255
183 212 255
183 212 255
183 212 255
183 212 255
183 212 255
183 212 255
183 212 255
183 212 255
183 212 255
183 212 255
183 212 255
183 212 255
183 212 255
183 212 255
183 212 255
183 212 255
183 212 255
183 212 255
183 212 255
183 212 255
183 212 255
183 212 255
183 212 255
183 212 255
183 212 255
183 212 255
183 212 255
183 212 255
183 212 255
183 212 255
183 212 255
182 212 255
182 212 255
182 212 255
182 212 255
182 212 255
182 212 255
182 212 255
182 212 255
182 211 255
182 211 255
182 211 255
182 211 255
182 211 255
182 211 255
182 211 255
182 211 255
182 211 255
182 211 255
182 211 255
182 211 255
182 211 255
182 211 255
182 211 255
182 211 255
182 211 255
181 211 255
181 211 255
181 211 255
181 211 255
181 211 255
181 211 255
181 211 255
181 211 255
181 211 255
181 211 255
181 211 255
181 211 255
181 211 255
181 211 255
181 211 255
181 211 255
181 211 255
181 211 255
181 211 255
181 211 255
181 211 255
181 211 255
181 211 255
180 210 255
180 210 255
180 210 255
180 210 255
180 210 255
180 210 255
180 210 255
180 210 255
180 210 255
180 210 255
180 210 255
180 210 255
180 210 255
180 210 255
180 210 255
180 210 255
180 210 255
180 210 255
180 210 255
180 210 255
179 210 255
179 210 255
179 210 255
179 210 255
179 210 255
179 210 255
179 210 255
179 210 255
179 210 255
179 210 255
179 210 255
179 210 255
179 209 255
179 209 255
179 209 255
179 209 255
179 209 255
179 209 255
179 209 255
178 209 255
178 209 255
178 209 255
178 209 255
178 209 255
178 209 255
178 209 255
178 209 255
178 209 255
178 209 255
178 209 255
178 209 255
178 209 255
178 209 255
178 209 255
178 209 255
178 209 255
178 209 255
178 209 255
177 209 255
177 209 255
177 209 255
177 209 255
177 209 255
148 174 214
12 15 20
11 14 18
11 13 17
14 17 21
12 15 19
12 15 19
11 14 18
11 14 18
11 14 18
12 14 18
12 14 19
12 15 19
12 14 19
12 15 19
12 15 19
12 15 20
13 16 20
13 16 21
11 13 17
12 15 19
11 14 18
12 15 19
12 15 19
11 14 17
9 12 15
12 14 18
10 13 16
12 15 19
12 14 19
11 14 18
12 14 18
11 14 18
11 14 18
12 15 19
12 14 18
12 15 19
12 15 19
12 15 19
11 13 17
11 14 18
12 15 19
11 14 18
11 14 18
11 13 17
12 15 19
12 15 20
12 15 19
11 14 19
12 14 18
12 14 18
11 14 17
10 13 17
13 16 20
12 14 18
12 15 20
13 15 20
12 14 19
12 15 19
12 15 19
11 14 18
11 14 18
12 14 19
12 15 19
12 14 18
12 14 18
13 16 20
12 14 18
12 14 18
11 14 17
11 14 18
12 14 18
12 15 19
13 16 20
12 15 18
10 13 17
11 14 18
12 15 19
12 15 19
11 14 18
12 15 20
13 16 20
12 15 19
12 14 18
12 15 19
12 15 19
10 13 17
12 15 19
12 14 19
12 15 19
12 14 19
12 15 20
12 15 19
12 15 19
12 15 19
11 14 18
12 15 19
12 15 19
9 11 15
13 16 20
10 12 16
12 15 19
12 15 19
11 14 18
12 15 20
13 16 20
12 15 20
11 13 17
13 16 20
11 13 17
13 17 21
12 14 18
12 15 19
12 15 19
12 15 19
12 15 19
16 19 25
146 171 210
177 209 255
177 209 255
177 209 255
177 209 255
177 209 255
178 209 255
178 209 255
178 209 255
178 209 255
178 209 255
178 209 255
178 209 255
178 209 255
178 209 255
178 209 255
178 209 255
178 209 255
178 209 255
178 209 255
178 209 255
178 209 255
178 209 255
178 209 255
178 209 255
179 209 255
179 209 255
179 209 255
179 209 255
179 209 255
179 209 255
179 209 255
179 210 255
179 210 255
179 210 255
179 210 255
179 210 255
179 210 255
179 210 255
179 210 255
179 210 255
179 210 255
179 210 255
179 210 255
180 210 255
180 210 255
180 210 255
180 210 255
180 210 255
180 210 255
180 210 255
180 210 255
180 210 255
180 210 255
180 210 255
180 210 255
180 210 255
180 210 255
180 210 255
180 210 255
180 210 255
180 210 255
180 210 255
180 210 255
180 210 255
181 211 255
181 211 255
181 211 255
181 211 255
181 211 255
181 211 255
181 211 255
181 211 255
181 211 255
181 211 255
181 211 255
181 211 255
181 211 255
181 211 255
181 211 255
181 211 255
181 211 255
181 211 255
181 211 255
181 211 255
181 211 255
181 211 255
182 211 255
182 211 255
182 211 255
182 211 255
182 211 255
182 211 255
182 211 255
182 211 255
182 211 255
182 211 255
182 211 255
182 211 255
182 211 255
182 211 255
182 211 255
182 211 255
182 212 255
182 212 255
182 212 255
182 212 255
182 212 255
182 212 255
182 212 255
182 212 255
182 212 255
182 212 255
183 212 255
183 212 255
183 212 255
183 212 255
183 212 255
183 212 255
183 212 255
183 212 255
183 212 255
183 212 255
183 212 255
183 212 255
183 212 255
183 212 255
183 212 255
183 212 255
183 212 255
183 212 255
183 212 255
183 212 255
183 212 255
183 212 255
183 212 255
183 212 255
183 212 255
183 212 255
183 212 255
183 212 255
183 212 255
184 212 255
184 212 255
184 212 255
184 212 255
184 212 255
184 212 255
184 212 255
184 212 255
183 212 255
183 212 255
183 212 255
183 212 255
183 212 255
183 212 255
183 212 255
183 212 255
183 212 255
183 212 255
183 212 255
183 212 255
183 212 255
183 212 255
183 212 255
183 212 255
183 212 255
183 212 255
183 212 255
183 212 255
183 212 255
183 212 255
183 212 255
183 212 255
183 212 255
183 212 255
183 212 255
183 212 255
183 212 255
183 212 255
182 212 255
182 212 255
182 212 255
182 212 255
182 212 255
182 212 255
182 212 255
182 212 255
182 212 255
182 211 255
182 211 255
182 211 255
182 211 255
182 211 255
182 211 255
182 211 255
182 211 255
182 211 255
182 211 255
182 211 255
182 211 255
182 211 255
182 211 255
182 211 255
182 211 255
181 211 255
181 211 255
181 211 255
181 211 255
181 211 255
181 211 255
181 211 255
181 211 255
181 211 255
181 211 255
181 211 255
181 211 255
181 211 255
181 211 255
181 211 255
181 211 255
181 211 255
181 211 255
181 211 255
181 211 255
181 211 255
181 211 255
181 211 255
180 210 255
180 210 255
180 210 255
180 210 255
180 210 255
180 210 255
180 210 255
180 210 255
180 210 255
180 210 255
180 210 255
180 210 255
180 210 255
180 210 255
180 210 255
180 210 255
180 210 255
180 210 255
180 210 255
180 210 255
179 210 255
179 210 255
179 210 255
179 210 255
179 210 255
179 210 255
179 210 255
179 210 255
179 210 255
179 210 255
179 210 255
179 210 255
179 210 255
179 209 255
179 209 255
179 209 255
179 209 255
179 209 255
179 209 255
179 209 255
178 209 255
178 209 255
178 209 255
178 209 255
178 209 255
178 209 255
178 209 255
178 209 255
178 209 255
178 209 255
178 209 255
178 209 255
178 209 255
178 209 255
178 209 255
60 71 88
12 15 19
11 14 18
13 16 20
12 15 19
12 14 18
12 16 20
12 15 20
12 15 19
11 14 18
11 14 18
13 15 20
11 14 18
10 13 16
13 15 20
11 13 17
11 13 17
11 14 18
12 14 18
11 14 18
10 12 16
13 16 21
13 16 20
11 13 17
11 14 17
11 13 17
11 14 17
11 14 18
12 15 19
12 14 19
10 13 17
11 14 17
12 15 19
11 14 18
12 14 18
12 14 18
11 13 17
12 15 19
12 15 19
12 15 19
11 14 18
11 13 17
11 14 18
11 14 18
13 16 20
11 14 18
11 14 18
11 13 17
12 15 19
12 15 20
10 12 16
12 15 19
11 14 18
11 13 17
11 14 18
9 11 15
10 13 17
12 15 19
11 14 18
11 14 18
12 14 19
10 13 16
11 14 17
11 14 18
12 14 18
12 15 20
11 14 18
12 15 19
10 12 16
13 16 20
11 14 18
11 14 18
12 14 19
12 15 19
12 14 18
11 13 17
10 12 16
11 14 17
11 14 18
12 15 19
12 15 19
10 12 16
11 13 17
12 15 19
12 15 20
12 15 19
12 15 19
12 15 19
11 14 18
12 14 18
12 15 19
11 13 17
11 14 18
10 13 17
12 15 20
12 15 19
12 14 19
11 14 19
12 15 20
12 14 18
11 13 17
12 15 19
12 15 19
11 14 18
11 14 18
12 15 19
12 15 19
11 13 17
12 15 19
12 15 19
11 13 17
11 13 17
13 16 21
12 15 20
12 15 20
11 14 17
12 15 20
60 71 87
178 209 255
178 209 255
178 209 255
178 209 255
178 209 255
178 209 255
178 209 255
178 209 255
178 209 255
178 209 255
178 209 255
178 209 255
178 209 255
178 209 255
178 209 255
178 209 255
179 209 255
179 209 255
179 209 255
179 209 255
179 209 255
179 209 255
179 210 255
179 210 255
179 210 255
179 210 255
179 210 255
179 210 255
179 210 255
179 210 255
179 210 255
179 210 255
179 210 255
179 210 255
179 210 255
180 210 255
180 210 255
180 210 255
180 210 255
180 210 255
180 210 255
180 210 255
180 210 255
180 210 255
180 210 255
180 210 255
180 210 255
180 210 255
180 210 255
180 210 255
180 210 255
180 210 255
180 210 255
180 210 255
180 210 255
181 211 255
181 211 255
181 211 255
181 211 255
181 211 255
181 211 255
181 211 255
181 211 255
181 211 255
181 211 255
181 211 255
181 211 255
181 211 255
181 211 255
181 211 255
181 211 255
181 211 255
181 211 255
181 211 255
181 211 255
181 211 255
181 211 255
181 211 255
182 211 255
182 211 255
182 211 255
182 211 255
182 211 255
182 211 255
182 211 255
182 211 255
182 211 255
182 211 255
182 211 255
182 211 255
182 211 255
182 211 255
182 211 255
182 211 255
182 212 255
182 212 255
182 212 255
182 212 255
182 212 255
182 212 255
182 212 255
182 212 255
182 212 255
183 212 255
183 212 255
183 212 255
183 212 255
183 212 255
183 212 255
183 212 255
183 212 255
183 212 255
183 212 255
183 212 255
183 212 255
183 212 255
183 212 255
183 212 255
183 212 255
183 212 255
183 212 255
183 212 255
183 212 255
183 212 255
183 212 255
183 212 255
183 212 255
183 212 255
183 212 255
183 212 255
183 212 255
183 212 255
183 212 255
184 212 255
184 212 255
184 212 255
184 212 255
184 212 255
184 212 255
184 212 255
184 212 255
184 213 255
184 213 255
184 213 255
184 213 255
184 213 255
184 213 255
184 213 255
184 212 255
184 212 255
184 212 255
184 212 255
184 212 255
184 212 255
184 212 255
184 212 255
184 212 255
184 212 255
184 212 255
183 212 255
183 212 255
183 212 255
183 212 255
183 212 255
183 212 255
183 212 255
183 212 255
183 212 255
183 212 255
183 212 255
183 212 255
183 212 255
183 212 255
183 212 255
183 212 255
183 212 255
183 212 255
183 212 255
183 212 255
183 212 255
183 212 255
183 212 255
183 212 255
183 212 255
183 212 255
183 212 255
183 212 255
183 212 255
182 212 255
182 212 255
182 212 255
182 212 255
182 212 255
182 212 255
182 212 255
182 212 255
182 212 255
182 211 255
182 211 255
182 211 255
182 211 255
182 211 255
182 211 255
182 211 255
182 211 255
182 211 255
182 211 255
182 211 255
182 211 255
182 211 255
182 211 255
182 211 255
182 211 255
181 211 255
181 211 255
181 211 255
181 211 255
181 211 255
181 211 255
181 211 255
181 211 255
181 211 255
181 211 255
181 211 255
181 211 255
181 211 255
181 211 255
181 211 255
181 211 255
181 211 255
181 211 255
181 211 255
181 211 255
181 211 255
181 211 255
180 210 255
180 210 255
180 210 255
180 210 255
180 210 255
180 210 255
180 210 255
180 210 255
180 210 255
180 210 255
180 210 255
180 210 255
180 210 255
180 210 255
180 210 255
180 210 255
180 210 255
180 210 255
180 210 255
180 210 255
179 210 255
179 210 255
179 210 255
179 210 255
179 210 255
179 210 255
179 210 255
179 210 255
179 210 255
179 210 255
179 210 255
179 210 255
179 210 255
179 210 255
179 209 255
179 209 255
179 209 255
179 209 255
179 209 255
179 209 255
179 209 255
178 209 255
178 209 255
178 209 255
178 209 255
178 209 255
165 194 237
14 17 22
12 15 19
12 15 19
13 16 20
12 15 20
12 15 19
10 12 16
11 14 18
11 14 18
12 15 19
12 15 19
12 15 20
11 14 18
12 14 18
12 15 19
11 13 17
11 14 18
11 14 18
11 13 17
12 15 19
11 14 18
12 15 19
11 14 18
11 13 17
12 15 19
10 13 16
13 16 20
14 17 21
9 11 15
12 14 18
12 15 19
12 15 19
11 14 18
10 13 16
11 14 18
11 13 17
12 14 18
11 13 17
10 13 17
12 14 18
12 15 19
11 14 17
12 15 19
11 13 17
12 14 18
10 13 16
11 14 18
11 13 17
11 14 17
10 12 16
11 14 17
10 13 17
11 14 18
11 14 18
12 15 19
11 14 18
11 14 18
12 14 18
10 13 16
11 13 17
11 14 17
12 15 19
11 14 18
11 13 17
10 13 16
11 14 17
10 13 16
11 14 17
11 14 18
11 14 18
12 15 19
12 15 20
12 14 19
12 14 18
11 14 18
13 15 20
10 13 17
11 14 18
12 15 19
11 14 18
12 15 19
11 14 17
10 13 17
12 15 19
11 14 18
12 15 19
12 15 19
13 16 21
12 15 19
11 13 17
11 14 17
11 14 17
12 15 19
11 13 17
11 14 18
12 15 19
11 14 18
11 14 18
10 13 17
13 16 20
11 14 18
10 12 16
11 14 19
13 16 20
11 14 18
11 13 17
11 14 18
10 12 16
13 16 20
11 14 18
10 13 17
11 14 18
12 15 19
12 15 20
11 14 18
13 15 19
12 14 18
18 22 28
162 190 232
178 209 255
178 209 255
178 209 255
178 209 255
178 209 255
179 209 255
179 209 255
179 209 255
179 209 255
179 209 255
179 209 255
179 209 255
179 210 255
179 210 255
179 210 255
179 210 255
179 210 255
179 210 255
179 210 255
179 210 255
179 210 255
179 210 255
179 210 255
179 210 255
179 210 255
179 210 255
180 210 255
180 210 255
180 210 255
180 210 255
180 210 255
180 210 255
180 210 255
180 210 255
180 210 255
180 210 255
180 210 255
180 210 255
180 210 255
180 210 255
180 210 255
180 210 255
180 210 255
180 210 255
180 210 255
180 210 255
181 211 255
181 211 255
181 211 255
181 211 255
181 211 255
181 211 255
181 211 255
181 211 255
181 211 255
181 211 255
181 211 255
181 211 255
181 211 255
181 211 255
181 211 255
181 211 255
181 211 255
181 211 255
181 211 255
181 211 255
181 211 255
181 211 255
182 211 255
182 211 255
182 211 255
182 211 255
182 211 255
182 211 255
182 211 255
182 211 255
182 211 255
182 211 255
182 211 255
182 211 255
182 211 255
182 211 255
182 211 255
182 211 255
182 211 255
182 212 255
182 212 255
182 212 255
182 212 255
182 212 255
182 212 255
182 212 255
182 212 255
183 212 255
183 212 255
183 212 255
183 212 255
183 212 255
183 212 255
183 212 255
183 212 255
183 212 255
183 212 255
183 212 255
183 212 255
183 212 255
183 212 255
183 212 255
183 212 255
183 212 255
183 212 255
183 212 255
183 212 255
183 212 255
183 212 255
183 212 255
183 212 255
183 212 255
183 212 255
183 212 255
183 212 255
183 212 255
183 212 255
184 212 255
184 212 255
184 212 255
184 212 255
184 212 255
184 212 255
184 212 255
184 212 255
184 212 255
184 212 255
184 213 255
184 213 255
184 213 255
184 213 255
184 213 255
184 213 255
184 213 255
184 213 255
184 213 255
184 213 255
184 213 255
184 213 255
184 213 255
184 213 255
184 213 255
184 213 255
184 213 255
184 213 255
184 213 255
184 213 255
184 213 255
184 213 255
184 213 255
184 212 255
184 212 255
184 212 255
184 212 255
184 212 255
184 212 255
184 212 255
184 212 255
184 212 255
184 212 255
184 212 255
183 212 255
183 212 255
183 212 255
183 212 255
183 212 255
183 212 255
183 212 255
183 212 255
183 212 255
183 212 255
183 212 255
183 212 255
183 212 255
183 212 255
183 212 255
183 212 255
183 212 255
183 212 255
183 212 255
183 212 255
183 212 255
183 212 255
183 212 255
183 212 255
183 212 255
183 212 255
183 212 255
183 212 255
183 212 255
182 212 255
182 212 255
182 212 255
182 212 255
182 212 255
182 212 255
182 212 255
182 212 255
182 211 255
182 211 255
182 211 255
182 211 255
182 211 255
182 211 255
182 211 255
182 211 255
182 211 255
182 211 255
182 211 255
182 211 255
182 211 255
182 211 255
182 211 255
182 211 255
181 211 255
181 211 255
181 211 255
181 211 255
181 211 255
181 211 255
181 211 255
181 211 255
181 211 255
181 211 255
181 211 255
181 211 255
181 211 255
181 211 255
181 211 255
181 211 255
181 211 255
181 211 255
181 211 255
181 211 255
181 211 255
181 211 255
180 210 255
180 210 255
180 210 255
180 210 255
180 210 255
180 210 255
180 210 255
180 210 255
180 210 255
180 210 255
180 210 255
180 210 255
180 210 255
180 210 255
180 210 255
180 210 255
180 210 255
180 210 255
180 210 255
180 210 255
180 210 255
179 210 255
179 210 255
179 210 255
179 210 255
179 210 255
179 210 255
179 210 255
179 210 255
179 210 255
179 210 255
179 210 255
179 210 255
179 210 255
179 210 255
179 209 255
179 209 255
179 209 255
86 102 125
12 15 19
12 15 19
12 15 20
13 16 20
12 15 20
13 16 20
11 14 18
11 13 17
12 14 19
10 12 16
12 14 19
12 15 19
12 15 20
12 14 18
10 13 17
13 16 20
11 14 18
10 13 17
13 16 20
11 14 18
11 14 18
12 15 19
12 14 18
11 13 17
11 14 18
12 14 18
12 15 19
11 13 17
12 14 19
11 13 17
13 16 21
11 13 17
12 15 19
11 14 17
11 14 18
11 14 18
11 13 17
12 14 18
10 13 16
12 15 20
11 13 17
11 14 17
11 13 17
11 14 18
10 12 16
12 15 19
11 14 18
11 14 18
11 14 18
12 15 19
12 15 19
11 14 18
12 14 18
12 15 19
11 13 17
11 13 17
10 13 17
12 14 18
11 14 18
12 15 19
12 15 19
10 13 16
11 14 18
10 13 17
11 14 18
12 14 18
10 13 17
12 14 18
13 15 20
10 13 17
12 14 19
12 14 19
12 15 19
12 15 20
11 14 18
11 14 18
12 14 19
11 13 17
12 14 18
11 14 18
11 14 17
12 14 18
10 13 16
10 13 17
11 13 17
11 14 18
11 14 18
11 14 18
11 14 18
11 14 18
11 14 17
11 14 17
10 13 17
12 14 19
11 14 18
11 14 18
12 15 19
11 14 18
12 15 19
10 12 15
10 12 15
11 14 18
11 14 18
12 15 19
12 14 19
12 15 19
12 14 18
11 14 18
12 15 19
12 15 19
12 14 19
12 15 19
12 14 18
11 14 17
11 14 18
12 14 18
12 15 19
13 16 20
100 118 144
179 209 255
179 209 255
179 209 255
179 210 255
179 210 255
179 210 255
179 210 255
179 210 255
179 210 255
179 210 255
179 210 255
179 210 255
179 210 255
179 210 255
179 210 255
179 210 255
179 210 255
180 210 255
180 210 255
180 210 255
180 210 255
180 210 255
180 210 255
180 210 255
180 210 255
180 210 255
180 210 255
180 210 255
180 210 255
180 210 255
180 210 255
180 210 255
180 210 255
180 210 255
180 210 255
180 210 255
180 210 255
180 210 255
181 211 255
181 211 255
181 211 255
181 211 255
181 211 255
181 211 255
181 211 255
181 211 255
181 211 255
181 211 255
181 211 255
181 211 255
181 211 255
181 211 255
181 211 255
181 211 255
181 211 255
181 211 255
181 211 255
181 211 255
181 211 255
181 211 255
182 211 255
182 211 255
182 211 255
182 211 255
182 211 255
182 211 255
182 211 255
182 211 255
182 211 255
182 211 255
182 211 255
182 211 255
182 211 255
182 211 255
182 211 255
182 211 255
182 212 255
182 212 255
182 212 255
182 212 255
182 212 255
182 212 255
182 212 255
182 212 255
183 212 255
183 212 255
183 212 255
183 212 255
183 212 255
183 212 255
183 212 255
183 212 255
183 212 255
183 212 255
183 212 255
183 212 255
183 212 255
183 212 255
183 212 255
183 212 255
183 212 255
183 212 255
183 212 255
183 212 255
183 212 255
183 212 255
183 212 255
183 212 255
183 212 255
183 212 255
183 212 255
183 212 255
183 212 255
184 212 255
184 212 255
184 212 255
184 212 255
184 212 255
184 212 255
184 212 255
184 212 255
184 212 255
184 212 255
184 212 255
184 213 255
184 213 255
184 213 255
184 213 255
184 213 255
184 213 255
184 213 255
184 213 255
184 213 255
184 213 255
184 213 255
184 213 255
184 213 255
184 213 255
184 213 255
184 213 255
185 213 255
185 213 255
184 213 255
184 213 255
184 213 255
184 213 255
184 213 255
184 213 255
184 213 255
184 213 255
184 213 255
184 213 255
184 213 255
184 213 255
184 213 255
184 213 255
184 213 255
184 213 255
184 213 255
184 213 255
184 213 255
184 213 255
184 213 255
184 213 255
184 213 255
184 213 255
184 212 255
184 212 255
184 212 255
184 212 255
184 212 255
184 212 255
184 212 255
184 212 255
184 212 255
184 212 255
183 212 255
183 212 255
183 212 255
183 212 255
183 212 255
183 212 255
183 212 255
183 212 255
183 212 255
183 212 255
183 212 255
183 212 255
183 212 255
183 212 255
183 212 255
183 212 255
183 212 255
183 212 255
183 212 255
183 212 255
183 212 255
183 212 255
183 212 255
183 212 255
183 212 255
183 212 255
183 212 255
183 212 255
183 212 255
182 212 255
182 212 255
182 212 255
182 212 255
182 212 255
182 212 255
182 212 255
182 212 255
182 211 255
182 211 255
182 211 255
182 211 255
182 211 255
182 211 255
182 211 255
182 211 255
182 211 255
182 211 255
182 211 255
182 211 255
182 211 255
182 211 255
182 211 255
182 211 255
181 211 255
181 211 255
181 211 255
181 211 255
181 211 255
181 211 255
181 211 255
181 211 255
181 211 255
181 211 255
181 211 255
181 211 255
181 211 255
181 211 255
181 211 255
181 211 255
181 211 255
181 211 255
181 211 255
181 211 255
181 211 255
181 211 255
180 210 255
180 210 255
180 210 255
180 210 255
180 210 255
180 210 255
180 210 255
180 210 255
180 210 255
180 210 255
180 210 255
180 210 255
180 210 255
180 210 255
180 210 255
180 210 255
180 210 255
180 210 255
180 210 255
180 210 255
180 210 255
180 210 255
179 210 255
179 210 255
179 210 255
179 210 255
179 210 255
179 210 255
174 204 249
22 26 33
12 15 19
12 15 20
13 16 20
12 15 20
11 14 18
12 15 19
12 14 19
11 13 17
10 13 16
12 14 19
12 15 20
9 12 16
11 14 18
11 14 18
11 13 17
11 13 17
11 13 17
11 13 17
11 13 17
12 15 19
11 14 18
11 13 17
10 13 17
12 15 19
11 14 18
11 13 17
11 14 18
12 15 19
11 13 17
11 13 17
11 13 17
11 13 17
12 15 19
12 14 18
11 13 17
12 15 19
11 14 18
13 16 20
12 14 19
11 14 18
12 14 18
10 13 17
10 13 17
13 16 20
11 14 18
10 13 16
12 15 20
11 14 18
12 15 20
12 15 19
12 15 19
10 13 17
10 12 16
10 13 16
12 15 19
12 15 19
11 13 17
11 13 17
11 14 17
10 13 17
10 13 17
11 14 18
11 13 17
12 14 18
10 12 15
11 14 18
11 14 18
10 12 16
10 13 17
10 12 16
11 14 17
11 14 18
11 13 17
10 13 16
11 14 18
11 13 17
12 15 19
11 13 17
11 14 17
11 14 18
12 15 19
12 15 19
12 15 20
11 14 18
11 13 17
11 14 18
11 14 18
11 13 17
12 14 19
11 14 18
11 14 18
12 15 19
13 16 21
12 15 19
11 14 18
11 13 17
11 13 17
12 15 19
12 14 18
12 15 19
12 15 19
12 15 19
11 13 17
12 14 18
11 13 17
12 14 18
10 13 17
12 14 18
12 15 19
11 13 17
11 14 17
12 14 18
12 15 19
11 13 17
12 14 18
13 17 21
12 15 19
12 15 20
27 32 40
176 206 251
179 210 255
179 210 255
179 210 255
179 210 255
179 210 255
179 210 255
180 210 255
180 210 255
180 210 255
180 210 255
180 210 255
180 210 255
180 210 255
180 210 255
180 210 255
180 210 255
180 210 255
180 210 255
180 210 255
180 210 255
180 210 255
180 210 255
180 210 255
180 210 255
180 210 255
180 210 255
180 210 255
180 210 255
181 211 255
181 211 255
181 211 255
181 211 255
181 211 255
181 211 255
181 211 255
181 211 255
181 211 255
181 211 255
181 211 255
181 211 255
181 211 255
181 211 255
181 211 255
181 211 255
181 211 255
181 211 255
181 211 255
181 211 255
181 211 255
181 211 255
182 211 255
182 211 255
182 211 255
182 211 255
182 211 255
182 211 255
182 211 255
182 211 255
182 211 255
182 211 255
182 211 255
182 211 255
182 211 255
182 211 255
182 211 255
182 211 255
182 212 255
182 212 255
182 212 255
182 212 255
182 212 255
182 212 255
182 212 255
182 212 255
183 212 255
183 212 255
183 212 255
183 212 255
183 212 255
183 212 255
183 212 255
183 212 255
183 212 255
183 212 255
183 212 255
183 212 255
183 212 255
183 212 255
183 212 255
183 212 255
183 212 255
183 212 255
183 212 255
183 212 255
183 212 255
183 212 255
183 212 255
183 212 255
183 212 255
183 212 255
183 212 255
183 212 255
183 212 255
184 212 255
184 212 255
184 212 255
184 212 255
184 212 255
184 212 255
184 212 255
184 212 255
184 212 255
184 212 255
184 213 255
184 213 255
184 213 255
184 213 255
184 213 255
184 213 255
184 213 255
184 213 255
184 213 255
184 213 255
184 213 255
184 213 255
184 213 255
184 213 255
184 213 255
184 213 255
184 213 255
184 213 255
184 213 255
184 213 255
184 213 255
184 213 255
184 213 255
185 213 255
185 213 255
185 213 255
185 213 255
185 213 255
185 213 255
185 213 255
185 213 255
185 213 255
185 213 255
185 213 255
185 213 255
185 213 255
185 213 255
185 213 255
185 213 255
184 213 255
184 213 255
184 213 255
184 213 255
184 213 255
184 213 255
184 213 255
184 213 255
184 213 255
184 213 255
184 213 255
184 213 255
184 213 255
184 213 255
184 213 255
184 213 255
184 213 255
184 213 255
184 213 255
184 213 255
184 213 255
184 213 255
184 213 255
184 212 255
184 212 255
184 212 255
184 212 255
184 212 255
184 212 255
184 212 255
184 212 255
184 212 255
184 212 255
183 212 255
183 212 255
183 212 255
183 212 255
183 212 255
183 212 255
183 212 255
183 212 255
183 212 255
183 212 255
183 212 255
183 212 255
183 212 255
183 212 255
183 212 255
183 212 255
183 212 255
183 212 255
183 212 255
183 212 255
183 212 255
183 212 255
183 212 255
183 212 255
183 212 255
183 212 255
183 212 255
183 212 255
182 212 255
182 212 255
182 212 255
182 212 255
182 212 255
182 212 255
182 212 255
182 212 255
182 211 255
182 211 255
182 211 255
182 211 255
182 211 255
182 211 255
182 211 255
182 211 255
182 211 255
182 211 255
182 211 255
182 211 255
182 211 255
182 211 255
182 211 255
182 211 255
182 211 255
181 211 255
181 211 255
181 211 255
181 211 255
181 211 255
181 211 255
181 211 255
181 211 255
181 211 255
181 211 255
181 211 255
181 211 255
181 211 255
181 211 255
181 211 255
181 211 255
181 211 255
181 211 255
181 211 255
181 211 255
181 211 255
181 211 255
180 210 255
180 210 255
180 210 255
180 210 255
180 210 255
180 210 255
180 210 255
180 210 255
180 210 255
180 210 255
180 210 255
180 210 255
180 210 255
180 210 255
180 210 255
180 210 255
180 210 255
180 210 255
103 120 147
11 14 19
13 16 20
13 16 21
12 15 20
12 15 20
12 14 19
10 13 17
12 15 19
11 14 17
12 15 19
12 14 18
12 14 18
12 15 20
12 15 19
11 14 17
10 13 17
11 14 18
12 14 18
11 14 18
10 13 16
11 14 18
10 12 16
11 13 17
11 14 18
12 14 18
12 14 18
11 14 17
11 13 17
11 14 18
12 15 19
12 15 19
12 15 19
11 13 17
10 12 15
10 13 17
11 14 18
11 13 17
12 15 20
12 15 20
10 12 16
12 15 19
12 15 19
13 15 20
10 12 16
10 13 17
11 14 17
11 13 17
11 13 17
12 14 18
12 14 18
10 13 16
11 13 17
11 14 17
11 14 18
12 15 19
10 13 17
12 14 18
10 12 16
11 13 17
10 13 17
11 13 17
11 13 17
12 14 18
11 14 18
11 14 18
11 14 18
11 14 18
11 14 18
11 14 18
11 14 18
11 14 18
12 15 20
11 14 17
10 12 16
11 14 18
10 13 16
11 13 17
11 13 17
11 14 18
12 15 19
11 14 17
12 14 19
11 14 17
11 13 17
11 13 17
12 15 19
11 13 17
11 14 18
13 15 19
12 14 18
10 13 17
10 12 15
12 15 19
11 13 17
11 13 17
11 13 17
12 15 18
11 14 17
11 13 17
12 15 19
11 13 17
11 14 18
11 14 18
10 13 17
10 13 17
11 14 18
12 15 19
11 14 18
10 13 17
11 14 17
11 14 18
11 13 17
12 15 19
12 15 19
11 13 17
11 14 17
11 14 18
12 15 19
12 14 19
11 13 17
111 130 158
180 210 255
180 210 255
180 210 255
180 210 255
180 210 255
180 210 255
180 210 255
180 210 255
180 210 255
180 210 255
180 210 255
180 210 255
180 210 255
180 210 255
180 210 255
180 210 255
180 210 255
180 210 255
181 211 255
181 211 255
181 211 255
181 211 255
181 211 255
181 211 255
181 211 255
181 211 255
181 211 255
181 211 255
181 211 255
181 211 255
181 211 255
181 211 255
181 211 255
181 211 255
181 211 255
181 211 255
181 211 255
181 211 255
181 211 255
181 211 255
181 211 255
182 211 255
182 211 255
182 211 255
182 211 255
182 211 255
182 211 255
182 211 255
182 211 255
182 211 255
182 211 255
182 211 255
182 211 255
182 211 255
182 211 255
182 211 255
182 211 255
182 212 255
182 212 255
182 212 255
182 212 255
182 212 255
182 212 255
182 212 255
182 212 255
183 212 255
183 212 255
183 212 255
183 212 255
183 212 255
183 212 255
183 212 255
183 212 255
183 212 255
183 212 255
183 212 255
183 212 255
183 212 255
183 212 255
183 212 255
183 212 255
183 212 255
183 212 255
183 212 255
183 212 255
183 212 255
183 212 255
183 212 255
183 212 255
183 212 255
183 212 255
183 212 255
183 212 255
184 212 255
184 212 255
184 212 255
184 212 255
184 212 255
184 212 255
184 212 255
184 212 255
184 212 255
184 212 255
184 213 255
184 213 255
184 213 255
184 213 255
184 213 255
184 213 255
184 213 255
184 213 255
184 213 255
184 213 255
184 213 255
184 213 255
184 213 255
184 213 255
184 213 255
184 213 255
184 213 255
184 213 255
184 213 255
184 213 255
184 213 255
184 213 255
184 213 255
185 213 255
185 213 255
185 213 255
185 213 255
185 213 255
185 213 255
185 213 255
185 213 255
185 213 255
185 213 255
185 213 255
185 213 255
185 213 255
185 213 255
185 213 255
185 213 255
185 213 255
185 213 255
185 213 255
185 213 255
185 213 255
185 213 255
185 213 255
185 213 255
185 213 255
185 213 255
185 213 255
185 213 255
185 213 255
185 213 255
185 213 255
185 213 255
185 213 255
185 213 255
185 213 255
185 213 255
185 213 255
184 213 255
184 213 255
184 213 255
184 213 255
184 213 255
184 213 255
184 213 255
184 213 255
184 213 255
184 213 255
184 213 255
184 213 255
184 213 255
184 213 255
184 213 255
184 213 255
184 213 255
184 213 255
184 213 255
184 213 255
184 213 255
184 213 255
184 213 255
184 212 255
184 212 255
184 212 255
184 212 255
184 212 255
184 212 255
184 212 255
184 212 255
184 212 255
184 212 255
183 212 255
183 212 255
183 212 255
183 212 255
183 212 255
183 212 255
183 212 255
183 212 255
183 212 255
183 212 255
183 212 255
183 212 255
183 212 255
183 212 255
183 212 255
183 212 255
183 212 255
183 212 255
183 212 255
183 212 255
183 212 255
183 212 255
183 212 255
183 212 255
183 212 255
183 212 255
183 212 255
182 212 255
182 212 255
182 212 255
182 212 255
182 212 255
182 212 255
182 212 255
182 212 255
182 211 255
182 211 255
182 211 255
182 211 255
182 211 255
182 211 255
182 211 255
182 211 255
182 211 255
182 211 255
182 211 255
182 211 255
182 211 255
182 211 255
182 211 255
182 211 255
181 211 255
181 211 255
181 211 255
181 211 255
181 211 255
181 211 255
181 211 255
181 211 255
181 211 255
181 211 255
181 211 255
181 211 255
181 211 255
181 211 255
181 211 255
181 211 255
181 211 255
181 211 255
181 211 255
181 211 255
181 211 255
181 211 255
181 211 255
181 211 255
180 210 255
180 210 255
180 210 255
180 210 255
180 210 255
180 210 255
180 210 255
44 52 64
11 13 17
12 15 19
13 16 20
11 14 18
10 13 17
12 14 18
13 16 20
11 13 17
12 14 18
10 12 16
12 15 19
11 14 18
12 15 19
11 14 18
11 13 17
12 14 19
11 13 17
10 13 17
11 14 17
11 14 18
10 13 16
13 15 20
10 13 17
11 14 17
12 15 19
12 14 18
12 15 19
12 14 18
13 15 20
11 14 18
11 14 18
11 14 18
12 14 18
11 13 17
11 14 17
13 16 20
11 13 17
12 15 19
12 14 18
11 14 18
11 13 17
12 15 19
11 14 18
12 14 18
12 15 19
10 13 17
10 12 16
12 14 18
12 14 18
11 13 17
11 14 17
11 14 18
11 14 18
11 14 17
10 13 16
11 14 18
11 14 18
11 14 17
12 14 18
12 15 19
11 14 18
12 15 19
11 14 17
11 14 17
13 16 20
11 13 17
12 15 19
11 13 17
10 13 17
12 14 18
11 14 18
11 14 18
12 15 19
10 13 17
11 13 17
11 14 17
10 12 16
12 14 19
12 15 19
11 13 17
12 14 18
11 14 17
11 13 17
12 15 19
12 14 18
12 15 19
11 14 18
10 13 17
10 12 16
10 12 16
11 13 17
13 15 20
12 14 19
11 13 17
11 14 18
11 14 18
13 16 21
10 13 17
11 14 18
12 15 19
10 12 16
11 14 17
11 14 17
11 14 18
12 15 20
11 13 17
11 14 18
12 15 19
12 14 18
11 14 18
11 14 18
10 13 17
11 13 17
13 16 20
11 13 17
11 13 17
11 14 18
12 14 18
11 14 17
12 14 19
56 66 81
180 210 255
180 210 255
180 210 255
180 210 255
180 210 255
180 210 255
180 210 255
180 210 255
181 211 255
181 211 255
181 211 255
181 211 255
181 211 255
181 211 255
181 211 255
181 211 255
181 211 255
181 211 255
181 211 255
181 211 255
181 211 255
181 211 255
181 211 255
181 211 255
181 211 255
181 211 255
181 211 255
181 211 255
181 211 255
181 211 255
181 211 255
182 211 255
182 211 255
182 211 255
182 211 255
182 211 255
182 211 255
182 211 255
182 211 255
182 211 255
182 211 255
182 211 255
182 211 255
182 211 255
182 211 255
182 211 255
182 211 255
182 212 255
182 212 255
182 212 255
182 212 255
182 212 255
182 212 255
182 212 255
182 212 255
183 212 255
183 212 255
183 212 255
183 212 255
183 212 255
183 212 255
183 212 255
183 212 255
183 212 255
183 212 255
183 212 255
183 212 255
183 212 255
183 212 255
183 212 255
183 212 255
183 212 255
183 212 255
183 212 255
183 212 255
183 212 255
183 212 255
183 212 255
183 212 255
183 212 255
183 212 255
183 212 255
183 212 255
184 212 255
184 212 255
184 212 255
184 212 255
184 212 255
184 212 255
184 212 255
184 212 255
184 212 255
184 212 255
184 213 255
184 213 255
184 213 255
184 213 255
184 213 255
184 213 255
184 213 255
184 213 255
184 213 255
184 213 255
184 213 255
184 213 255
184 213 255
184 213 255
184 213 255
184 213 255
184 213 255
184 213 255
184 213 255
184 213 255
184 213 255
184 213 255
185 213 255
185 213 255
185 213 255
185 213 255
185 213 255
185 213 255
185 213 255
185 213 255
185 213 255
185 213 255
185 213 255
185 213 255
185 213 255
185 213 255
185 213 255
185 213 255
185 213 255
185 213 255
185 213 255
185 213 255
185 213 255
185 213 255
185 213 255
185 213 255
185 213 255
185 213 255
185 213 255
185 213 255
185 213 255
185 213 255
185 213 255
185 213 255
185 213 255
185 213 255
185 213 255
185 213 255
185 213 255
185 213 255
185 213 255
185 213 255
185 213 255
185 213 255
185 213 255
185 213 255
185 213 255
185 213 255
185 213 255
185 213 255
185 213 255
185 213 255
185 213 255
185 213 255
185 213 255
185 213 255
185 213 255
185 213 255
185 213 255
185 213 255
185 213 255
184 213 255
184 213 255
184 213 255
184 213 255
184 213 255
184 213 255
184 213 255
184 213 255
184 213 255
184 213 255
184 213 255
184 213 255
184 213 255
184 213 255
184 213 255
184 213 255
184 213 255
184 213 255
184 213 255
184 213 255
184 213 255
184 212 255
184 212 255
184 212 255
184 212 255
184 212 255
184 212 255
184 212 255
184 212 255
184 212 255
184 212 255
184 212 255
183 212 255
183 212 255
183 212 255
183 212 255
183 212 255
183 212 255
183 212 255
183 212 255
183 212 255
183 212 255
183 212 255
183 212 255
183 212 255
183 212 255
183 212 255
183 212 255
183 212 255
183 212 255
183 212 255
183 212 255
183 212 255
183 212 255
183 212 255
183 212 255
183 212 255
183 212 255
182 212 255
182 212 255
182 212 255
182 212 255
182 212 255
182 212 255
182 212 255
182 212 255
182 212 255
182 212 255
182 211 255
182 211 255
182 211 255
182 211 255
182 211 255
182 211 255
182 211 255
182 211 255
182 211 255
182 211 255
182 211 255
182 211 255
182 211 255
182 211 255
182 211 255
181 211 255
181 211 255
181 211 255
181 211 255
181 211 255
181 211 255
181 211 255
181 211 255
181 211 255
181 211 255
181 211 255
181 211 255
181 211 255
181 211 255
181 211 255
181 211 255
181 211 255
181 211 255
181 211 255
181 211 255
160 187 227
13 16 21
11 14 18
10 13 17
11 13 17
11 13 17
11 13 17
11 14 18
12 14 18
12 14 18
12 15 19
11 14 17
11 14 18
12 15 19
12 14 18
11 14 18
10 12 16
12 15 19
10 12 16
11 14 17
11 13 17
10 13 16
12 14 18
11 13 17
11 14 18
11 14 18
11 14 18
11 13 17
11 14 18
11 13 17
10 12 16
11 14 18
11 13 17
12 14 18
11 14 18
12 14 18
11 14 17
12 15 18
10 13 17
11 13 17
10 13 16
13 16 20
12 15 19
12 15 19
11 13 17
9 12 15
12 15 19
10 13 16
12 15 18
10 12 16
12 15 19
12 15 19
12 15 19
10 12 16
10 12 16
10 13 16
12 14 18
10 13 16
10 12 16
11 14 18
11 13 17
11 13 17
11 14 18
11 13 17
10 12 16
11 14 17
11 14 17
10 13 16
10 12 16
12 14 18
12 15 20
11 13 17
12 14 18
12 14 18
11 13 17
12 15 20
11 13 17
12 15 19
13 16 20
11 14 19
10 13 17
12 15 19
11 14 17
10 12 16
11 13 17
10 12 16
11 13 17
12 15 19
11 13 17
11 14 18
11 14 17
11 13 17
11 13 17
12 15 19
12 15 19
11 14 18
11 14 17
12 15 20
11 14 18
11 14 18
11 14 17
12 14 18
11 14 18
11 13 17
11 13 17
11 14 18
11 13 17
10 13 16
11 14 18
12 15 19
12 15 20
12 15 19
12 15 19
11 14 18
13 15 20
12 14 18
10 12 15
11 14 17
10 12 16
10 12 16
10 13 16
12 14 19
13 16 21
164 191 232
181 211 255
181 211 255
181 211 255
181 211 255
181 211 255
181 211 255
181 211 255
181 211 255
181 211 255
181 211 255
181 211 255
181 211 255
181 211 255
181 211 255
181 211 255
181 211 255
181 211 255
181 211 255
181 211 255
182 211 255
182 211 255
182 211 255
182 211 255
182 211 255
182 211 255
182 211 255
182 211 255
182 211 255
182 211 255
182 211 255
182 211 255
182 211 255
182 211 255
182 211 255
182 211 255
182 211 255
182 212 255
182 212 255
182 212 255
182 212 255
182 212 255
182 212 255
182 212 255
182 212 255
182 212 255
183 212 255
183 212 255
183 212 255
183 212 255
183 212 255
183 212 255
183 212 255
183 212 255
183 212 255
183 212 255
183 212 255
183 212 255
183 212 255
183 212 255
183 212 255
183 212 255
183 212 255
183 212 255
183 212 255
183 212 255
183 212 255
183 212 255
183 212 255
183 212 255
183 212 255
183 212 255
184 212 255
184 212 255
184 212 255
184 212 255
184 212 255
184 212 255
184 212 255
184 212 255
184 212 255
184 212 255
184 212 255
184 213 255
184 213 255
184 213 255
184 213 255
184 213 255
184 213 255
184 213 255
184 213 255
184 213 255
184 213 255
184 213 255
184 213 255
184 213 255
184 213 255
184 213 255
184 213 255
184 213 255
184 213 255
184 213 255
184 213 255
184 213 255
185 213 255
185 213 255
185 213 255
185 213 255
185 213 255
185 213 255
185 213 255
185 213 255
185 213 255
185 213 255
185 213 255
185 213 255
185 213 255
185 213 255
185 213 255
185 213 255
185 213 255
185 213 255
185 213 255
185 213 255
185 213 255
185 213 255
185 213 255
185 213 255
185 213 255
185 213 255
185 213 255
185 213 255
185 213 255
185 213 255
185 213 255
185 213 255
185 213 255
185 213 255
185 213 255
186 214 255
186 214 255
186 214 255
186 214 255
186 214 255
186 214 255
186 214 255
186 214 255
185 213 255
185 213 255
185 213 255
185 213 255
185 213 255
185 213 255
185 213 255
185 213 255
185 213 255
185 213 255
185 213 255
185 213 255
185 213 255
185 213 255
185 213 255
185 213 255
185 213 255
185 213 255
185 213 255
185 213 255
185 213 255
185 213 255
185 213 255
185 213 255
185 213 255
185 213 255
185 213 255
185 213 255
185 213 255
185 213 255
185 213 255
185 213 255
185 213 255
185 213 255
185 213 255
185 213 255
185 213 255
185 213 255
184 213 255
184 213 255
184 213 255
184 213 255
184 213 255
184 213 255
184 213 255
184 213 255
184 213 255
184 213 255
184 213 255
184 213 255
184 213 255
184 213 255
184 213 255
184 213 255
184 213 255
184 213 255
184 213 255
184 213 255
184 213 255
184 212 255
184 212 255
184 212 255
184 212 255
184 212 255
184 212 255
184 212 255
184 212 255
184 212 255
184 212 255
183 212 255
183 212 255
183 212 255
183 212 255
183 212 255
183 212 255
183 212 255
183 212 255
183 212 255
183 212 255
183 212 255
183 212 255
183 212 255
183 212 255
183 212 255
183 212 255
183 212 255
183 212 255
183 212 255
183 212 255
183 212 255
183 212 255
183 212 255
183 212 255
183 212 255
183 212 255
183 212 255
182 212 255
182 212 255
182 212 255
182 212 255
182 212 255
182 212 255
182 212 255
182 212 255
182 212 255
182 211 255
182 211 255
182 211 255
182 211 255
182 211 255
182 211 255
182 211 255
182 211 255
182 211 255
182 211 255
182 211 255
182 211 255
182 211 255
182 211 255
182 211 255
182 211 255
182 211 255
181 211 255
181 211 255
181 211 255
181 211 255
181 211 255
181 211 255
181 211 255
181 211 255
104 121 147
12 15 19
11 13 17
11 13 17
10 13 17
12 14 19
12 15 19
12 15 19
10 13 16
11 14 17
10 12 16
11 14 18
11 14 18
12 15 19
11 13 17
10 13 16
10 12 16
10 13 17
11 13 17
11 14 18
11 14 18
11 14 17
9 12 15
10 13 16
9 11 15
11 13 17
11 14 17
11 13 16
11 13 17
12 14 18
10 13 17
11 14 17
10 12 16
10 12 16
10 13 17
11 14 17
12 15 19
12 14 18
11 13 17
12 15 19
10 13 17
9 12 15
11 13 17
12 14 18
11 14 18
10 13 17
10 13 16
11 13 17
11 14 18
11 14 18
10 13 16
11 13 17
10 13 16
11 13 17
10 13 17
12 14 18
9 11 15
11 14 17
10 13 16
11 13 17
11 13 17
12 14 18
10 13 16
12 14 18
12 15 19
10 13 17
12 14 18
10 13 16
11 13 17
11 13 17
11 13 17
10 13 17
9 11 14
10 12 16
11 13 17
12 15 19
10 12 16
12 14 18
11 14 17
11 14 18
11 14 18
11 13 17
10 12 16
11 14 17
11 14 18
10 12 16
11 13 17
11 13 17
11 14 17
11 13 17
10 13 16
11 14 17
11 13 17
10 12 16
10 13 17
10 13 16
12 15 19
11 14 18
12 14 19
11 14 17
12 15 19
11 14 17
10 12 16
10 12 16
12 14 18
10 13 17
11 13 17
11 13 17
11 14 18
11 14 18
12 15 19
11 14 18
10 12 16
12 14 18
12 14 18
11 13 17
10 13 16
11 13 17
11 14 18
12 15 19
12 15 19
12 14 19
11 14 17
100 116 141
181 211 255
181 211 255
181 211 255
181 211 255
181 211 255
181 211 255
181 211 255
181 211 255
181 211 255
182 211 255
182 211 255
182 211 255
182 211 255
182 211 255
182 211 255
182 211 255
182 211 255
182 211 255
182 211 255
182 211 255
182 211 255
182 211 255
182 211 255
182 211 255
182 211 255
182 211 255
182 212 255
182 212 255
182 212 255
182 212 255
182 212 255
182 212 255
182 212 255
182 212 255
183 212 255
183 212 255
183 212 255
183 212 255
183 212 255
183 212 255
183 212 255
183 212 255
183 212 255
183 212 255
183 212 255
183 212 255
183 212 255
183 212 255
183 212 255
183 212 255
183 212 255
183 212 255
183 212 255
183 212 255
183 212 255
183 212 255
183 212 255
183 212 255
183 212 255
183 212 255
183 212 255
184 212 255
184 212 255
184 212 255
184 212 255
184 212 255
184 212 255
184 212 255
184 212 255
184 212 255
184 212 255
184 213 255
184 213 255
184 213 255
184 213 255
184 213 255
184 213 255
184 213 255
184 213 255
184 213 255
184 213 255
184 213 255
184 213 255
184 213 255
184 213 255
184 213 255
184 213 255
184 213 255
184 213 255
184 213 255
184 213 255
184 213 255
184 213 255
185 213 255
185 213 255
185 213 255
185 213 255
185 213 255
185 213 255
185 213 255
185 213 255
185 213 255
185 213 255
185 213 255
185 213 255
185 213 255
185 213 255
185 213 255
185 213 255
185 213 255
185 213 255
185 213 255
185 213 255
185 213 255
185 213 255
185 213 255
185 213 255
185 213 255
185 213 255
185 213 255
185 213 255
185 213 255
185 213 255
185 213 255
185 213 255
185 213 255
185 213 255
185 213 255
185 213 255
185 213 255
185 213 255
186 214 255
186 214 255
186 214 255
186 214 255
186 214 255
186 214 255
186 214 255
186 214 255
186 214 255
186 214 255
186 214 255
186 214 255
186 214 255
186 214 255
186 214 255
186 214 255
186 214 255
186 214 255
186 214 255
186 214 255
186 214 255
186 214 255
186 214 255
186 214 255
186 214 255
186 214 255
185 213 255
185 213 255
185 213 255
185 213 255
185 213 255
185 213 255
185 213 255
185 213 255
185 213 255
185 213 255
185 213 255
185 213 255
185 213 255
185 213 255
185 213 255
185 213 255
185 213 255
185 213 255
185 213 255
185 213 255
185 213 255
185 213 255
185 213 255
185 213 255
185 213 255
185 213 255
185 213 255
185 213 255
185 213 255
185 213 255
185 213 255
185 213 255
185 213 255
185 213 255
185 213 255
185 213 255
185 213 255
185 213 255
185 213 255
184 213 255
184 213 255
184 213 255
184 213 255
184 213 255
184 213 255
184 213 255
184 213 255
184 213 255
184 213 255
184 213 255
184 213 255
184 213 255
184 213 255
184 213 255
184 213 255
184 213 255
184 213 255
184 213 255
184 213 255
184 212 255
184 212 255
184 212 255
184 212 255
184 212 255
184 212 255
184 212 255
184 212 255
184 212 255
184 212 255
183 212 255
183 212 255
183 212 255
183 212 255
183 212 255
183 212 255
183 212 255
183 212 255
183 212 255
183 212 255
183 212 255
183 212 255
183 212 255
183 212 255
183 212 255
183 212 255
183 212 255
183 212 255
183 212 255
183 212 255
183 212 255
183 212 255
183 212 255
183 212 255
183 212 255
183 212 255
183 212 255
182 212 255
182 212 255
182 212 255
182 212 255
182 212 255
182 212 255
182 212 255
182 212 255
182 212 255
182 211 255
182 211 255
182 211 255
182 211 255
182 211 255
182 211 255
182 211 255
182 211 255
182 211 255
182 211 255
182 211 255
182 211 255
182 211 255
182 211 255
52 62 75
11 13 17
11 14 17
10 13 16
11 13 17
12 15 19
10 12 16
12 15 19
11 14 18
9 11 15
11 13 17
11 13 17
11 13 17
11 13 17
11 14 17
11 14 17
11 14 18
11 14 17
12 14 18
10 13 16
11 14 18
11 14 17
11 13 17
12 15 19
11 13 17
9 12 15
10 13 16
12 15 19
10 12 16
10 13 16
11 14 17
11 14 18
10 13 16
10 12 16
12 14 18
11 14 17
11 14 17
11 13 17
12 14 18
11 13 17
11 14 18
12 14 18
11 13 17
11 14 18
11 13 17
12 14 18
11 14 18
11 13 17
10 13 17
11 14 18
11 13 17
11 14 18
10 12 16
10 13 16
10 13 17
10 12 15
10 13 17
11 13 17
9 11 15
12 15 19
11 14 18
12 15 19
10 13 16
12 15 19
11 13 17
11 14 18
12 14 18
11 14 17
10 13 16
10 12 16
11 13 17
10 13 16
12 14 18
11 14 18
11 13 17
11 14 17
11 13 17
12 15 19
12 14 18
12 15 19
9 12 15
12 15 19
10 13 17
11 14 18
10 12 16
10 13 16
11 14 17
10 13 16
11 14 18
12 15 19
10 13 16
10 12 16
11 14 17
11 13 17
12 14 18
13 15 20
10 13 16
11 13 17
10 12 16
11 13 17
10 12 16
12 15 19
10 13 17
12 14 19
11 13 17
12 14 18
11 13 17
11 13 17
9 12 15
11 14 18
11 13 17
11 14 17
11 13 17
11 14 18
12 15 19
11 14 18
11 13 17
10 13 16
11 13 17
12 15 19
12 14 18
12 15 19
10 12 16
49 58 71
182 211 255
182 211 255
182 211 255
182 211 255
182 211 255
182 211 255
182 211 255
182 211 255
182 211 255
182 211 255
182 211 255
182 211 255
182 211 255
182 211 255
182 212 255
182 212 255
182 212 255
182 212 255
182 212 255
182 212 255
182 212 255
182 212 255
182 212 255
183 212 255
183 212 255
183 212 255
183 212 255
183 212 255
183 212 255
183 212 255
183 212 255
183 212 255
183 212 255
183 212 255
183 212 255
183 212 255
183 212 255
183 212 255
183 212 255
183 212 255
183 212 255
183 212 255
183 212 255
183 212 255
183 212 255
183 212 255
183 212 255
183 212 255
183 212 255
183 212 255
184 212 255
184 212 255
184 212 255
184 212 255
184 212 255
184 212 255
184 212 255
184 212 255
184 212 255
184 212 255
184 213 255
184 213 255
184 213 255
184 213 255
184 213 255
184 213 255
184 213 255
184 213 255
184 213 255
184 213 255
184 213 255
184 213 255
184 213 255
184 213 255
184 213 255
184 213 255
184 213 255
184 213 255
184 213 255
184 213 255
184 213 255
185 213 255
185 213 255
185 213 255
185 213 255
185 213 255
185 213 255
185 213 255
185 213 255
185 213 255
185 213 255
185 213 255
185 213 255
185 213 255
185 213 255
185 213 255
185 213 255
185 213 255
185 213 255
185 213 255
185 213 255
185 213 255
185 213 255
185 213 255
185 213 255
185 213 255
185 213 255
185 213 255
185 213 255
185 213 255
185 213 255
185 213 255
185 213 255
185 213 255
185 213 255
185 213 255
185 213 255
185 213 255
186 214 255
186 214 255
186 214 255
186 214 255
186 214 255
186 214 255
186 214 255
186 214 255
186 214 255
186 214 255
186 214 255
186 214 255
186 214 255
186 214 255
186 214 255
186 214 255
186 214 255
186 214 255
186 214 255
186 214 255
186 214 255
186 214 255
186 214 255
186 214 255
186 214 255
186 214 255
186 214 255
186 214 255
186 214 255
186 214 255
186 214 255
186 214 255
186 214 255
186 214 255
186 214 255
186 214 255
186 214 255
186 214 255
186 214 255
186 214 255
186 214 255
186 214 255
186 214 255
186 214 255
186 214 255
186 214 255
186 214 255
186 214 255
186 214 255
186 214 255
186 214 255
186 214 255
185 213 255
185 213 255
185 213 255
185 213 255
185 213 255
185 213 255
185 213 255
185 213 255
185 213 255
185 213 255
185 213 255
185 213 255
185 213 255
185 213 255
185 213 255
185 213 255
185 213 255
185 213 255
185 213 255
185 213 255
185 213 255
185 213 255
185 213 255
185 213 255
185 213 255
185 213 255
185 213 255
185 213 255
185 213 255
185 213 255
185 213 255
185 213 255
185 213 255
185 213 255
185 213 255
185 213 255
184 213 255
184 213 255
184 213 255
184 213 255
184 213 255
184 213 255
184 213 255
184 213 255
184 213 255
184 213 255
184 213 255
184 213 255
184 213 255
184 213 255
184 213 255
184 213 255
184 213 255
184 213 255
184 213 255
184 213 255
184 213 255
184 213 255
184 212 255
184 212 255
184 212 255
184 212 255
184 212 255
184 212 255
184 212 255
184 212 255
184 212 255
184 212 255
183 212 255
183 212 255
183 212 255
183 212 255
183 212 255
183 212 255
183 212 255
183 212 255
183 212 255
183 212 255
183 212 255
183 212 255
183 212 255
183 212 255
183 212 255
183 212 255
183 212 255
183 212 255
183 212 255
183 212 255
183 212 255
183 212 255
183 212 255
183 212 255
183 212 255
183 212 255
183 212 255
183 212 255
182 212 255
182 212 255
182 212 255
182 212 255
182 212 255
182 212 255
182 212 255
182 212 255
182 212 255
165 191 231
12 14 19
11 14 18
12 15 19
12 15 19
12 15 19
11 14 18
11 13 17
10 13 16
9 12 15
12 15 19
12 15 19
12 14 18
12 15 19
12 15 19
11 13 17
11 13 17
11 13 17
12 15 19
10 13 16
11 13 17
11 13 17
11 14 17
12 14 18
11 14 17
11 13 17
12 14 18
11 14 17
12 15 19
11 14 18
11 13 17
13 16 20
11 13 17
9 11 14
11 14 18
12 15 19
11 13 17
11 13 17
10 12 15
11 13 17
10 13 16
12 14 18
11 14 18
10 13 16
11 14 18
11 13 17
12 15 19
11 14 17
11 13 17
10 12 16
10 12 16
11 13 17
11 13 16
9 11 15
10 12 16
12 14 18
10 12 16
11 14 17
12 15 18
11 13 17
10 13 16
12 14 19
12 14 18
10 12 16
8 10 13
11 13 17
11 14 17
11 13 17
11 13 17
12 15 19
12 15 19
11 13 17
11 13 17
10 12 16
11 14 18
11 13 17
11 14 17
11 14 17
11 13 17
11 13 17
10 13 17
11 14 17
11 14 18
11 13 17
12 15 19
11 13 17
11 14 18
12 15 19
11 13 17
11 14 17
10 12 16
9 12 15
11 14 18
11 14 18
11 13 17
11 13 17
12 15 19
11 14 17
12 15 19
11 13 17
12 14 18
11 13 17
11 13 17
11 14 18
11 13 17
10 13 17
11 13 17
11 13 17
11 14 18
12 14 18
11 13 17
12 15 19
13 15 20
10 12 15
11 13 17
11 13 17
11 13 17
11 13 17
10 13 16
12 14 19
10 12 15
12 14 18
11 13 17
11 14 18
13 15 19
170 197 238
182 212 255
182 212 255
182 212 255
182 212 255
182 212 255
182 212 255
182 212 255
182 212 255
182 212 255
182 212 255
183 212 255
183 212 255
183 212 255
183 212 255
183 212 255
183 212 255
183 212 255
183 212 255
183 212 255
183 212 255
183 212 255
183 212 255
183 212 255
183 212 255
183 212 255
183 212 255
183 212 255
183 212 255
183 212 255
183 212 255
183 212 255
183 212 255
183 212 255
183 212 255
183 212 255
183 212 255
183 212 255
183 212 255
184 212 255
184 212 255
184 212 255
184 212 255
184 212 255
184 212 255
184 212 255
184 212 255
184 212 255
184 213 255
184 213 255
184 213 255
184 213 255
184 213 255
184 213 255
184 213 255
184 213 255
184 213 255
184 213 255
184 213 255
184 213 255
184 213 255
184 213 255
184 213 255
184 213 255
184 213 255
184 213 255
184 213 255
184 213 255
184 213 255
185 213 255
185 213 255
185 213 255
185 213 255
185 213 255
185 213 255
185 213 255
185 213 255
185 213 255
185 213 255
185 213 255
185 213 255
185 213 255
185 213 255
185 213 255
185 213 255
185 213 255
185 213 255
185 213 255
185 213 255
185 213 255
185 213 255
185 213 255
185 213 255
185 213 255
185 213 255
185 213 255
185 213 255
185 213 255
185 213 255
185 213 255
185 213 255
185 213 255
185 213 255
185 213 255
185 213 255
185 213 255
186 214 255
186 214 255
186 214 255
186 214 255
186 214 255
186 214 255
186 214 255
186 214 255
186 214 255
186 214 255
186 214 255
186 214 255
186 214 255
186 214 255
186 214 255
186 214 255
186 214 255
186 214 255
186 214 255
186 214 255
186 214 255
186 214 255
186 214 255
186 214 255
186 214 255
186 214 255
186 214 255
186 214 255
186 214 255
186 214 255
186 214 255
186 214 255
186 214 255
186 214 255
186 214 255
186 214 255
186 214 255
186 214 255
186 214 255
186 214 255
186 214 255
186 214 255
186 214 255
186 214 255
186 214 255
186 214 255
186 214 255
186 214 255
186 214 255
186 214 255
186 214 255
186 214 255
186 214 255
186 214 255
186 214 255
186 214 255
186 214 255
186 214 255
186 214 255
186 214 255
186 214 255
186 214 255
186 214 255
186 214 255
186 214 255
186 214 255
186 214 255
186 214 255
186 214 255
186 214 255
186 214 255
186 214 255
186 214 255
186 214 255
186 214 255
186 214 255
186 214 255
186 214 255
185 213 255
185 213 255
185 213 255
185 213 255
185 213 255
185 213 255
185 213 255
185 213 255
185 213 255
185 213 255
185 213 255
185 213 255
185 213 255
185 213 255
185 213 255
185 213 255
185 213 255
185 213 255
185 213 255
185 213 255
185 213 255
185 213 255
185 213 255
185 213 255
185 213 255
185 213 255
185 213 255
185 213 255
185 213 255
185 213 255
185 213 255
185 213 255
185 213 255
185 213 255
185 213 255
185 213 255
184 213 255
184 213 255
184 213 255
184 213 255
184 213 255
184 213 255
184 213 255
184 213 255
184 213 255
184 213 255
184 213 255
184 213 255
184 213 255
184 213 255
184 213 255
184 213 255
184 213 255
184 213 255
184 213 255
184 213 255
184 212 255
184 212 255
184 212 255
184 212 255
184 212 255
184 212 255
184 212 255
184 212 255
184 212 255
184 212 255
183 212 255
183 212 255
183 212 255
183 212 255
183 212 255
183 212 255
183 212 255
183 212 255
183 212 255
183 212 255
183 212 255
183 212 255
183 212 255
183 212 255
183 212 255
183 212 255
183 212 255
183 212 255
183 212 255
183 212 255
183 212 255
183 212 255
183 212 255
183 212 255
183 212 255
121 141 170
11 14 18
10 12 16
11 14 18
11 14 17
12 15 19
11 14 18
11 13 17
12 14 18
11 14 18
10 13 16
12 14 18
12 14 18
9 12 15
11 14 18
10 12 16
11 14 18
12 14 18
11 13 17
11 13 17
10 13 16
9 12 15
10 12 15
11 14 17
10 12 16
12 15 19
11 14 18
11 14 18
11 13 17
10 12 16
10 12 16
10 12 16
11 13 17
12 15 19
10 12 16
11 14 18
11 13 17
10 12 16
10 12 16
10 13 16
11 13 17
10 13 17
12 15 19
10 13 16
11 13 17
10 13 16
10 13 17
10 12 16
10 12 16
10 12 16
9 11 14
11 13 17
10 13 17
12 14 18
11 14 18
10 13 17
10 13 16
12 14 18
11 13 17
10 13 17
11 14 17
14 17 22
10 13 17
12 14 18
10 12 16
9 11 14
11 14 17
11 13 17
11 13 17
12 15 19
10 13 17
11 13 17
10 12 16
11 14 17
11 13 17
9 11 14
12 15 19
11 13 17
11 13 17
10 12 16
12 14 18
11 13 17
11 14 18
11 14 18
13 15 20
10 13 16
11 13 17
10 12 16
10 12 15
11 13 17
11 13 17
11 13 17
11 14 18
11 14 18
11 13 17
10 13 17
12 14 18
12 15 19
11 14 18
12 14 18
12 14 19
11 13 17
11 14 17
12 14 18
13 15 20
11 14 18
11 13 17
11 13 17
10 13 16
11 13 17
10 13 16
11 14 17
10 12 15
11 13 17
11 14 18
10 12 16
11 14 17
12 14 19
12 14 18
11 14 17
10 13 17
10 13 17
12 14 18
12 14 18
11 14 17
101 117 142
183 212 255
183 212 255
183 212 255
183 212 255
183 212 255
183 212 255
183 212 255
183 212 255
183 212 255
183 212 255
183 212 255
183 212 255
183 212 255
183 212 255
183 212 255
183 212 255
183 212 255
183 212 255
183 212 255
183 212 255
183 212 255
183 212 255
183 212 255
183 212 255
183 212 255
184 212 255
184 212 255
184 212 255
184 212 255
184 212 255
184 212 255
184 212 255
184 212 255
184 212 255
184 212 255
184 213 255
184 213 255
184 213 255
184 213 255
184 213 255
184 213 255
184 213 255
184 213 255
184 213 255
184 213 255
184 213 255
184 213 255
184 213 255
184 213 255
184 213 255
184 213 255
184 213 255
184 213 255
184 213 255
184 213 255
184 213 255
185 213 255
185 213 255
185 213 255
185 213 255
185 213 255
185 213 255
185 213 255
185 213 255
185 213 255
185 213 255
185 213 255
185 213 255
185 213 255
185 213 255
185 213 255
185 213 255
185 213 255
185 213 255
185 213 255
185 213 255
185 213 255
185 213 255
185 213 255
185 213 255
185 213 255
185 213 255
185 213 255
185 213 255
185 213 255
185 213 255
185 213 255
185 213 255
185 213 255
185 213 255
185 213 255
185 213 255
186 214 255
186 214 255
186 214 255
186 214 255
186 214 255
186 214 255
186 214 255
186 214 255
186 214 255
186 214 255
186 214 255
186 214 255
186 214 255
186 214 255
186 214 255
186 214 255
186 214 255
186 214 255
186 214 255
186 214 255
186 214 255
186 214 255
186 214 255
186 214 255
186 214 255
186 214 255
186 214 255
186 214 255
186 214 255
186 214 255
186 214 255
186 214 255
186 214 255
186 214 255
186 214 255
186 214 255
186 214 255
186 214 255
186 214 255
186 214 255
186 214 255
186 214 255
186 214 255
186 214 255
186 214 255
187 214 255
187 214 255
187 214 255
187 214 255
187 214 255
187 214 255
187 214 255
187 214 255
187 214 255
187 214 255
187 214 255
187 214 255
187 214 255
187 214 255
186 214 255
186 214 255
186 214 255
186 214 255
186 214 255
186 214 255
186 214 255
186 214 255
186 214 255
186 214 255
186 214 255
186 214 255
186 214 255
186 214 255
186 214 255
186 214 255
186 214 255
186 214 255
186 214 255
186 214 255
186 214 255
186 214 255
186 214 255
186 214 255
186 214 255
186 214 255
186 214 255
186 214 255
186 214 255
186 214 255
186 214 255
186 214 255
186 214 255
186 214 255
186 214 255
186 214 255
186 214 255
186 214 255
186 214 255
186 214 255
186 214 255
186 214 255
186 214 255
186 214 255
186 214 255
185 213 255
185 213 255
185 213 255
185 213 255
185 213 255
185 213 255
185 213 255
185 213 255
185 213 255
185 213 255
185 213 255
185 213 255
185 213 255
185 213 255
185 213 255
185 213 255
185 213 255
185 213 255
185 213 255
185 213 255
185 213 255
185 213 255
185 213 255
185 213 255
185 213 255
185 213 255
185 213 255
185 213 255
185 213 255
185 213 255
185 213 255
185 213 255
185 213 255
185 213 255
185 213 255
184 213 255
184 213 255
184 213 255
184 213 255
184 213 255
184 213 255
184 213 255
184 213 255
184 213 255
184 213 255
184 213 255
184 213 255
184 213 255
184 213 255
184 213 255
184 213 255
184 213 255
184 213 255
184 213 255
184 213 255
184 213 255
184 212 255
184 212 255
184 212 255
184 212 255
184 212 255
184 212 255
184 212 255
184 212 255
184 212 255
184 212 255
183 212 255
183 212 255
183 212 255
183 212 255
183 212 255
183 212 255
183 212 255
183 212 255
183 212 255
183 212 255
183 212 255
183 212 255
70 82 99
12 15 19
11 13 17
11 13 17
12 14 18
10 12 16
12 14 18
11 13 16
10 12 16
11 13 17
11 14 18
10 13 16
11 14 18
10 13 17
10 13 16
11 13 17
12 15 20
11 14 18
11 13 17
11 13 17
10 12 16
10 13 16
10 12 16
12 15 19
11 14 18
12 15 19
11 13 17
11 14 17
11 13 17
11 14 17
11 14 18
11 14 18
10 13 16
10 13 16
11 14 17
11 14 18
11 14 18
10 13 16
10 13 16
9 12 15
10 12 16
10 13 16
12 14 19
11 13 17
11 14 18
11 14 17
10 13 16
11 14 18
10 12 15
11 14 18
10 13 17
10 12 16
11 14 17
11 14 17
10 12 16
11 13 17
10 13 16
12 14 18
10 13 16
10 12 15
11 13 17
10 13 16
11 13 17
11 13 17
9 12 15
11 13 17
11 13 17
11 14 17
12 14 18
10 12 15
11 13 17
10 13 16
12 14 18
10 13 17
10 13 16
11 13 17
12 15 19
11 13 16
12 14 18
9 12 15
10 13 16
10 12 15
10 13 16
10 12 16
12 14 18
11 14 17
10 13 17
11 13 17
10 13 17
10 12 16
11 13 17
11 14 17
11 13 17
10 13 16
12 15 20
10 13 17
12 14 18
11 14 17
10 13 16
10 13 16
12 14 18
10 12 15
12 15 19
10 13 17
11 13 17
11 13 17
9 12 15
11 14 18
11 14 18
10 13 17
10 13 16
12 15 19
10 12 16
12 14 18
11 13 17
10 12 16
11 13 17
10 12 16
10 12 16
10 12 16
10 13 16
11 14 18
12 15 19
11 13 17
12 14 18
65 76 92
183 212 255
183 212 255
183 212 255
183 212 255
183 212 255
183 212 255
183 212 255
183 212 255
183 212 255
183 212 255
183 212 255
184 212 255
183 212 255
184 212 255
184 212 255
184 212 255
184 212 255
184 212 255
184 212 255
184 212 255
184 212 255
184 212 255
184 213 255
184 213 255
184 213 255
184 213 255
184 213 255
184 213 255
184 213 255
184 213 255
184 213 255
184 213 255
184 213 255
184 213 255
184 213 255
184 213 255
184 213 255
184 213 255
184 213 255
184 213 255
184 213 255
184 213 255
184 213 255
185 213 255
185 213 255
185 213 255
185 213 255
185 213 255
185 213 255
185 213 255
185 213 255
185 213 255
185 213 255
185 213 255
185 213 255
185 213 255
185 213 255
185 213 255
185 213 255
185 213 255
185 213 255
185 213 255
185 213 255
185 213 255
185 213 255
185 213 255
185 213 255
185 213 255
185 213 255
185 213 255
185 213 255
185 213 255
185 213 255
185 213 255
185 213 255
185 213 255
185 213 255
185 213 255
186 214 255
186 214 255
186 214 255
186 214 255
186 214 255
186 214 255
186 214 255
186 214 255
186 214 255
186 214 255
186 214 255
186 214 255
186 214 255
186 214 255
186 214 255
186 214 255
186 214 255
186 214 255
186 214 255
186 214 255
186 214 255
186 214 255
186 214 255
186 214 255
186 214 255
186 214 255
186 214 255
186 214 255
186 214 255
186 214 255
186 214 255
186 214 255
186 214 255
186 214 255
186 214 255
186 214 255
186 214 255
186 214 255
186 214 255
186 214 255
186 214 255
186 214 255
186 214 255
186 214 255
187 214 255
187 214 255
187 214 255
187 214 255
187 214 255
187 214 255
187 214 255
187 214 255
187 214 255
187 214 255
187 214 255
187 214 255
187 214 255
187 214 255
187 214 255
187 214 255
187 214 255
187 214 255
187 214 255
187 214 255
187 214 255
187 214 255
187 214 255
187 214 255
187 214 255
187 214 255
187 214 255
187 214 255
187 214 255
187 214 255
187 214 255
187 214 255
187 214 255
187 214 255
187 214 255
187 214 255
187 214 255
187 214 255
187 214 255
187 214 255
187 214 255
187 214 255
187 214 255
187 214 255
187 214 255
186 214 255
186 214 255
186 214 255
186 214 255
186 214 255
186 214 255
186 214 255
186 214 255
186 214 255
186 214 255
186 214 255
186 214 255
186 214 255
186 214 255
186 214 255
186 214 255
186 214 255
186 214 255
186 214 255
186 214 255
186 214 255
186 214 255
186 214 255
186 214 255
186 214 255
186 214 255
186 214 255
186 214 255
186 214 255
186 214 255
186 214 255
186 214 255
186 214 255
186 214 255
186 214 255
186 214 255
186 214 255
186 214 255
186 214 255
186 214 255
186 214 255
186 214 255
185 213 255
185 213 255
185 213 255
185 213 255
185 213 255
185 213 255
185 213 255
185 213 255
185 213 255
185 213 255
185 213 255
185 213 255
185 213 255
185 213 255
185 213 255
185 213 255
185 213 255
185 213 255
185 213 255
185 213 255
185 213 255
185 213 255
185 213 255
185 213 255
185 213 255
185 213 255
185 213 255
185 213 255
185 213 255
185 213 255
185 213 255
185 213 255
185 213 255
185 213 255
185 213 255
184 213 255
184 213 255
184 213 255
184 213 255
184 213 255
184 213 255
184 213 255
184 213 255
184 213 255
184 213 255
184 213 255
184 213 255
184 213 255
184 213 255
184 213 255
184 213 255
184 213 255
184 213 255
184 213 255
184 213 255
184 213 255
184 213 255
184 213 255
184 212 255
184 212 255
184 212 255
184 212 255
184 212 255
184 212 255
178 206 248
21 25 32
11 13 17
9 11 14
11 13 17
11 14 18
11 13 17
10 13 17
11 14 17
11 13 17
11 14 18
11 13 17
11 13 17
12 15 19
10 13 17
9 11 14
10 12 16
11 13 17
11 14 18
12 14 18
11 13 17
11 13 16
11 14 18
11 13 17
11 13 17
11 14 17
11 14 18
10 13 17
10 13 17
11 13 17
11 13 17
11 13 17
11 14 17
10 12 15
10 12 15
10 12 16
12 14 18
10 13 16
11 13 16
11 14 18
11 14 17
10 13 17
12 14 18
11 13 17
13 15 19
11 13 17
10 13 16
12 14 18
12 15 19
10 12 15
12 15 19
11 14 17
11 14 17
11 13 17
10 12 16
10 13 16
9 11 14
11 14 17
10 13 16
10 12 15
10 12 16
11 14 18
9 12 15
11 14 18
11 14 18
11 14 17
10 13 16
10 12 16
11 13 17
11 14 17
12 14 18
11 13 17
10 12 15
12 14 18
10 12 16
10 12 16
10 12 16
12 14 18
12 14 18
11 13 17
11 14 17
11 13 17
11 13 17
10 13 16
11 13 17
11 13 17
12 14 18
11 13 17
12 14 18
11 14 17
10 12 16
11 13 17
11 14 18
10 12 16
11 13 17
11 13 17
11 13 17
10 12 16
12 15 20
11 13 17
11 14 18
11 14 17
12 14 18
11 14 18
11 13 17
11 14 18
11 14 17
11 14 18
11 14 17
10 13 16
10 12 15
13 16 20
12 15 19
10 13 17
10 13 17
10 13 16
11 13 17
11 13 17
10 13 16
11 13 17
11 14 18
12 14 17
11 14 18
11 14 17
10 12 16
10 13 17
20 23 29
180 209 251
184 212 255
184 212 255
184 212 255
184 212 255
184 212 255
184 212 255
184 213 255
184 213 255
184 213 255
184 213 255
184 213 255
184 213 255
184 213 255
184 213 255
184 213 255
184 213 255
184 213 255
184 213 255
184 213 255
184 213 255
184 213 255
184 213 255
184 213 255
184 213 255
184 213 255
184 213 255
184 213 255
184 213 255
185 213 255
185 213 255
185 213 255
185 213 255
185 213 255
185 213 255
185 213 255
185 213 255
185 213 255
185 213 255
185 213 255
185 213 255
185 213 255
185 213 255
185 213 255
185 213 255
185 213 255
185 213 255
185 213 255
185 213 255
185 213 255
185 213 255
185 213 255
185 213 255
185 213 255
185 213 255
185 213 255
185 213 255
185 213 255
185 213 255
185 213 255
185 213 255
185 213 255
185 213 255
185 213 255
185 213 255
186 214 255
186 214 255
186 214 255
186 214 255
186 214 255
186 214 255
186 214 255
186 214 255
186 214 255
186 214 255
186 214 255
186 214 255
186 214 255
186 214 255
186 214 255
186 214 255
186 214 255
186 214 255
186 214 255
186 214 255
186 214 255
186 214 255
186 214 255
186 214 255
186 214 255
186 214 255
186 214 255
186 214 255
186 214 255
186 214 255
186 214 255
186 214 255
186 214 255
186 214 255
186 214 255
186 214 255
186 214 255
186 214 255
186 214 255
186 214 255
186 214 255
186 214 255
187 214 255
187 214 255
187 214 255
187 214 255
187 214 255
187 214 255
187 214 255
187 214 255
187 214 255
187 214 255
187 214 255
187 214 255
187 214 255
187 214 255
187 214 255
187 214 255
187 214 255
187 214 255
187 214 255
187 214 255
187 214 255
187 214 255
187 214 255
187 214 255
187 214 255
187 214 255
187 214 255
187 214 255
187 214 255
187 214 255
187 215 255
187 215 255
187 215 255
187 215 255
187 215 255
187 215 255
187 215 255
187 215 255
187 215 255
187 215 255
187 214 255
187 214 255
187 214 255
187 214 255
187 214 255
187 214 255
187 214 255
187 214 255
187 214 255
187 214 255
187 214 255
187 214 255
187 214 255
187 214 255
187 214 255
187 214 255
187 214 255
187 214 255
187 214 255
187 214 255
187 214 255
187 214 255
187 214 255
187 214 255
187 214 255
187 214 255
187 214 255
187 214 255
187 214 255
187 214 255
187 214 255
187 214 255
187 214 255
187 214 255
187 214 255
186 214 255
186 214 255
186 214 255
186 214 255
186 214 255
186 214 255
186 214 255
186 214 255
186 214 255
186 214 255
186 214 255
186 214 255
186 214 255
186 214 255
186 214 255
186 214 255
186 214 255
186 214 255
186 214 255
186 214 255
186 214 255
186 214 255
186 214 255
186 214 255
186 214 255
186 214 255
186 214 255
186 214 255
186 214 255
186 214 255
186 214 255
186 214 255
186 214 255
186 214 255
186 214 255
186 214 255
186 214 255
186 214 255
186 214 255
186 214 255
186 214 255
186 214 255
185 213 255
185 213 255
185 213 255
185 213 255
185 213 255
185 213 255
185 213 255
185 213 255
185 213 255
185 213 255
185 213 255
185 213 255
185 213 255
185 213 255
185 213 255
185 213 255
185 213 255
185 213 255
185 213 255
185 213 255
185 213 255
185 213 255
185 213 255
185 213 255
185 213 255
185 213 255
185 213 255
185 213 255
185 213 255
185 213 255
185 213 255
185 213 255
185 213 255
185 213 255
185 213 255
185 213 255
184 213 255
184 213 255
184 213 255
184 213 255
184 213 255
184 213 255
184 213 255
184 213 255
184 213 255
184 213 255
184 213 255
184 213 255
184 213 255
133 154 185
12 14 18
11 14 17
10 13 16
12 15 19
12 14 18
10 12 15
9 12 15
11 13 17
11 13 17
10 13 17
11 13 17
11 13 17
10 12 16
10 13 16
10 12 15
8 10 12
10 13 16
12 15 18
10 13 17
11 14 17
9 11 15
11 14 18
11 14 17
10 12 15
10 13 17
10 13 17
10 12 16
11 13 17
12 14 18
10 12 16
10 12 16
11 13 17
11 13 17
10 13 16
10 12 15
9 12 15
11 13 16
11 13 17
10 13 16
10 12 16
11 14 18
10 13 17
10 13 16
10 12 16
10 13 17
11 13 17
10 13 16
11 13 17
11 13 17
11 13 17
12 14 18
11 13 17
11 13 17
11 13 17
11 13 17
12 14 19
12 14 18
11 13 17
11 14 17
10 13 16
11 14 17
10 13 16
11 14 17
9 11 15
10 13 17
11 13 17
11 14 17
11 14 17
11 13 17
11 13 17
10 13 16
11 13 17
11 13 17
11 14 17
12 14 18
10 12 16
10 13 16
11 13 16
11 13 16
11 13 16
9 12 15
10 13 16
12 14 18
10 13 16
11 13 16
10 13 16
11 13 17
11 13 17
10 12 16
10 13 16
11 13 17
10 13 17
11 14 17
12 15 19
9 12 15
12 15 19
9 12 15
11 13 17
11 14 18
11 13 17
10 13 17
11 13 17
12 14 18
10 12 15
11 14 17
11 14 18
11 14 18
9 11 15
10 12 16
11 14 18
11 14 17
11 14 18
10 12 16
11 13 17
12 15 19
13 15 20
11 13 17
10 13 17
11 13 17
11 13 17
10 13 16
11 13 17
12 15 19
12 15 19
13 16 20
11 13 17
153 177 213
184 213 255
184 213 255
184 213 255
184 213 255
184 213 255
184 213 255
184 213 255
184 213 255
184 213 255
184 213 255
184 213 255
184 213 255
184 213 255
185 213 255
185 213 255
185 213 255
185 213 255
185 213 255
185 213 255
185 213 255
185 213 255
185 213 255
185 213 255
185 213 255
185 213 255
185 213 255
185 213 255
185 213 255
185 213 255
185 213 255
185 213 255
185 213 255
185 213 255
185 213 255
185 213 255
185 213 255
185 213 255
185 213 255
185 213 255
185 213 255
185 213 255
185 213 255
185 213 255
185 213 255
185 213 255
185 213 255
185 213 255
185 213 255
185 213 255
186 214 255
186 214 255
186 214 255
186 214 255
186 214 255
186 214 255
186 214 255
186 214 255
186 214 255
186 214 255
186 214 255
186 214 255
186 214 255
186 214 255
186 214 255
186 214 255
186 214 255
186 214 255
186 214 255
186 214 255
186 214 255
186 214 255
186 214 255
186 214 255
186 214 255
186 214 255
186 214 255
186 214 255
186 214 255
186 214 255
186 214 255
186 214 255
186 214 255
186 214 255
186 214 255
186 214 255
186 214 255
186 214 255
186 214 255
186 214 255
186 214 255
187 214 255
187 214 255
187 214 255
187 214 255
187 214 255
187 214 255
187 214 255
187 214 255
187 214 255
187 214 255
187 214 255
187 214 255
187 214 255
187 214 255
187 214 255
187 214 255
187 214 255
187 214 255
187 214 255
187 214 255
187 214 255
187 214 255
187 214 255
187 214 255
187 214 255
187 214 255
187 214 255
187 214 255
187 214 255
187 214 255
187 214 255
187 214 255
187 214 255
187 214 255
187 214 255
187 214 255
187 215 255
187 215 255
187 215 255
187 215 255
187 215 255
187 215 255
187 215 255
187 215 255
187 215 255
187 215 255
188 215 255
188 215 255
188 215 255
188 215 255
188 215 255
188 215 255
188 215 255
187 215 255
187 215 255
187 215 255
187 215 255
187 215 255
187 215 255
187 215 255
187 215 255
187 215 255
187 215 255
187 215 255
187 215 255
187 215 255
187 215 255
187 215 255
187 215 255
187 215 255
187 215 255
187 215 255
187 215 255
187 214 255
187 214 255
187 214 255
187 214 255
187 214 255
187 214 255
187 214 255
187 214 255
187 214 255
187 214 255
187 214 255
187 214 255
187 214 255
187 214 255
187 214 255
187 214 255
187 214 255
187 214 255
187 214 255
187 214 255
187 214 255
187 214 255
187 214 255
187 214 255
187 214 255
187 214 255
187 214 255
187 214 255
187 214 255
187 214 255
187 214 255
187 214 255
187 214 255
187 214 255
187 214 255
186 214 255
186 214 255
186 214 255
186 214 255
186 214 255
186 214 255
186 214 255
186 214 255
186 214 255
186 214 255
186 214 255
186 214 255
186 214 255
186 214 255
186 214 255
186 214 255
186 214 255
186 214 255
186 214 255
186 214 255
186 214 255
186 214 255
186 214 255
186 214 255
186 214 255
186 214 255
186 214 255
186 214 255
186 214 255
186 214 255
186 214 255
186 214 255
186 214 255
186 214 255
186 214 255
186 214 255
186 214 255
186 214 255
186 214 255
186 214 255
186 214 255
185 213 255
185 213 255
185 213 255
185 213 255
185 213 255
185 213 255
185 213 255
185 213 255
185 213 255
185 213 255
185 213 255
185 213 255
185 213 255
185 213 255
185 213 255
185 213 255
185 213 255
185 213 255
185 213 255
185 213 255
185 213 255
185 213 255
185 213 255
185 213 255
185 213 255
185 213 255
185 213 255
185 213 255
185 213 255
185 213 255
185 213 255
185 213 255
185 213 255
117 135 162
9 11 14
11 13 17
11 13 17
11 14 18
10 13 16
11 14 18
11 13 17
10 12 15
10 12 16
11 13 17
10 13 16
10 13 16
10 12 16
10 13 17
9 11 15
10 13 16
10 13 16
10 13 16
11 13 17
11 13 17
10 12 15
10 12 16
11 14 17
11 14 17
10 12 15
10 12 16
9 12 15
9 11 14
10 13 16
10 13 17
11 13 17
11 14 18
11 13 17
11 13 17
11 14 18
10 12 15
11 14 17
10 12 16
11 14 17
10 13 16
11 13 17
12 15 19
11 13 17
12 15 19
10 12 15
12 15 19
10 12 15
11 14 17
11 13 17
10 12 16
12 15 19
10 12 16
12 15 19
10 12 15
10 12 16
10 12 15
10 12 16
9 12 15
9 11 14
11 13 17
10 13 16
11 13 17
11 14 17
9 11 15
11 14 18
11 13 17
10 13 16
10 13 16
11 13 17
11 14 18
10 13 16
9 11 15
11 13 17
9 11 15
10 12 16
9 11 14
10 12 16
12 15 19
11 14 18
11 13 17
12 14 18
11 13 17
11 13 17
9 11 15
9 12 15
12 14 18
10 13 16
10 13 16
10 12 15
9 11 14
10 13 16
10 13 16
12 15 19
11 13 17
11 14 18
11 14 17
10 12 15
11 14 17
11 13 17
12 15 19
10 13 16
10 12 16
10 12 16
11 13 17
10 13 16
11 14 18
11 14 18
11 14 17
12 14 18
10 13 16
11 13 17
10 12 16
12 15 18
12 14 18
10 12 16
11 14 17
11 14 17
11 13 17
11 14 18
12 15 19
11 14 18
11 13 17
11 14 17
11 13 17
11 14 17
10 12 16
103 120 144
185 213 255
185 213 255
185 213 255
185 213 255
185 213 255
185 213 255
185 213 255
185 213 255
185 213 255
185 213 255
185 213 255
185 213 255
185 213 255
185 213 255
185 213 255
185 213 255
185 213 255
185 213 255
185 213 255
185 213 255
185 213 255
185 213 255
185 213 255
185 213 255
185 213 255
185 213 255
185 213 255
185 213 255
185 213 255
185 213 255
185 213 255
185 213 255
185 213 255
186 214 255
186 214 255
186 214 255
186 214 255
186 214 255
186 214 255
186 214 255
186 214 255
186 214 255
186 214 255
186 214 255
186 214 255
186 214 255
186 214 255
186 214 255
186 214 255
186 214 255
186 214 255
186 214 255
186 214 255
186 214 255
186 214 255
186 214 255
186 214 255
186 214 255
186 214 255
186 214 255
186 214 255
186 214 255
186 214 255
186 214 255
186 214 255
186 214 255
186 214 255
186 214 255
186 214 255
186 214 255
186 214 255
186 214 255
186 214 255
186 214 255
186 214 255
187 214 255
187 214 255
187 214 255
187 214 255
187 214 255
187 214 255
187 214 255
187 214 255
187 214 255
187 214 255
187 214 255
187 214 255
187 214 255
187 214 255
187 214 255
187 214 255
187 214 255
187 214 255
187 214 255
187 214 255
187 214 255
187 214 255
187 214 255
187 214 255
187 214 255
187 214 255
187 214 255
187 214 255
187 214 255
187 214 255
187 214 255
187 214 255
187 214 255
187 214 255
187 215 255
187 215 255
187 215 255
187 215 255
187 215 255
187 215 255
187 215 255
187 215 255
187 215 255
187 215 255
187 215 255
187 215 255
187 215 255
187 215 255
187 215 255
187 215 255
187 215 255
187 215 255
187 215 255
187 215 255
188 215 255
188 215 255
188 215 255
188 215 255
188 215 255
188 215 255
188 215 255
188 215 255
188 215 255
188 215 255
188 215 255
188 215 255
188 215 255
188 215 255
188 215 255
188 215 255
188 215 255
188 215 255
188 215 255
188 215 255
188 215 255
188 215 255
188 215 255
188 215 255
188 215 255
188 215 255
188 215 255
188 215 255
188 215 255
188 215 255
188 215 255
188 215 255
188 215 255
187 215 255
187 215 255
187 215 255
187 215 255
187 215 255
187 215 255
187 215 255
187 215 255
187 215 255
187 215 255
187 215 255
187 215 255
187 215 255
187 215 255
187 215 255
187 215 255
187 215 255
187 215 255
187 215 255
187 215 255
187 214 255
187 214 255
187 214 255
187 214 255
187 214 255
187 214 255
187 214 255
187 214 255
187 214 255
187 214 255
187 214 255
187 214 255
187 214 255
187 214 255
187 214 255
187 214 255
187 214 255
187 214 255
187 214 255
187 214 255
187 214 255
187 214 255
187 214 255
187 214 255
187 214 255
187 214 255
187 214 255
187 214 255
187 214 255
187 214 255
187 214 255
187 214 255
186 214 255
186 214 255
186 214 255
186 214 255
186 214 255
186 214 255
186 214 255
186 214 255
186 214 255
186 214 255
186 214 255
186 214 255
186 214 255
186 214 255
186 214 255
186 214 255
186 214 255
186 214 255
186 214 255
186 214 255
186 214 255
186 214 255
186 214 255
186 214 255
186 214 255
186 214 255
186 214 255
186 214 255
186 214 255
186 214 255
186 214 255
186 214 255
186 214 255
186 214 255
186 214 255
186 214 255
186 214 255
186 214 255
186 214 255
186 214 255
186 214 255
186 214 255
185 213 255
185 213 255
185 213 255
185 213 255
185 213 255
185 213 255
185 213 255
185 213 255
185 213 255
185 213 255
185 213 255
185 213 255
185 213 255
185 213 255
185 213 255
185 213 255
85 99 119
11 13 17
10 12 15
11 13 17
11 13 17
11 13 17
11 14 18
12 14 18
10 13 16
11 14 18
10 13 17
11 13 17
11 14 17
10 13 16
11 13 17
10 13 17
10 13 16
10 13 17
10 13 17
11 13 17
12 14 18
11 13 17
10 13 17
11 14 17
10 13 16
10 12 15
10 12 15
10 12 16
11 14 17
11 14 17
11 14 17
10 12 15
10 12 15
10 12 16
11 13 17
12 14 18
10 13 16
11 13 17
12 14 18
10 12 15
10 12 15
11 13 17
8 10 13
10 12 16
13 16 20
11 13 17
11 14 17
11 13 17
9 11 15
11 13 17
11 13 17
10 12 16
10 13 16
11 13 17
11 14 18
11 14 18
10 12 15
10 12 16
10 13 16
11 14 17
10 13 17
10 13 16
12 14 18
10 13 17
11 13 17
9 12 15
10 12 16
11 13 17
11 13 17
9 12 15
11 14 17
12 15 19
12 14 18
10 12 15
11 13 17
12 14 18
10 13 16
11 14 18
11 13 17
12 14 18
9 11 14
10 12 16
11 14 18
11 13 17
9 12 15
10 13 16
10 12 15
10 13 16
9 11 14
11 13 17
11 14 18
11 14 17
11 13 17
11 14 18
11 13 17
11 14 17
11 14 18
10 13 16
11 14 17
11 13 17
10 12 15
10 13 16
11 13 17
12 14 18
11 14 18
11 14 17
11 13 17
10 12 16
9 11 14
11 13 17
10 12 15
11 14 18
10 12 16
10 12 15
11 13 17
11 13 17
12 15 19
11 14 18
11 13 17
10 12 16
10 12 15
11 13 17
10 12 16
12 14 18
11 13 17
9 12 15
10 13 17
61 71 85
185 213 255
185 213 255
185 213 255
185 213 255
185 213 255
185 213 255
185 213 255
185 213 255
185 213 255
185 213 255
185 213 255
185 213 255
185 213 255
185 213 255
185 213 255
185 213 255
186 214 255
186 214 255
186 214 255
186 214 255
186 214 255
186 214 255
186 214 255
186 214 255
186 214 255
186 214 255
186 214 255
186 214 255
186 214 255
186 214 255
186 214 255
186 214 255
186 214 255
186 214 255
186 214 255
186 214 255
186 214 255
186 214 255
186 214 255
186 214 255
186 214 255
186 214 255
186 214 255
186 214 255
186 214 255
186 214 255
186 214 255
186 214 255
186 214 255
186 214 255
186 214 255
186 214 255
186 214 255
186 214 255
186 214 255
186 214 255
186 214 255
187 214 255
187 214 255
187 214 255
187 214 255
187 214 255
187 214 255
187 214 255
187 214 255
187 214 255
187 214 255
187 214 255
187 214 255
187 214 255
187 214 255
187 214 255
187 214 255
187 214 255
187 214 255
187 214 255
187 214 255
187 214 255
187 214 255
187 214 255
187 214 255
187 214 255
187 214 255
187 214 255
187 214 255
187 214 255
187 214 255
187 214 255
187 214 255
187 214 255
187 214 255
187 215 255
187 215 255
187 215 255
187 215 255
187 215 255
187 215 255
187 215 255
187 215 255
187 215 255
187 215 255
187 215 255
187 215 255
187 215 255
187 215 255
187 215 255
187 215 255
187 215 255
187 215 255
187 215 255
188 215 255
188 215 255
188 215 255
188 215 255
188 215 255
188 215 255
188 215 255
188 215 255
188 215 255
188 215 255
188 215 255
188 215 255
188 215 255
188 215 255
188 215 255
188 215 255
188 215 255
188 215 255
188 215 255
188 215 255
188 215 255
188 215 255
188 215 255
188 215 255
188 215 255
188 215 255
188 215 255
188 215 255
188 215 255
188 215 255
188 215 255
188 215 255
188 215 255
188 215 255
188 215 255
188 215 255
188 215 255
188 215 255
188 215 255
188 215 255
188 215 255
188 215 255
188 215 255
188 215 255
188 215 255
188 215 255
188 215 255
188 215 255
188 215 255
188 215 255
188 215 255
188 215 255
188 215 255
188 215 255
188 215 255
188 215 255
188 215 255
188 215 255
188 215 255
188 215 255
188 215 255
188 215 255
188 215 255
188 215 255
188 215 255
188 215 255
188 215 255
188 215 255
188 215 255
188 215 255
188 215 255
187 215 255
187 215 255
187 215 255
187 215 255
187 215 255
187 215 255
187 215 255
187 215 255
187 215 255
187 215 255
187 215 255
187 215 255
187 215 255
187 215 255
187 215 255
187 215 255
187 215 255
187 215 255
187 215 255
187 214 255
187 214 255
187 214 255
187 214 255
187 214 255
187 214 255
187 214 255
187 214 255
187 214 255
187 214 255
187 214 255
187 214 255
187 214 255
187 214 255
187 214 255
187 214 255
187 214 255
187 214 255
187 214 255
187 214 255
187 214 255
187 214 255
187 214 255
187 214 255
187 214 255
187 214 255
187 214 255
187 214 255
187 214 255
187 214 255
187 214 255
187 214 255
187 214 255
186 214 255
186 214 255
186 214 255
186 214 255
186 214 255
186 214 255
186 214 255
186 214 255
186 214 255
186 214 255
186 214 255
186 214 255
186 214 255
186 214 255
186 214 255
186 214 255
186 214 255
186 214 255
186 214 255
186 214 255
186 214 255
186 214 255
186 214 255
186 214 255
186 214 255
186 214 255
186 214 255
186 214 255
186 214 255
186 214 255
186 214 255
186 214 255
186 214 255
186 214 255
186 214 255
186 214 255
186 214 255
186 214 255
186 214 255
39 45 55
10 13 17
11 13 17
12 15 19
11 14 17
11 13 16
11 13 17
11 13 17
11 13 17
10 12 16
11 13 17
10 12 16
11 14 17
10 12 16
11 14 17
10 12 16
11 13 17
12 14 18
12 14 18
10 12 16
11 13 17
8 11 14
10 12 15
10 12 15
11 14 18
12 14 18
10 13 16
10 12 16
11 13 17
11 13 17
11 13 17
9 12 15
10 13 17
10 12 16
11 13 17
10 12 15
10 12 15
10 12 15
10 12 16
9 12 15
10 12 16
10 12 16
11 13 17
12 15 18
11 14 17
10 12 15
11 13 17
12 15 19
10 13 17
10 12 15
11 13 17
10 12 15
11 14 18
10 13 16
10 13 16
11 14 17
10 13 17
10 12 15
9 11 14
12 15 18
9 12 15
10 12 16
10 12 15
10 12 15
11 13 17
10 12 16
10 12 16
11 13 17
12 15 19
10 13 16
10 12 16
10 13 16
11 13 17
11 13 17
10 12 16
12 15 19
11 14 17
11 14 17
10 13 16
11 13 17
10 13 16
10 13 16
10 13 17
11 13 16
11 14 18
10 13 16
10 12 15
11 13 17
9 11 14
10 13 16
10 12 16
12 14 17
12 14 18
8 10 14
10 13 16
10 13 16
10 13 17
10 12 16
12 14 18
11 13 17
11 13 17
11 14 18
11 13 17
10 13 16
10 12 15
11 13 17
12 15 19
11 13 17
11 13 17
10 13 16
10 13 17
11 14 17
10 12 15
10 12 16
10 12 15
11 14 18
8 10 13
11 14 17
10 12 16
9 11 14
10 12 15
11 13 17
11 14 17
10 13 16
9 11 14
10 13 16
10 12 16
36 42 51
186 214 255
186 214 255
186 214 255
186 214 255
186 214 255
186 214 255
186 214 255
186 214 255
186 214 255
186 214 255
186 214 255
186 214 255
186 214 255
186 214 255
186 214 255
186 214 255
186 214 255
186 214 255
186 214 255
186 214 255
186 214 255
186 214 255
186 214 255
186 214 255
186 214 255
186 214 255
186 214 255
186 214 255
186 214 255
186 214 255
186 214 255
186 214 255
186 214 255
186 214 255
186 214 255
186 214 255
186 214 255
186 214 255
186 214 255
186 214 255
187 214 255
187 214 255
187 214 255
187 214 255
187 214 255
187 214 255
187 214 255
187 214 255
187 214 255
187 214 255
187 214 255
187 214 255
187 214 255
187 214 255
187 214 255
187 214 255
187 214 255
187 214 255
187 214 255
187 214 255
187 214 255
187 214 255
187 214 255
187 214 255
187 214 255
187 214 255
187 214 255
187 214 255
187 214 255
187 214 255
187 214 255
187 214 255
187 215 255
187 215 255
187 215 255
187 215 255
187 215 255
187 215 255
187 215 255
187 215 255
187 215 255
187 215 255
187 215 255
187 215 255
187 215 255
187 215 255
187 215 255
187 215 255
187 215 255
187 215 255
187 215 255
188 215 255
188 215 255
188 215 255
188 215 255
188 215 255
188 215 255
188 215 255
188 215 255
188 215 255
188 215 255
188 215 255
188 215 255
188 215 255
188 215 255
188 215 255
188 215 255
188 215 255
188 215 255
188 215 255
188 215 255
188 215 255
188 215 255
188 215 255
188 215 255
188 215 255
188 215 255
188 215 255
188 215 255
188 215 255
188 215 255
188 215 255
188 215 255
188 215 255
188 215 255
188 215 255
188 215 255
188 215 255
188 215 255
188 215 255
188 215 255
188 215 255
188 215 255
188 215 255
188 215 255
188 215 255
188 215 255
188 215 255
188 215 255
188 215 255
188 215 255
188 215 255
188 215 255
188 215 255
188 215 255
188 215 255
188 215 255
188 215 255
188 215 255
188 215 255
188 215 255
188 215 255
188 215 255
188 215 255
188 215 255
188 215 255
188 215 255
188 215 255
188 215 255
188 215 255
188 215 255
188 215 255
188 215 255
188 215 255
188 215 255
188 215 255
188 215 255
188 215 255
188 215 255
188 215 255
188 215 255
188 215 255
188 215 255
188 215 255
188 215 255
188 215 255
188 215 255
188 215 255
188 215 255
188 215 255
188 215 255
188 215 255
188 215 255
188 215 255
188 215 255
188 215 255
188 215 255
188 215 255
188 215 255
188 215 255
188 215 255
188 215 255
188 215 255
188 215 255
188 215 255
188 215 255
188 215 255
188 215 255
188 215 255
188 215 255
188 215 255
188 215 255
187 215 255
187 215 255
187 215 255
187 215 255
187 215 255
187 215 255
187 215 255
187 215 255
187 215 255
187 215 255
187 215 255
187 215 255
187 215 255
187 215 255
187 215 255
187 215 255
187 215 255
187 214 255
187 214 255
187 214 255
187 214 255
187 214 255
187 214 255
187 214 255
187 214 255
187 214 255
187 214 255
187 214 255
187 214 255
187 214 255
187 214 255
187 214 255
187 214 255
187 214 255
187 214 255
187 214 255
187 214 255
187 214 255
187 214 255
187 214 255
187 214 255
187 214 255
187 214 255
187 214 255
187 214 255
187 214 255
187 214 255
187 214 255
187 214 255
187 214 255
186 214 255
186 214 255
186 214 255
186 214 255
186 214 255
186 214 255
186 214 255
186 214 255
186 214 255
186 214 255
186 214 255
186 214 255
186 214 255
186 214 255
186 214 255
186 214 255
186 214 255
186 214 255
186 214 255
183 210 251
16 19 23
10 12 16
10 12 16
11 13 17
10 12 15
10 13 17
12 15 18
11 14 18
11 14 17
11 13 17
12 15 19
10 13 16
11 14 17
10 12 15
11 13 17
10 12 16
10 12 16
10 13 16
11 13 17
11 14 18
10 12 16
11 13 17
10 12 15
10 12 15
10 13 16
9 11 15
11 14 17
12 14 18
10 12 15
11 14 17
10 12 16
10 12 15
9 11 14
10 12 16
10 12 15
11 13 16
12 14 18
10 13 17
10 12 15
12 14 18
9 12 15
10 12 15
10 12 16
10 12 16
10 12 16
11 14 17
11 13 17
10 12 16
9 11 14
10 13 16
8 10 13
11 13 17
10 13 16
11 13 17
10 12 16
10 13 17
11 14 18
10 12 16
10 13 17
11 13 17
9 11 15
11 14 17
12 14 18
10 12 16
11 14 17
11 14 17
11 13 17
11 13 17
11 14 17
10 13 16
10 13 16
12 15 19
10 12 16
11 14 17
10 12 16
9 11 14
9 11 14
9 11 14
9 11 14
11 13 17
11 14 18
10 12 16
10 12 16
10 12 15
10 13 16
11 13 17
10 12 16
11 13 17
10 12 15
10 13 16
10 12 16
10 13 16
11 14 17
10 13 17
9 11 14
10 12 16
11 13 17
10 12 16
12 15 19
10 13 17
10 13 16
10 12 15
10 12 15
12 14 18
10 13 16
11 13 17
9 11 14
9 11 14
10 13 16
10 12 16
11 14 17
12 14 18
9 11 14
10 12 16
10 13 16
9 11 14
10 12 16
9 12 15
9 11 14
11 13 17
11 14 18
11 13 17
10 13 16
9 11 15
11 14 18
10 12 16
10 12 15
13 16 20
183 210 251
186 214 255
186 214 255
186 214 255
186 214 255
186 214 255
186 214 255
186 214 255
186 214 255
186 214 255
186 214 255
186 214 255
186 214 255
186 214 255
186 214 255
186 214 255
186 214 255
186 214 255
186 214 255
186 214 255
187 214 255
187 214 255
187 214 255
187 214 255
187 214 255
187 214 255
187 214 255
187 214 255
187 214 255
187 214 255
187 214 255
187 214 255
187 214 255
187 214 255
187 214 255
187 214 255
187 214 255
187 214 255
187 214 255
187 214 255
187 214 255
187 214 255
187 214 255
187 214 255
187 214 255
187 214 255
187 214 255
187 214 255
187 214 255
187 214 255
187 214 255
187 214 255
187 214 255
187 215 255
187 215 255
187 215 255
187 215 255
187 215 255
187 215 255
187 215 255
187 215 255
187 215 255
187 215 255
187 215 255
187 215 255
187 215 255
187 215 255
187 215 255
187 215 255
187 215 255
188 215 255
188 215 255
188 215 255
188 215 255
188 215 255
188 215 255
188 215 255
188 215 255
188 215 255
188 215 255
188 215 255
188 215 255
188 215 255
188 215 255
188 215 255
188 215 255
188 215 255
188 215 255
188 215 255
188 215 255
188 215 255
188 215 255
188 215 255
188 215 255
188 215 255
188 215 255
188 215 255
188 215 255
188 215 255
188 215 255
188 215 255
188 215 255
188 215 255
188 215 255
188 215 255
188 215 255
188 215 255
188 215 255
188 215 255
188 215 255
188 215 255
188 215 255
188 215 255
188 215 255
188 215 255
188 215 255
188 215 255
188 215 255
188 215 255
188 215 255
188 215 255
188 215 255
188 215 255
188 215 255
188 215 255
188 215 255
188 215 255
188 215 255
188 215 255
188 215 255
188 215 255
188 215 255
188 215 255
188 215 255
188 215 255
188 215 255
189 215 255
189 215 255
189 215 255
189 215 255
189 215 255
189 215 255
189 215 255
189 215 255
189 215 255
189 215 255
189 215 255
189 215 255
189 215 255
189 215 255
189 215 255
189 215 255
189 215 255
189 215 255
189 215 255
189 215 255
188 215 255
188 215 255
188 215 255
188 215 255
188 215 255
188 215 255
188 215 255
188 215 255
188 215 255
188 215 255
188 215 255
188 215 255
188 215 255
188 215 255
188 215 255
188 215 255
188 215 255
188 215 255
188 215 255
188 215 255
188 215 255
188 215 255
188 215 255
188 215 255
188 215 255
188 215 255
188 215 255
188 215 255
188 215 255
188 215 255
188 215 255
188 215 255
188 215 255
188 215 255
188 215 255
188 215 255
188 215 255
188 215 255
188 215 255
188 215 255
188 215 255
188 215 255
188 215 255
188 215 255
188 215 255
188 215 255
188 215 255
188 215 255
188 215 255
188 215 255
188 215 255
188 215 255
188 215 255
188 215 255
188 215 255
188 215 255
188 215 255
188 215 255
188 215 255
188 215 255
188 215 255
188 215 255
188 215 255
188 215 255
188 215 255
188 215 255
187 215 255
187 215 255
187 215 255
187 215 255
187 215 255
187 215 255
187 215 255
187 215 255
187 215 255
187 215 255
187 215 255
187 215 255
187 215 255
187 215 255
187 215 255
187 215 255
187 215 255
187 215 255
187 214 255
187 214 255
187 214 255
187 214 255
187 214 255
187 214 255
187 214 255
187 214 255
187 214 255
187 214 255
187 214 255
187 214 255
187 214 255
187 214 255
187 214 255
187 214 255
187 214 255
187 214 255
187 214 255
187 214 255
187 214 255
187 214 255
187 214 255
187 214 255
187 214 255
187 214 255
187 214 255
187 214 255
187 214 255
187 214 255
187 214 255
155 178 213
10 13 16
11 13 17
9 11 14
11 14 18
10 12 16
11 13 17
11 14 18
11 13 17
10 12 16
10 13 17
11 13 17
11 14 18
11 14 17
11 13 17
11 13 17
11 14 17
10 12 16
10 13 16
10 12 15
11 13 17
9 11 15
11 13 17
9 12 15
9 11 14
9 11 15
12 14 18
10 12 16
9 12 15
11 13 17
9 11 15
11 13 17
10 12 15
9 11 14
10 13 17
12 14 18
11 14 17
12 14 18
11 13 17
12 15 19
11 13 17
9 11 15
9 11 14
11 14 17
10 12 16
10 12 16
10 12 15
11 14 17
10 13 16
11 13 17
10 13 16
12 14 18
10 12 15
11 13 17
10 12 16
10 13 16
10 13 17
10 12 16
10 13 16
11 13 16
11 13 17
9 11 14
12 14 18
11 13 17
10 12 15
10 12 15
9 12 15
10 13 16
9 11 15
11 13 17
10 13 17
11 13 17
9 11 14
8 10 13
11 14 17
11 14 18
10 12 16
11 13 16
10 12 16
10 12 16
9 12 15
11 13 17
10 12 15
10 13 16
10 12 15
10 12 16
9 11 14
11 13 17
10 12 15
12 14 18
11 14 17
10 13 16
10 12 15
10 12 16
11 13 17
10 12 16
11 13 17
9 11 15
11 14 17
9 11 14
11 14 17
9 11 14
10 12 15
9 11 14
11 13 17
10 13 17
9 12 15
11 13 16
10 12 15
11 13 17
9 11 15
11 13 17
11 14 17
11 13 17
9 11 14
9 12 15
11 14 17
10 13 17
12 15 19
11 14 17
10 13 16
11 13 17
10 13 16
10 12 16
11 14 17
11 13 17
12 14 18
9 11 14
9 12 15
148 170 203
187 214 255
187 214 255
187 214 255
187 214 255
187 214 255
187 214 255
187 214 255
187 214 255
187 214 255
187 214 255
187 214 255
187 214 255
187 214 255
187 214 255
187 214 255
187 214 255
187 214 255
187 214 255
187 214 255
187 214 255
187 214 255
187 214 255
187 214 255
187 214 255
187 214 255
187 214 255
187 214 255
187 214 255
187 214 255
187 214 255
187 215 255
187 215 255
187 215 255
187 215 255
187 215 255
187 215 255
187 215 255
187 215 255
187 215 255
187 215 255
187 215 255
187 215 255
187 215 255
187 215 255
187 215 255
187 215 255
187 215 255
187 215 255
188 215 255
188 215 255
188 215 255
188 215 255
188 215 255
188 215 255
188 215 255
188 215 255
188 215 255
188 215 255
188 215 255
188 215 255
188 215 255
188 215 255
188 215 255
188 215 255
188 215 255
188 215 255
188 215 255
188 215 255
188 215 255
188 215 255
188 215 255
188 215 255
188 215 255
188 215 255
188 215 255
188 215 255
188 215 255
188 215 255
188 215 255
188 215 255
188 215 255
188 215 255
188 215 255
188 215 255
188 215 255
188 215 255
188 215 255
188 215 255
188 215 255
188 215 255
188 215 255
188 215 255
188 215 255
188 215 255
188 215 255
188 215 255
188 215 255
188 215 255
188 215 255
188 215 255
188 215 255
188 215 255
188 215 255
188 215 255
188 215 255
188 215 255
188 215 255
188 215 255
188 215 255
188 215 255
188 215 255
188 215 255
188 215 255
188 215 255
188 215 255
189 215 255
189 215 255
189 215 255
189 215 255
189 215 255
189 215 255
189 215 255
189 215 255
189 215 255
189 215 255
189 215 255
189 215 255
189 215 255
189 215 255
189 215 255
189 215 255
189 215 255
189 215 255
189 215 255
189 215 255
189 216 255
189 216 255
189 216 255
189 216 255
189 216 255
189 216 255
189 216 255
189 216 255
189 216 255
189 216 255
189 216 255
189 216 255
189 216 255
189 216 255
189 216 255
189 216 255
189 215 255
189 215 255
189 215 255
189 215 255
189 215 255
189 215 255
189 215 255
189 215 255
189 215 255
189 215 255
189 215 255
189 215 255
189 215 255
189 215 255
189 215 255
189 215 255
189 215 255
189 215 255
189 215 255
189 215 255
189 215 255
189 215 255
189 215 255
189 215 255
189 215 255
189 215 255
189 215 255
189 215 255
189 215 255
189 215 255
188 215 255
188 215 255
188 215 255
188 215 255
188 215 255
188 215 255
188 215 255
188 215 255
188 215 255
188 215 255
188 215 255
188 215 255
188 215 255
188 215 255
188 215 255
188 215 255
188 215 255
188 215 255
188 215 255
188 215 255
188 215 255
188 215 255
188 215 255
188 215 255
188 215 255
188 215 255
188 215 255
188 215 255
188 215 255
188 215 255
188 215 255
188 215 255
188 215 255
188 215 255
188 215 255
188 215 255
188 215 255
188 215 255
188 215 255
188 215 255
188 215 255
188 215 255
188 215 255
188 215 255
188 215 255
188 215 255
188 215 255
188 215 255
188 215 255
188 215 255
188 215 255
188 215 255
188 215 255
188 215 255
188 215 255
188 215 255
188 215 255
188 215 255
188 215 255
188 215 255
188 215 255
188 215 255
188 215 255
188 215 255
187 215 255
187 215 255
187 215 255
187 215 255
187 215 255
187 215 255
187 215 255
187 215 255
187 215 255
187 215 255
187 215 255
187 215 255
187 215 255
187 215 255
187 215 255
187 215 255
187 215 255
187 215 255
187 214 255
187 214 255
187 215 255
187 214 255
187 214 255
187 214 255
187 214 255
125 143 171
10 12 15
10 13 16
10 13 16
9 11 15
10 13 16
11 13 17
9 11 14
11 13 17
8 10 14
10 12 16
10 12 15
11 13 17
11 13 17
11 13 17
11 13 17
11 13 17
11 14 18
10 13 16
10 12 16
9 11 15
11 14 18
11 13 17
11 14 17
11 13 17
9 12 15
10 12 16
11 13 17
10 12 16
9 12 15
10 12 16
10 12 16
11 13 17
10 12 16
10 13 16
10 12 15
11 13 17
11 13 17
10 12 16
11 13 17
11 13 17
10 12 16
10 13 16
10 13 16
10 12 16
10 13 16
12 14 18
11 13 17
10 12 16
12 14 18
10 12 16
10 12 16
10 12 15
9 11 14
10 12 15
10 12 15
11 13 17
11 13 17
11 13 17
10 13 16
10 12 15
10 12 15
10 12 16
9 11 15
10 12 16
10 12 16
11 13 16
10 12 15
10 12 15
10 12 15
9 11 15
10 12 16
11 13 17
9 12 15
10 13 16
10 12 16
10 12 16
11 13 17
11 13 16
10 13 16
9 12 15
9 11 14
9 11 14
10 13 16
10 13 16
9 11 14
9 12 15
10 13 16
9 12 15
12 14 18
9 11 14
8 10 13
11 13 16
11 13 17
9 11 14
8 10 13
10 12 15
11 13 17
11 13 17
11 14 17
10 12 15
11 13 17
11 13 17
11 13 17
9 11 14
9 11 14
10 12 16
10 12 16
10 12 15
10 12 15
12 15 19
12 14 18
10 12 15
10 13 16
10 12 16
11 13 17
10 12 15
11 13 17
10 12 16
10 13 16
10 12 16
10 12 16
11 13 17
11 13 17
11 14 17
9 12 15
10 13 16
10 13 16
11 13 17
130 149 178
187 214 255
187 214 255
187 214 255
187 214 255
187 215 255
187 215 255
187 215 255
187 215 255
187 215 255
187 215 255
187 215 255
187 215 255
187 215 255
187 215 255
187 215 255
187 215 255
187 215 255
187 215 255
187 215 255
187 215 255
187 215 255
187 215 255
187 215 255
187 215 255
187 215 255
188 215 255
188 215 255
188 215 255
188 215 255
188 215 255
188 215 255
188 215 255
188 215 255
188 215 255
188 215 255
188 215 255
188 215 255
188 215 255
188 215 255
188 215 255
188 215 255
188 215 255
188 215 255
188 215 255
188 215 255
188 215 255
188 215 255
188 215 255
188 215 255
188 215 255
188 215 255
188 215 255
188 215 255
188 215 255
188 215 255
188 215 255
188 215 255
188 215 255
188 215 255
188 215 255
188 215 255
188 215 255
188 215 255
188 215 255
188 215 255
188 215 255
188 215 255
188 215 255
188 215 255
188 215 255
188 215 255
188 215 255
188 215 255
188 215 255
188 215 255
188 215 255
188 215 255
188 215 255
188 215 255
188 215 255
188 215 255
188 215 255
188 215 255
188 215 255
188 215 255
188 215 255
188 215 255
188 215 255
188 215 255
188 215 255
188 215 255
188 215 255
189 215 255
189 215 255
189 215 255
189 215 255
189 215 255
189 215 255
189 215 255
189 215 255
189 215 255
189 215 255
189 215 255
189 215 255
189 215 255
189 215 255
189 215 255
189 215 255
189 215 255
189 215 255
189 215 255
189 215 255
189 215 255
189 215 255
189 215 255
189 215 255
189 215 255
189 215 255
189 215 255
189 216 255
189 216 255
189 216 255
189 216 255
189 216 255
189 216 255
189 216 255
189 216 255
189 216 255
189 216 255
189 216 255
189 216 255
189 216 255
189 216 255
189 216 255
189 216 255
189 216 255
189 216 255
189 216 255
189 216 255
189 216 255
189 216 255
189 216 255
189 216 255
189 216 255
189 216 255
189 216 255
189 216 255
189 216 255
189 216 255
189 216 255
189 216 255
189 216 255
189 216 255
189 216 255
189 216 255
189 216 255
189 216 255
189 216 255
189 216 255
189 216 255
189 216 255
189 216 255
189 216 255
189 216 255
189 216 255
189 216 255
189 216 255
189 216 255
189 216 255
189 216 255
189 216 255
189 216 255
189 216 255
189 216 255
189 216 255
189 216 255
189 216 255
189 216 255
189 216 255
189 216 255
189 216 255
189 215 255
189 215 255
189 215 255
189 215 255
189 215 255
189 215 255
189 215 255
189 215 255
189 215 255
189 215 255
189 215 255
189 215 255
189 215 255
189 215 255
189 215 255
189 215 255
189 215 255
189 215 255
189 215 255
189 215 255
189 215 255
189 215 255
189 215 255
189 215 255
189 215 255
189 215 255
188 215 255
188 215 255
188 215 255
188 215 255
188 215 255
188 215 255
188 215 255
188 215 255
188 215 255
188 215 255
188 215 255
188 215 255
188 215 255
188 215 255
188 215 255
188 215 255
188 215 255
188 215 255
188 215 255
188 215 255
188 215 255
188 215 255
188 215 255
188 215 255
188 215 255
188 215 255
188 215 255
188 215 255
188 215 255
188 215 255
188 215 255
188 215 255
188 215 255
188 215 255
188 215 255
188 215 255
188 215 255
188 215 255
188 215 255
188 215 255
188 215 255
188 215 255
188 215 255
188 215 255
188 215 255
188 215 255
188 215 255
188 215 255
188 215 255
188 215 255
188 215 255
188 215 255
188 215 255
188 215 255
188 215 255
188 215 255
188 215 255
188 215 255
188 215 255
188 215 255
188 215 255
188 215 255
188 215 255
111 128 153
11 14 17
9 12 15
9 11 14
10 12 15
11 13 17
11 14 17
10 12 16
11 14 17
9 12 15
11 13 17
10 13 16
10 12 15
9 11 14
10 12 16
11 14 17
10 13 16
9 11 14
10 12 16
12 15 19
10 13 16
9 11 15
11 14 17
11 13 16
9 12 15
11 13 17
11 14 17
10 13 16
11 13 17
10 13 16
10 12 16
11 13 16
9 11 14
10 12 16
11 13 17
10 12 16
10 12 16
11 14 17
10 12 16
11 13 17
10 13 16
10 12 15
8 10 14
10 12 16
12 14 18
11 13 17
10 12 16
10 12 15
10 13 16
12 14 18
11 14 18
11 14 17
9 12 15
10 12 16
11 13 16
10 12 16
11 14 18
10 13 16
9 12 15
11 13 17
10 13 16
9 11 14
11 13 17
11 13 17
11 14 18
10 12 16
10 13 17
9 12 15
11 13 16
10 13 16
11 14 17
9 11 14
11 14 17
10 12 16
11 13 17
11 14 17
10 13 16
11 13 16
10 12 16
11 13 17
10 13 16
10 12 16
10 13 16
10 12 16
11 13 17
10 12 16
9 12 15
10 13 16
11 14 18
10 12 16
10 12 16
10 12 16
10 12 15
10 13 17
10 12 16
9 11 14
10 12 15
11 13 17
10 13 16
8 10 13
9 11 15
10 12 16
12 15 19
10 13 16
10 13 16
10 12 16
11 13 17
11 14 18
10 12 16
7 9 12
10 13 16
10 12 15
11 13 17
10 13 17
9 11 14
11 13 17
10 13 16
9 11 14
9 11 14
10 13 16
11 13 17
10 13 16
10 12 15
11 13 17
11 14 17
9 11 14
10 12 15
11 13 17
10 12 16
105 121 144
188 215 255
188 215 255
188 215 255
188 215 255
188 215 255
188 215 255
188 215 255
188 215 255
188 215 255
188 215 255
188 215 255
188 215 255
188 215 255
188 215 255
188 215 255
188 215 255
188 215 255
188 215 255
188 215 255
188 215 255
188 215 255
188 215 255
188 215 255
188 215 255
188 215 255
188 215 255
188 215 255
188 215 255
188 215 255
188 215 255
188 215 255
188 215 255
188 215 255
188 215 255
188 215 255
188 215 255
188 215 255
188 215 255
188 215 255
188 215 255
188 215 255
188 215 255
188 215 255
188 215 255
188 215 255
188 215 255
188 215 255
188 215 255
188 215 255
188 215 255
188 215 255
188 215 255
188 215 255
188 215 255
188 215 255
188 215 255
188 215 255
188 215 255
188 215 255
188 215 255
188 215 255
188 215 255
188 215 255
188 215 255
189 215 255
189 215 255
189 215 255
189 215 255
189 215 255
189 215 255
189 215 255
189 215 255
189 215 255
189 215 255
189 215 255
189 215 255
189 215 255
189 215 255
189 215 255
189 215 255
189 215 255
189 215 255
189 215 255
189 215 255
189 215 255
189 215 255
189 215 255
189 215 255
189 215 255
189 215 255
189 216 255
189 216 255
189 216 255
189 216 255
189 216 255
189 216 255
189 216 255
189 216 255
189 216 255
189 216 255
189 216 255
189 216 255
189 216 255
189 216 255
189 216 255
189 216 255
189 216 255
189 216 255
189 216 255
189 216 255
189 216 255
189 216 255
189 216 255
189 216 255
189 216 255
189 216 255
189 216 255
189 216 255
189 216 255
189 216 255
189 216 255
189 216 255
189 216 255
189 216 255
189 216 255
189 216 255
189 216 255
189 216 255
189 216 255
189 216 255
189 216 255
189 216 255
189 216 255
189 216 255
189 216 255
190 216 255
190 216 255
190 216 255
190 216 255
190 216 255
190 216 255
190 216 255
190 216 255
189 216 255
189 216 255
189 216 255
189 216 255
189 216 255
189 216 255
189 216 255
189 216 255
189 216 255
189 216 255
189 216 255
189 216 255
189 216 255
189 216 255
189 216 255
189 216 255
189 216 255
189 216 255
189 216 255
189 216 255
189 216 255
189 216 255
189 216 255
189 216 255
189 216 255
189 216 255
189 216 255
189 216 255
189 216 255
189 216 255
189 216 255
189 216 255
189 216 255
189 216 255
189 216 255
189 216 255
189 216 255
189 216 255
189 216 255
189 216 255
189 216 255
189 216 255
189 216 255
189 216 255
189 216 255
189 216 255
189 216 255
189 216 255
189 216 255
189 216 255
189 216 255
189 216 255
189 216 255
189 216 255
189 216 255
189 216 255
189 216 255
189 216 255
189 216 255
189 216 255
189 216 255
189 216 255
189 216 255
189 216 255
189 216 255
189 216 255
189 216 255
189 216 255
189 215 255
189 215 255
189 215 255
189 215 255
189 215 255
189 215 255
189 215 255
189 215 255
189 215 255
189 215 255
189 215 255
189 215 255
189 215 255
189 215 255
189 215 255
189 215 255
189 215 255
189 215 255
189 215 255
189 215 255
189 215 255
189 215 255
189 215 255
189 215 255
189 215 255
188 215 255
188 215 255
188 215 255
188 215 255
188 215 255
188 215 255
188 215 255
188 215 255
188 215 255
188 215 255
188 215 255
188 215 255
188 215 255
188 215 255
188 215 255
188 215 255
188 215 255
188 215 255
188 215 255
188 215 255
188 215 255
188 215 255
188 215 255
188 215 255
188 215 255
188 215 255
188 215 255
188 215 255
188 215 255
188 215 255
188 215 255
188 215 255
188 215 255
188 215 255
90 103 124
11 14 17
12 14 18
9 11 15
11 14 18
9 11 15
11 14 17
11 14 17
11 14 18
11 13 16
10 13 17
10 12 16
10 12 15
11 13 17
11 13 17
11 13 16
11 13 17
11 13 16
10 12 15
9 11 15
11 14 17
11 13 17
9 11 14
9 11 14
10 12 15
10 12 16
11 13 16
11 13 17
10 13 16
10 12 16
9 11 15
11 13 17
10 12 15
10 12 15
10 12 15
11 13 17
9 12 15
10 12 16
8 10 13
11 13 16
11 13 17
9 11 14
9 11 14
11 14 17
8 10 13
9 11 14
10 12 15
10 12 15
10 13 16
10 12 15
11 13 16
9 12 15
11 14 17
10 12 16
11 14 17
10 12 15
9 11 14
9 12 15
10 13 16
9 12 15
10 12 15
9 11 14
9 11 15
12 14 18
10 12 15
11 13 16
10 13 17
10 12 15
11 13 16
11 13 17
9 11 15
11 14 17
9 12 15
10 13 17
11 13 17
11 14 17
11 13 17
10 12 16
10 12 15
9 12 15
11 13 17
10 12 15
11 13 17
9 11 14
10 12 16
9 11 14
11 13 17
10 12 15
10 12 16
10 12 15
10 13 16
10 12 16
10 12 16
11 13 17
9 11 14
10 13 16
9 11 14
10 12 16
11 13 16
10 12 15
10 12 16
10 12 15
10 13 16
11 13 17
11 13 17
10 12 16
10 12 16
11 14 18
11 13 17
10 12 16
12 14 18
11 13 17
11 14 17
10 12 16
11 13 17
8 10 13
10 12 16
9 11 14
9 11 14
11 14 17
9 12 15
11 13 16
11 13 17
10 13 16
10 12 16
10 12 15
10 13 16
8 10 13
11 14 17
68 78 94
188 215 255
188 215 255
188 215 255
188 215 255
188 215 255
188 215 255
188 215 255
188 215 255
188 215 255
188 215 255
188 215 255
188 215 255
188 215 255
188 215 255
188 215 255
188 215 255
188 215 255
188 215 255
188 215 255
188 215 255
188 215 255
188 215 255
188 215 255
188 215 255
188 215 255
188 215 255
188 215 255
188 215 255
188 215 255
188 215 255
188 215 255
188 215 255
188 215 255
188 215 255
189 215 255
189 215 255
189 215 255
189 215 255
189 215 255
189 215 255
189 215 255
189 215 255
189 215 255
189 215 255
189 215 255
189 215 255
189 215 255
189 215 255
189 215 255
189 215 255
189 215 255
189 215 255
189 215 255
189 215 255
189 215 255
189 215 255
189 215 255
189 215 255
189 215 255
189 216 255
189 216 255
189 216 255
189 216 255
189 216 255
189 216 255
189 216 255
189 216 255
189 216 255
189 216 255
189 216 255
189 216 255
189 216 255
189 216 255
189 216 255
189 216 255
189 216 255
189 216 255
189 216 255
189 216 255
189 216 255
189 216 255
189 216 255
189 216 255
189 216 255
189 216 255
189 216 255
189 216 255
189 216 255
189 216 255
189 216 255
189 216 255
189 216 255
189 216 255
189 216 255
189 216 255
189 216 255
189 216 255
189 216 255
189 216 255
189 216 255
189 216 255
189 216 255
189 216 255
189 216 255
189 216 255
189 216 255
189 216 255
189 216 255
189 216 255
189 216 255
189 216 255
189 216 255
189 216 255
189 216 255
189 216 255
189 216 255
189 216 255
189 216 255
189 216 255
189 216 255
189 216 255
189 216 255
189 216 255
189 216 255
189 216 255
189 216 255
189 216 255
189 216 255
190 216 255
190 216 255
190 216 255
190 216 255
190 216 255
190 216 255
190 216 255
190 216 255
190 216 255
190 216 255
190 216 255
190 216 255
190 216 255
190 216 255
190 216 255
190 216 255
190 216 255
190 216 255
190 216 255
190 216 255
190 216 255
190 216 255
190 216 255
190 216 255
190 216 255
190 216 255
190 216 255
190 216 255
190 216 255
190 216 255
190 216 255
190 216 255
190 216 255
190 216 255
190 216 255
190 216 255
190 216 255
190 216 255
190 216 255
190 216 255
190 216 255
190 216 255
190 216 255
190 216 255
190 216 255
190 216 255
190 216 255
190 216 255
190 216 255
190 216 255
190 216 255
190 216 255
189 216 255
189 216 255
189 216 255
189 216 255
189 216 255
189 216 255
189 216 255
189 216 255
189 216 255
189 216 255
189 216 255
189 216 255
189 216 255
189 216 255
189 216 255
189 216 255
189 216 255
189 216 255
189 216 255
189 216 255
189 216 255
189 216 255
189 216 255
189 216 255
189 216 255
189 216 255
189 216 255
189 216 255
189 216 255
189 216 255
189 216 255
189 216 255
189 216 255
189 216 255
189 216 255
189 216 255
189 216 255
189 216 255
189 216 255
189 216 255
189 216 255
189 216 255
189 216 255
189 216 255
189 216 255
189 216 255
189 216 255
189 216 255
189 216 255
189 216 255
189 216 255
189 216 255
189 216 255
189 216 255
189 216 255
189 216 255
189 216 255
189 216 255
189 216 255
189 216 255
189 216 255
189 216 255
189 216 255
189 216 255
189 216 255
189 216 255
189 215 255
189 215 255
189 215 255
189 215 255
189 215 255
189 215 255
189 215 255
189 215 255
189 215 255
189 215 255
189 215 255
189 215 255
189 215 255
189 215 255
189 215 255
189 215 255
189 215 255
189 215 255
189 215 255
189 215 255
189 215 255
189 215 255
189 215 255
189 215 255
76 87 104
10 13 16
10 12 16
10 13 17
9 11 14
11 14 18
11 14 17
12 14 17
10 13 16
10 13 16
11 13 16
8 10 14
10 13 16
10 12 15
9 11 14
11 13 17
10 13 16
10 13 16
10 12 16
10 13 16
11 13 16
10 13 17
10 13 16
9 11 14
11 13 17
11 13 17
11 13 17
10 12 15
10 12 15
9 11 14
10 12 15
10 13 16
9 11 14
11 13 17
11 14 17
9 11 15
11 13 16
11 13 17
10 12 15
10 12 16
11 14 17
12 14 18
11 14 18
12 14 18
8 10 13
11 14 17
9 11 14
12 14 18
11 13 17
9 11 14
10 12 15
9 11 14
8 10 13
10 13 17
10 12 15
9 11 14
11 13 17
9 11 15
11 13 17
10 12 15
11 14 17
11 14 18
10 13 16
9 11 15
10 12 16
11 13 17
10 12 16
9 12 15
10 13 16
11 14 17
9 12 15
9 11 14
10 12 15
8 9 12
10 12 16
11 13 17
10 12 16
10 12 15
10 12 16
10 12 15
10 13 16
11 14 17
11 13 16
11 13 17
10 12 16
11 14 17
11 13 17
11 13 17
11 13 17
9 11 15
9 11 14
9 11 15
8 10 13
10 12 16
10 12 15
10 12 16
10 13 16
11 13 16
9 11 14
10 13 16
10 12 16
9 11 15
9 12 15
11 13 17
10 12 15
9 11 15
10 12 16
11 13 16
11 14 17
10 12 16
10 12 15
10 13 17
9 12 15
9 11 14
10 13 17
11 13 17
9 11 14
11 13 16
10 12 16
10 12 16
11 13 17
10 12 16
9 11 14
9 11 15
10 12 16
10 12 16
10 12 15
9 11 14
11 14 17
86 99 118
189 215 255
189 215 255
189 215 255
189 215 255
189 215 255
189 215 255
189 215 255
189 215 255
189 215 255
189 215 255
189 215 255
189 215 255
189 215 255
189 215 255
189 215 255
189 215 255
189 215 255
189 215 255
189 215 255
189 215 255
189 215 255
189 215 255
189 215 255
189 215 255
189 216 255
189 215 255
189 216 255
189 216 255
189 216 255
189 216 255
189 216 255
189 216 255
189 216 255
189 216 255
189 216 255
189 216 255
189 216 255
189 216 255
189 216 255
189 216 255
189 216 255
189 216 255
189 216 255
189 216 255
189 216 255
189 216 255
189 216 255
189 216 255
189 216 255
189 216 255
189 216 255
189 216 255
189 216 255
189 216 255
189 216 255
189 216 255
189 216 255
189 216 255
189 216 255
189 216 255
189 216 255
189 216 255
189 216 255
189 216 255
189 216 255
189 216 255
189 216 255
189 216 255
189 216 255
189 216 255
189 216 255
189 216 255
189 216 255
189 216 255
189 216 255
189 216 255
189 216 255
189 216 255
189 216 255
189 216 255
189 216 255
189 216 255
189 216 255
189 216 255
189 216 255
189 216 255
189 216 255
189 216 255
189 216 255
189 216 255
189 216 255
190 216 255
190 216 255
190 216 255
190 216 255
190 216 255
190 216 255
190 216 255
190 216 255
190 216 255
190 216 255
190 216 255
190 216 255
190 216 255
190 216 255
190 216 255
190 216 255
190 216 255
190 216 255
190 216 255
190 216 255
190 216 255
190 216 255
190 216 255
190 216 255
190 216 255
190 216 255
190 216 255
190 216 255
190 216 255
190 216 255
190 216 255
190 216 255
190 216 255
190 216 255
190 216 255
190 216 255
190 216 255
190 216 255
190 216 255
190 216 255
190 216 255
190 216 255
190 216 255
190 216 255
190 216 255
190 216 255
190 216 255
190 216 255
190 216 255
190 216 255
190 216 255
190 216 255
190 216 255
190 216 255
190 216 255
190 216 255
190 216 255
190 216 255
190 216 255
190 216 255
190 216 255
190 216 255
190 216 255
190 216 255
190 216 255
190 216 255
190 216 255
190 216 255
190 216 255
190 216 255
190 216 255
190 216 255
190 216 255
190 216 255
190 216 255
190 216 255
190 216 255
190 216 255
190 216 255
190 216 255
190 216 255
190 216 255
190 216 255
190 216 255
190 216 255
190 216 255
190 216 255
190 216 255
190 216 255
190 216 255
190 216 255
190 216 255
190 216 255
190 216 255
190 216 255
190 216 255
190 216 255
190 216 255
190 216 255
190 216 255
190 216 255
190 216 255
190 216 255
190 216 255
190 216 255
190 216 255
190 216 255
190 216 255
190 216 255
190 216 255
190 216 255
190 216 255
190 216 255
190 216 255
190 216 255
190 216 255
190 216 255
190 216 255
190 216 255
190 216 255
190 216 255
190 216 255
190 216 255
190 216 255
190 216 255
190 216 255
190 216 255
190 216 255
190 216 255
190 216 255
190 216 255
190 216 255
189 216 255
189 216 255
189 216 255
189 216 255
189 216 255
189 216 255
189 216 255
189 216 255
189 216 255
189 216 255
189 216 255
189 216 255
189 216 255
189 216 255
189 216 255
189 216 255
189 216 255
189 216 255
189 216 255
189 216 255
189 216 255
189 216 255
189 216 255
189 216 255
189 216 255
189 216 255
189 216 255
189 216 255
189 216 255
189 216 255
189 216 255
189 216 255
189 216 255
189 216 255
189 216 255
189 216 255
189 216 255
189 216 255
189 216 255
189 216 255
189 216 255
189 216 255
189 216 255
189 216 255
189 216 255
189 216 255
189 216 255
53 62 74
10 12 15
11 13 17
11 13 17
9 11 14
10 13 17
10 13 16
10 12 15
11 13 17
10 12 15
10 12 16
11 13 17
10 13 16
9 11 14
11 14 17
10 12 16
10 13 16
10 12 15
11 13 17
9 11 14
10 12 16
11 13 17
9 11 13
10 13 16
10 13 16
10 12 16
10 12 15
10 12 15
11 13 17
10 12 15
10 12 16
10 12 15
9 11 14
11 14 17
11 13 17
11 13 17
8 10 13
9 11 14
11 13 17
10 12 15
9 11 15
9 11 14
10 12 16
10 12 15
10 12 15
10 12 16
10 13 16
10 12 16
11 13 17
11 13 17
10 12 16
11 13 17
11 13 17
10 13 16
9 11 14
10 12 15
9 11 14
10 13 16
10 12 16
10 13 16
11 13 17
11 14 17
11 13 17
11 13 16
11 13 16
10 12 16
8 10 13
11 13 17
10 13 16
10 13 16
10 13 16
10 13 17
10 13 16
11 13 17
9 12 15
9 12 15
11 14 17
10 12 15
10 12 15
10 13 16
9 11 14
9 11 14
10 13 17
9 12 15
9 11 14
9 11 14
11 13 17
11 13 16
11 13 16
10 12 15
10 12 16
9 11 14
12 15 18
10 12 16
11 13 17
10 12 15
9 11 14
11 13 16
10 12 16
9 12 15
10 13 16
10 13 16
10 12 16
9 11 14
10 13 16
11 13 17
9 11 14
10 12 16
9 11 14
11 13 17
9 11 14
8 10 13
10 13 17
9 12 15
10 12 15
9 11 14
9 11 15
11 14 17
10 13 16
10 12 15
9 12 15
11 13 16
9 11 15
10 12 16
9 11 14
11 14 17
9 11 15
9 12 15
12 15 19
60 69 82
189 216 255
189 216 255
189 216 255
189 216 255
189 216 255
189 216 255
189 216 255
189 216 255
189 216 255
189 216 255
189 216 255
189 216 255
189 216 255
189 216 255
189 216 255
189 216 255
189 216 255
189 216 255
189 216 255
189 216 255
189 216 255
189 216 255
189 216 255
189 216 255
189 216 255
189 216 255
189 216 255
189 216 255
189 216 255
189 216 255
189 216 255
189 216 255
189 216 255
189 216 255
189 216 255
189 216 255
189 216 255
189 216 255
189 216 255
189 216 255
189 216 255
189 216 255
189 216 255
189 216 255
189 216 255
189 216 255
189 216 255
189 216 255
190 216 255
190 216 255
190 216 255
190 216 255
190 216 255
190 216 255
190 216 255
190 216 255
190 216 255
190 216 255
190 216 255
190 216 255
190 216 255
190 216 255
190 216 255
190 216 255
190 216 255
190 216 255
190 216 255
190 216 255
190 216 255
190 216 255
190 216 255
190 216 255
190 216 255
190 216 255
190 216 255
190 216 255
190 216 255
190 216 255
190 216 255
190 216 255
190 216 255
190 216 255
190 216 255
190 216 255
190 216 255
190 216 255
190 216 255
190 216 255
190 216 255
190 216 255
190 216 255
190 216 255
190 216 255
190 216 255
190 216 255
190 216 255
190 216 255
190 216 255
190 216 255
190 216 255
190 216 255
190 216 255
190 216 255
190 216 255
190 216 255
190 216 255
190 216 255
190 216 255
190 216 255
190 216 255
190 216 255
190 216 255
190 216 255
190 216 255
190 216 255
190 216 255
190 216 255
190 216 255
190 216 255
190 216 255
190 216 255
190 216 255
190 216 255
190 216 255
190 216 255
190 216 255
190 216 255
190 216 255
190 216 255
190 216 255
190 216 255
190 216 255
190 216 255
190 216 255
190 216 255
190 216 255
190 216 255
190 216 255
190 216 255
190 216 255
190 216 255
190 216 255
190 216 255
190 216 255
190 216 255
190 216 255
190 216 255
190 216 255
190 216 255
190 216 255
190 216 255
190 216 255
190 216 255
190 216 255
190 216 255
190 216 255
190 216 255
190 216 255
190 216 255
190 216 255
190 216 255
190 216 255
190 216 255
190 216 255
190 216 255
190 216 255
190 216 255
190 216 255
190 216 255
190 216 255
190 216 255
190 216 255
190 216 255
190 216 255
190 216 255
190 216 255
190 216 255
190 216 255
190 216 255
190 216 255
190 216 255
190 216 255
190 216 255
190 216 255
190 216 255
190 216 255
190 216 255
190 216 255
190 216 255
190 216 255
190 216 255
190 216 255
190 216 255
190 216 255
190 216 255
190 216 255
190 216 255
190 216 255
190 216 255
190 216 255
190 216 255
190 216 255
190 216 255
190 216 255
190 216 255
190 216 255
190 216 255
190 216 255
190 216 255
190 216 255
190 216 255
190 216 255
190 216 255
190 216 255
190 216 255
190 216 255
190 216 255
190 216 255
190 216 255
190 216 255
190 216 255
190 216 255
190 216 255
190 216 255
190 216 255
190 216 255
190 216 255
190 216 255
190 216 255
190 216 255
190 216 255
190 216 255
190 216 255
190 216 255
190 216 255
190 216 255
190 216 255
190 216 255
190 216 255
190 216 255
190 216 255
190 216 255
190 216 255
190 216 255
190 216 255
190 216 255
190 216 255
190 216 255
190 216 255
190 216 255
190 216 255
190 216 255
190 216 255
190 216 255
190 216 255
190 216 255
190 216 255
190 216 255
190 216 255
190 216 255
190 216 255
190 216 255
190 216 255
190 216 255
190 216 255
190 216 255
190 216 255
190 216 255
190 216 255
190 216 255
30 35 42
11 13 17
10 12 15
9 11 15
10 13 17
8 10 13
10 12 16
9 11 14
10 12 15
9 11 14
10 12 15
10 13 16
9 11 14
10 12 15
10 13 16
9 11 14
8 10 14
9 12 15
11 14 18
9 11 14
10 12 15
11 13 17
10 12 16
10 12 15
10 12 16
10 12 16
9 12 15
8 10 13
11 14 18
10 12 16
10 12 15
10 13 16
11 14 17
9 12 15
9 11 14
8 10 13
11 13 17
9 12 15
10 12 16
11 13 17
10 12 15
9 10 13
10 13 16
10 12 15
9 11 14
9 11 14
10 12 15
10 12 15
10 12 15
9 11 14
10 13 16
9 11 14
9 11 15
10 12 15
10 12 15
10 12 16
9 11 14
10 12 16
11 13 17
10 12 15
9 11 14
10 12 16
10 12 15
11 13 17
11 13 17
10 12 16
9 11 14
10 12 16
10 13 16
10 13 16
9 11 14
9 11 14
10 12 15
9 11 14
11 13 17
9 11 14
11 13 16
10 12 15
10 12 16
10 12 15
10 13 16
9 12 15
9 11 15
11 13 16
8 10 13
9 12 15
11 13 17
10 12 15
10 13 16
9 12 15
9 11 14
10 12 16
9 11 14
11 13 16
9 11 14
10 12 15
9 11 14
9 11 14
10 12 15
10 12 15
11 13 17
10 12 15
10 12 16
9 11 14
11 13 17
9 11 15
10 12 15
10 12 15
10 12 16
10 12 16
10 13 16
10 12 15
10 12 16
10 12 16
10 12 15
9 11 14
10 12 15
10 12 15
12 15 19
9 11 14
10 12 16
10 13 16
11 13 17
10 12 15
10 12 15
11 13 16
11 13 17
10 12 16
12 14 18
33 39 47
190 216 255
190 216 255
190 216 255
190 216 255
190 216 255
190 216 255
190 216 255
190 216 255
190 216 255
190 216 255
190 216 255
190 216 255
190 216 255
190 216 255
190 216 255
190 216 255
190 216 255
190 216 255
190 216 255
190 216 255
190 216 255
190 216 255
190 216 255
190 216 255
190 216 255
190 216 255
190 216 255
190 216 255
190 216 255
190 216 255
190 216 255
190 216 255
190 216 255
190 216 255
190 216 255
190 216 255
190 216 255
190 216 255
190 216 255
190 216 255
190 216 255
190 216 255
190 216 255
190 216 255
190 216 255
190 216 255
190 216 255
190 216 255
190 216 255
190 216 255
190 216 255
190 216 255
190 216 255
190 216 255
190 216 255
190 216 255
190 216 255
190 216 255
190 216 255
190 216 255
190 216 255
190 216 255
190 216 255
190 216 255
190 216 255
190 216 255
190 216 255
190 216 255
190 216 255
190 216 255
190 216 255
190 216 255
190 216 255
190 216 255
190 216 255
190 216 255
190 216 255
190 216 255
190 216 255
190 216 255
190 216 255
190 216 255
190 216 255
190 216 255
190 216 255
190 216 255
190 216 255
190 216 255
190 216 255
190 216 255
190 216 255
190 216 255
190 216 255
190 216 255
190 216 255
190 216 255
190 216 255
190 216 255
190 216 255
190 216 255
190 216 255
190 216 255
190 216 255
190 216 255
190 216 255
190 216 255
190 216 255
190 216 255
190 216 255
190 216 255
190 216 255
190 216 255
190 216 255
190 216 255
190 216 255
190 216 255
190 216 255
190 216 255
190 216 255
190 216 255
190 216 255
190 216 255
190 216 255
190 216 255
190 216 255
190 216 255
190 216 255
190 216 255
190 216 255
190 216 255
190 216 255
190 216 255
190 216 255
190 216 255
190 216 255
191 217 255
191 217 255
191 217 255
191 217 255
191 217 255
191 217 255
191 217 255
191 217 255
191 217 255
191 217 255
191 217 255
191 217 255
191 217 255
191 217 255
191 217 255
191 217 255
191 217 255
191 217 255
191 217 255
191 217 255
191 217 255
191 217 255
191 217 255
191 217 255
191 217 255
191 217 255
191 217 255
191 217 255
191 217 255
191 217 255
191 217 255
191 217 255
191 217 255
191 217 255
191 217 255
191 217 255
191 217 255
191 217 255
191 217 255
191 217 255
191 217 255
191 217 255
191 217 255
190 216 255
190 216 255
191 217 255
191 217 255
191 217 255
190 216 255
190 216 255
190 216 255
190 216 255
190 216 255
190 216 255
190 216 255
190 216 255
190 216 255
190 216 255
190 216 255
190 216 255
190 216 255
190 216 255
190 216 255
190 216 255
190 216 255
190 216 255
190 216 255
190 216 255
190 216 255
190 216 255
190 216 255
190 216 255
190 216 255
190 216 255
190 216 255
190 216 255
190 216 255
190 216 255
190 216 255
190 216 255
190 216 255
190 216 255
190 216 255
190 216 255
190 216 255
190 216 255
190 216 255
190 216 255
190 216 255
190 216 255
190 216 255
190 216 255
190 216 255
190 216 255
190 216 255
190 216 255
190 216 255
190 216 255
190 216 255
190 216 255
190 216 255
190 216 255
190 216 255
190 216 255
190 216 255
190 216 255
190 216 255
190 216 255
190 216 255
190 216 255
190 216 255
190 216 255
190 216 255
190 216 255
190 216 255
190 216 255
190 216 255
190 216 255
190 216 255
190 216 255
190 216 255
190 216 255
190 216 255
190 216 255
190 216 255
190 216 255
190 216 255
190 216 255
190 216 255
190 216 255
190 216 255
190 216 255
190 216 255
190 216 255
190 216 255
24 28 34
11 13 17
9 12 15
11 13 17
10 12 15
9 11 14
9 11 14
9 11 15
11 13 17
10 12 15
9 11 14
10 12 16
9 11 14
10 12 16
11 14 17
9 11 14
9 11 15
9 11 14
11 13 17
10 12 16
10 12 15
9 11 14
9 12 15
10 12 15
9 11 15
11 14 18
11 13 17
10 12 15
9 11 14
10 13 16
11 13 16
10 13 17
9 11 14
10 12 15
10 12 16
9 11 14
10 13 16
10 12 16
11 13 17
9 11 14
11 13 17
10 12 16
11 13 17
11 13 17
11 13 17
10 12 15
11 13 17
11 13 17
11 13 17
11 13 17
9 11 14
10 13 16
10 12 15
10 12 15
11 13 17
9 12 15
8 10 13
11 14 17
10 12 15
10 12 16
10 12 16
10 12 16
9 11 14
9 11 14
10 12 15
9 11 15
10 12 15
10 12 16
9 12 15
9 12 15
10 13 17
11 14 17
11 13 17
10 12 16
10 12 15
11 14 17
9 11 14
11 13 17
9 11 14
9 11 14
9 11 14
10 12 16
10 12 16
11 13 17
9 11 14
9 11 14
10 12 15
11 13 17
9 11 15
9 12 15
10 12 16
11 13 17
10 12 16
9 11 14
10 12 15
10 12 15
10 12 15
9 11 14
10 12 15
9 11 14
10 12 15
10 12 15
9 11 14
11 13 17
10 12 15
10 13 16
11 13 17
10 13 16
11 14 17
10 12 15
10 12 16
10 13 16
9 11 14
10 12 15
10 12 15
10 12 16
9 11 14
11 13 17
9 12 15
10 13 16
10 12 15
10 12 15
9 11 14
9 11 14
11 14 17
10 12 16
10 13 16
10 13 16
9 12 15
23 27 33
190 216 255
190 216 255
190 216 255
190 216 255
190 216 255
190 216 255
190 216 255
190 216 255
190 216 255
190 216 255
190 216 255
190 216 255
190 216 255
190 216 255
190 216 255
190 216 255
190 216 255
190 216 255
190 216 255
190 216 255
190 216 255
190 216 255
190 216 255
190 216 255
190 216 255
190 216 255
190 216 255
190 216 255
190 216 255
190 216 255
190 216 255
190 216 255
190 216 255
190 216 255
190 216 255
190 216 255
190 216 255
190 216 255
190 216 255
190 216 255
190 216 255
190 216 255
190 216 255
190 216 255
190 216 255
190 216 255
190 216 255
190 216 255
190 216 255
190 216 255
190 216 255
190 216 255
190 216 255
190 216 255
190 216 255
190 216 255
190 216 255
190 216 255
190 216 255
190 216 255
190 216 255
190 216 255
190 216 255
190 216 255
190 216 255
190 216 255
190 216 255
190 216 255
190 216 255
190 216 255
190 216 255
190 216 255
190 216 255
190 216 255
190 216 255
190 216 255
190 216 255
190 216 255
190 216 255
190 216 255
190 216 255
190 216 255
190 216 255
190 216 255
190 216 255
190 216 255
190 216 255
190 216 255
191 217 255
190 216 255
190 216 255
191 217 255
191 217 255
191 217 255
191 217 255
191 217 255
191 217 255
191 217 255
191 217 255
191 217 255
191 217 255
191 217 255
191 217 255
191 217 255
191 217 255
191 217 255
191 217 255
191 217 255
191 217 255
191 217 255
191 217 255
191 217 255
191 217 255
191 217 255
191 217 255
191 217 255
191 217 255
191 217 255
191 217 255
191 217 255
191 217 255
191 217 255
191 217 255
191 217 255
191 217 255
191 217 255
191 217 255
191 217 255
191 217 255
191 217 255
191 217 255
191 217 255
191 217 255
191 217 255
191 217 255
191 217 255
191 217 255
191 217 255
191 217 255
191 217 255
191 217 255
191 217 255
191 217 255
191 217 255
191 217 255
191 217 255
191 217 255
191 217 255
191 217 255
191 217 255
191 217 255
191 217 255
191 217 255
191 217 255
191 217 255
191 217 255
191 217 255
191 217 255
191 217 255
191 217 255
191 217 255
191 217 255
191 217 255
191 217 255
191 217 255
191 217 255
191 217 255
191 217 255
191 217 255
191 217 255
191 217 255
191 217 255
191 217 255
191 217 255
191 217 255
191 217 255
191 217 255
191 217 255
191 217 255
191 217 255
191 217 255
191 217 255
191 217 255
191 217 255
191 217 255
191 217 255
191 217 255
191 217 255
191 217 255
191 217 255
191 217 255
191 217 255
191 217 255
191 217 255
191 217 255
191 217 255
191 217 255
191 217 255
191 217 255
191 217 255
191 217 255
191 217 255
191 217 255
191 217 255
191 217 255
191 217 255
191 217 255
191 217 255
191 217 255
191 217 255
191 217 255
191 217 255
191 217 255
191 217 255
191 217 255
191 217 255
191 217 255
191 217 255
191 217 255
191 217 255
191 217 255
191 217 255
191 217 255
191 217 255
191 217 255
191 217 255
191 217 255
191 217 255
191 217 255
191 217 255
191 217 255
191 217 255
191 217 255
191 217 255
191 217 255
191 217 255
191 217 255
191 217 255
191 217 255
191 217 255
191 217 255
191 217 255
191 217 255
191 217 255
191 217 255
191 217 255
191 217 255
191 217 255
191 217 255
191 217 255
191 217 255
191 217 255
191 217 255
191 217 255
191 217 255
191 217 255
191 217 255
191 217 255
191 217 255
191 217 255
191 217 255
191 217 255
191 217 255
191 217 255
191 217 255
191 217 255
191 217 255
191 217 255
191 217 255
191 217 255
24 29 35
8 10 13
10 12 16
9 11 14
10 12 15
10 13 17
11 13 17
11 13 17
10 12 15
10 12 15
9 12 15
9 11 15
10 12 15
11 14 17
10 12 15
10 12 15
10 12 15
9 11 14
9 11 14
9 11 14
10 12 16
9 11 14
10 12 16
10 12 16
9 11 14
9 12 15
9 11 14
9 11 15
10 12 16
11 13 16
10 13 16
10 12 15
10 12 15
11 13 17
9 11 14
9 11 14
9 12 15
9 11 13
11 14 17
9 12 15
9 11 14
9 11 14
10 12 16
9 11 13
11 14 17
10 12 16
10 12 15
12 14 18
9 11 14
10 12 16
10 12 16
10 13 16
9 11 14
9 11 14
10 12 16
10 12 16
11 13 17
10 12 15
10 12 15
9 11 14
10 12 16
11 13 17
9 11 14
9 11 14
11 13 17
9 11 14
10 13 16
8 10 13
10 12 16
10 13 17
9 11 14
8 10 12
10 13 16
10 12 15
11 13 17
10 12 16
9 11 14
10 13 16
9 11 14
9 11 14
10 12 15
9 11 14
9 11 15
9 12 15
9 11 14
9 11 14
12 15 19
9 11 14
10 13 17
10 12 16
9 12 15
10 12 15
9 11 14
9 11 14
10 12 16
10 12 16
11 13 16
11 13 16
11 13 17
10 12 15
10 13 16
10 13 16
10 12 16
10 12 15
8 10 13
9 11 14
10 12 16
10 12 15
10 12 15
11 14 18
10 12 16
10 12 15
12 14 18
11 14 18
11 14 17
10 13 16
10 12 15
11 13 16
10 12 16
9 11 14
10 12 16
8 10 13
10 12 15
10 12 16
11 14 17
11 13 17
10 12 15
10 12 15
11 13 17
21 25 30
191 217 255
191 217 255
191 217 255
191 217 255
191 217 255
191 217 255
191 217 255
191 217 255
191 217 255
191 217 255
191 217 255
191 217 255
191 217 255
191 217 255
191 217 255
191 217 255
191 217 255
191 217 255
191 217 255
191 217 255
191 217 255
191 217 255
191 217 255
191 217 255
191 217 255
191 217 255
191 217 255
191 217 255
191 217 255
191 217 255
191 217 255
191 217 255
191 217 255
191 217 255
191 217 255
191 217 255
191 217 255
191 217 255
191 217 255
191 217 255
191 217 255
191 217 255
191 217 255
191 217 255
191 217 255
191 217 255
191 217 255
191 217 255
191 217 255
191 217 255
191 217 255
191 217 255
191 217 255
191 217 255
191 217 255
191 217 255
191 217 255
191 217 255
191 217 255
191 217 255
191 217 255
191 217 255
191 217 255
191 217 255
191 217 255
191 217 255
191 217 255
191 217 255
191 217 255
191 217 255
191 217 255
191 217 255
191 217 255
191 217 255
191 217 255
191 217 255
191 217 255
191 217 255
191 217 255
191 217 255
191 217 255
191 217 255
191 217 255
191 217 255
191 217 255
191 217 255
191 217 255
191 217 255
191 217 255
191 217 255
191 217 255
191 217 255
191 217 255
191 217 255
191 217 255
191 217 255
191 217 255
191 217 255
191 217 255
191 217 255
191 217 255
191 217 255
191 217 255
191 217 255
191 217 255
191 217 255
191 217 255
191 217 255
191 217 255
191 217 255
191 217 255
191 217 255
191 217 255
191 217 255
191 217 255
191 217 255
191 217 255
191 217 255
191 217 255
191 217 255
191 217 255
191 217 255
191 217 255
191 217 255
191 217 255
191 217 255
191 217 255
191 217 255
191 217 255
191 217 255
191 217 255
191 217 255
191 217 255
191 217 255
191 217 255
191 217 255
191 217 255
191 217 255
191 217 255
191 217 255
191 217 255
191 217 255
191 217 255
191 217 255
191 217 255
191 217 255
191 217 255
191 217 255
191 217 255
191 217 255
191 217 255
191 217 255
191 217 255
191 217 255
191 217 255
191 217 255
191 217 255
191 217 255
191 217 255
191 217 255
191 217 255
191 217 255
191 217 255
191 217 255
191 217 255
191 217 255
191 217 255
191 217 255
191 217 255
191 217 255
191 217 255
191 217 255
191 217 255
191 217 255
191 217 255
191 217 255
191 217 255
191 217 255
191 217 255
191 217 255
191 217 255
191 217 255
191 217 255
191 217 255
191 217 255
191 217 255
191 217 255
191 217 255
191 217 255
191 217 255
191 217 255
191 217 255
191 217 255
191 217 255
191 217 255
191 217 255
191 217 255
191 217 255
191 217 255
191 217 255
191 217 255
191 217 255
191 217 255
191 217 255
191 217 255
191 217 255
191 217 255
191 217 255
191 217 255
191 217 255
191 217 255
191 217 255
191 217 255
191 217 255
191 217 255
191 217 255
191 217 255
191 217 255
191 217 255
191 217 255
191 217 255
191 217 255
191 217 255
191 217 255
191 217 255
191 217 255
191 217 255
191 217 255
191 217 255
191 217 255
191 217 255
191 217 255
191 217 255
191 217 255
191 217 255
191 217 255
191 217 255
191 217 255
191 217 255
191 217 255
191 217 255
191 217 255
191 217 255
191 217 255
191 217 255
191 217 255
191 217 255
191 217 255
191 217 255
191 217 255
191 217 255
191 217 255
191 217 255
191 217 255
191 217 255
191 217 255
191 217 255
191 217 255
191 217 255
191 217 255
191 217 255
191 217 255
191 217 255
191 217 255
191 217 255
191 217 255
191 217 255
191 217 255
191 217 255
191 217 255
20 23 28
9 12 15
10 12 16
9 12 15
11 13 17
9 12 15
9 11 14
9 10 13
9 11 14
9 12 15
10 12 15
11 14 17
9 11 14
9 11 14
9 11 14
11 13 17
10 13 16
9 11 14
10 12 15
9 12 15
8 10 13
9 11 14
11 13 17
11 14 17
10 12 16
11 14 17
9 11 14
10 12 15
9 11 15
10 12 15
9 11 14
10 12 15
8 10 13
10 12 15
10 12 16
9 11 14
11 14 17
10 12 15
11 14 17
10 12 16
10 12 15
8 9 12
10 13 16
10 12 15
9 11 14
9 11 14
9 11 15
9 11 14
11 13 17
9 12 15
10 13 16
9 11 15
9 11 14
10 13 16
10 12 15
11 13 16
9 11 15
10 12 16
8 10 13
8 10 13
10 12 15
10 13 16
9 11 14
10 12 15
9 11 14
11 13 17
10 13 16
10 12 16
10 12 15
10 12 15
10 12 15
9 11 15
9 12 15
9 11 14
9 12 15
9 11 14
9 12 15
9 11 14
10 12 15
9 11 14
11 13 17
10 12 15
10 12 16
9 12 15
9 11 14
11 13 16
10 12 16
9 12 15
10 12 16
9 11 14
10 12 16
10 13 16
11 13 17
10 12 15
10 12 16
10 13 16
11 13 17
10 12 16
10 12 15
11 13 17
9 11 14
11 13 17
8 10 13
9 11 14
9 11 14
8 10 14
9 11 14
10 12 15
10 12 15
9 11 15
10 12 15
10 12 16
10 12 16
10 12 16
10 12 15
10 13 16
10 12 16
9 11 14
10 12 16
9 11 14
10 12 15
10 13 16
9 11 14
8 10 13
9 11 15
10 12 15
9 11 14
9 11 14
9 11 14
28 33 40
191 217 255
191 217 255
191 217 255
191 217 255
191 217 255
191 217 255
191 217 255
191 217 255
191 217 255
191 217 255
191 217 255
191 217 255
191 217 255
191 217 255
191 217 255
191 217 255
191 217 255
191 217 255
191 217 255
191 217 255
191 217 255
191 217 255
191 217 255
191 217 255
191 217 255
191 217 255
191 217 255
191 217 255
191 217 255
191 217 255
191 217 255
191 217 255
191 217 255
191 217 255
191 217 255
191 217 255
191 217 255
191 217 255
191 217 255
191 217 255
191 217 255
191 217 255
191 217 255
191 217 255
191 217 255
191 217 255
191 217 255
191 217 255
191 217 255
191 217 255
191 217 255
191 217 255
191 217 255
191 217 255
191 217 255
191 217 255
191 217 255
191 217 255
191 217 255
191 217 255
191 217 255
191 217 255
191 217 255
191 217 255
191 217 255
191 217 255
191 217 255
191 217 255
191 217 255
191 217 255
191 217 255
191 217 255
191 217 255
191 217 255
191 217 255
191 217 255
191 217 255
191 217 255
191 217 255
191 217 255
191 217 255
191 217 255
191 217 255
191 217 255
191 217 255
191 217 255
191 217 255
191 217 255
191 217 255
191 217 255
191 217 255
191 217 255
191 217 255
191 217 255
191 217 255
191 217 255
191 217 255
191 217 255
191 217 255
191 217 255
191 217 255
191 217 255
191 217 255
191 217 255
191 217 255
191 217 255
191 217 255
191 217 255
191 217 255
191 217 255
191 217 255
191 217 255
191 217 255
191 217 255
191 217 255
191 217 255
191 217 255
191 217 255
191 217 255
191 217 255
191 217 255
191 217 255
191 217 255
191 217 255
191 217 255
191 217 255
191 217 255
191 217 255
191 217 255
191 217 255
191 217 255
191 217 255
191 217 255
191 217 255
191 217 255
191 217 255
192 217 255
191 217 255
192 217 255
191 217 255
191 217 255
191 217 255
192 217 255
192 217 255
191 217 255
191 217 255
191 217 255
192 217 255
191 217 255
191 217 255
191 217 255
191 217 255
192 217 255
191 217 255
191 217 255
192 217 255
192 217 255
192 217 255
191 217 255
192 217 255
191 217 255
192 217 255
192 217 255
191 217 255
192 217 255
191 217 255
191 217 255
191 217 255
192 217 255
192 217 255
191 217 255
192 217 255
192 217 255
192 217 255
192 217 255
192 217 255
192 217 255
191 217 255
191 217 255
191 217 255
191 217 255
191 217 255
192 217 255
191 217 255
191 217 255
192 217 255
191 217 255
192 217 255
192 217 255
191 217 255
191 217 255
192 217 255
191 217 255
192 217 255
191 217 255
192 217 255
191 217 255
192 217 255
191 217 255
191 217 255
192 217 255
192 217 255
192 217 255
192 217 255
192 217 255
192 217 255
191 217 255
192 217 255
192 217 255
191 217 255
192 217 255
191 217 255
191 217 255
191 217 255
191 217 255
191 217 255
192 217 255
192 217 255
192 217 255
192 217 255
191 217 255
192 217 255
191 217 255
191 217 255
191 217 255
192 217 255
191 217 255
192 217 255
192 217 255
192 217 255
191 217 255
192 217 255
192 217 255
191 217 255
192 217 255
191 217 255
191 217 255
192 217 255
192 217 255
192 217 255
191 217 255
191 217 255
192 217 255
192 217 255
191 217 255
192 217 255
191 217 255
192 217 255
192 217 255
191 217 255
192 217 255
191 217 255
191 217 255
192 217 255
191 217 255
192 217 255
192 217 255
191 217 255
192 217 255
191 217 255
191 217 255
192 217 255
191 217 255
191 217 255
191 217 255
191 217 255
192 217 255
192 217 255
192 217 255
191 217 255
21 25 31
9 11 14
9 12 15
10 12 16
11 13 17
9 12 15
9 12 15
10 12 15
9 11 14
10 12 16
9 11 14
10 12 16
9 11 14
9 11 14
11 13 17
10 12 15
10 12 15
10 13 16
9 11 14
10 12 15
11 13 17
9 11 15
9 11 14
9 11 15
10 12 15
9 11 14
11 13 17
8 10 13
10 12 16
9 11 14
10 12 15
10 12 16
9 11 14
9 11 13
9 12 15
11 13 17
9 11 14
8 10 13
8 10 13
9 11 15
10 12 16
9 11 14
10 12 15
10 12 16
8 10 13
10 12 15
9 11 15
11 13 17
10 12 15
8 10 13
8 10 13
10 12 16
9 10 13
9 12 15
10 13 16
9 11 14
9 12 15
9 11 14
9 11 14
9 11 14
9 11 14
8 10 14
11 13 17
10 12 15
9 11 14
10 12 16
9 11 14
9 11 14
10 12 16
9 11 14
8 10 13
9 11 14
11 14 17
11 13 16
8 10 13
10 12 15
10 12 15
10 12 15
9 11 14
11 14 17
10 13 16
10 13 16
10 12 15
11 13 17
9 11 14
10 13 16
8 10 13
10 13 16
10 12 16
8 10 13
11 13 17
10 12 15
10 13 16
9 12 15
11 13 16
10 12 16
10 12 16
10 13 16
10 13 16
10 12 15
9 11 15
10 12 16
10 13 16
10 12 15
9 12 15
11 13 16
9 12 15
11 13 17
10 12 16
10 12 16
11 13 16
9 11 14
9 11 14
9 11 14
10 12 16
9 11 14
9 12 15
9 11 14
8 10 13
9 11 14
9 11 15
9 12 15
10 12 15
10 12 15
11 13 17
11 13 17
11 13 17
10 12 15
10 12 15
21 25 30
192 217 255
191 217 255
191 217 255
192 217 255
192 217 255
192 217 255
192 217 255
192 217 255
191 217 255
192 217 255
191 217 255
191 217 255
192 217 255
192 217 255
192 217 255
191 217 255
191 217 255
191 217 255
192 217 255
192 217 255
191 217 255
191 217 255
192 217 255
192 217 255
192 217 255
191 217 255
192 217 255
192 217 255
191 217 255
191 217 255
192 217 255
191 217 255
191 217 255
192 217 255
192 217 255
191 217 255
191 217 255
191 217 255
191 217 255
192 217 255
191 217 255
192 217 255
192 217 255
192 217 255
191 217 255
191 217 255
191 217 255
191 217 255
192 217 255
192 217 255
191 217 255
192 217 255
192 217 255
192 217 255
192 217 255
191 217 255
192 217 255
191 217 255
191 217 255
192 217 255
191 217 255
191 217 255
191 217 255
191 217 255
192 217 255
191 217 255
192 217 255
192 217 255
191 217 255
192 217 255
191 217 255
192 217 255
192 217 255
192 217 255
191 217 255
192 217 255
191 217 255
192 217 255
192 217 255
192 217 255
192 217 255
192 217 255
191 217 255
191 217 255
192 217 255
191 217 255
191 217 255
192 217 255
192 217 255
191 217 255
192 217 255
191 217 255
191 217 255
192 217 255
192 217 255
192 217 255
191 217 255
192 217 255
191 217 255
191 217 255
192 217 255
191 217 255
191 217 255
191 217 255
192 217 255
192 217 255
191 217 255
191 217 255
192 217 255
192 217 255
192 217 255
191 217 255
191 217 255
192 217 255
192 217 255
191 217 255
192 217 255
192 217 255
192 217 255
191 217 255
192 217 255
191 217 255
191 217 255
191 217 255
191 217 255
192 217 255
191 217 255
191 217 255
191 217 255
191 217 255
192 217 255
191 217 255
192 217 255
191 217 255
191 217 255
192 217 255
192 217 255
192 217 255
192 217 255
192 217 255
192 217 255
192 217 255
192 217 255
192 217 255
192 217 255
192 217 255
192 217 255
192 217 255
192 217 255
192 217 255
192 217 255
192 217 255
192 217 255
192 217 255
192 217 255
192 217 255
192 217 255
192 217 255
192 217 255
192 217 255
192 217 255
192 217 255
192 217 255
192 217 255
192 217 255
192 217 255
192 217 255
192 217 255
192 217 255
192 217 255
192 217 255
192 217 255
192 217 255
192 217 255
192 217 255
192 217 255
192 217 255
192 217 255
192 217 255
192 217 255
192 217 255
192 217 255
192 217 255
192 217 255
192 217 255
192 217 255
192 217 255
192 217 255
192 217 255
192 217 255
192 217 255
192 217 255
192 217 255
192 217 255
192 217 255
192 217 255
192 217 255
192 217 255
192 217 255
192 217 255
192 217 255
192 217 255
192 217 255
192 217 255
192 217 255
192 217 255
192 217 255
192 217 255
192 217 255
192 217 255
192 217 255
192 217 255
192 217 255
192 217 255
192 217 255
192 217 255
192 217 255
192 217 255
192 217 255
192 217 255
192 217 255
192 217 255
192 217 255
192 217 255
192 217 255
192 217 255
192 217 255
192 217 255
192 217 255
192 217 255
192 217 255
192 217 255
192 217 255
192 217 255
192 217 255
192 217 255
192 217 255
192 217 255
192 217 255
192 217 255
192 217 255
192 217 255
192 217 255
192 217 255
192 217 255
192 217 255
192 217 255
192 217 255
192 217 255
192 217 255
192 217 255
192 217 255
192 217 255
192 217 255
192 217 255
192 217 255
192 217 255
192 217 255
192 217 255
192 217 255
192 217 255
192 217 255
192 217 255
192 217 255
192 217 255
192 217 255
192 217 255
192 217 255
192 217 255
192 217 255
20 24 29
9 11 15
10 13 16
9 11 14
10 13 17
10 12 15
9 11 14
9 11 14
11 13 17
9 11 14
9 11 14
12 14 18
10 13 16
10 12 15
10 12 15
10 12 16
10 12 15
9 11 14
10 13 16
10 13 16
9 11 13
9 11 15
9 11 14
9 11 15
11 13 17
11 13 17
10 12 16
9 11 14
9 11 14
11 13 17
9 11 14
10 12 16
9 11 14
10 12 15
10 12 15
9 11 14
9 11 14
10 12 16
8 10 13
9 11 14
10 12 16
9 11 14
9 11 14
9 11 14
11 13 17
11 13 17
11 13 17
8 10 13
8 10 13
9 11 14
10 12 15
11 13 17
9 11 14
9 11 14
10 12 15
10 12 15
10 12 16
9 11 13
8 10 13
10 12 15
9 11 14
9 11 15
10 12 16
10 12 16
12 14 18
12 15 19
11 13 16
10 12 15
9 10 13
10 12 15
9 11 14
11 13 17
10 12 16
9 11 14
10 12 16
9 12 15
9 12 15
9 11 15
11 13 16
10 12 15
9 11 14
9 11 14
11 13 17
9 11 14
9 11 14
9 11 14
9 12 15
9 11 14
10 12 16
9 11 14
9 11 14
9 11 14
10 12 16
10 12 15
9 11 15
11 13 16
10 12 15
11 13 16
10 13 16
8 10 13
9 11 13
9 11 14
10 12 15
10 12 15
11 13 17
9 11 14
10 13 16
10 12 16
11 13 16
10 12 15
10 12 15
9 11 14
10 13 16
10 12 15
8 10 13
10 12 16
10 12 16
9 11 14
10 12 15
10 12 15
9 11 15
9 11 15
10 12 15
10 12 16
9 11 15
9 11 14
10 13 16
11 13 16
10 12 15
30 34 42
192 217 255
192 217 255
192 217 255
192 217 255
192 217 255
192 217 255
192 217 255
192 217 255
192 217 255
192 217 255
192 217 255
192 217 255
192 217 255
192 217 255
192 217 255
192 217 255
192 217 255
192 217 255
192 217 255
192 217 255
192 217 255
192 217 255
192 217 255
192 217 255
192 217 255
192 217 255
192 217 255
192 217 255
192 217 255
192 217 255
192 217 255
192 217 255
192 217 255
192 217 255
192 217 255
192 217 255
192 217 255
192 217 255
192 217 255
192 217 255
192 217 255
192 217 255
192 217 255
192 217 255
192 217 255
192 217 255
192 217 255
192 217 255
192 217 255
192 217 255
192 217 255
192 217 255
192 217 255
192 217 255
192 217 255
192 217 255
192 217 255
192 217 255
192 217 255
192 217 255
192 217 255
192 217 255
192 217 255
192 217 255
192 217 255
192 217 255
192 217 255
192 217 255
192 217 255
192 217 255
192 217 255
192 217 255
192 217 255
192 217 255
192 217 255
192 217 255
192 217 255
192 217 255
192 217 255
192 217 255
192 217 255
192 217 255
192 217 255
192 217 255
192 217 255
192 217 255
192 217 255
192 217 255
192 217 255
192 217 255
192 217 255
192 217 255
192 217 255
192 217 255
192 217 255
192 217 255
192 217 255
192 217 255
192 217 255
192 217 255
192 217 255
192 217 255
192 217 255
192 217 255
192 217 255
192 217 255
192 217 255
192 217 255
192 217 255
192 217 255
192 217 255
192 217 255
192 217 255
192 217 255
192 217 255
192 217 255
192 217 255
192 217 255
192 217 255
192 217 255
192 217 255
192 217 255
192 217 255
192 217 255
192 217 255
192 217 255
192 217 255
192 217 255
192 217 255
192 217 255
192 217 255
192 217 255
192 217 255
192 217 255
192 217 255
192 217 255
192 217 255
192 217 255
192 217 255
192 217 255
192 217 255
192 217 255
192 217 255
192 217 255
192 217 255
192 217 255
192 217 255
192 217 255
192 217 255
192 217 255
192 217 255
192 217 255
192 217 255
192 217 255
192 217 255
192 217 255
192 217 255
192 217 255
192 217 255
192 217 255
192 217 255
192 217 255
192 217 255
192 217 255
192 217 255
192 217 255
192 217 255
192 217 255
192 217 255
192 217 255
192 217 255
192 217 255
192 217 255
192 217 255
192 217 255
192 217 255
192 217 255
192 217 255
192 218 255
192 218 255
192 218 255
192 217 255
192 218 255
192 218 255
192 218 255
192 218 255
192 218 255
192 218 255
192 218 255
192 218 255
192 218 255
192 218 255
192 218 255
192 218 255
192 218 255
192 218 255
192 218 255
192 218 255
192 218 255
192 218 255
192 218 255
192 218 255
192 218 255
192 218 255
192 218 255
192 218 255
192 218 255
192 218 255
192 218 255
192 218 255
192 218 255
192 218 255
192 218 255
192 218 255
192 218 255
192 218 255
192 218 255
192 218 255
192 218 255
192 218 255
192 218 255
192 218 255
192 218 255
192 218 255
192 218 255
192 218 255
192 218 255
192 218 255
192 218 255
192 218 255
192 218 255
192 218 255
192 218 255
192 218 255
192 218 255
192 218 255
192 218 255
192 218 255
192 218 255
192 218 255
192 218 255
192 218 255
192 218 255
192 218 255
192 218 255
192 218 255
192 218 255
192 218 255
192 218 255
192 218 255
192 218 255
192 218 255
192 218 255
192 218 255
192 218 255
192 218 255
192 218 255
192 218 255
192 218 255
192 218 255
192 218 255
192 218 255
192 218 255
192 218 255
192 218 255
192 218 255
192 218 255
192 218 255
192 218 255
192 218 255
22 26 31
9 11 14
10 12 15
10 12 15
10 13 16
8 10 13
9 11 14
10 12 15
11 14 17
9 11 14
10 12 16
9 11 14
9 12 15
10 12 15
10 12 15
10 12 16
9 11 14
8 10 12
10 12 16
10 12 15
9 11 14
10 12 15
10 12 15
10 13 16
9 11 14
9 11 14
10 12 15
10 12 15
9 11 14
7 9 11
9 11 14
10 12 16
10 13 16
9 11 14
10 12 16
9 11 14
9 11 14
11 13 17
11 13 17
9 11 14
9 11 14
9 11 14
11 13 17
10 12 15
10 12 16
10 11 14
10 12 15
9 11 14
9 12 15
10 12 15
11 13 17
11 13 17
11 13 16
8 10 13
10 12 15
9 12 15
10 12 15
9 11 14
8 10 13
9 11 14
9 11 14
9 11 14
11 13 17
9 12 15
9 11 14
9 11 15
10 12 16
8 10 13
8 10 13
10 12 15
9 11 14
9 11 14
8 10 12
10 12 15
10 12 15
9 12 15
9 11 14
10 12 15
9 11 14
11 13 16
10 12 15
10 12 16
9 11 15
9 11 14
10 12 15
11 13 17
10 12 15
9 11 14
10 12 16
8 10 12
9 11 15
8 10 14
10 12 16
10 12 16
8 10 13
9 11 15
11 14 17
9 11 14
10 12 15
10 13 16
9 11 14
10 12 15
10 12 16
10 12 15
10 12 15
9 11 14
10 12 15
10 12 16
11 13 17
9 11 14
8 10 14
10 12 15
10 12 15
8 10 13
9 11 14
9 11 14
9 11 14
9 11 15
8 10 13
9 11 14
9 11 14
11 13 16
8 10 13
10 12 15
9 11 14
10 13 16
8 10 13
10 12 15
11 14 18
22 26 32
193 218 255
192 218 255
192 218 255
192 218 255
192 218 255
192 218 255
192 218 255
192 218 255
192 218 255
192 218 255
192 218 255
192 218 255
192 218 255
192 218 255
192 218 255
192 218 255
192 218 255
192 218 255
192 218 255
192 218 255
192 218 255
192 218 255
192 218 255
192 218 255
192 218 255
192 218 255
192 218 255
192 218 255
192 218 255
192 218 255
192 218 255
192 218 255
192 218 255
192 218 255
192 218 255
192 218 255
192 218 255
192 218 255
192 218 255
192 218 255
192 218 255
192 218 255
192 218 255
192 218 255
192 218 255
192 218 255
192 218 255
192 218 255
192 218 255
192 218 255
192 218 255
192 218 255
192 218 255
192 218 255
192 218 255
192 218 255
192 218 255
192 218 255
192 218 255
192 218 255
192 218 255
192 218 255
192 218 255
192 218 255
192 218 255
192 218 255
192 218 255
192 218 255
192 218 255
192 218 255
192 218 255
192 218 255
192 218 255
192 218 255
192 218 255
192 218 255
192 218 255
192 218 255
192 218 255
192 218 255
192 218 255
192 218 255
192 218 255
192 218 255
192 218 255
192 218 255
192 218 255
192 218 255
192 218 255
192 218 255
192 217 255
192 217 255
192 217 255
192 218 255
192 217 255
192 217 255
192 217 255
192 217 255
192 217 255
192 217 255
192 217 255
192 217 255
192 217 255
192 217 255
192 217 255
192 217 255
192 217 255
192 217 255
192 217 255
192 217 255
192 217 255
192 217 255
192 217 255
192 217 255
192 217 255
192 217 255
192 217 255
192 217 255
192 217 255
192 217 255
192 217 255
192 217 255
192 217 255
192 217 255
192 217 255
192 217 255
192 217 255
192 217 255
192 217 255
192 217 255
192 217 255
192 217 255
192 217 255
192 217 255
192 217 255
192 218 255
192 218 255
192 218 255
192 218 255
192 218 255
192 218 255
192 218 255
192 218 255
192 218 255
192 218 255
192 218 255
192 218 255
192 218 255
192 218 255
192 218 255
192 218 255
192 218 255
192 218 255
192 218 255
192 218 255
192 218 255
192 218 255
192 218 255
192 218 255
192 218 255
192 218 255
192 218 255
192 218 255
192 218 255
192 218 255
192 218 255
192 218 255
192 218 255
192 218 255
192 218 255
192 218 255
192 218 255
192 218 255
192 218 255
192 218 255
192 218 255
192 218 255
193 218 255
192 218 255
192 218 255
192 218 255
193 218 255
193 218 255
193 218 255
193 218 255
193 218 255
193 218 255
193 218 255
193 218 255
193 218 255
193 218 255
193 218 255
193 218 255
193 218 255
193 218 255
193 218 255
193 218 255
193 218 255
193 218 255
193 218 255
193 218 255
193 218 255
193 218 255
193 218 255
193 218 255
193 218 255
193 218 255
193 218 255
193 218 255
193 218 255
193 218 255
193 218 255
193 218 255
193 218 255
193 218 255
193 218 255
193 218 255
193 218 255
193 218 255
193 218 255
193 218 255
193 218 255
193 218 255
193 218 255
193 218 255
193 218 255
193 218 255
193 218 255
193 218 255
193 218 255
193 218 255
193 218 255
193 218 255
193 218 255
193 218 255
193 218 255
193 218 255
193 218 255
193 218 255
193 218 255
193 218 255
193 218 255
193 218 255
193 218 255
193 218 255
193 218 255
193 218 255
193 218 255
193 218 255
193 218 255
193 218 255
193 218 255
193 218 255
193 218 255
193 218 255
193 218 255
193 218 255
193 218 255
193 218 255
193 218 255
193 218 255
193 218 255
193 218 255
193 218 255
193 218 255
193 218 255
193 218 255
193 218 255
193 218 255
193 218 255
19 22 27
9 11 14
10 12 15
10 12 16
9 11 15
11 13 17
10 13 16
10 12 15
10 12 15
11 13 16
9 11 14
10 12 15
8 10 13
10 12 15
9 11 15
10 12 15
9 11 14
10 12 15
11 13 16
8 10 13
9 11 14
9 11 14
9 11 14
9 12 15
8 10 13
8 10 13
9 12 15
9 11 14
10 13 16
9 11 15
9 11 14
11 13 17
9 11 13
10 12 15
10 12 15
11 13 17
9 11 14
9 11 14
10 12 15
11 13 17
10 12 15
9 12 15
9 12 15
8 10 13
9 11 14
8 10 13
8 10 13
9 11 14
9 11 14
12 14 18
10 12 16
9 11 15
9 11 14
10 12 15
9 11 15
10 12 15
9 11 14
9 11 14
8 10 13
11 13 17
11 13 17
10 12 16
8 10 14
9 11 14
10 12 15
8 10 12
9 11 14
9 11 14
9 11 14
9 10 13
10 12 16
8 10 13
9 11 14
10 12 16
10 12 15
11 13 17
9 11 15
9 11 14
10 12 15
8 10 12
10 12 16
8 10 13
9 11 14
10 12 15
8 10 13
9 11 14
10 12 15
9 11 15
9 11 14
9 11 15
7 8 11
10 12 16
10 12 16
9 11 14
8 10 13
10 12 16
9 11 14
9 10 13
10 12 16
8 10 13
10 12 15
11 13 17
10 12 15
11 13 17
10 12 16
10 12 15
11 14 17
9 11 14
9 11 13
9 11 14
11 13 17
10 12 16
11 13 17
9 11 14
9 10 13
10 12 15
8 10 13
9 11 14
11 13 17
8 10 12
10 12 16
9 12 15
9 11 14
11 13 17
9 11 14
10 12 15
9 11 14
8 10 13
10 12 15
31 36 43
193 218 255
193 218 255
193 218 255
193 218 255
193 218 255
193 218 255
193 218 255
193 218 255
193 218 255
193 218 255
193 218 255
193 218 255
193 218 255
193 218 255
193 218 255
193 218 255
193 218 255
193 218 255
193 218 255
193 218 255
193 218 255
193 218 255
193 218 255
193 218 255
193 218 255
193 218 255
193 218 255
193 218 255
193 218 255
193 218 255
193 218 255
193 218 255
193 218 255
193 218 255
193 218 255
193 218 255
193 218 255
193 218 255
193 218 255
193 218 255
193 218 255
193 218 255
193 218 255
193 218 255
193 218 255
193 218 255
193 218 255
193 218 255
193 218 255
193 218 255
193 218 255
193 218 255
193 218 255
193 218 255
193 218 255
193 218 255
193 218 255
193 218 255
193 218 255
193 218 255
193 218 255
193 218 255
193 218 255
193 218 255
193 218 255
193 218 255
193 218 255
193 218 255
193 218 255
193 218 255
193 218 255
193 218 255
193 218 255
193 218 255
193 218 255
193 218 255
193 218 255
193 218 255
193 218 255
193 218 255
193 218 255
193 218 255
193 218 255
193 218 255
193 218 255
193 218 255
193 218 255
193 218 255
193 218 255
192 218 255
193 218 255
193 218 255
193 218 255
192 218 255
192 218 255
192 218 255
192 218 255
192 218 255
192 218 255
192 218 255
192 218 255
192 218 255
192 218 255
192 218 255
192 218 255
192 218 255
192 218 255
192 218 255
192 218 255
192 218 255
192 218 255
192 218 255
192 218 255
192 218 255
192 218 255
192 218 255
192 218 255
192 218 255
192 218 255
192 218 255
192 218 255
192 218 255
192 218 255
192 218 255
192 218 255
192 218 255
192 218 255
192 218 255
192 218 255
192 218 255
192 218 255
192 218 255
192 218 255
192 218 255
192 218 255
193 218 255
193 218 255
193 218 255
193 218 255
193 218 255
193 218 255
193 218 255
193 218 255
193 218 255
193 218 255
193 218 255
193 218 255
193 218 255
193 218 255
193 218 255
193 218 255
193 218 255
193 218 255
193 218 255
193 218 255
193 218 255
193 218 255
193 218 255
193 218 255
193 218 255
193 218 255
193 218 255
193 218 255
193 218 255
193 218 255
193 218 255
193 218 255
193 218 255
193 218 255
193 218 255
193 218 255
193 218 255
193 218 255
193 218 255
193 218 255
193 218 255
193 218 255
193 218 255
193 218 255
193 218 255
193 218 255
193 218 255
193 218 255
193 218 255
193 218 255
193 218 255
193 218 255
193 218 255
193 218 255
193 218 255
193 218 255
193 218 255
193 218 255
193 218 255
193 218 255
193 218 255
193 218 255
193 218 255
193 218 255
193 218 255
193 218 255
193 218 255
193 218 255
193 218 255
193 218 255
193 218 255
193 218 255
193 218 255
193 218 255
193 218 255
193 218 255
193 218 255
193 218 255
193 218 255
193 218 255
193 218 255
193 218 255
193 218 255
193 218 255
193 218 255
193 218 255
193 218 255
193 218 255
193 218 255
193 218 255
193 218 255
193 218 255
193 218 255
193 218 255
193 218 255
193 218 255
193 218 255
193 218 255
193 218 255
193 218 255
193 218 255
193 218 255
193 218 255
193 218 255
193 218 255
193 218 255
193 218 255
193 218 255
193 218 255
193 218 255
193 218 255
193 218 255
193 218 255
193 218 255
193 218 255
193 218 255
193 218 255
193 218 255
193 218 255
193 218 255
193 218 255
193 218 255
193 218 255
193 218 255
193 218 255
193 218 255
193 218 255
193 218 255
193 218 255
193 218 255
193 218 255
193 218 255
193 218 255
193 218 255
193 218 255
52 60 71
9 11 14
9 11 13
9 12 15
10 13 16
10 12 15
9 11 14
8 10 12
11 13 17
9 11 15
9 11 14
9 11 14
10 12 15
8 10 13
10 12 15
10 12 15
9 11 14
9 11 14
8 10 12
8 10 13
8 10 13
10 12 15
10 12 15
9 12 15
9 11 14
9 12 15
9 11 14
10 12 15
8 10 13
9 11 14
8 10 13
9 11 14
10 12 15
8 10 13
9 11 14
10 12 15
10 12 15
7 9 12
10 12 15
10 12 15
9 11 14
8 10 13
8 10 12
8 10 13
10 12 15
8 10 13
10 12 15
9 11 14
10 12 16
8 10 13
10 12 16
9 10 13
11 13 17
11 13 16
9 11 14
10 12 15
10 12 15
9 11 15
10 12 16
8 10 13
10 12 15
10 12 15
8 10 12
10 12 15
10 12 15
10 13 16
10 12 15
10 13 16
10 13 16
8 10 13
9 11 14
9 11 14
10 12 16
9 12 15
8 10 13
10 12 16
9 11 14
10 12 15
9 11 14
10 13 16
9 12 15
8 10 13
9 11 14
11 13 17
10 13 16
9 11 14
10 13 16
10 12 16
8 10 13
10 12 15
8 10 13
9 11 14
10 12 16
9 11 15
10 12 15
9 10 13
11 13 16
8 10 13
10 12 15
9 11 14
8 10 13
9 11 14
11 14 17
9 11 14
10 13 17
9 11 14
10 13 16
10 12 15
10 12 15
11 13 16
10 12 16
11 13 17
9 11 14
9 11 14
9 11 14
10 12 15
9 11 14
10 12 15
10 12 15
8 10 13
9 11 14
10 12 15
8 10 13
9 11 14
8 10 13
9 11 14
10 12 16
10 13 16
10 12 15
41 47 56
193 218 255
193 218 255
193 218 255
193 218 255
193 218 255
193 218 255
193 218 255
193 218 255
193 218 255
193 218 255
193 218 255
193 218 255
193 218 255
193 218 255
193 218 255
193 218 255
193 218 255
193 218 255
193 218 255
193 218 255
193 218 255
193 218 255
193 218 255
193 218 255
193 218 255
193 218 255
193 218 255
193 218 255
193 218 255
193 218 255
193 218 255
193 218 255
193 218 255
193 218 255
193 218 255
193 218 255
193 218 255
193 218 255
193 218 255
193 218 255
193 218 255
193 218 255
193 218 255
193 218 255
193 218 255
193 218 255
193 218 255
193 218 255
193 218 255
193 218 255
193 218 255
193 218 255
193 218 255
193 218 255
193 218 255
193 218 255
193 218 255
193 218 255
193 218 255
193 218 255
193 218 255
193 218 255
193 218 255
193 218 255
193 218 255
193 218 255
193 218 255
193 218 255
193 218 255
193 218 255
193 218 255
193 218 255
193 218 255
193 218 255
193 218 255
193 218 255
193 218 255
193 218 255
193 218 255
193 218 255
193 218 255
193 218 255
193 218 255
193 218 255
193 218 255
193 218 255
193 218 255
193 218 255
193 218 255
193 218 255
193 218 255
193 218 255
193 218 255
193 218 255
193 218 255
193 218 255
193 218 255
193 218 255
193 218 255
193 218 255
193 218 255
193 218 255
193 218 255
193 218 255
193 218 255
193 218 255
193 218 255
193 218 255
193 218 255
193 218 255
193 218 255
193 218 255
193 218 255
193 218 255
193 218 255
193 218 255
193 218 255
193 218 255
193 218 255
193 218 255
193 218 255
193 218 255
193 218 255
193 218 255
193 218 255
193 218 255
193 218 255
193 218 255
193 218 255
193 218 255
193 218 255
193 218 255
193 218 255
193 218 255
193 218 255
193 218 255
193 218 255
193 218 255
193 218 255
193 218 255
193 218 255
193 218 255
193 218 255
193 218 255
193 218 255
193 218 255
193 218 255
193 218 255
193 218 255
193 218 255
193 218 255
193 218 255
193 218 255
193 218 255
193 218 255
193 218 255
193 218 255
193 218 255
193 218 255
193 218 255
193 218 255
193 218 255
193 218 255
193 218 255
193 218 255
193 218 255
193 218 255
193 218 255
193 218 255
193 218 255
193 218 255
193 218 255
193 218 255
193 218 255
193 218 255
193 218 255
193 218 255
193 218 255
193 218 255
193 218 255
193 218 255
193 218 255
193 218 255
193 218 255
193 218 255
193 218 255
193 218 255
193 218 255
193 218 255
193 218 255
193 218 255
193 218 255
193 218 255
193 218 255
193 218 255
193 218 255
193 218 255
193 218 255
193 218 255
193 218 255
193 218 255
193 218 255
193 218 255
193 218 255
193 218 255
193 218 255
193 218 255
193 218 255
193 218 255
193 218 255
193 218 255
193 218 255
193 218 255
193 218 255
193 218 255
193 218 255
193 218 255
193 218 255
193 218 255
193 218 255
193 218 255
193 218 255
194 218 255
194 218 255
194 218 255
194 218 255
194 218 255
194 218 255
194 218 255
194 218 255
194 218 255
194 218 255
194 218 255
194 218 255
194 218 255
194 218 255
194 218 255
194 218 255
194 218 255
194 218 255
194 218 255
194 218 255
194 218 255
194 218 255
194 218 255
194 218 255
194 218 255
194 218 255
194 218 255
194 218 255
194 218 255
194 218 255
194 218 255
194 218 255
194 218 255
194 218 255
194 218 255
194 219 255
194 219 255
194 219 255
194 219 255
194 219 255
194 219 255
194 219 255
194 219 255
194 219 255
194 219 255
194 219 255
194 219 255
194 219 255
60 68 80
9 11 14
8 10 13
9 11 14
9 11 14
10 12 15
9 11 14
8 10 13
9 11 14
9 11 14
11 14 17
10 12 16
9 11 14
9 11 14
8 10 13
10 12 15
9 11 14
9 11 14
8 10 13
9 11 14
8 10 13
7 9 11
9 12 15
9 11 13
8 10 13
9 11 14
9 11 14
9 10 13
9 11 14
10 12 15
9 11 14
9 12 15
9 11 14
10 12 15
10 12 15
9 12 15
9 11 14
9 11 14
7 9 12
10 13 16
9 11 14
8 10 12
9 11 14
9 11 14
9 11 14
9 11 14
10 12 16
9 11 14
9 11 15
7 9 11
9 12 15
9 11 15
10 12 15
8 10 13
9 11 14
9 11 14
10 12 16
8 10 13
9 12 15
10 13 16
9 11 14
9 11 14
9 11 14
8 10 13
10 12 16
10 12 16
9 10 13
9 11 14
8 10 13
10 13 16
10 12 15
9 11 14
10 12 15
10 13 16
10 13 16
8 10 12
10 12 15
11 13 17
8 10 13
8 10 12
9 11 14
10 12 15
9 11 14
9 11 14
7 8 10
9 11 14
9 11 14
10 12 16
9 11 15
8 10 13
9 12 15
9 12 15
10 12 16
9 11 14
10 12 15
10 12 15
10 13 16
10 12 15
9 11 14
8 10 13
10 13 16
10 12 16
8 10 13
10 12 15
9 11 15
9 11 14
9 11 14
9 11 14
9 11 14
10 12 16
9 11 13
10 12 15
10 13 16
10 12 15
8 10 13
9 11 15
8 10 13
9 11 15
11 13 16
8 10 12
10 12 15
9 11 14
9 11 14
9 11 14
10 12 15
9 11 14
9 11 14
10 12 16
8 10 13
46 52 62
194 219 255
194 219 255
194 219 255
194 219 255
194 219 255
194 219 255
194 219 255
194 219 255
194 219 255
194 219 255
194 219 255
194 219 255
194 219 255
194 218 255
194 218 255
194 218 255
194 218 255
194 218 255
194 218 255
194 218 255
194 218 255
194 218 255
194 218 255
194 218 255
194 218 255
194 218 255
194 218 255
194 218 255
194 218 255
194 218 255
194 218 255
194 218 255
194 218 255
194 218 255
194 218 255
194 218 255
194 218 255
194 218 255
194 218 255
194 218 255
194 218 255
194 218 255
194 218 255
194 218 255
194 218 255
194 218 255
194 218 255
194 218 255
193 218 255
194 218 255
193 218 255
193 218 255
193 218 255
193 218 255
193 218 255
193 218 255
193 218 255
193 218 255
193 218 255
193 218 255
193 218 255
193 218 255
193 218 255
193 218 255
193 218 255
193 218 255
193 218 255
193 218 255
193 218 255
193 218 255
193 218 255
193 218 255
193 218 255
193 218 255
193 218 255
193 218 255
193 218 255
193 218 255
193 218 255
193 218 255
193 218 255
193 218 255
193 218 255
193 218 255
193 218 255
193 218 255
193 218 255
193 218 255
193 218 255
193 218 255
193 218 255
193 218 255
193 218 255
193 218 255
193 218 255
193 218 255
193 218 255
193 218 255
193 218 255
193 218 255
193 218 255
193 218 255
193 218 255
193 218 255
193 218 255
193 218 255
193 218 255
193 218 255
193 218 255
193 218 255
193 218 255
193 218 255
193 218 255
193 218 255
193 218 255
193 218 255
193 218 255
193 218 255
193 218 255
193 218 255
193 218 255
193 218 255
193 218 255
193 218 255
193 218 255
193 218 255
193 218 255
193 218 255
193 218 255
193 218 255
193 218 255
193 218 255
193 218 255
193 218 255
193 218 255
193 218 255
193 218 255
193 218 255
193 218 255
193 218 255
193 218 255
193 218 255
193 218 255
193 218 255
193 218 255
193 218 255
193 218 255
193 218 255
193 218 255
193 218 255
193 218 255
193 218 255
193 218 255
193 218 255
193 218 255
193 218 255
193 218 255
193 218 255
193 218 255
193 218 255
193 218 255
193 218 255
193 218 255
193 218 255
193 218 255
193 218 255
193 218 255
193 218 255
193 218 255
193 218 255
193 218 255
193 218 255
193 218 255
193 218 255
193 218 255
193 218 255
193 218 255
193 218 255
193 218 255
194 218 255
193 218 255
194 218 255
194 218 255
194 218 255
194 218 255
194 218 255
194 218 255
194 218 255
194 218 255
194 218 255
194 218 255
194 218 255
194 218 255
194 218 255
194 218 255
194 218 255
194 218 255
194 218 255
194 218 255
194 218 255
194 218 255
194 218 255
194 218 255
194 218 255
194 218 255
194 218 255
194 218 255
194 218 255
194 218 255
194 218 255
194 218 255
194 218 255
194 218 255
194 218 255
194 218 255
194 219 255
194 219 255
194 219 255
194 219 255
194 219 255
194 219 255
194 219 255
194 219 255
194 219 255
194 219 255
194 219 255
194 219 255
194 219 255
194 219 255
194 219 255
194 219 255
194 219 255
194 219 255
194 219 255
194 219 255
194 219 255
194 219 255
194 219 255
194 219 255
194 219 255
194 219 255
194 219 255
194 219 255
194 219 255
194 219 255
194 219 255
194 219 255
194 219 255
194 219 255
194 219 255
194 219 255
194 219 255
194 219 255
194 219 255
194 219 255
194 219 255
194 219 255
194 219 255
194 219 255
194 219 255
194 219 255
194 219 255
194 219 255
194 219 255
194 219 255
194 219 255
194 219 255
194 219 255
194 219 255
194 219 255
68 77 91
9 11 14
8 10 12
8 10 13
10 12 16
9 12 15
9 12 15
10 12 15
9 11 14
8 10 13
10 12 15
10 12 16
9 12 15
9 11 14
9 11 14
10 13 16
10 12 15
9 11 14
9 10 13
9 11 14
9 11 15
9 11 14
8 10 12
8 10 13
9 12 15
9 11 14
9 11 14
9 11 14
10 12 16
9 11 14
8 10 13
9 11 15
10 12 15
8 9 12
8 9 12
9 11 14
9 11 14
9 11 13
9 11 14
10 12 15
10 12 15
9 10 13
8 9 12
8 10 13
10 12 15
9 11 14
10 12 15
9 11 14
9 11 14
9 11 14
9 10 13
9 11 14
10 12 15
10 12 15
9 11 14
10 12 15
9 11 14
9 11 15
9 11 15
9 12 15
7 9 11
10 12 16
10 12 16
9 11 13
10 12 16
9 10 13
9 11 14
9 11 14
8 10 13
9 11 14
10 12 15
10 13 16
9 12 15
10 12 15
11 14 17
10 12 15
9 10 13
9 11 14
10 12 15
9 11 14
8 10 13
10 13 16
10 12 16
9 10 13
9 11 14
9 11 14
9 11 14
8 10 13
9 11 14
9 11 14
9 11 14
10 12 15
10 13 16
10 12 16
9 11 14
9 11 14
9 10 13
10 12 15
8 10 13
10 12 15
9 11 14
8 10 13
9 11 14
9 11 14
10 12 15
8 9 12
7 9 11
10 12 15
8 10 13
8 10 13
10 12 15
9 11 14
8 10 12
9 11 14
6 8 10
8 10 13
7 8 11
7 9 12
9 11 14
10 13 16
9 11 14
10 12 15
9 11 14
10 12 16
9 11 14
10 13 16
9 11 14
9 11 14
9 11 14
68 78 91
194 219 255
194 219 255
194 219 255
194 219 255
194 219 255
194 219 255
194 219 255
194 219 255
194 219 255
194 219 255
194 219 255
194 219 255
194 219 255
194 219 255
194 219 255
194 219 255
194 219 255
194 219 255
194 219 255
194 219 255
194 219 255
194 219 255
194 219 255
194 219 255
194 219 255
194 219 255
194 219 255
194 219 255
194 219 255
194 219 255
194 219 255
194 219 255
194 219 255
194 219 255
194 219 255
194 219 255
194 219 255
194 219 255
194 219 255
194 219 255
194 219 255
194 219 255
194 219 255
194 219 255
194 219 255
194 219 255
194 219 255
194 219 255
194 219 255
194 219 255
194 219 255
194 219 255
194 219 255
194 218 255
194 219 255
194 219 255
194 218 255
194 218 255
194 218 255
194 218 255
194 218 255
194 218 255
194 218 255
194 218 255
194 218 255
194 218 255
194 218 255
194 218 255
194 218 255
194 218 255
194 218 255
194 218 255
194 218 255
194 218 255
194 218 255
194 218 255
194 218 255
194 218 255
194 218 255
194 218 255
194 218 255
194 218 255
194 218 255
194 218 255
194 218 255
194 218 255
194 218 255
194 218 255
194 218 255
194 218 255
193 218 255
193 218 255
193 218 255
193 218 255
193 218 255
193 218 255
193 218 255
193 218 255
193 218 255
193 218 255
193 218 255
193 218 255
193 218 255
193 218 255
193 218 255
193 218 255
193 218 255
193 218 255
193 218 255
193 218 255
193 218 255
193 218 255
193 218 255
193 218 255
193 218 255
193 218 255
193 218 255
193 218 255
193 218 255
193 218 255
193 218 255
193 218 255
193 218 255
193 218 255
193 218 255
193 218 255
193 218 255
193 218 255
193 218 255
193 218 255
193 218 255
193 218 255
193 218 255
193 218 255
193 218 255
193 218 255
193 218 255
193 218 255
193 218 255
193 218 255
193 218 255
194 218 255
194 218 255
194 218 255
194 218 255
194 218 255
194 218 255
194 218 255
194 218 255
194 218 255
194 218 255
194 218 255
194 218 255
194 218 255
194 218 255
194 218 255
194 218 255
194 218 255
194 218 255
194 218 255
194 218 255
194 218 255
194 218 255
194 218 255
194 218 255
194 218 255
194 218 255
194 218 255
194 218 255
194 218 255
194 218 255
194 218 255
194 218 255
194 218 255
194 218 255
194 218 255
194 218 255
194 218 255
194 218 255
194 219 255
194 218 255
194 219 255
194 219 255
194 219 255
194 219 255
194 219 255
194 219 255
194 219 255
194 219 255
194 219 255
194 219 255
194 219 255
194 219 255
194 219 255
194 219 255
194 219 255
194 219 255
194 219 255
194 219 255
194 219 255
194 219 255
194 219 255
194 219 255
194 219 255
194 219 255
194 219 255
194 219 255
194 219 255
194 219 255
194 219 255
194 219 255
194 219 255
194 219 255
194 219 255
194 219 255
194 219 255
194 219 255
194 219 255
194 219 255
194 219 255
194 219 255
194 219 255
194 219 255
194 219 255
194 219 255
194 219 255
194 219 255
194 219 255
194 219 255
194 219 255
194 219 255
194 219 255
194 219 255
194 219 255
194 219 255
194 219 255
194 219 255
194 219 255
195 219 255
195 219 255
195 219 255
195 219 255
195 219 255
195 219 255
195 219 255
195 219 255
195 219 255
195 219 255
195 219 255
195 219 255
195 219 255
195 219 255
195 219 255
195 219 255
195 219 255
195 219 255
195 219 255
195 219 255
195 219 255
195 219 255
195 219 255
195 219 255
195 219 255
195 219 255
195 219 255
195 219 255
195 219 255
195 219 255
195 219 255
195 219 255
90 102 120
10 12 15
8 10 13
9 11 14
10 12 15
9 11 13
10 13 16
7 9 12
10 12 15
10 12 15
9 11 13
9 11 14
10 12 15
9 11 14
10 12 15
8 10 13
10 12 15
8 10 13
9 11 14
8 10 12
9 11 14
10 13 16
9 11 14
11 13 17
10 12 16
9 11 14
8 10 13
11 13 16
10 12 16
10 12 15
9 11 14
8 10 12
9 10 13
11 13 16
8 10 13
12 14 18
8 10 13
10 12 15
9 11 13
9 12 15
9 12 15
10 12 15
8 10 13
8 10 13
9 10 13
8 10 12
9 11 14
9 11 14
8 10 12
9 11 14
10 12 16
9 11 14
8 10 12
9 11 14
8 9 12
9 11 14
9 11 14
9 11 14
10 13 16
9 11 13
9 11 14
7 9 11
8 10 13
9 11 14
9 11 14
11 13 16
11 14 17
9 11 14
8 9 12
8 10 13
8 10 13
10 13 16
10 12 16
10 12 15
10 13 16
10 12 15
9 11 14
9 11 13
10 12 15
9 11 14
9 11 14
9 11 14
9 11 14
9 11 14
8 10 13
8 10 13
9 12 15
9 11 14
8 10 12
9 11 14
11 13 17
9 11 15
9 11 14
9 11 14
10 12 16
10 12 15
10 12 15
8 10 13
8 9 12
9 11 14
9 11 14
8 10 13
9 11 14
9 11 14
9 11 14
10 12 15
9 11 14
9 11 14
7 9 12
9 11 14
9 11 14
9 11 14
10 12 15
10 12 16
10 12 15
8 10 13
10 12 15
8 10 13
10 12 15
9 11 14
9 11 14
8 9 12
8 10 12
9 11 14
10 12 15
9 11 13
9 11 14
9 11 14
7 9 12
77 87 102
195 219 255
195 219 255
195 219 255
195 219 255
195 219 255
195 219 255
195 219 255
195 219 255
195 219 255
195 219 255
195 219 255
195 219 255
195 219 255
195 219 255
195 219 255
195 219 255
195 219 255
195 219 255
195 219 255
195 219 255
195 219 255
195 219 255
195 219 255
195 219 255
195 219 255
195 219 255
195 219 255
195 219 255
195 219 255
195 219 255
195 219 255
195 219 255
195 219 255
194 219 255
194 219 255
194 219 255
194 219 255
194 219 255
194 219 255
194 219 255
194 219 255
194 219 255
194 219 255
194 219 255
194 219 255
194 219 255
194 219 255
194 219 255
194 219 255
194 219 255
194 219 255
194 219 255
194 219 255
194 219 255
194 219 255
194 219 255
194 219 255
194 219 255
194 219 255
194 219 255
194 219 255
194 219 255
194 219 255
194 219 255
194 219 255
194 219 255
194 219 255
194 219 255
194 219 255
194 219 255
194 219 255
194 219 255
194 219 255
194 219 255
194 219 255
194 219 255
194 219 255
194 219 255
194 219 255
194 219 255
194 219 255
194 219 255
194 219 255
194 219 255
194 219 255
194 219 255
194 219 255
194 219 255
194 219 255
194 219 255
194 218 255
194 218 255
194 218 255
194 218 255
194 218 255
194 218 255
194 218 255
194 218 255
194 218 255
194 218 255
194 218 255
194 218 255
194 218 255
194 218 255
194 218 255
194 218 255
194 218 255
194 218 255
194 218 255
194 218 255
194 218 255
194 218 255
194 218 255
194 218 255
194 218 255
194 218 255
194 218 255
194 218 255
194 218 255
194 218 255
194 218 255
194 218 255
194 218 255
194 218 255
194 218 255
194 218 255
194 218 255
194 218 255
193 218 255
193 218 255
193 218 255
193 218 255
193 218 255
193 218 255
193 218 255
194 218 255
194 218 255
194 218 255
194 218 255
194 218 255
194 218 255
194 218 255
194 218 255
194 218 255
194 218 255
194 219 255
194 218 255
194 219 255
194 219 255
194 219 255
194 219 255
194 219 255
194 219 255
194 219 255
194 219 255
194 219 255
194 219 255
194 219 255
194 219 255
194 219 255
194 219 255
194 219 255
194 219 255
194 219 255
194 219 255
194 219 255
194 219 255
194 219 255
194 219 255
194 219 255
194 219 255
194 219 255
194 219 255
194 219 255
194 219 255
194 219 255
194 219 255
194 219 255
194 219 255
194 219 255
194 219 255
194 219 255
194 219 255
194 219 255
194 219 255
194 219 255
194 219 255
194 219 255
194 219 255
194 219 255
194 219 255
194 219 255
194 219 255
194 219 255
194 219 255
194 219 255
194 219 255
194 219 255
194 219 255
194 219 255
194 219 255
194 219 255
194 219 255
194 219 255
194 219 255
194 219 255
195 219 255
194 219 255
195 219 255
195 219 255
195 219 255
195 219 255
195 219 255
195 219 255
195 219 255
195 219 255
195 219 255
195 219 255
195 219 255
195 219 255
195 219 255
195 219 255
195 219 255
195 219 255
195 219 255
195 219 255
195 219 255
195 219 255
195 219 255
195 219 255
195 219 255
195 219 255
195 219 255
195 219 255
195 219 255
195 219 255
195 219 255
195 219 255
195 219 255
195 219 255
195 219 255
195 219 255
195 219 255
195 219 255
195 219 255
195 219 255
195 219 255
195 219 255
195 219 255
195 219 255
195 219 255
195 219 255
195 219 255
195 219 255
195 219 255
195 219 255
195 219 255
195 219 255
195 219 255
195 219 255
195 219 255
195 219 255
195 219 255
195 219 255
195 219 255
195 219 255
195 219 255
195 219 255
195 219 255
195 219 255
116 130 152
10 13 16
8 10 12
8 10 12
8 10 12
10 12 15
10 12 15
9 11 13
8 10 13
9 11 13
10 12 15
10 12 16
10 12 15
9 11 14
9 11 13
10 12 16
10 12 15
10 12 15
9 11 14
9 11 14
10 12 16
10 12 15
8 10 13
8 10 13
9 11 14
11 13 16
8 10 13
8 10 13
10 12 16
9 11 14
10 12 16
9 12 15
9 12 15
8 10 13
9 11 14
9 11 14
8 10 13
10 12 15
10 12 15
10 12 15
9 11 14
10 12 15
9 11 14
10 12 15
8 9 12
9 11 13
8 9 12
9 11 15
8 10 13
9 12 15
9 10 13
9 11 13
9 11 14
10 12 16
9 11 14
8 10 12
8 10 13
8 10 13
9 11 14
10 12 15
10 12 16
10 12 15
10 12 15
9 11 14
8 10 13
8 10 13
9 11 14
9 11 14
9 11 14
10 12 16
8 10 13
10 12 15
9 11 15
8 10 13
9 12 15
10 13 16
9 11 14
10 12 15
9 11 14
9 11 14
9 12 15
9 11 13
9 11 14
8 10 12
10 12 15
9 12 15
10 12 16
9 11 14
10 12 15
10 12 15
8 10 13
7 9 11
8 10 13
10 13 16
10 12 15
9 12 15
9 11 14
10 12 16
9 10 13
8 10 13
9 10 13
10 12 14
8 10 13
10 12 15
8 10 12
8 10 12
9 11 14
11 13 16
9 11 14
9 11 14
9 11 14
10 12 15
10 12 15
10 12 15
9 11 14
9 11 14
9 11 14
10 12 14
8 10 12
9 11 14
8 10 13
9 11 14
8 10 13
9 11 14
10 12 15
8 9 12
8 10 13
8 10 13
9 12 15
92 103 121
195 219 255
195 219 255
195 219 255
195 219 255
195 219 255
195 219 255
195 219 255
195 219 255
195 219 255
195 219 255
195 219 255
195 219 255
195 219 255
195 219 255
195 219 255
195 219 255
195 219 255
195 219 255
195 219 255
195 219 255
195 219 255
195 219 255
195 219 255
195 219 255
195 219 255
195 219 255
195 219 255
195 219 255
195 219 255
195 219 255
195 219 255
195 219 255
195 219 255
195 219 255
195 219 255
195 219 255
195 219 255
195 219 255
195 219 255
195 219 255
195 219 255
195 219 255
195 219 255
195 219 255
195 219 255
195 219 255
195 219 255
195 219 255
195 219 255
195 219 255
195 219 255
195 219 255
195 219 255
195 219 255
195 219 255
195 219 255
195 219 255
195 219 255
195 219 255
195 219 255
195 219 255
195 219 255
194 219 255
194 219 255
195 219 255
194 219 255
194 219 255
194 219 255
194 219 255
194 219 255
194 219 255
194 219 255
194 219 255
194 219 255
194 219 255
194 219 255
194 219 255
194 219 255
194 219 255
194 219 255
194 219 255
194 219 255
194 219 255
194 219 255
194 219 255
194 219 255
194 219 255
194 219 255
194 219 255
194 219 255
194 219 255
194 219 255
194 219 255
194 219 255
194 219 255
194 219 255
194 219 255
194 219 255
194 219 255
194 219 255
194 219 255
194 219 255
194 219 255
194 219 255
194 219 255
194 219 255
194 219 255
194 219 255
194 219 255
194 219 255
194 219 255
194 219 255
194 219 255
194 219 255
194 219 255
194 219 255
194 219 255
194 219 255
194 219 255
194 219 255
194 219 255
194 219 255
194 219 255
194 218 255
194 218 255
194 218 255
194 218 255
194 218 255
194 218 255
194 218 255
194 218 255
194 218 255
194 218 255
194 218 255
194 218 255
194 219 255
194 219 255
194 219 255
194 219 255
194 219 255
194 219 255
194 219 255
194 219 255
194 219 255
194 219 255
194 219 255
194 219 255
194 219 255
194 219 255
194 219 255
194 219 255
194 219 255
194 219 255
194 219 255
194 219 255
194 219 255
194 219 255
194 219 255
194 219 255
194 219 255
194 219 255
194 219 255
194 219 255
194 219 255
194 219 255
194 219 255
194 219 255
194 219 255
194 219 255
194 219 255
194 219 255
194 219 255
194 219 255
194 219 255
194 219 255
194 219 255
194 219 255
194 219 255
194 219 255
195 219 255
195 219 255
195 219 255
195 219 255
195 219 255
195 219 255
195 219 255
195 219 255
195 219 255
195 219 255
195 219 255
195 219 255
195 219 255
195 219 255
195 219 255
195 219 255
195 219 255
195 219 255
195 219 255
195 219 255
195 219 255
195 219 255
195 219 255
195 219 255
195 219 255
195 219 255
195 219 255
195 219 255
195 219 255
195 219 255
195 219 255
195 219 255
195 219 255
195 219 255
195 219 255
195 219 255
195 219 255
195 219 255
195 219 255
195 219 255
195 219 255
195 219 255
195 219 255
195 219 255
195 219 255
195 219 255
195 219 255
195 219 255
195 219 255
195 219 255
195 219 255
195 219 255
195 219 255
195 219 255
195 219 255
195 219 255
195 219 255
195 219 255
195 219 255
195 219 255
195 219 255
195 219 255
195 219 255
195 219 255
195 219 255
195 219 255
196 220 255
196 220 255
196 220 255
196 220 255
196 220 255
196 220 255
196 220 255
196 220 255
196 220 255
196 220 255
196 220 255
196 220 255
196 220 255
196 220 255
196 220 255
196 220 255
196 220 255
196 220 255
196 220 255
196 220 255
196 220 255
196 220 255
196 220 255
196 220 255
196 220 255
130 147 171
10 12 15
9 11 14
8 10 13
8 10 12
8 10 13
9 11 14
9 11 14
9 11 14
9 10 13
9 11 14
9 11 13
9 11 14
8 10 13
9 11 14
9 12 15
8 10 13
9 12 15
9 11 14
9 11 14
10 12 16
9 11 14
8 10 13
10 12 15
10 13 16
8 10 13
8 10 13
9 11 14
9 11 14
8 9 12
9 10 13
10 12 15
9 11 14
8 10 12
11 13 16
8 10 13
9 11 14
8 10 12
10 12 15
10 12 15
10 12 15
9 10 13
8 10 13
10 12 15
11 13 16
10 12 15
9 10 13
9 11 14
10 12 16
8 10 13
9 11 14
9 11 14
8 9 12
9 11 14
9 11 14
9 11 14
8 10 13
8 10 13
9 11 14
10 12 15
9 11 14
10 12 15
9 11 14
8 10 13
9 11 14
9 10 13
9 11 14
10 12 15
9 11 14
8 9 12
10 12 15
8 10 12
9 11 13
8 10 13
10 13 16
8 10 13
10 12 15
9 11 14
9 10 13
8 10 13
10 12 15
9 11 14
10 12 16
10 12 15
10 13 16
9 11 14
9 11 14
10 12 15
10 12 15
9 11 13
10 12 16
8 10 12
10 12 16
7 9 11
10 12 15
8 10 13
9 10 13
10 12 15
8 10 13
8 10 13
8 10 13
8 10 12
10 12 16
8 10 13
10 12 15
10 12 16
9 11 14
10 13 16
9 11 14
9 11 14
9 11 14
9 11 14
10 12 15
8 10 13
8 9 12
8 10 12
11 13 16
9 12 15
9 11 13
9 11 14
10 12 15
8 10 12
8 10 13
11 13 16
9 11 14
9 11 14
10 12 16
9 11 14
8 10 12
144 162 189
196 220 255
196 220 255
196 220 255
196 220 255
196 220 255
196 220 255
196 220 255
196 220 255
196 220 255
196 220 255
196 220 255
196 220 255
196 220 255
196 220 255
196 220 255
196 220 255
196 220 255
196 220 255
196 220 255
196 220 255
196 220 255
196 220 255
196 220 255
196 220 255
195 219 255
195 219 255
195 219 255
195 219 255
195 219 255
195 219 255
195 219 255
195 219 255
195 219 255
195 219 255
195 219 255
195 219 255
195 219 255
195 219 255
195 219 255
195 219 255
195 219 255
195 219 255
195 219 255
195 219 255
195 219 255
195 219 255
195 219 255
195 219 255
195 219 255
195 219 255
195 219 255
195 219 255
195 219 255
195 219 255
195 219 255
195 219 255
195 219 255
195 219 255
195 219 255
195 219 255
195 219 255
195 219 255
195 219 255
195 219 255
195 219 255
195 219 255
195 219 255
195 219 255
195 219 255
195 219 255
195 219 255
195 219 255
195 219 255
195 219 255
195 219 255
195 219 255
195 219 255
195 219 255
195 219 255
195 219 255
195 219 255
195 219 255
195 219 255
195 219 255
195 219 255
195 219 255
195 219 255
195 219 255
195 219 255
194 219 255
194 219 255
194 219 255
194 219 255
194 219 255
194 219 255
194 219 255
194 219 255
194 219 255
194 219 255
194 219 255
194 219 255
194 219 255
194 219 255
194 219 255
194 219 255
194 219 255
194 219 255
194 219 255
194 219 255
194 219 255
194 219 255
194 219 255
194 219 255
194 219 255
194 219 255
194 219 255
194 219 255
194 219 255
194 219 255
194 219 255
194 219 255
194 219 255
194 219 255
194 219 255
194 219 255
194 219 255
194 219 255
194 219 255
194 219 255
194 219 255
194 219 255
194 219 255
194 219 255
194 219 255
194 219 255
194 219 255
194 219 255
194 219 255
194 219 255
194 219 255
194 219 255
194 219 255
194 219 255
194 219 255
194 219 255
194 219 255
194 219 255
194 219 255
194 219 255
194 219 255
194 219 255
194 219 255
194 219 255
194 219 255
194 219 255
195 219 255
195 219 255
195 219 255
195 219 255
195 219 255
195 219 255
195 219 255
195 219 255
195 219 255
195 219 255
195 219 255
195 219 255
195 219 255
195 219 255
195 219 255
195 219 255
195 219 255
195 219 255
195 219 255
195 219 255
195 219 255
195 219 255
195 219 255
195 219 255
195 219 255
195 219 255
195 219 255
195 219 255
195 219 255
195 219 255
195 219 255
195 219 255
195 219 255
195 219 255
195 219 255
195 219 255
195 219 255
195 219 255
195 219 255
195 219 255
195 219 255
195 219 255
195 219 255
195 219 255
195 219 255
195 219 255
195 219 255
195 219 255
195 219 255
195 219 255
195 219 255
195 219 255
195 219 255
195 219 255
195 219 255
195 219 255
195 219 255
195 219 255
195 219 255
195 219 255
195 219 255
195 219 255
195 219 255
195 219 255
195 219 255
195 219 255
195 219 255
196 220 255
196 220 255
196 220 255
196 220 255
196 220 255
196 220 255
196 220 255
196 220 255
196 220 255
196 220 255
196 220 255
196 220 255
196 220 255
196 220 255
196 220 255
196 220 255
196 220 255
196 220 255
196 220 255
196 220 255
196 220 255
196 220 255
196 220 255
196 220 255
196 220 255
196 220 255
196 220 255
196 220 255
196 220 255
196 220 255
196 220 255
196 220 255
196 220 255
196 220 255
196 220 255
196 220 255
196 220 255
196 220 255
196 220 255
196 220 255
196 220 255
196 220 255
196 220 255
196 220 255
196 220 255
196 220 255
196 220 255
196 220 255
168 189 219
9 11 14
8 10 13
8 10 12
9 11 14
9 11 14
9 11 13
9 11 14
10 12 16
9 11 14
10 12 15
8 10 13
9 10 13
9 11 14
9 11 14
9 11 14
9 11 14
11 13 16
10 12 15
8 10 13
9 11 14
9 11 14
9 11 14
9 12 15
8 10 13
9 11 14
10 12 15
8 10 13
8 10 13
7 9 11
8 10 13
9 11 14
8 10 13
9 11 14
9 11 14
8 9 12
9 11 14
9 11 14
9 12 15
9 11 14
8 10 12
9 11 14
10 12 15
8 9 12
8 10 13
8 10 13
9 10 13
10 12 15
10 12 15
10 12 15
9 11 14
10 12 15
8 10 13
9 11 13
9 11 14
8 10 13
7 9 11
9 11 14
8 10 14
9 11 14
9 11 14
9 11 14
8 10 13
8 10 13
8 9 12
8 10 13
7 9 11
10 12 15
9 11 14
9 10 13
10 12 15
10 12 15
11 13 16
9 11 14
8 10 13
10 12 15
8 9 12
9 11 14
8 10 13
8 10 12
8 9 12
8 10 12
9 12 15
9 11 14
9 11 14
8 10 13
10 12 14
8 10 12
9 11 14
8 10 13
7 9 12
9 11 14
8 10 13
9 11 14
9 11 14
9 11 14
9 11 14
9 11 13
8 10 13
8 10 12
8 10 13
10 12 15
10 12 15
10 12 15
7 9 11
9 11 14
8 10 13
9 11 14
9 11 14
8 10 13
9 11 14
7 9 11
8 9 12
9 11 14
9 11 14
9 11 14
9 11 14
9 11 14
10 12 15
8 10 13
8 10 13
9 11 14
9 11 15
9 11 14
9 11 14
8 10 12
8 10 13
8 9 12
10 12 15
167 187 217
196 220 255
196 220 255
196 220 255
196 220 255
196 220 255
196 220 255
196 220 255
196 220 255
196 220 255
196 220 255
196 220 255
196 220 255
196 220 255
196 220 255
196 220 255
196 220 255
196 220 255
196 220 255
196 220 255
196 220 255
196 220 255
196 220 255
196 220 255
196 220 255
196 220 255
196 220 255
196 220 255
196 220 255
196 220 255
196 220 255
196 220 255
196 220 255
196 220 255
196 220 255
196 220 255
196 220 255
196 220 255
196 220 255
196 220 255
196 220 255
196 220 255
196 220 255
196 220 255
196 220 255
196 220 255
196 220 255
196 220 255
196 220 255
196 220 255
195 219 255
195 219 255
195 219 255
195 219 255
195 219 255
195 219 255
195 219 255
195 219 255
195 219 255
195 219 255
195 219 255
195 219 255
195 219 255
195 219 255
195 219 255
195 219 255
195 219 255
195 219 255
195 219 255
195 219 255
195 219 255
195 219 255
195 219 255
195 219 255
195 219 255
195 219 255
195 219 255
195 219 255
195 219 255
195 219 255
195 219 255
195 219 255
195 219 255
195 219 255
195 219 255
195 219 255
195 219 255
195 219 255
195 219 255
195 219 255
195 219 255
195 219 255
195 219 255
195 219 255
195 219 255
195 219 255
195 219 255
195 219 255
195 219 255
195 219 255
195 219 255
195 219 255
195 219 255
195 219 255
195 219 255
195 219 255
195 219 255
195 219 255
195 219 255
195 219 255
195 219 255
195 219 255
195 219 255
195 219 255
195 219 255
195 219 255
195 219 255
194 219 255
194 219 255
194 219 255
194 219 255
194 219 255
194 219 255
194 219 255
194 219 255
194 219 255
194 219 255
194 219 255
194 219 255
194 219 255
194 219 255
194 219 255
194 219 255
194 219 255
194 219 255
194 219 255
195 219 255
195 219 255
195 219 255
195 219 255
195 219 255
195 219 255
195 219 255
195 219 255
195 219 255
195 219 255
195 219 255
195 219 255
195 219 255
195 219 255
195 219 255
195 219 255
195 219 255
195 219 255
195 219 255
195 219 255
195 219 255
195 219 255
195 219 255
195 219 255
195 219 255
195 219 255
195 219 255
195 219 255
195 219 255
195 219 255
195 219 255
195 219 255
195 219 255
195 219 255
195 219 255
195 219 255
195 219 255
195 219 255
195 219 255
195 219 255
195 219 255
195 219 255
195 219 255
195 219 255
195 219 255
195 219 255
195 219 255
195 219 255
195 219 255
195 219 255
195 219 255
195 219 255
195 219 255
195 219 255
195 219 255
195 219 255
195 219 255
195 219 255
195 219 255
195 219 255
195 219 255
195 219 255
195 219 255
195 219 255
195 219 255
196 220 255
196 220 255
196 220 255
196 220 255
196 220 255
196 220 255
196 220 255
196 220 255
196 220 255
196 220 255
196 220 255
196 220 255
196 220 255
196 220 255
196 220 255
196 220 255
196 220 255
196 220 255
196 220 255
196 220 255
196 220 255
196 220 255
196 220 255
196 220 255
196 220 255
196 220 255
196 220 255
196 220 255
196 220 255
196 220 255
196 220 255
196 220 255
196 220 255
196 220 255
196 220 255
196 220 255
196 220 255
196 220 255
196 220 255
196 220 255
196 220 255
196 220 255
196 220 255
196 220 255
196 220 255
196 220 255
196 220 255
196 220 255
196 220 255
196 220 255
197 220 255
196 220 255
197 220 255
197 220 255
197 220 255
197 220 255
197 220 255
197 220 255
197 220 255
197 220 255
197 220 255
197 220 255
197 220 255
197 220 255
197 220 255
197 220 255
197 220 255
197 220 255
197 220 255
197 220 255
195 218 253
13 16 20
7 9 12
10 12 15
8 9 12
8 9 12
8 10 12
7 9 12
9 11 14
9 11 13
8 9 12
7 8 11
9 11 14
9 11 14
8 10 13
9 11 14
10 12 15
8 10 13
9 12 15
10 12 15
9 11 14
9 11 13
9 11 13
8 10 13
7 9 12
9 11 14
10 12 15
9 11 14
10 12 15
9 11 14
9 11 15
8 10 13
9 11 14
9 11 13
9 11 13
8 10 13
9 12 15
10 12 15
8 10 13
8 10 13
10 12 15
9 11 14
8 10 13
9 11 14
8 10 13
9 11 14
11 13 16
10 13 16
10 12 16
9 11 14
8 10 12
10 12 15
9 11 14
9 11 14
8 10 12
9 11 14
8 10 13
10 12 15
8 10 13
11 13 16
8 10 13
10 13 16
8 10 13
9 11 14
8 9 12
9 12 15
8 10 12
10 12 15
7 9 12
9 11 14
8 10 13
9 11 14
9 11 15
9 10 13
8 10 13
9 11 14
9 11 14
8 10 13
9 11 14
7 9 11
10 12 15
10 12 16
9 11 14
10 13 16
8 10 13
7 9 12
9 11 14
10 12 16
9 11 14
7 9 11
9 11 14
8 10 12
9 11 14
9 11 14
10 12 15
10 12 15
9 11 14
10 12 15
9 11 14
9 11 15
9 11 14
9 11 15
8 10 14
9 11 14
9 10 13
9 11 14
8 10 13
9 11 14
9 11 14
8 10 13
9 11 14
9 11 14
8 9 12
10 13 16
9 11 14
9 11 14
8 10 13
9 11 13
9 11 14
10 12 15
9 11 14
8 10 13
9 11 14
8 9 12
9 11 14
8 9 12
8 10 13
8 9 12
10 12 15
188 210 244
197 220 255
197 220 255
197 220 255
197 220 255
197 220 255
197 220 255
197 220 255
197 220 255
197 220 255
197 220 255
197 220 255
197 220 255
197 220 255
197 220 255
197 220 255
197 220 255
197 220 255
197 220 255
196 220 255
196 220 255
196 220 255
196 220 255
196 220 255
196 220 255
196 220 255
196 220 255
196 220 255
196 220 255
196 220 255
196 220 255
196 220 255
196 220 255
196 220 255
196 220 255
196 220 255
196 220 255
196 220 255
196 220 255
196 220 255
196 220 255
196 220 255
196 220 255
196 220 255
196 220 255
196 220 255
196 220 255
196 220 255
196 220 255
196 220 255
196 220 255
196 220 255
196 220 255
196 220 255
196 220 255
196 220 255
196 220 255
196 220 255
196 220 255
196 220 255
196 220 255
196 220 255
196 220 255
196 220 255
196 220 255
196 220 255
196 220 255
196 220 255
196 220 255
196 220 255
196 220 255
195 219 255
195 219 255
195 219 255
195 219 255
195 219 255
195 219 255
195 219 255
195 219 255
195 219 255
195 219 255
195 219 255
195 219 255
195 219 255
195 219 255
195 219 255
195 219 255
195 219 255
195 219 255
195 219 255
195 219 255
195 219 255
195 219 255
195 219 255
195 219 255
195 219 255
195 219 255
195 219 255
195 219 255
195 219 255
195 219 255
195 219 255
195 219 255
195 219 255
195 219 255
195 219 255
195 219 255
195 219 255
195 219 255
195 219 255
195 219 255
195 219 255
195 219 255
195 219 255
195 219 255
195 219 255
195 219 255
195 219 255
195 219 255
195 219 255
195 219 255
195 219 255
195 219 255
195 219 255
195 219 255
195 219 255
195 219 255
195 219 255
195 219 255
195 219 255
195 219 255
195 219 255
195 219 255
195 219 255
195 219 255
195 219 255
195 219 255
195 219 255
195 219 255
195 219 255
195 219 255
195 219 255
195 219 255
195 219 255
195 219 255
195 219 255
195 219 255
195 219 255
195 219 255
195 219 255
195 219 255
195 219 255
195 219 255
195 219 255
195 219 255
195 219 255
195 219 255
195 219 255
195 219 255
195 219 255
195 219 255
195 219 255
195 219 255
195 219 255
195 219 255
195 219 255
195 219 255
195 219 255
195 219 255
195 219 255
195 219 255
195 219 255
195 219 255
195 219 255
195 219 255
195 219 255
195 219 255
195 219 255
195 219 255
195 219 255
195 219 255
196 220 255
196 220 255
196 220 255
196 220 255
196 220 255
196 220 255
196 220 255
196 220 255
196 220 255
196 220 255
196 220 255
196 220 255
196 220 255
196 220 255
196 220 255
196 220 255
196 220 255
196 220 255
196 220 255
196 220 255
196 220 255
196 220 255
196 220 255
196 220 255
196 220 255
196 220 255
196 220 255
196 220 255
196 220 255
196 220 255
196 220 255
196 220 255
196 220 255
196 220 255
196 220 255
196 220 255
196 220 255
196 220 255
196 220 255
196 220 255
196 220 255
196 220 255
196 220 255
196 220 255
196 220 255
196 220 255
196 220 255
196 220 255
196 220 255
196 220 255
196 220 255
197 220 255
197 220 255
197 220 255
197 220 255
197 220 255
197 220 255
197 220 255
197 220 255
197 220 255
197 220 255
197 220 255
197 220 255
197 220 255
197 220 255
197 220 255
197 220 255
197 220 255
197 220 255
197 220 255
197 220 255
197 220 255
197 220 255
197 220 255
197 220 255
197 220 255
197 220 255
197 220 255
197 220 255
197 220 255
186 208 242
181 202 235
159 178 207
151 170 198
144 162 189
141 158 184
113 128 150
126 142 166
115 130 152
86 97 115
89 101 120
16 18 22
7 9 11
9 11 14
8 10 13
9 11 13
7 8 10
7 8 10
10 12 15
8 10 12
8 9 12
10 12 16
9 11 14
10 12 15
8 10 13
8 10 13
8 9 12
10 12 15
8 10 13
9 10 13
9 12 15
9 10 13
9 12 15
9 11 14
7 9 11
9 11 14
9 11 14
10 12 15
9 11 15
8 10 13
9 11 14
10 12 15
8 10 13
8 10 13
8 10 13
9 11 14
7 9 12
10 12 15
10 12 15
7 9 12
9 10 13
9 11 14
9 11 13
9 11 14
9 10 13
8 10 13
9 11 14
10 12 15
9 10 13
10 12 16
9 11 14
10 12 15
9 11 15
10 12 15
10 12 15
9 10 13
9 12 15
8 10 13
8 10 12
8 9 12
9 11 14
9 11 14
10 12 16
10 12 15
9 11 14
9 10 13
9 11 14
9 11 14
9 11 14
8 10 12
9 11 14
7 9 11
10 12 15
9 11 15
8 10 13
9 10 13
9 11 14
10 12 16
9 11 14
8 10 13
9 11 14
7 9 12
8 10 13
10 12 15
7 9 11
8 9 12
10 12 15
8 9 12
9 11 14
10 12 15
9 10 13
9 11 14
9 11 13
9 11 13
9 10 13
8 9 11
10 12 15
8 10 13
9 10 13
9 11 14
10 12 15
9 10 13
9 11 14
8 10 12
9 11 14
7 9 12
9 11 14
8 9 12
9 12 15
9 10 13
8 10 13
9 11 14
9 11 14
8 10 13
9 11 14
8 9 12
9 11 14
9 10 13
8 10 13
8 10 13
8 9 12
8 10 12
9 10 13
9 10 13
8 10 13
9 11 14
9 10 13
7 9 11
16 19 24
97 109 129
97 110 129
106 120 140
111 126 147
137 154 179
135 152 177
161 180 209
151 170 198
161 180 209
174 194 226
188 210 244
197 220 255
197 220 255
197 220 255
197 220 255
197 220 255
197 220 255
197 220 255
197 220 255
197 220 255
197 220 255
197 220 255
197 220 255
197 220 255
197 220 255
197 220 255
197 220 255
197 220 255
197 220 255
197 220 255
197 220 255
197 220 255
197 220 255
197 220 255
197 220 255
197 220 255
197 220 255
197 220 255
197 220 255
197 220 255
196 220 255
196 220 255
196 220 255
196 220 255
196 220 255
196 220 255
196 220 255
196 220 255
196 220 255
196 220 255
196 220 255
196 220 255
196 220 255
196 220 255
196 220 255
196 220 255
196 220 255
196 220 255
196 220 255
196 220 255
196 220 255
196 220 255
196 220 255
196 220 255
196 220 255
196 220 255
196 220 255
196 220 255
196 220 255
196 220 255
196 220 255
196 220 255
196 220 255
196 220 255
196 220 255
196 220 255
196 220 255
196 220 255
196 220 255
196 220 255
196 220 255
196 220 255
196 220 255
196 220 255
196 220 255
196 220 255
196 220 255
196 220 255
196 220 255
196 220 255
196 220 255
195 219 255
195 219 255
195 219 255
195 219 255
195 219 255
195 219 255
195 219 255
195 219 255
195 219 255
195 219 255
195 219 255
195 219 255
195 219 255
195 219 255
195 219 255
195 219 255
195 219 255
195 219 255
195 219 255
195 219 255
195 219 255
195 219 255
195 219 255
195 219 255
195 219 255
195 219 255
195 219 255
195 219 255
195 219 255
195 219 255
195 219 255
195 219 255
195 219 255
195 219 255
195 219 255
195 219 255
195 219 255
195 219 255
195 219 255
195 219 255
195 219 255
195 219 255
195 219 255
195 219 255
195 219 255
195 219 255
195 219 255
195 219 255
195 219 255
195 219 255
195 219 255
195 219 255
195 219 255
195 219 255
195 219 255
195 219 255
195 219 255
195 219 255
195 219 255
195 219 255
195 219 255
195 219 255
195 219 255
195 219 255
195 219 255
195 219 255
195 219 255
195 219 255
195 219 255
195 219 255
196 220 255
196 220 255
196 220 255
196 220 255
196 220 255
196 220 255
196 220 255
196 220 255
196 220 255
196 220 255
196 220 255
196 220 255
196 220 255
196 220 255
196 220 255
196 220 255
196 220 255
196 220 255
196 220 255
196 220 255
196 220 255
196 220 255
196 220 255
196 220 255
196 220 255
196 220 255
196 220 255
196 220 255
196 220 255
196 220 255
196 220 255
196 220 255
196 220 255
196 220 255
196 220 255
196 220 255
196 220 255
196 220 255
196 220 255
196 220 255
196 220 255
196 220 255
196 220 255
196 220 255
196 220 255
196 220 255
196 220 255
196 220 255
196 220 255
196 220 255
196 220 255
196 220 255
196 220 255
197 220 255
197 220 255
197 220 255
197 220 255
197 220 255
197 220 255
197 220 255
197 220 255
197 220 255
197 220 255
197 220 255
197 220 255
197 220 255
197 220 255
197 220 255
197 220 255
197 220 255
197 220 255
197 220 255
197 220 255
197 220 255
197 220 255
197 220 255
197 220 255
197 220 255
197 220 255
197 220 255
197 220 255
197 220 255
197 221 255
188 210 244
179 200 232
161 180 209
150 168 196
153 172 200
135 152 177
133 150 175
106 120 140
100 114 133
95 108 126
93 105 124
73 83 99
53 61 73
42 49 60
42 49 60
27 33 41
16 21 27
15 19 25
14 19 25
14 19 25
14 19 25
14 19 25
14 19 25
14 19 25
15 19 25
15 19 25
14 19 25
14 19 25
11 13 17
8 9 12
7 8 10
9 11 13
9 11 14
9 11 14
9 10 13
7 8 11
8 10 13
10 12 15
8 10 13
9 10 13
9 10 13
9 11 14
8 10 13
10 12 15
8 10 13
9 12 15
9 12 15
10 12 15
10 12 15
9 11 14
8 10 13
8 10 12
9 11 13
9 11 14
8 10 13
9 11 14
7 9 12
10 12 15
8 10 13
8 10 13
7 9 11
10 12 15
10 12 15
8 10 12
9 11 14
10 12 15
8 10 12
9 11 14
8 10 12
9 11 14
9 11 14
8 10 13
8 10 12
11 13 16
9 11 14
9 10 13
9 10 13
8 10 13
8 10 13
10 12 15
9 11 14
9 11 14
8 10 13
9 11 14
9 11 13
10 12 15
8 9 12
10 13 16
9 10 13
10 12 16
9 11 14
11 13 17
9 11 13
8 10 13
8 10 13
9 11 14
9 11 13
10 12 15
8 10 12
9 10 13
10 12 16
10 12 15
9 11 13
9 11 14
7 9 12
8 10 13
8 10 13
10 12 15
8 10 13
10 12 15
9 11 14
9 11 14
10 13 16
8 9 12
10 13 16
7 8 11
8 10 12
9 11 14
9 11 14
8 10 13
10 12 15
9 11 14
9 11 14
8 10 13
9 11 14
8 10 12
9 11 13
10 12 15
7 9 12
10 12 15
10 12 14
8 10 13
8 9 12
9 11 14
8 10 12
8 10 13
9 10 13
9 10 13
9 11 14
8 10 13
8 10 12
7 9 11
8 10 13
10 12 15
9 10 13
8 10 12
8 10 13
7 9 12
9 11 14
9 11 14
8 10 12
9 10 13
10 12 15
8 10 12
8 9 12
10 13 17
14 19 25
14 19 25
15 19 25
14 18 25
14 19 25
14 19 25
14 19 25
14 19 25
14 19 25
15 19 25
14 19 25
16 21 27
22 27 34
38 45 55
53 61 73
55 63 76
73 83 99
88 99 117
90 102 120
90 102 120
111 126 147
113 128 150
131 148 173
148 166 193
151 170 198
168 188 219
181 202 235
179 200 232
197 221 255
197 221 255
197 220 255
197 220 255
197 220 255
197 220 255
197 220 255
197 220 255
197 220 255
197 220 255
197 220 255
197 220 255
197 220 255
197 220 255
197 220 255
197 220 255
197 220 255
197 220 255
197 220 255
197 220 255
197 220 255
197 220 255
197 220 255
197 220 255
197 220 255
197 220 255
197 220 255
197 220 255
197 220 255
197 220 255
196 220 255
196 220 255
196 220 255
196 220 255
196 220 255
196 220 255
196 220 255
196 220 255
196 220 255
196 220 255
196 220 255
196 220 255
196 220 255
196 220 255
196 220 255
196 220 255
196 220 255
196 220 255
196 220 255
196 220 255
196 220 255
196 220 255
196 220 255
196 220 255
196 220 255
196 220 255
196 220 255
196 220 255
196 220 255
196 220 255
196 220 255
196 220 255
196 220 255
196 220 255
196 220 255
196 220 255
196 220 255
196 220 255
196 220 255
196 220 255
196 220 255
196 220 255
196 220 255
196 220 255
196 220 255
196 220 255
196 220 255
196 220 255
196 220 255
196 220 255
196 220 255
196 220 255
196 220 255
195 219 255
195 219 255
195 219 255
195 219 255
195 219 255
195 219 255
195 219 255
195 219 255
195 219 255
195 219 255
195 219 255
195 219 255
195 219 255
195 219 255
195 219 255
195 219 255
195 219 255
195 219 255
195 219 255
195 219 255
195 219 255
195 219 255
195 219 255
195 219 255
195 219 255
195 219 255
195 219 255
195 219 255
195 219 255
195 219 255
195 219 255
195 219 255
196 220 255
196 220 255
196 220 255
196 220 255
196 220 255
196 220 255
196 220 255
196 220 255
196 220 255
196 220 255
196 220 255
196 220 255
196 220 255
196 220 255
196 220 255
196 220 255
196 220 255
196 220 255
196 220 255
196 220 255
196 220 255
196 220 255
196 220 255
196 220 255
196 220 255
196 220 255
196 220 255
196 220 255
196 220 255
196 220 255
196 220 255
196 220 255
196 220 255
196 220 255
196 220 255
196 220 255
196 220 255
196 220 255
196 220 255
196 220 255
196 220 255
196 220 255
196 220 255
196 220 255
196 220 255
196 220 255
196 220 255
196 220 255
196 220 255
196 220 255
196 220 255
196 220 255
196 220 255
196 220 255
197 220 255
197 220 255
197 220 255
197 220 255
197 220 255
197 220 255
197 220 255
197 220 255
197 220 255
197 220 255
197 220 255
197 220 255
197 220 255
197 220 255
197 220 255
197 220 255
197 220 255
197 220 255
197 220 255
197 220 255
197 220 255
197 220 255
197 220 255
197 220 255
197 220 255
197 220 255
197 220 255
197 220 255
197 220 255
197 220 255
197 221 255
197 221 255
194 216 251
168 188 219
159 178 207
148 166 193
139 156 182
135 152 177
111 126 147
93 105 124
89 101 120
95 108 126
58 67 80
51 59 71
35 41 50
29 35 44
20 25 32
14 19 25
15 19 25
15 19 25
15 19 25
15 19 25
15 19 25
15 19 25
15 19 25
14 19 25
14 19 25
14 19 25
14 19 25
15 19 25
15 19 25
14 19 25
15 19 25
14 19 25
14 19 25
14 19 25
14 19 25
14 19 25
15 19 25
14 19 25
15 19 25
14 19 25
15 19 25
15 19 25
14 19 25
12 15 20
8 10 13
9 11 14
7 9 11
8 10 12
9 11 13
8 10 13
8 10 12
8 10 13
9 11 14
8 10 13
9 11 13
9 11 14
9 11 14
9 11 14
9 11 14
10 12 15
9 10 13
10 12 15
9 11 14
8 9 12
10 12 15
9 11 14
9 11 14
9 11 14
8 10 12
9 11 14
9 11 14
7 9 12
9 11 14
9 10 13
8 10 13
9 12 15
10 12 15
8 10 12
9 11 14
8 10 12
10 12 15
9 11 14
9 11 14
7 9 11
8 10 13
8 10 13
9 11 13
9 11 14
9 11 14
8 10 13
9 10 13
8 10 12
10 12 15
9 10 13
9 11 14
7 9 12
7 9 11
9 11 14
10 12 15
10 12 15
8 10 13
9 11 14
9 11 14
9 10 13
7 9 11
9 11 14
7 9 11
9 11 14
8 9 12
9 11 14
9 11 14
9 11 14
10 12 15
11 13 16
10 12 15
9 11 14
10 12 15
9 11 14
8 10 12
9 10 13
8 10 13
9 11 14
7 8 11
10 12 16
9 10 13
9 10 13
9 11 13
8 10 12
9 11 14
9 10 13
9 11 14
8 10 13
8 10 13
9 11 14
10 12 15
8 10 13
8 10 13
8 10 12
9 11 14
10 12 15
9 11 14
10 12 15
9 11 14
8 10 12
8 10 13
9 11 14
10 12 15
9 11 14
8 10 12
9 11 14
9 11 13
8 10 12
10 12 15
9 11 14
8 10 12
9 11 14
9 11 14
7 9 11
9 11 14
7 9 11
9 11 14
8 10 13
8 10 13
9 11 14
8 10 13
10 12 14
9 10 13
8 10 12
7 9 11
7 9 11
13 16 21
14 19 25
15 19 25
14 19 25
14 18 25
15 19 25
14 19 25
14 19 25
14 19 25
14 19 25
14 19 25
14 19 25
15 19 25
14 19 25
14 19 25
15 19 25
15 19 25
14 19 25
15 19 25
15 19 25
14 19 25
14 19 25
15 19 25
14 19 25
14 19 25
14 18 25
14 19 25
14 19 25
14 19 25
22 27 34
29 35 44
36 43 53
57 65 78
58 67 80
89 101 120
95 107 126
102 116 136
109 124 145
137 154 179
133 150 175
161 180 209
168 188 219
184 206 239
188 211 244
197 221 255
197 221 255
197 221 255
197 220 255
197 220 255
197 220 255
197 220 255
197 220 255
197 220 255
197 220 255
197 220 255
197 220 255
197 220 255
197 220 255
197 220 255
197 220 255
197 220 255
197 220 255
197 220 255
197 220 255
197 220 255
197 220 255
197 220 255
197 220 255
197 220 255
197 220 255
197 220 255
197 220 255
197 220 255
197 220 255
197 220 255
197 220 255
196 220 255
196 220 255
196 220 255
196 220 255
196 220 255
196 220 255
196 220 255
196 220 255
196 220 255
196 220 255
196 220 255
196 220 255
196 220 255
196 220 255
196 220 255
196 220 255
196 220 255
196 220 255
196 220 255
196 220 255
196 220 255
196 220 255
196 220 255
196 220 255
196 220 255
196 220 255
196 220 255
196 220 255
196 220 255
196 220 255
196 220 255
196 220 255
196 220 255
196 220 255
196 220 255
196 220 255
196 220 255
196 220 255
196 220 255
196 220 255
196 220 255
196 220 255
196 220 255
196 220 255
196 220 255
196 220 255
196 220 255
196 220 255
196 220 255
196 220 255
196 220 255
196 220 255
196 220 255
196 220 255
195 219 255
195 219 255
195 219 255
195 219 255
195 219 255
195 219 255
195 219 255
196 220 255
196 220 255
196 220 255
196 220 255
196 220 255
196 220 255
196 220 255
196 220 255
196 220 255
196 220 255
196 220 255
196 220 255
196 220 255
196 220 255
196 220 255
196 220 255
196 220 255
196 220 255
196 220 255
196 220 255
196 220 255
196 220 255
196 220 255
196 220 255
196 220 255
196 220 255
196 220 255
196 220 255
196 220 255
196 220 255
196 220 255
196 220 255
196 220 255
196 220 255
196 220 255
196 220 255
196 220 255
196 220 255
196 220 255
196 220 255
196 220 255
196 220 255
196 220 255
196 220 255
196 220 255
197 220 255
197 220 255
197 220 255
197 220 255
197 220 255
197 220 255
197 220 255
197 220 255
197 220 255
197 220 255
197 220 255
197 220 255
197 220 255
197 220 255
197 220 255
197 220 255
197 220 255
197 220 255
197 220 255
197 220 255
197 220 255
197 220 255
197 220 255
197 220 255
197 220 255
197 220 255
197 220 255
197 220 255
197 220 255
197 221 255
197 221 255
197 221 255
197 221 255
197 221 255
190 213 246
183 204 237
170 190 221
142 160 186
139 156 182
126 142 166
108 122 143
89 101 120
86 97 115
84 95 113
55 63 76
42 49 60
33 39 48
18 23 30
15 19 25
14 19 25
14 19 25
15 19 25
15 19 25
14 19 25
14 19 25
14 19 25
14 19 25
14 19 25
14 19 25
15 19 25
14 19 25
14 19 25
15 19 25
15 19 25
14 19 25
14 19 25
14 19 25
14 19 25
15 19 25
14 19 25
14 19 25
14 19 25
14 19 25
14 19 25
14 19 25
14 19 25
14 19 25
14 19 25
15 19 25
15 19 25
14 19 25
14 19 25
14 19 25
14 19 25
14 19 25
14 19 25
15 19 25
14 19 25
14 19 25
15 19 25
15 19 25
13 17 22
9 11 13
8 10 12
9 11 14
10 12 15
8 9 12
8 10 13
9 10 13
9 11 13
9 11 14
8 10 13
9 11 14
8 10 12
8 10 13
8 10 12
7 8 11
8 10 12
8 9 12
8 9 12
8 9 12
9 11 14
8 10 13
9 11 14
9 11 13
7 9 11
8 9 12
9 11 14
8 10 13
8 10 13
7 9 11
9 11 14
8 10 13
7 9 12
8 10 13
9 11 14
8 10 12
8 9 12
8 10 12
8 10 12
10 12 15
8 10 13
8 10 13
8 10 13
9 11 14
8 10 13
10 12 15
10 12 15
9 10 13
10 12 15
9 11 14
9 10 13
9 11 14
8 10 12
8 10 12
9 11 14
9 11 14
8 10 13
8 9 12
7 9 12
8 10 13
9 11 14
9 11 14
9 11 13
8 10 13
9 11 14
10 12 15
9 11 14
8 9 12
8 9 12
9 11 13
9 11 14
7 9 11
9 11 14
8 10 13
8 10 13
9 11 14
9 11 14
9 10 13
8 9 12
8 10 12
8 10 13
10 13 16
10 13 16
9 11 14
10 12 15
8 10 13
8 10 13
8 9 12
9 11 13
9 11 14
9 11 14
8 10 13
9 11 13
9 11 14
9 11 14
9 11 13
8 10 13
9 11 14
9 11 14
9 11 14
9 11 13
9 11 14
9 11 13
9 11 13
9 11 13
10 12 15
9 12 15
9 11 14
9 11 14
8 10 12
9 11 13
9 11 14
7 9 11
8 9 12
10 12 16
8 10 13
7 9 11
8 10 13
8 10 13
7 9 12
8 10 13
8 10 13
8 9 12
9 11 13
7 9 11
9 10 13
7 9 11
14 18 23
14 19 25
14 19 25
14 19 25
14 19 25
14 19 25
14 18 25
15 19 25
15 19 25
14 19 25
14 19 25
14 19 25
14 19 25
14 19 25
14 19 25
14 19 25
14 19 25
14 19 25
15 19 25
14 19 25
14 19 25
14 19 25
15 19 25
15 19 25
14 19 25
14 19 25
14 19 25
14 19 25
14 19 25
14 19 25
14 19 25
14 19 25
15 19 25
14 19 25
14 19 25
14 19 25
14 19 25
15 19 25
15 19 25
14 19 25
14 19 25
15 19 25
14 19 25
15 19 25
18 23 30
40 47 57
42 49 60
62 71 85
75 85 101
84 95 113
106 120 140
106 120 140
119 134 156
133 150 175
141 158 184
164 184 214
174 194 226
190 212 246
197 221 255
197 221 255
197 221 255
197 221 255
197 221 255
197 220 255
197 220 255
197 220 255
197 220 255
197 220 255
197 220 255
197 220 255
197 220 255
197 220 255
197 220 255
197 220 255
197 220 255
197 220 255
197 220 255
197 220 255
197 220 255
197 220 255
197 220 255
197 220 255
197 220 255
197 220 255
197 220 255
197 220 255
197 220 255
197 220 255
197 220 255
197 220 255
197 220 255
197 220 255
196 220 255
196 220 255
196 220 255
196 220 255
196 220 255
196 220 255
196 220 255
196 220 255
196 220 255
196 220 255
196 220 255
196 220 255
196 220 255
196 220 255
196 220 255
196 220 255
196 220 255
196 220 255
196 220 255
196 220 255
196 220 255
196 220 255
196 220 255
196 220 255
196 220 255
196 220 255
196 220 255
196 220 255
196 220 255
196 220 255
196 220 255
196 220 255
196 220 255
196 220 255
196 220 255
196 220 255
196 220 255
196 220 255
196 220 255
196 220 255
196 220 255
196 220 255
196 220 255
196 220 255
196 220 255
196 220 255
196 220 255
196 220 255
196 220 255
196 220 255
196 220 255
196 220 255
196 220 255
196 220 255
196 220 255
196 220 255
196 220 255
196 220 255
196 220 255
196 220 255
196 220 255
196 220 255
196 220 255
196 220 255
196 220 255
196 220 255
196 220 255
196 220 255
196 220 255
196 220 255
196 220 255
196 220 255
196 220 255
196 220 255
196 220 255
197 220 255
197 220 255
197 220 255
197 220 255
197 220 255
197 220 255
197 220 255
197 220 255
197 220 255
197 220 255
197 220 255
197 220 255
197 220 255
197 220 255
197 220 255
197 220 255
197 220 255
197 220 255
197 220 255
197 220 255
197 220 255
197 220 255
197 220 255
197 220 255
197 220 255
197 220 255
197 220 255
197 220 255
197 220 255
197 220 255
197 221 255
197 221 255
197 221 255
197 221 255
197 221 255
197 221 255
190 212 246
170 190 221
166 186 216
137 154 179
139 156 182
124 140 163
110 124 145
84 95 113
73 83 99
68 77 92
51 59 71
31 37 46
22 27 34
14 19 25
14 19 25
15 19 25
14 19 25
15 19 25
14 19 25
14 19 25
14 19 25
14 19 25
14 19 25
15 19 25
15 19 25
14 19 25
15 19 25
15 19 25
14 19 25
14 19 25
14 19 25
14 19 25
14 19 25
14 19 25
14 18 25
14 19 25
15 19 25
14 19 25
14 19 25
14 19 25
14 19 25
15 19 25
14 19 25
15 19 25
14 19 25
14 19 25
15 19 25
15 19 25
14 19 25
15 19 25
14 19 25
15 19 25
14 19 25
15 19 25
15 19 25
14 19 25
14 19 25
15 19 25
15 19 25
15 19 25
14 19 25
15 19 25
14 19 25
14 19 25
14 19 25
14 19 25
14 19 25
15 19 25
14 19 25
14 19 25
14 18 25
8 10 13
8 10 13
8 9 12
8 10 13
7 9 11
8 9 12
9 11 14
9 11 14
7 8 11
8 10 13
10 12 15
7 8 10
8 10 13
8 10 13
7 9 12
10 12 15
10 12 15
8 10 13
8 10 13
8 9 12
9 11 14
8 10 13
8 10 13
9 10 13
8 9 12
8 10 13
9 11 13
9 10 13
8 10 12
7 9 12
9 11 14
9 10 13
8 10 13
8 9 12
10 12 15
7 8 10
9 11 14
9 11 14
8 10 12
9 10 13
8 10 13
9 11 14
8 10 12
8 10 13
9 11 14
10 12 15
9 11 13
10 12 15
7 9 11
8 9 12
9 11 14
8 10 13
10 12 15
8 10 12
9 11 14
9 11 14
9 11 14
8 10 13
10 12 15
9 11 13
10 12 16
9 11 14
9 11 14
10 12 16
10 12 15
8 10 13
9 11 14
9 11 14
9 11 14
9 11 13
9 11 14
9 11 13
9 10 13
8 10 13
9 11 13
9 11 14
9 11 14
9 11 14
8 10 13
8 10 13
8 10 13
8 10 12
9 11 14
8 10 13
10 12 15
9 11 14
9 11 14
9 11 14
8 10 13
8 10 12
8 9 12
9 11 14
10 12 15
8 10 13
8 10 12
9 11 14
9 11 14
9 11 14
9 11 14
9 10 13
8 9 12
8 10 13
8 10 13
7 9 11
7 9 11
8 9 12
8 10 13
9 11 14
7 9 12
9 11 14
8 10 13
8 9 12
9 11 14
7 9 11
8 9 12
8 9 12
9 11 14
8 10 13
9 10 13
8 10 12
9 11 14
8 10 13
9 11 14
9 11 14
8 10 13
9 11 14
14 19 25
14 19 25
14 19 25
14 19 25
15 19 25
15 19 25
14 19 25
14 19 25
14 19 25
15 19 25
15 19 25
14 19 25
15 19 25
14 19 25
14 19 25
14 19 25
14 18 25
15 19 25
15 19 25
14 19 25
14 19 25
14 19 25
14 19 25
14 19 25
15 19 25
15 19 25
14 19 25
14 19 25
14 19 25
14 19 25
15 19 25
14 19 25
14 19 25
14 19 25
14 19 25
14 19 25
15 19 25
14 19 25
14 19 25
14 19 25
15 19 25
14 19 25
14 19 25
15 19 25
15 19 25
14 19 25
14 19 25
14 19 25
14 19 25
14 19 25
15 19 25
14 19 25
14 19 25
15 19 25
14 19 25
14 19 25
14 19 25
14 19 25
24 29 37
31 37 46
51 59 71
64 73 87
67 77 92
97 110 129
100 113 133
115 130 152
131 148 173
148 166 193
155 174 203
174 194 226
179 200 232
197 221 255
197 221 255
197 221 255
197 221 255
197 221 255
197 221 255
197 220 255
197 220 255
197 220 255
197 220 255
197 220 255
197 220 255
197 220 255
197 220 255
197 220 255
197 220 255
197 220 255
197 220 255
197 220 255
197 220 255
197 220 255
197 220 255
197 220 255
197 220 255
197 220 255
197 220 255
197 220 255
197 220 255
197 220 255
197 220 255
197 220 255
197 220 255
197 220 255
197 220 255
197 220 255
197 220 255
196 220 255
196 220 255
196 220 255
196 220 255
196 220 255
196 220 255
196 220 255
196 220 255
196 220 255
196 220 255
196 220 255
196 220 255
196 220 255
196 220 255
196 220 255
196 220 255
196 220 255
196 220 255
196 220 255
196 220 255
196 220 255
196 220 255
196 220 255
196 220 255
196 220 255
196 220 255
196 220 255
196 220 255
196 220 255
196 220 255
196 220 255
196 220 255
196 220 255
196 220 255
196 220 255
196 220 255
196 220 255
196 220 255
196 220 255
196 220 255
196 220 255
196 220 255
196 220 255
196 220 255
196 220 255
197 220 255
197 220 255
197 220 255
197 220 255
197 220 255
197 220 255
197 220 255
197 220 255
197 220 255
197 220 255
197 220 255
197 220 255
197 220 255
197 220 255
197 220 255
197 220 255
197 220 255
197 220 255
197 220 255
197 220 255
197 220 255
197 220 255
197 220 255
197 220 255
197 220 255
197 220 255
197 220 255
197 220 255
197 220 255
197 220 255
197 220 255
197 221 255
197 221 255
197 221 255
197 221 255
197 221 255
197 221 255
197 221 255
192 215 249
168 188 219
155 174 203
143 160 186
135 152 177
117 132 154
102 116 136
100 114 133
84 96 113
68 77 92
42 49 60
35 41 50
20 25 32
14 19 25
14 19 25
15 19 25
15 19 25
14 19 25
15 19 25
14 19 25
14 19 25
15 19 25
15 19 25
14 19 25
14 19 25
14 19 25
14 19 25
15 19 25
14 19 25
15 19 25
15 19 25
14 19 25
14 19 25
14 19 25
15 19 25
14 19 25
14 19 25
14 19 25
14 19 25
15 19 25
15 19 25
14 19 25
15 19 25
15 19 25
15 19 25
14 19 25
15 19 25
14 19 25
14 19 25
14 19 25
14 19 25
15 19 25
14 19 25
14 18 25
14 19 25
15 19 25
15 19 25
15 19 25
15 19 25
15 19 25
14 19 25
14 19 25
14 19 25
14 19 25
14 18 25
15 19 25
14 19 25
15 19 25
15 19 25
15 19 25
14 19 25
15 19 25
15 19 25
15 19 25
14 19 25
15 19 25
14 19 25
14 18 25
14 19 25
14 19 25
15 19 25
14 19 25
14 19 25
14 19 25
10 12 16
7 9 11
9 10 13
8 10 13
9 11 14
7 8 11
7 9 12
8 9 12
8 9 12
8 9 12
9 11 13
7 8 10
9 10 13
9 11 14
7 9 11
8 10 13
9 11 14
7 8 11
8 10 12
8 10 13
8 10 12
9 11 14
7 9 11
8 9 12
10 12 15
8 9 12
7 9 11
8 10 12
8 10 12
9 11 14
10 12 15
10 12 15
8 10 13
9 10 13
7 9 11
9 11 13
9 12 15
9 11 13
9 11 14
10 12 16
11 13 16
9 12 15
11 13 17
8 10 13
9 11 14
7 9 12
9 11 13
9 11 13
9 11 14
8 10 13
9 11 14
9 11 14
9 11 15
8 10 13
8 10 13
8 9 12
9 10 13
10 12 15
10 12 15
9 11 14
8 10 13
7 9 11
8 10 12
8 10 13
9 11 14
10 12 15
9 11 14
8 10 12
9 11 14
9 11 14
9 11 14
8 10 13
8 9 12
8 10 13
9 10 13
9 12 15
9 11 14
9 11 14
8 10 13
8 10 13
9 11 14
9 11 14
7 9 12
8 10 13
10 12 16
7 8 10
9 11 14
9 11 14
9 11 14
8 10 13
9 11 14
8 10 12
9 11 14
9 10 13
8 9 12
9 11 14
11 13 16
8 10 13
9 11 14
9 11 14
9 11 14
8 10 12
8 10 12
10 12 15
8 10 13
8 10 12
8 10 13
11 13 17
9 11 13
8 10 12
7 8 10
9 12 15
9 11 14
8 10 13
8 10 13
9 11 14
7 9 12
9 11 13
9 11 14
8 10 13
8 10 13
8 10 13
8 10 13
6 8 10
9 11 14
9 12 15
14 19 25
14 19 25
14 19 25
14 19 25
14 19 25
14 19 25
14 19 25
14 19 25
14 19 25
15 19 25
15 19 25
15 19 25
14 19 25
14 19 25
14 19 25
14 19 25
14 19 25
14 19 25
14 19 25
14 19 25
14 19 25
15 19 25
14 19 25
15 19 25
14 19 25
14 19 25
15 19 25
15 19 25
14 19 25
14 19 25
15 19 25
14 19 25
15 19 25
14 19 25
15 19 25
14 19 25
14 19 25
15 19 25
15 19 25
15 19 25
14 19 25
15 19 25
14 19 25
14 19 25
15 19 25
15 19 25
15 19 25
15 19 25
14 19 25
14 19 25
15 19 25
14 19 25
15 19 25
15 19 25
14 19 25
15 19 25
15 19 25
14 19 25
15 19 25
14 19 25
14 19 25
15 19 25
15 19 25
15 19 25
14 19 25
14 19 25
14 19 25
14 19 25
15 19 25
14 19 25
14 19 25
14 19 25
27 33 41
38 45 55
71 81 97
73 83 99
88 100 117
119 134 156
113 128 150
115 130 152
144 162 189
157 176 205
172 192 223
188 211 244
197 221 255
197 221 255
197 221 255
197 221 255
197 221 255
197 221 255
197 221 255
197 221 255
197 220 255
197 220 255
197 220 255
197 220 255
197 220 255
197 220 255
197 220 255
197 220 255
197 220 255
197 220 255
197 220 255
197 220 255
197 220 255
197 220 255
197 220 255
197 220 255
197 220 255
197 220 255
197 220 255
197 220 255
197 220 255
197 220 255
197 220 255
197 220 255
197 220 255
197 220 255
197 220 255
197 220 255
197 220 255
197 220 255
196 220 255
196 220 255
196 220 255
196 220 255
196 220 255
196 220 255
196 220 255
196 220 255
196 220 255
196 220 255
196 220 255
196 220 255
196 220 255
196 220 255
196 220 255
197 220 255
197 220 255
197 220 255
197 220 255
197 220 255
197 220 255
197 220 255
197 220 255
197 220 255
197 220 255
197 220 255
197 220 255
197 220 255
197 220 255
197 220 255
197 220 255
197 220 255
197 220 255
197 220 255
197 220 255
197 220 255
197 220 255
197 220 255
197 220 255
197 220 255
197 220 255
197 220 255
197 220 255
197 220 255
197 220 255
197 220 255
197 220 255
197 221 255
197 221 255
197 221 255
197 221 255
197 221 255
197 221 255
197 221 255
197 221 255
196 219 253
179 200 232
165 184 214
157 176 205
130 146 170
117 132 154
106 120 140
95 107 126
82 94 110
78 89 106
62 71 85
39 45 55
17 21 27
15 19 25
15 19 25
15 19 25
15 19 25
14 19 25
14 19 25
14 19 25
14 19 25
14 18 25
14 19 25
15 19 25
15 19 25
14 19 25
15 19 25
14 19 25
15 19 25
14 19 25
14 19 25
14 19 25
15 19 25
15 19 25
14 19 25
14 19 25
14 19 25
14 19 25
14 19 25
15 19 25
14 19 25
14 19 25
15 19 25
14 18 25
15 19 25
14 19 25
14 19 25
15 19 25
14 19 25
15 19 25
14 18 25
15 19 25
14 19 25
14 19 25
15 19 25
14 19 25
15 19 25
14 19 25
15 19 25
14 19 25
15 19 25
14 19 25
14 19 25
14 19 25
14 19 25
15 19 25
15 19 25
15 19 25
14 19 25
14 19 25
14 18 25
14 19 25
14 18 25
14 19 25
14 18 25
14 19 25
14 19 25
14 19 25
14 19 25
14 18 25
14 19 25
14 19 25
14 19 25
14 18 25
14 18 25
14 19 25
14 19 25
15 19 25
14 18 25
14 19 25
14 18 25
14 19 25
14 19 25
14 19 25
14 19 25
14 19 25
15 19 25
11 14 19
8 9 12
8 10 12
8 9 11
7 9 11
8 9 12
7 9 11
8 9 12
8 9 12
10 12 15
7 8 11
8 10 12
8 9 12
8 10 12
7 8 11
8 10 14
8 10 12
6 8 10
8 10 13
8 10 13
7 9 11
8 10 12
8 10 13
8 10 13
8 10 13
8 9 12
7 9 11
9 11 13
9 11 14
9 11 14
9 11 14
8 10 13
10 12 15
8 10 13
10 12 15
8 10 12
8 10 12
9 11 14
9 11 14
8 10 13
7 9 11
9 10 13
8 10 12
7 9 11
8 9 12
8 10 13
8 10 12
7 9 11
8 10 13
8 10 12
7 9 11
8 10 13
9 11 14
9 11 14
8 10 13
8 9 12
9 11 13
9 11 13
8 10 13
10 12 16
9 10 13
10 12 15
9 11 14
10 12 15
9 11 14
8 9 12
9 11 14
9 11 13
8 9 12
7 9 11
8 10 12
8 10 13
8 10 13
8 9 12
9 11 14
8 10 13
10 12 15
9 11 14
8 9 11
7 9 12
9 10 13
8 10 13
9 11 14
9 11 14
9 10 13
8 10 12
9 11 14
9 11 14
9 10 13
8 10 12
8 10 12
8 10 13
7 9 11
11 13 16
8 9 12
8 10 13
8 10 12
8 10 12
7 9 11
7 9 11
7 9 12
9 11 14
8 10 13
8 10 13
9 11 13
7 9 12
8 10 13
7 9 11
8 10 13
9 11 14
7 8 11
9 11 13
6 8 10
9 11 13
9 10 13
9 11 14
8 10 13
7 9 11
7 8 11
8 9 12
7 8 11
8 10 13
7 8 11
8 10 12
8 10 12
12 15 19
15 19 25
14 19 25
14 18 25
14 19 25
14 19 25
15 19 25
15 19 25
14 19 25
14 19 25
14 19 25
14 19 25
14 19 25
14 19 25
15 19 25
15 19 25
14 19 25
14 19 25
14 18 25
14 19 25
14 19 25
14 19 25
14 19 25
15 19 25
14 19 25
14 19 25
14 19 25
14 19 25
14 18 25
14 19 25
14 18 25
14 19 25
14 19 25
15 19 25
14 19 25
14 19 25
14 19 25
14 18 25
14 19 25
14 19 25
14 19 25
15 19 25
14 19 25
14 19 25
14 19 25
15 19 25
15 19 25
14 19 25
14 19 25
14 19 25
15 19 25
14 19 25
14 18 25
15 19 25
14 19 25
15 19 25
15 19 25
14 19 25
15 19 25
14 19 25
14 19 25
14 19 25
14 19 25
15 19 25
14 19 25
15 19 25
14 19 25
14 18 25
15 19 25
15 19 25
14 19 25
14 19 25
15 19 25
15 19 25
14 19 25
15 19 25
15 19 25
15 19 25
14 19 25
14 19 25
14 19 25
15 19 25
14 19 25
15 19 25
15 19 25
20 25 32
38 45 55
42 49 60
69 79 94
76 87 103
73 83 99
122 138 161
130 146 170
146 164 191
159 178 207
163 182 212
175 196 228
197 221 255
197 221 255
197 221 255
197 221 255
197 221 255
197 221 255
197 221 255
197 221 255
197 221 255
197 220 255
197 220 255
197 220 255
197 220 255
197 220 255
197 220 255
197 220 255
197 220 255
197 220 255
197 220 255
197 220 255
197 220 255
197 220 255
197 220 255
197 220 255
197 220 255
197 220 255
197 220 255
197 220 255
197 220 255
197 220 255
197 220 255
197 220 255
197 220 255
197 220 255
197 220 255
197 220 255
197 220 255
197 220 255
197 220 255
197 220 255
197 220 255
197 220 255
197 220 255
197 220 255
197 220 255
197 220 255
197 220 255
197 220 255
197 220 255
197 220 255
197 220 255
197 220 255
197 220 255
197 220 255
197 220 255
197 220 255
197 220 255
197 220 255
197 220 255
197 221 255
197 221 255
197 221 255
197 221 255
197 221 255
197 221 255
197 221 255
197 221 255
197 221 255
197 221 255
197 221 255
188 211 244
166 186 216
161 180 209
132 148 173
126 142 166
111 126 147
86 97 115
89 101 120
47 55 67
44 51 62
29 35 44
18 23 30
14 19 25
15 19 25
15 19 25
15 19 25
15 19 25
14 19 25
15 19 25
15 19 25
14 19 25
14 19 25
15 19 25
15 19 25
14 19 25
14 18 25
15 19 25
14 19 25
14 19 25
14 19 25
14 19 25
14 19 25
14 19 25
14 19 25
14 18 25
14 19 25
14 19 25
14 19 25
15 19 25
14 19 25
14 19 25
14 19 25
15 19 25
15 19 25
15 19 25
14 19 25
14 19 25
14 19 25
14 19 25
14 19 25
14 19 25
14 19 25
15 19 25
14 19 25
14 19 25
15 19 25
14 19 25
14 19 25
15 19 25
14 19 25
14 19 25
14 19 25
15 19 25
14 19 25
15 19 25
14 19 25
15 19 25
14 19 25
14 19 25
14 19 25
14 19 25
14 19 25
14 19 25
14 19 25
14 19 25
14 19 25
15 19 25
14 19 25
14 19 25
15 19 25
14 19 25
15 19 25
14 19 25
14 19 25
14 19 25
14 19 25
15 19 25
14 18 25
14 19 25
15 19 25
14 19 25
14 19 25
14 19 25
15 19 25
14 19 25
14 19 25
15 19 25
14 19 25
14 19 25
15 19 25
14 19 25
14 19 25
14 19 25
15 19 25
14 19 25
14 18 25
15 19 25
14 19 25
14 18 24
8 9 12
8 9 12
9 11 14
9 11 14
7 9 11
6 8 10
8 9 12
7 8 10
8 10 13
8 10 13
9 11 13
8 10 13
8 9 12
8 10 13
8 9 12
8 10 12
8 10 13
8 9 12
10 12 16
8 10 13
7 9 12
7 9 12
8 10 12
8 10 13
8 10 12
8 10 12
8 10 13
8 10 13
9 11 14
8 10 13
7 9 12
9 11 14
7 9 11
9 11 14
7 9 12
8 10 12
8 10 13
9 11 14
8 10 13
7 8 11
10 12 15
9 11 14
10 12 15
7 9 11
9 11 14
9 11 14
8 10 13
10 12 15
8 9 12
7 9 11
8 10 13
9 10 13
8 9 12
7 8 11
9 11 14
9 11 14
8 10 12
9 11 14
10 12 15
9 10 13
8 9 12
10 12 15
9 11 14
8 9 12
8 10 13
8 10 13
9 11 14
9 10 13
6 8 10
8 10 13
9 11 14
7 9 11
8 9 12
8 10 13
9 11 14
9 11 14
7 9 11
7 9 11
9 11 14
8 10 13
9 11 13
10 12 15
8 9 12
9 10 13
8 10 13
7 8 11
7 8 10
9 11 14
8 10 13
7 9 11
9 10 13
8 10 13
9 11 13
7 9 11
9 11 14
8 10 12
7 9 11
8 10 12
8 10 13
9 11 14
9 11 14
8 9 12
7 9 11
9 11 14
9 12 15
9 11 14
9 10 13
10 12 15
7 8 11
7 9 11
8 10 13
7 9 12
7 9 12
8 10 13
9 11 14
9 11 14
9 11 14
9 11 14
7 9 11
8 10 13
10 12 15
7 9 11
8 10 13
9 11 14
13 17 23
15 19 25
14 18 25
14 19 25
14 19 25
14 19 25
14 19 25
15 19 25
14 19 25
15 19 25
15 19 25
14 19 25
15 19 25
14 19 25
14 19 25
14 19 25
15 19 25
14 19 25
14 19 25
15 19 25
14 19 25
14 18 25
14 18 25
14 19 25
14 19 25
14 19 25
14 19 25
15 19 25
15 19 25
14 19 25
14 19 25
14 19 25
14 19 25
15 19 25
14 19 25
15 19 25
14 18 25
14 19 25
15 19 25
15 19 25
15 19 25
15 19 25
14 19 25
15 19 25
14 19 25
14 19 25
14 19 25
14 19 25
14 19 25
15 19 25
14 19 25
15 19 25
14 19 25
14 19 25
15 19 25
14 19 25
14 19 25
14 19 25
14 19 25
14 19 25
14 19 25
14 19 25
14 19 25
15 19 25
15 19 25
14 19 25
14 19 25
14 19 25
14 19 25
15 19 25
14 19 25
15 19 25
14 19 25
14 19 25
15 19 25
14 19 25
15 19 25
15 19 25
14 19 25
15 19 25
14 19 25
14 19 25
14 19 25
14 19 25
14 19 25
14 19 25
14 19 25
14 19 25
15 19 25
14 19 25
14 19 25
14 19 25
14 19 25
14 19 25
15 19 25
14 19 25
15 19 25
16 21 27
29 35 44
40 47 57
76 87 103
91 104 122
93 106 124
106 120 140
128 144 168
132 148 173
152 170 198
175 196 228
183 205 237
197 221 255
197 221 255
197 221 255
197 221 255
197 221 255
197 221 255
197 221 255
197 221 255
197 221 255
197 221 255
197 221 255
197 220 255
197 220 255
197 220 255
197 220 255
197 220 255
197 220 255
197 220 255
197 220 255
197 220 255
197 220 255
197 220 255
197 220 255
197 220 255
197 220 255
197 220 255
197 220 255
197 220 255
197 220 255
197 220 255
197 220 255
197 220 255
197 220 255
197 220 255
197 221 255
197 221 255
197 221 255
197 221 255
197 221 255
197 221 255
197 221 255
197 221 255
197 221 255
197 221 255
197 221 255
194 217 251
185 207 239
166 186 216
163 182 212
141 158 184
110 124 145
111 126 147
88 99 117
80 91 108
62 71 85
44 51 62
31 37 46
16 21 27
15 19 25
15 19 25
14 19 25
14 19 25
14 19 25
15 19 25
14 19 25
15 19 25
15 19 25
14 19 25
14 19 25
15 19 25
14 19 25
14 19 25
14 19 25
14 19 25
15 19 25
14 19 25
15 19 25
14 19 25
15 19 25
14 19 25
15 19 25
15 19 25
14 19 25
14 19 25
15 19 25
15 19 25
14 19 25
14 19 25
15 19 25
14 19 25
14 19 25
14 19 25
15 19 25
14 19 25
14 19 25
15 19 25
14 19 25
15 19 25
14 19 25
14 19 25
14 19 25
15 19 25
14 19 25
14 19 25
14 19 25
14 19 25
15 19 25
14 19 25
14 19 25
14 19 25
15 19 25
14 19 25
15 19 25
14 19 25
15 19 25
14 19 25
14 19 25
14 19 25
14 19 25
14 19 25
14 18 25
14 19 25
14 19 25
14 19 25
15 19 25
14 19 25
15 19 25
14 19 25
15 19 25
15 19 25
14 18 25
15 19 25
14 19 25
14 19 25
15 19 25
14 19 25
14 18 25
15 19 25
14 19 25
14 18 25
14 19 25
14 19 25
14 19 25
14 19 25
14 19 25
14 19 25
14 19 25
14 19 25
14 19 25
14 19 25
14 19 25
15 19 25
15 19 25
14 19 25
15 19 25
14 19 25
14 18 25
15 19 25
14 18 25
14 19 25
14 18 25
15 19 25
15 19 25
14 18 25
14 19 25
14 19 25
14 19 25
10 12 15
7 9 11
8 10 12
8 10 13
8 9 12
8 10 13
7 9 11
9 11 14
7 9 11
9 10 13
8 10 13
8 10 13
8 9 12
7 8 10
8 10 12
8 9 12
8 9 12
9 10 13
8 10 12
10 11 14
7 9 12
7 9 11
8 10 13
9 10 13
10 12 15
9 11 14
8 10 13
9 11 14
9 11 14
9 10 13
8 10 13
8 10 13
8 9 12
7 8 11
8 10 12
8 9 12
10 11 14
8 10 12
9 11 14
9 11 14
9 12 15
9 11 14
9 10 13
9 11 14
8 10 13
9 11 14
8 10 12
7 9 11
9 11 14
9 11 14
9 10 13
9 11 14
10 12 15
8 10 13
7 9 11
7 9 11
8 10 13
8 10 13
7 8 11
8 10 13
8 9 12
9 11 14
7 8 11
9 11 14
9 11 13
9 11 14
9 11 13
8 10 12
9 11 14
9 11 14
9 10 13
7 8 10
10 11 14
8 9 12
7 8 11
9 11 13
8 9 12
8 10 13
7 9 11
8 10 13
9 11 14
7 8 11
7 9 11
8 10 13
9 11 14
10 12 15
7 9 11
8 9 12
7 9 11
9 11 14
9 11 14
8 10 12
8 10 13
9 10 13
8 10 12
7 9 12
9 11 14
8 9 12
6 7 9
8 10 13
9 11 15
8 9 12
8 10 13
9 11 14
9 11 14
9 11 14
9 10 13
9 11 14
7 8 11
9 11 14
9 11 14
7 9 11
9 11 14
8 10 13
9 10 13
7 9 11
7 9 11
8 10 13
8 10 12
8 10 13
8 10 13
6 8 10
7 8 10
8 10 12
15 19 25
14 18 25
15 19 25
14 19 25
14 18 25
14 19 25
15 19 25
14 19 25
14 19 25
15 19 25
15 19 25
14 19 25
14 19 25
14 19 25
15 19 25
14 18 25
15 19 25
14 18 25
14 19 25
14 19 25
14 19 25
14 18 25
14 19 25
15 19 25
15 19 25
14 19 25
14 19 25
14 19 25
14 18 25
14 19 25
15 19 25
14 19 25
14 18 25
14 18 25
14 19 25
14 19 25
15 19 25
14 19 25
14 19 25
14 18 25
15 19 25
14 18 25
14 18 25
14 19 25
15 19 25
14 18 25
14 19 25
14 19 25
14 19 25
14 19 25
14 19 25
15 19 25
15 19 25
15 19 25
14 19 25
15 19 25
14 19 25
14 19 25
15 19 25
15 19 25
15 19 25
15 19 25
15 19 25
14 19 25
14 18 25
15 19 25
14 19 25
14 19 25
15 19 25
15 19 25
14 18 25
14 19 25
14 19 25
14 19 25
14 19 25
15 19 25
14 19 25
15 19 25
15 19 25
14 19 25
14 19 25
14 19 25
14 19 25
15 19 25
14 19 25
15 19 25
14 19 25
14 19 25
14 19 25
14 19 25
15 19 25
14 19 25
15 19 25
14 19 25
15 19 25
14 19 25
15 19 25
15 19 25
15 19 25
14 19 25
14 19 25
14 19 25
14 19 25
14 19 25
14 19 25
15 19 25
14 19 25
14 19 25
15 19 25
18 23 30
37 43 53
53 61 73
55 63 76
84 95 113
99 112 131
123 138 161
124 140 163
130 146 170
163 182 212
181 202 235
187 209 242
197 221 255
197 221 255
197 221 255
197 221 255
197 221 255
197 221 255
197 221 255
197 221 255
197 221 255
197 221 255
197 221 255
197 221 255
197 220 255
197 220 255
197 220 255
197 220 255
197 220 255
197 221 255
197 221 255
197 221 255
197 221 255
197 221 255
194 217 251
174 194 226
155 174 203
157 176 205
124 140 163
109 124 145
101 114 133
60 69 83
80 91 108
49 57 69
44 51 62
16 21 27
15 19 25
15 19 25
14 19 25
15 19 25
14 19 25
14 19 25
14 19 25
15 19 25
15 19 25
14 19 25
15 19 25
15 19 25
15 19 25
14 19 25
14 19 25
14 19 25
14 19 25
14 19 25
14 19 25
15 19 25
14 19 25
14 19 25
14 19 25
14 19 25
14 19 25
15 19 25
15 19 25
14 19 25
14 19 25
14 19 25
14 19 25
15 19 25
14 19 25
15 19 25
14 19 25
15 19 25
14 19 25
15 19 25
15 19 25
14 19 25
14 19 25
15 19 25
14 19 25
15 19 25
14 19 25
14 19 25
14 19 25
15 19 25
15 19 25
14 19 25
14 19 25
15 19 25
14 19 25
14 19 25
14 19 25
14 19 25
14 19 25
15 19 25
15 19 25
14 19 25
14 19 25
14 19 25
14 19 25
14 19 25
14 19 25
14 19 25
14 19 25
14 19 25
14 19 25
14 19 25
15 19 25
14 19 25
14 19 25
14 19 25
15 19 25
14 18 25
14 19 25
14 19 25
14 19 25
14 19 25
14 19 25
15 19 25
14 19 25
14 18 25
14 19 25
14 19 25
14 19 25
14 18 24
14 19 25
15 19 25
14 19 25
14 19 25
14 19 25
14 19 25
14 18 25
14 19 25
14 19 25
15 19 25
14 19 25
15 19 25
15 19 25
14 19 25
14 19 25
14 18 25
14 18 25
15 19 25
14 18 25
14 18 25
14 19 25
14 19 25
14 19 25
14 18 25
14 19 25
15 19 25
14 18 25
14 19 25
15 19 25
14 19 25
14 18 25
14 18 24
14 19 25
11 14 19
8 10 13
8 9 12
8 10 13
7 9 12
8 10 12
7 9 11
9 11 13
8 10 13
7 9 11
7 8 11
8 10 13
9 11 14
8 9 12
9 10 13
7 9 11
8 10 13
9 10 13
7 8 11
8 10 13
8 10 13
9 11 14
8 10 13
9 11 13
8 10 12
8 10 13
8 10 13
9 11 14
8 9 12
9 11 13
9 11 14
8 10 13
9 11 14
6 7 10
7 9 11
9 11 14
10 12 15
8 9 12
8 10 13
9 11 13
8 10 13
8 10 13
8 10 12
8 10 13
8 9 12
9 10 13
9 10 13
7 9 12
8 10 13
8 10 13
9 10 13
9 11 14
7 8 11
8 10 13
7 9 11
7 9 12
8 9 12
9 10 13
7 9 12
9 10 13
9 11 13
8 10 13
10 12 15
9 11 14
9 11 14
7 8 11
9 10 13
8 9 12
7 8 11
8 9 12
10 12 15
10 12 15
8 9 12
9 11 14
8 10 13
9 11 13
8 10 13
8 9 12
9 10 13
8 10 13
9 11 14
9 11 14
10 12 15
9 11 14
7 8 10
8 9 12
8 10 13
8 10 12
9 11 14
8 10 13
8 10 13
8 9 12
7 9 11
8 9 12
7 9 12
8 10 13
7 8 10
8 10 13
7 8 10
8 10 12
9 11 13
8 9 12
9 10 13
8 10 12
9 11 14
8 9 12
7 9 11
8 10 13
8 10 12
8 10 13
7 9 11
7 9 11
9 11 13
8 10 13
7 9 11
8 10 13
8 9 12
9 11 14
9 10 13
7 9 11
8 10 12
7 9 11
7 9 11
12 15 19
14 19 25
14 19 25
15 19 25
14 19 25
14 19 25
15 19 25
14 18 25
15 19 25
14 19 25
14 19 25
14 18 25
14 19 25
14 19 25
15 19 25
14 18 25
14 19 25
14 19 25
15 19 25
15 19 25
14 19 25
14 19 25
15 19 25
14 18 25
14 19 25
14 19 25
14 18 25
14 18 25
14 19 25
14 19 25
15 19 25
14 19 25
14 19 25
14 19 25
14 19 25
15 19 25
14 19 25
14 19 25
15 19 25
15 19 25
15 19 25
14 19 25
14 19 25
15 19 25
14 19 25
14 19 25
15 19 25
14 18 25
15 19 25
15 19 25
14 19 25
14 19 25
14 19 25
14 19 25
15 19 25
14 19 25
14 19 25
14 19 25
14 19 25
14 19 25
14 19 25
14 19 25
15 19 25
14 19 25
14 19 25
15 19 25
14 19 25
14 19 25
14 19 25
14 19 25
14 19 25
14 19 25
14 19 25
14 19 25
14 19 25
14 19 25
14 18 25
14 19 25
15 19 25
14 19 25
14 19 25
14 19 25
15 19 25
14 19 25
14 19 25
14 19 25
14 19 25
14 19 25
15 19 25
15 19 25
14 19 25
14 19 25
14 19 25
14 19 25
15 19 25
15 19 25
15 19 25
14 19 25
14 19 25
15 19 25
15 19 25
14 19 25
14 19 25
15 19 25
14 18 25
14 19 25
14 19 25
14 19 25
14 19 25
14 19 25
14 18 25
15 19 25
14 19 25
15 19 25
14 19 25
14 19 25
15 19 25
14 19 25
14 19 25
14 19 25
14 19 25
14 19 25
18 23 30
35 41 50
56 65 78
68 77 92
90 102 120
104 118 138
126 142 166
137 154 179
159 178 207
163 182 212
185 207 239
196 219 253
197 221 255
197 221 255
197 221 255
197 221 255
197 221 255
75 85 101
78 89 106
58 67 80
38 45 55
31 37 46
16 21 27
14 19 25
15 19 25
14 19 25
14 19 25
15 19 25
15 19 25
14 19 25
14 19 25
14 19 25
14 19 25
14 19 25
14 19 25
14 19 25
14 19 25
14 19 25
14 19 25
14 19 25
15 19 25
14 18 25
15 19 25
15 19 25
15 19 25
15 19 25
14 19 25
14 19 25
15 19 25
15 19 25
14 19 25
15 19 25
14 19 25
14 19 25
14 19 25
14 19 25
15 19 25
14 19 25
14 19 25
14 19 25
14 19 25
14 19 25
14 19 25
14 19 25
14 18 25
15 19 25
14 19 25
14 19 25
14 19 25
15 19 25
15 19 25
15 19 25
14 19 25
15 19 25
15 19 25
15 19 25
14 19 25
14 19 25
14 19 25
15 19 25
14 19 25
14 19 25
14 19 25
14 19 25
15 19 25
14 19 25
14 19 25
14 19 25
14 19 25
14 19 25
14 19 25
14 19 25
15 19 25
14 19 25
15 19 25
14 19 25
14 19 25
15 19 25
15 19 25
14 19 25
14 19 25
14 18 25
15 19 25
14 18 25
14 19 25
14 19 25
15 19 25
15 19 25
14 18 25
15 19 25
14 19 25
14 18 25
14 19 25
15 19 25
14 19 25
14 19 25
14 19 25
14 18 25
15 19 25
14 19 25
14 19 25
15 19 25
14 19 25
15 19 25
14 18 24
14 19 25
14 19 25
14 18 25
15 19 25
14 18 25
14 18 25
14 18 25
14 18 25
14 18 25
14 19 25
14 18 25
15 19 25
14 18 25
14 19 25
14 19 25
14 19 25
14 19 25
15 19 25
14 19 25
14 19 25
14 18 25
14 18 25
14 19 25
14 19 25
14 19 25
14 19 25
14 19 25
15 19 25
14 18 25
14 19 25
14 18 23
6 7 9
7 9 11
7 8 10
8 10 13
7 8 10
8 10 13
7 8 10
7 9 11
8 10 13
8 10 13
8 10 13
8 10 12
7 8 10
7 8 10
7 9 11
8 10 12
7 8 11
8 10 12
8 10 13
8 10 12
8 10 13
8 10 13
8 9 12
9 11 14
8 10 13
7 9 12
7 8 10
8 10 12
9 10 13
8 9 12
9 11 13
7 9 11
8 10 13
7 9 11
8 10 12
7 8 11
9 11 14
8 9 12
7 9 11
8 9 12
8 10 13
7 8 10
8 9 11
8 10 13
9 10 13
8 10 13
8 9 12
9 11 14
7 9 11
8 10 13
9 11 13
10 12 15
8 10 13
8 10 13
8 10 12
8 10 13
8 9 12
8 9 12
8 10 13
9 10 13
8 10 12
7 8 10
7 9 11
9 11 14
9 10 13
8 10 12
8 9 12
6 8 10
7 9 11
7 8 11
8 10 12
8 10 12
8 10 13
10 11 14
9 11 14
8 9 12
7 9 11
10 12 15
8 9 12
8 10 13
8 9 12
8 10 13
8 9 12
9 11 13
9 11 14
8 10 12
8 10 13
8 10 13
8 9 12
9 11 14
9 11 14
8 10 12
8 10 12
9 10 13
9 10 13
10 12 15
8 9 12
9 11 14
9 11 14
9 12 15
9 11 14
8 10 12
8 10 13
8 10 13
9 11 14
10 12 15
8 10 12
7 8 11
7 8 10
8 9 12
8 10 13
9 11 13
7 9 11
7 8 10
8 10 13
9 10 13
8 9 12
9 11 14
8 9 12
7 8 10
7 9 11
9 11 13
14 18 24
14 19 25
14 18 25
14 19 25
14 18 25
14 18 24
14 18 25
14 18 25
14 18 25
14 18 25
14 19 25
15 19 25
14 18 25
14 19 25
14 18 25
14 19 25
14 19 25
14 19 25
15 19 25
14 18 25
14 18 25
14 19 25
14 18 25
14 18 25
15 19 25
14 19 25
14 18 24
14 19 25
14 19 25
14 19 25
15 19 25
14 19 25
15 19 25
14 19 25
14 19 25
14 18 25
14 19 25
14 19 25
15 19 25
15 19 25
14 19 25
15 19 25
14 19 25
14 19 25
14 19 25
14 19 25
14 19 25
15 19 25
14 19 25
14 19 25
14 19 25
14 19 25
14 19 25
15 19 25
14 19 25
14 19 25
15 19 25
15 19 25
14 18 25
15 19 25
15 19 25
14 19 25
14 19 25
14 19 25
14 19 25
14 19 25
14 19 25
15 19 25
14 19 25
14 19 25
14 18 25
15 19 25
15 19 25
14 19 25
14 19 25
14 19 25
14 19 25
14 19 25
14 19 25
14 19 25
14 19 25
14 19 25
15 19 25
14 19 25
14 19 25
14 19 25
15 19 25
15 19 25
15 19 25
14 19 25
15 19 25
15 19 25
14 19 25
14 19 25
15 19 25
14 19 25
14 19 25
15 19 25
14 19 25
15 19 25
14 19 25
15 19 25
14 19 25
15 19 25
14 19 25
14 19 25
14 19 25
15 19 25
15 19 25
15 19 25
15 19 25
15 19 25
15 19 25
15 19 25
14 19 25
15 19 25
15 19 25
15 19 25
14 18 25
14 19 25
14 19 25
15 19 25
14 19 25
14 19 25
14 19 25
15 19 25
14 19 25
14 19 25
15 19 25
15 19 25
15 19 25
14 19 25
14 19 25
15 19 25
22 27 34
40 47 57
55 63 76
62 71 85
80 91 108
14 19 25
14 19 25
14 19 25
14 19 25
14 19 25
15 19 25
14 19 25
14 19 25
14 19 25
15 19 25
14 19 25
14 19 25
15 19 25
14 19 25
14 19 25
14 19 25
15 19 25
14 19 25
15 19 25
15 19 25
15 19 25
14 19 25
14 19 25
14 18 25
14 19 25
14 19 25
15 19 25
15 19 25
15 19 25
15 19 25
15 19 25
14 19 25
14 19 25
14 19 25
14 19 25
14 19 25
15 19 25
15 19 25
15 19 25
14 19 25
14 18 25
14 18 25
14 19 25
14 18 25
14 19 25
15 19 25
14 19 25
14 19 25
14 19 25
14 19 25
15 19 25
14 19 25
15 19 25
14 19 25
15 19 25
15 19 25
14 19 25
14 19 25
15 19 25
14 18 25
14 18 25
14 19 25
14 19 25
14 19 25
15 19 25
14 19 25
14 19 25
14 19 25
14 19 25
15 19 25
14 19 25
15 19 25
14 19 25
15 19 25
14 19 25
14 18 25
14 19 25
14 19 25
14 19 25
15 19 25
15 19 25
15 19 25
14 18 25
14 19 25
14 18 25
14 19 25
14 18 25
14 19 25
14 19 25
14 18 25
14 19 25
14 19 25
14 19 25
14 19 25
14 19 25
14 19 25
14 19 25
14 19 25
14 19 25
14 19 25
14 19 25
14 19 25
14 18 25
14 18 25
14 19 25
14 19 25
14 19 25
14 19 25
14 19 25
14 19 25
14 19 25
15 19 25
14 19 25
14 18 25
14 19 25
14 19 25
14 18 25
15 19 25
14 18 24
14 18 25
14 19 25
14 18 25
14 18 25
14 18 24
14 19 25
14 18 25
15 19 25
15 19 25
14 19 25
14 19 25
14 18 25
14 19 25
14 19 25
14 18 24
14 19 25
14 18 24
14 19 25
14 18 25
15 19 25
9 11 15
6 7 9
9 10 13
8 9 12
8 9 12
8 10 13
8 9 12
7 9 11
9 10 13
8 10 13
7 9 11
8 9 12
8 10 12
7 9 11
8 9 12
7 9 11
7 8 11
9 11 14
8 10 13
7 9 11
8 9 12
8 10 12
8 10 12
9 11 14
6 8 10
7 9 11
10 12 15
9 10 13
8 10 13
8 9 12
9 11 14
8 10 12
9 11 14
8 10 13
8 10 13
8 10 13
7 8 11
8 10 13
9 11 14
8 10 13
7 8 11
8 9 12
7 8 10
8 9 12
8 10 13
8 9 12
8 10 13
9 10 13
8 10 13
8 10 13
8 10 12
8 10 12
8 10 12
6 8 10
9 10 13
8 10 13
9 11 14
8 9 12
8 10 12
8 10 13
7 9 11
9 11 13
8 10 12
9 11 14
7 9 11
8 10 13
8 10 12
7 9 11
7 9 12
7 9 11
8 10 12
9 11 13
8 9 12
8 10 12
8 10 13
7 9 11
8 9 12
9 11 14
9 11 15
8 10 12
7 8 11
8 10 12
8 9 12
8 9 12
8 10 13
8 10 12
8 10 13
7 9 11
8 10 13
8 10 13
8 10 12
7 8 11
8 10 12
7 9 11
8 9 12
7 9 11
9 10 13
9 11 14
7 9 11
8 10 13
7 9 12
7 9 11
7 9 11
8 10 12
8 10 12
7 8 11
9 11 13
8 10 13
7 9 11
9 11 14
7 9 11
8 9 12
7 9 12
8 9 12
8 10 13
8 10 13
8 10 13
8 10 13
7 9 11
7 9 11
7 9 11
8 10 14
14 19 25
14 19 25
14 18 25
14 19 25
14 19 25
14 19 25
14 19 25
14 18 25
14 18 25
14 18 25
14 19 25
14 18 25
14 19 25
14 19 25
14 18 25
14 19 25
14 18 25
14 19 25
15 19 25
15 19 25
14 19 25
14 19 25
15 19 25
14 18 25
14 19 25
14 18 25
14 18 25
14 18 24
15 19 25
15 19 25
15 19 25
15 19 25
14 18 25
14 19 25
14 18 24
14 19 25
14 19 25
14 19 25
14 19 25
15 19 25
14 19 25
14 19 25
14 18 25
14 19 25
14 18 25
14 19 25
14 19 25
14 19 25
14 18 25
15 19 25
15 19 25
14 19 25
14 19 25
14 19 25
14 18 25
14 19 25
15 19 25
14 19 25
14 19 25
14 19 25
14 19 25
14 19 25
15 19 25
14 19 25
14 19 25
14 19 25
14 19 25
14 19 25
15 19 25
15 19 25
14 19 25
15 19 25
14 18 25
15 19 25
15 19 25
15 19 25
14 19 25
14 19 25
15 19 25
14 19 25
14 18 25
15 19 25
14 18 25
15 19 25
15 19 25
15 19 25
15 19 25
15 19 25
15 19 25
14 19 25
14 19 25
14 19 25
14 19 25
14 19 25
14 19 25
14 19 25
14 19 25
14 18 25
14 19 25
14 19 25
15 19 25
15 19 25
14 19 25
14 19 25
14 19 25
15 19 25
14 19 25
15 19 25
14 18 25
14 19 25
14 19 25
14 19 25
14 19 25
14 19 25
15 19 25
14 19 25
14 19 25
14 19 25
15 19 25
14 19 25
15 19 25
14 19 25
15 19 25
14 18 25
14 19 25
15 19 25
14 19 25
14 19 25
14 19 25
15 19 25
14 19 25
14 19 25
14 19 25
14 19 25
14 19 25
15 19 25
15 19 25
14 19 25
14 19 25
15 19 25
14 19 25
15 19 25
14 19 25
15 19 25
14 19 25
14 19 25
14 19 25
14 19 25
15 19 25
14 19 25
14 19 25
14 19 25
14 19 25
15 19 25
15 19 25
15 19 25
14 19 25
15 19 25
14 19 25
14 19 25
14 19 25
14 19 25
15 19 25
14 19 25
14 19 25
15 19 25
15 19 25
14 19 25
14 19 25
15 19 25
14 19 25
14 18 25
15 19 25
14 19 25
15 19 25
15 19 25
15 19 25
15 19 25
14 19 25
15 19 25
14 19 25
15 19 25
15 19 25
14 19 25
14 19 25
15 19 25
14 19 25
14 18 25
15 19 25
14 19 25
15 19 25
14 19 25
15 19 25
14 19 25
14 19 25
14 19 25
15 19 25
15 19 25
14 19 25
15 19 25
14 18 25
14 18 25
14 19 25
15 19 25
14 19 25
14 19 25
14 19 25
14 18 25
14 19 25
14 18 25
14 19 25
14 19 25
14 19 25
14 18 25
15 19 25
15 19 25
15 19 25
14 19 25
14 19 25
14 19 25
15 19 25
14 19 25
14 19 25
14 18 25
14 19 25
14 19 25
14 19 25
15 19 25
15 19 25
15 19 25
15 19 25
14 18 25
14 19 25
14 19 25
14 19 25
15 19 25
15 19 25
14 19 25
14 19 25
14 18 25
14 18 25
14 19 25
14 19 25
14 19 25
14 19 25
14 18 24
14 18 25
14 19 25
14 18 25
14 19 25
15 19 25
14 18 25
14 19 25
14 18 25
14 18 24
14 19 25
14 18 25
14 18 25
14 18 25
14 19 25
14 19 25
14 18 25
14 18 25
14 18 24
15 19 25
14 18 25
14 19 25
14 18 25
14 18 25
14 19 25
14 19 25
14 19 25
15 19 25
14 19 25
14 19 25
14 18 24
14 18 25
14 18 25
12 15 21
6 8 10
7 9 12
8 10 12
8 10 12
6 8 10
8 10 13
8 9 12
7 9 11
7 8 11
8 10 13
7 8 10
8 10 12
7 8 10
8 10 12
6 7 10
7 9 11
8 10 13
8 10 12
9 10 13
8 10 13
8 9 12
8 10 12
8 10 13
6 8 10
8 9 12
8 10 12
7 9 11
7 9 11
7 9 11
9 11 13
8 10 13
8 9 11
8 10 13
8 9 12
7 8 10
9 11 14
7 9 11
9 11 14
8 9 12
8 10 13
8 9 12
7 8 10
10 12 15
8 10 13
7 9 12
8 9 12
8 9 11
8 10 12
8 10 13
9 10 13
7 9 11
7 9 11
7 9 11
9 11 14
8 9 12
7 9 11
9 11 14
8 10 13
8 9 12
9 11 13
8 10 12
6 8 10
7 9 12
7 9 11
7 9 11
9 11 14
7 9 11
8 10 13
7 8 10
9 11 14
7 9 11
9 11 14
8 10 13
6 7 9
8 10 13
9 10 13
8 10 12
8 10 12
9 11 14
8 9 12
7 9 11
9 11 14
9 11 13
8 10 12
7 9 12
9 10 13
7 8 11
8 10 12
9 10 13
8 10 12
7 9 11
8 9 11
8 9 12
8 10 13
8 10 13
9 11 14
8 10 12
9 10 13
8 10 13
7 9 11
8 9 12
8 10 13
8 10 12
8 10 12
7 9 11
7 9 11
8 9 12
8 9 12
7 9 11
9 11 13
6 8 10
7 8 11
7 9 12
8 9 12
7 9 12
8 9 12
7 8 10
8 10 12
8 10 13
8 9 12
11 14 19
14 18 24
14 18 25
14 18 25
14 19 25
14 18 25
14 18 25
14 18 25
14 19 25
14 18 25
14 19 25
14 19 25
14 19 25
14 19 25
14 19 25
14 18 25
14 19 25
14 18 25
14 19 25
14 19 25
14 18 25
14 18 25
14 18 25
15 19 25
15 19 25
14 19 25
14 18 25
14 19 25
14 18 25
14 19 25
14 18 25
14 18 25
14 19 25
14 19 25
14 19 25
14 19 25
14 19 25
14 18 25
14 19 25
14 19 25
15 19 25
14 19 25
14 18 25
14 19 25
14 18 25
14 19 25
14 19 25
14 18 25
15 19 25
14 19 25
14 19 25
14 18 25
15 19 25
14 19 25
14 19 25
15 19 25
14 19 25
14 19 25
14 19 25
14 19 25
14 18 25
15 19 25
14 19 25
14 19 25
14 19 25
14 19 25
14 19 25
14 19 25
14 19 25
15 19 25
14 19 25
14 19 25
14 19 25
14 19 25
14 19 25
14 19 25
15 19 25
14 19 25
14 19 25
14 19 25
14 19 25
14 19 25
14 19 25
14 19 25
15 19 25
15 19 25
14 18 25
14 19 25
14 19 25
15 19 25
14 19 25
15 19 25
15 19 25
14 18 25
14 19 25
14 19 25
15 19 25
14 18 25
14 19 25
14 19 25
14 19 25
14 19 25
15 19 25
15 19 25
14 19 25
14 19 25
15 19 25
14 19 25
14 19 25
14 19 25
14 19 25
14 19 25
14 19 25
14 19 25
14 19 25
15 19 25
15 19 25
14 19 25
15 19 25
15 19 25
14 19 25
15 19 25
14 19 25
14 19 25
15 19 25
14 19 25
15 19 25
14 19 25
14 19 25
14 19 25
14 19 25
14 19 25
15 19 25
14 19 25
14 19 25
15 19 25
14 19 25
14 19 25
15 19 25
14 19 25
14 19 25
14 19 25
15 19 25
14 19 25
14 19 25
14 19 25
14 19 25
14 18 25
14 19 25
15 19 25
15 19 25
15 19 25
15 19 25
15 19 25
15 19 25
15 19 25
14 19 25
15 19 25
14 19 25
15 19 25
15 19 25
15 19 25
14 19 25
14 19 25
15 19 25
14 19 25
15 19 25
15 19 25
14 19 25
15 19 25
14 19 25
15 19 25
15 19 25
15 19 25
15 19 25
14 19 25
14 19 25
14 19 25
14 19 25
14 19 25
14 19 25
14 19 25
14 19 25
14 19 25
14 19 25
14 19 25
14 19 25
15 19 25
14 18 25
14 19 25
15 19 25
14 19 25
14 19 25
14 19 25
14 19 25
14 19 25
14 18 25
15 19 25
15 19 25
14 19 25
14 19 25
14 19 25
14 19 25
14 19 25
14 18 25
14 19 25
15 19 25
14 19 25
14 18 25
15 19 25
14 19 25
14 19 25
14 19 25
14 19 25
14 19 25
14 18 25
14 19 25
14 19 25
14 19 25
15 19 25
14 19 25
14 19 25
14 19 25
15 19 25
15 19 25
14 19 25
14 18 25
14 19 25
14 19 25
14 19 25
14 19 25
14 19 25
14 19 25
14 18 25
14 19 25
14 18 25
14 19 25
14 19 25
14 19 25
14 19 25
15 19 25
14 19 25
14 19 25
14 19 25
14 18 25
14 19 25
14 18 25
14 18 25
15 19 25
14 19 25
14 18 25
14 19 25
14 18 25
14 19 25
14 18 25
14 19 25
14 19 25
14 18 25
14 19 25
14 19 25
14 18 25
14 18 24
14 18 24
13 18 24
14 18 25
14 18 25
14 19 25
14 18 24
14 18 25
14 19 25
14 18 25
14 18 25
14 18 24
14 18 24
14 18 25
14 19 25
14 18 25
14 18 24
14 18 24
14 18 25
9 11 14
6 7 9
6 8 10
8 10 12
7 9 11
8 9 12
8 10 12
7 8 10
7 9 11
7 8 11
7 8 11
8 9 12
7 9 11
9 11 14
7 8 11
8 10 12
8 10 13
8 9 12
8 10 12
8 10 12
9 11 14
7 9 11
7 8 11
8 10 13
8 9 12
8 9 12
7 8 10
9 10 13
11 13 16
7 8 11
6 8 10
8 10 13
7 9 12
7 8 10
7 9 11
8 10 13
8 10 12
7 8 11
7 8 11
6 8 10
6 7 9
7 9 11
8 10 13
6 8 10
8 10 13
8 10 12
8 9 12
7 9 11
9 11 13
8 9 12
10 12 15
6 8 10
7 9 11
7 9 11
8 10 12
8 10 12
8 10 12
9 10 13
9 11 13
10 12 15
9 11 13
8 10 13
7 9 12
8 10 12
6 8 10
8 10 13
8 10 13
7 8 11
7 8 11
8 9 12
7 8 11
7 9 11
7 8 10
7 8 10
10 12 15
8 10 13
8 10 12
9 11 14
7 8 11
7 8 11
7 9 11
7 9 12
8 10 12
8 9 12
7 9 11
9 10 13
8 10 12
8 9 12
7 9 11
7 9 11
7 8 11
9 11 14
9 11 14
8 10 12
9 11 13
7 9 11
7 8 11
7 8 10
6 8 10
8 10 13
7 9 12
8 10 12
6 8 10
8 9 12
8 10 12
10 12 15
7 9 11
8 10 12
7 8 10
8 9 12
7 9 11
7 9 11
8 9 12
8 10 12
7 8 10
8 9 12
7 9 11
7 9 11
7 8 10
8 10 13
14 18 24
14 18 24
14 18 24
14 19 25
14 18 25
14 18 24
14 18 25
14 18 25
15 19 25
14 19 25
14 19 25
14 18 24
14 18 24
14 18 25
14 19 25
14 18 24
14 19 25
14 19 25
15 19 25
14 19 25
14 19 25
14 19 25
14 19 25
14 18 25
14 18 25
14 19 25
14 18 25
14 18 25
14 19 25
15 19 25
15 19 25
14 19 25
14 18 25
14 18 24
15 19 25
14 18 25
14 19 25
14 18 25
14 19 25
14 19 25
14 19 25
14 18 25
14 19 25
15 19 25
14 19 25
14 19 25
15 19 25
14 19 25
14 19 25
14 18 25
14 18 25
14 19 25
14 19 25
14 18 25
15 19 25
14 19 25
14 19 25
14 19 25
15 19 25
14 19 25
15 19 25
14 19 25
14 19 25
14 18 25
15 19 25
14 19 25
15 19 25
14 19 25
15 19 25
15 19 25
14 19 25
14 18 25
14 18 25
14 18 25
14 19 25
14 19 25
15 19 25
14 19 25
14 19 25
15 19 25
14 19 25
14 19 25
14 19 25
15 19 25
14 19 25
14 18 25
14 19 25
14 18 25
14 19 25
14 19 25
14 19 25
15 19 25
14 19 25
15 19 25
14 19 25
14 19 25
14 19 25
15 19 25
14 19 25
14 19 25
14 18 25
14 19 25
15 19 25
14 19 25
14 19 25
14 19 25
14 19 25
15 19 25
14 19 25
14 19 25
15 19 25
14 19 25
14 19 25
15 19 25
14 18 25
14 19 25
14 19 25
15 19 25
14 19 25
14 19 25
14 19 25
15 19 25
14 19 25
14 19 25
14 19 25
14 19 25
15 19 25
14 19 25
14 19 25
14 19 25
14 19 25
14 19 25
14 19 25
14 19 25
14 19 25
14 19 25
14 19 25
14 19 25
14 19 25
14 19 25
14 19 25
15 19 25
14 19 25
14 19 25
14 19 25
15 19 25
14 18 25
14 19 25
14 19 25
14 19 25
14 19 25
15 19 25
15 19 25
15 19 25
15 19 25
14 19 25
14 19 25
14 19 25
14 19 25
15 19 25
14 19 25
14 19 25
14 19 25
15 19 25
15 19 25
14 19 25
15 19 25
15 19 25
14 19 25
15 19 25
14 19 25
14 18 25
14 19 25
15 19 25
14 19 25
15 19 25
14 19 25
14 19 25
14 19 25
14 19 25
14 18 25
14 19 25
14 19 25
14 18 25
14 19 25
14 19 25
14 18 25
14 19 25
15 19 25
14 19 25
14 19 25
15 19 25
14 19 25
15 19 25
14 19 25
15 19 25
14 19 25
14 19 25
14 19 25
14 19 25
15 19 25
15 19 25
14 19 25
14 18 25
14 19 25
14 19 25
15 19 25
14 19 25
14 19 25
14 19 25
14 18 25
14 19 25
14 19 25
14 18 25
14 19 25
15 19 25
14 19 25
15 19 25
14 18 25
14 19 25
14 19 25
14 19 25
14 19 25
15 19 25
14 19 25
14 19 25
14 19 25
14 19 25
15 19 25
14 19 25
14 19 25
14 18 24
14 19 25
15 19 25
14 19 25
14 19 25
14 19 25
14 19 25
14 19 25
14 18 24
14 18 25
14 19 25
14 19 25
14 18 24
14 19 25
15 19 25
14 19 25
14 19 25
15 19 25
14 18 24
14 19 25
14 19 25
14 19 25
14 18 25
15 19 25
14 19 25
14 19 25
14 18 25
14 19 25
14 18 24
15 19 25
14 18 25
14 18 25
14 18 24
14 18 25
14 18 25
14 19 25
14 18 25
14 18 25
14 18 24
14 18 24
14 18 25
14 18 25
14 19 25
14 19 25
14 19 25
14 18 25
14 19 25
13 18 24
14 18 25
11 14 19
7 9 11
7 8 10
8 10 12
8 10 12
8 9 12
9 11 13
7 9 11
7 9 11
9 10 13
6 8 10
6 7 9
7 9 12
8 10 12
6 8 10
6 8 10
7 8 11
7 8 10
7 9 11
8 9 12
7 9 11
8 9 12
7 8 10
8 10 12
8 10 12
7 8 10
8 10 13
6 8 10
7 9 11
7 8 11
8 10 12
7 9 12
9 11 13
8 10 12
6 8 10
7 8 10
7 9 12
7 8 11
8 10 13
7 8 11
7 9 11
8 10 13
8 10 12
8 10 13
7 8 11
7 9 11
8 10 13
7 8 10
8 10 13
9 11 13
8 10 12
7 9 12
8 10 13
8 9 12
8 10 13
7 9 12
7 8 10
7 9 11
9 11 14
7 8 11
8 10 13
9 11 13
7 9 11
7 9 11
8 10 13
7 9 11
9 11 14
8 9 12
8 10 13
8 9 12
8 9 11
9 11 14
9 11 14
8 9 12
7 9 11
8 10 13
7 8 10
7 8 10
8 9 12
9 11 13
7 8 10
7 9 11
9 11 14
7 9 11
7 8 10
7 9 12
7 9 11
6 8 10
8 10 12
7 8 11
8 10 12
8 10 12
8 10 13
7 9 11
7 8 10
7 8 10
9 11 14
8 9 12
8 10 12
7 9 11
8 10 13
8 10 12
8 9 12
7 9 11
7 9 11
8 10 13
7 8 10
8 9 12
8 9 12
9 11 14
7 8 11
7 8 11
8 10 13
8 10 13
8 10 12
6 7 9
6 8 10
6 8 10
8 9 12
9 12 15
14 18 25
15 19 25
14 19 25
14 19 25
14 19 25
14 19 25
14 18 25
14 19 25
14 18 24
14 18 24
14 18 25
14 18 24
14 18 25
14 18 24
14 18 25
14 19 25
14 18 25
14 18 25
14 18 25
14 18 24
14 18 25
14 18 25
14 18 25
14 18 25
14 19 25
14 18 25
14 19 25
14 18 25
14 19 25
15 19 25
15 19 25
14 18 25
14 19 25
14 18 25
15 19 25
14 19 25
14 18 25
14 19 25
14 18 25
14 19 25
14 18 25
14 19 25
14 19 25
14 19 25
15 19 25
14 18 25
14 18 25
14 19 25
15 19 25
14 19 25
14 19 25
14 18 25
14 18 25
14 19 25
14 19 25
15 19 25
14 18 25
15 19 25
14 19 25
15 19 25
14 19 25
14 19 25
14 19 25
14 19 25
14 19 25
14 18 25
15 19 25
14 18 25
15 19 25
15 19 25
14 19 25
14 19 25
14 19 25
15 19 25
14 19 25
14 18 25
14 19 25
15 19 25
14 18 25
14 19 25
14 19 25
14 18 25
14 19 25
14 19 25
14 19 25
15 19 25
15 19 25
15 19 25
14 19 25
14 19 25
15 19 25
15 19 25
14 19 25
14 19 25
14 19 25
15 19 25
15 19 25
14 19 25
14 19 25
14 19 25
14 19 25
15 19 25
15 19 25
14 19 25
14 18 25
14 19 25
14 19 25
14 18 25
14 19 25
15 19 25
14 19 25
14 19 25
14 19 25
14 19 25
14 19 25
14 19 25
14 19 25
14 19 25
14 18 25
15 19 25
14 19 25
14 19 25
14 19 25
14 19 25
14 19 25
14 19 25
14 19 25
14 19 25
15 19 25
14 19 25
14 19 25
14 19 25
14 19 25
14 19 25
14 19 25
14 19 25
14 19 25
15 19 25
14 19 25
14 19 25
15 19 25
15 19 25
14 19 25
15 19 25
15 19 25
15 19 25
14 19 25
14 19 25
15 19 25
14 19 25
15 19 25
14 19 25
14 19 25
14 19 25
14 19 25
14 19 25
15 19 25
14 19 25
14 19 25
14 19 25
14 19 25
15 19 25
14 18 25
14 19 25
14 19 25
14 19 25
14 19 25
14 19 25
14 19 25
14 18 25
14 19 25
14 18 25
14 19 25
15 19 25
14 19 25
15 19 25
14 19 25
14 19 25
15 19 25
14 19 25
14 19 25
14 19 25
14 19 25
14 19 25
14 19 25
14 19 25
14 18 25
14 19 25
14 18 25
14 19 25
14 19 25
14 19 25
14 19 25
14 19 25
14 18 25
15 19 25
14 19 25
14 18 25
14 19 25
15 19 25
14 19 25
14 18 25
14 19 25
14 19 25
14 19 25
14 18 25
14 19 25
14 19 25
15 19 25
14 19 25
14 18 25
14 19 25
14 18 25
14 19 25
14 19 25
14 18 25
14 19 25
14 19 25
14 19 25
14 18 25
14 18 25
14 19 25
14 19 25
14 18 25
14 19 25
14 19 25
14 19 25
14 19 25
14 18 25
15 19 25
14 19 25
14 19 25
14 18 25
14 19 25
15 19 25
15 19 25
14 18 25
14 19 25
14 19 25
15 19 25
14 19 25
14 18 25
14 18 25
14 19 25
14 19 25
14 18 25
14 18 25
14 18 25
14 19 25
14 18 25
14 18 25
14 18 25
14 18 25
15 19 25
14 19 25
14 18 25
14 19 25
14 18 25
14 18 25
14 19 25
14 18 25
14 19 25
14 19 25
14 18 24
14 18 25
14 18 24
14 18 24
14 19 25
14 18 25
14 18 24
14 18 25
15 19 25
14 18 25
14 18 25
14 18 25
14 18 24
14 19 25
14 19 25
14 18 25
14 18 25
13 17 23
8 9 11
8 9 12
7 8 10
8 10 12
6 7 10
8 10 13
6 7 9
7 8 10
7 9 11
7 9 11
7 8 11
7 9 11
7 9 11
9 11 14
6 7 9
8 10 12
8 10 12
7 8 10
7 9 11
8 9 11
8 10 12
8 10 13
7 8 11
8 10 13
8 10 12
8 10 12
7 9 12
9 11 14
5 6 8
8 9 11
7 9 11
8 10 13
8 10 12
7 8 11
7 9 11
7 8 11
7 8 11
7 8 10
9 11 14
7 9 11
7 8 10
7 9 11
8 9 12
8 10 13
8 9 12
7 8 10
7 9 11
8 10 12
7 9 11
9 11 13
7 9 11
7 8 11
7 8 11
9 11 14
9 10 13
8 10 12
8 10 12
7 9 11
8 10 12
6 8 10
8 9 12
8 9 12
7 8 11
8 9 12
7 8 10
7 9 11
8 9 12
8 10 13
7 8 10
11 13 16
8 10 13
6 8 10
8 10 13
7 8 10
7 9 11
8 10 13
7 9 11
8 10 13
8 9 12
8 10 12
7 8 10
7 9 11
8 10 12
6 8 10
7 9 11
9 11 13
7 9 12
9 11 13
7 8 10
6 8 10
8 9 12
8 10 13
8 9 12
8 9 12
7 9 11
7 9 11
7 9 12
7 9 12
7 9 11
8 10 12
8 10 12
6 8 10
8 10 13
7 8 11
8 9 12
8 9 12
8 10 12
7 9 11
7 8 11
6 8 10
7 9 11
7 8 10
9 11 14
7 8 10
6 7 9
7 8 10
7 8 11
8 10 13
14 18 24
14 18 24
14 18 23
13 17 23
15 19 25
14 18 24
14 18 25
14 18 25
14 19 25
14 18 24
14 18 24
14 18 25
14 19 25
14 18 24
14 18 25
14 18 25
14 18 25
14 18 25
14 18 25
14 19 25
14 19 25
14 18 24
14 18 25
14 19 25
14 18 25
14 18 25
14 18 25
14 19 25
14 18 24
15 19 25
14 19 25
15 19 25
14 19 25
14 19 25
14 18 25
14 18 25
15 19 25
14 18 25
14 19 25
14 18 25
14 19 25
14 18 25
14 18 24
14 18 25
14 19 25
15 19 25
14 19 25
14 19 25
15 19 25
14 19 25
14 18 25
14 19 25
14 18 25
14 19 25
14 18 25
14 19 25
15 19 25
14 19 25
14 19 25
14 19 25
14 19 25
14 18 25
14 19 25
14 19 25
14 19 25
14 19 25
14 19 25
14 19 25
14 18 25
14 19 25
14 19 25
14 19 25
14 19 25
14 19 25
15 19 25
14 19 25
14 19 25
14 19 25
14 19 25
15 19 25
14 19 25
15 19 25
14 18 25
14 19 25
14 19 25
14 19 25
14 19 25
14 19 25
15 19 25
15 19 25
14 19 25
15 19 25
14 19 25
15 19 25
14 19 25
14 19 25
14 18 25
14 18 25
15 19 25
15 19 25
14 19 25
15 19 25
14 19 25
15 19 25
14 19 25
15 19 25
15 19 25
14 19 25
15 19 25
14 19 25
14 19 25
14 19 25
14 19 25
14 19 25
14 19 25
14 19 25
14 19 25
15 19 25
14 18 25
15 19 25
14 19 25
14 19 25
15 19 25
15 19 25
15 19 25
14 19 25
14 19 25
14 19 25
15 19 25
15 19 25
15 19 25
14 19 25
14 19 25
15 19 25
14 19 25
14 19 25
14 19 25
15 19 25
15 19 25
15 19 25
14 19 25
15 19 25
14 19 25
14 19 25
14 19 25
15 19 25
14 19 25
14 19 25
14 19 25
14 19 25
14 19 25
15 19 25
14 19 25
15 19 25
14 18 25
14 19 25
14 19 25
15 19 25
14 19 25
14 19 25
15 19 25
14 19 25
14 18 25
14 19 25
14 19 25
14 19 25
15 19 25
15 19 25
14 18 25
14 19 25
15 19 25
14 19 25
15 19 25
14 19 25
14 19 25
15 19 25
15 19 25
14 19 25
15 19 25
14 19 25
14 19 25
15 19 25
14 19 25
14 19 25
14 19 25
14 19 25
14 18 25
15 19 25
14 19 25
15 19 25
14 19 25
15 19 25
14 19 25
14 18 25
14 19 25
14 18 25
14 19 25
15 19 25
14 19 25
14 19 25
15 19 25
14 19 25
14 18 25
14 19 25
14 19 25
14 18 25
14 19 25
14 19 25
14 18 25
14 19 25
14 19 25
14 19 25
15 19 25
14 18 25
14 18 25
14 18 25
14 18 25
14 19 25
14 19 25
14 19 25
15 19 25
14 19 25
14 19 25
14 19 25
14 18 25
14 19 25
14 19 25
14 18 25
14 19 25
14 18 25
14 19 25
14 18 24
15 19 25
14 18 25
14 19 25
14 18 25
14 18 25
14 18 25
14 18 25
14 19 25
14 18 25
14 18 25
14 19 25
14 18 24
14 18 25
14 18 24
14 19 25
14 18 25
14 18 24
14 19 25
15 19 25
14 19 25
14 18 25
14 18 25
14 18 24
14 18 24
14 18 25
14 18 25
14 18 25
14 18 25
14 18 25
14 18 25
14 18 24
14 19 25
14 18 25
14 18 24
14 18 24
14 18 25
14 18 24
14 18 25
14 18 25
14 18 25
14 18 24
14 18 24
14 18 24
14 19 25
14 18 25
14 18 24
14 18 24
14 18 24
14 18 25
14 19 25
8 10 13
6 8 10
7 9 11
7 8 10
8 10 12
7 8 10
7 8 11
8 10 13
8 9 12
7 9 11
8 10 12
7 9 11
9 11 13
6 8 9
7 9 11
9 10 13
8 9 12
8 10 13
8 9 12
8 10 12
7 9 11
8 10 13
8 10 12
8 9 12
6 7 9
8 10 12
7 9 11
7 9 12
7 9 11
7 9 11
7 8 10
7 8 11
8 10 12
8 10 12
8 10 13
7 8 11
9 11 14
8 10 12
8 10 12
8 10 13
7 9 11
7 9 11
9 10 13
8 9 12
8 9 12
7 8 11
7 8 10
7 9 11
8 10 13
8 10 13
9 10 13
8 10 12
8 10 12
8 9 12
7 8 10
8 10 12
8 10 12
7 8 11
7 9 11
7 8 11
9 11 14
7 8 11
8 10 12
7 8 10
8 9 12
8 10 12
7 9 11
9 11 13
8 10 12
8 10 13
6 7 9
8 9 12
7 8 10
7 9 11
7 9 11
8 9 12
7 9 11
7 9 11
7 8 10
5 6 7
8 10 12
7 8 10
7 8 10
7 8 11
8 10 13
8 9 12
8 10 13
7 8 10
7 8 11
9 11 13
7 8 10
9 11 13
8 10 13
9 11 14
8 10 13
7 9 12
8 9 12
7 9 11
7 9 12
7 9 11
8 10 12
7 9 11
8 9 12
7 9 11
6 8 10
8 10 12
7 8 11
9 10 13
7 9 11
6 8 10
7 9 11
6 7 9
6 7 9
7 9 11
8 9 12
8 9 12
8 10 12
10 12 16
14 18 25
14 18 24
15 19 25
14 18 25
14 18 24
14 18 25
14 18 24
14 18 24
14 19 25
14 18 25
14 18 24
14 18 24
14 18 25
14 18 25
14 18 25
15 19 25
14 18 25
14 18 25
14 18 25
14 18 25
14 18 25
14 19 25
14 18 24
14 19 25
14 18 25
14 18 25
14 18 25
14 19 25
14 18 25
15 19 25
14 18 25
14 18 25
14 19 25
14 19 25
14 19 25
14 19 25
14 19 25
14 18 25
14 18 25
14 18 24
14 19 25
14 18 24
14 19 25
14 19 25
14 19 25
15 19 25
14 19 25
14 18 25
14 19 25
14 18 25
14 18 25
14 19 25
14 19 25
14 18 25
14 18 25
14 18 25
14 18 25
14 19 25
15 19 25
14 18 24
14 18 25
14 19 25
14 18 25
14 18 25
14 19 25
15 19 25
14 18 24
15 19 25
14 19 25
14 19 25
15 19 25
14 19 25
15 19 25
14 19 25
15 19 25
14 19 25
14 18 25
14 19 25
14 19 25
14 19 25
14 19 25
14 19 25
14 19 25
14 19 25
14 19 25
14 19 25
14 19 25
14 19 25
14 19 25
14 19 25
15 19 25
14 19 25
14 19 25
15 19 25
14 19 25
14 18 25
15 19 25
14 19 25
14 19 25
15 19 25
15 19 25
15 19 25
15 19 25
14 19 25
14 19 25
15 19 25
15 19 25
14 19 25
15 19 25
15 19 25
15 19 25
15 19 25
14 19 25
15 19 25
15 19 25
15 19 25
15 19 25
15 19 25
15 19 25
14 19 25
15 19 25
14 19 25
14 18 25
14 19 25
14 19 25
14 19 25
14 19 25
14 19 25
14 19 25
14 18 25
15 19 25
14 19 25
14 19 25
14 19 25
14 19 25
14 19 25
14 18 25
14 19 25
14 19 25
14 19 25
14 19 25
14 19 25
14 19 25
15 19 25
15 19 25
15 19 25
15 19 25
15 19 25
14 19 25
14 18 25
14 19 25
14 19 25
14 19 25
14 19 25
14 19 25
15 19 25
14 19 25
15 19 25
14 19 25
14 19 25
14 19 25
14 19 25
14 19 25
14 19 25
14 19 25
14 19 25
15 19 25
14 19 25
14 18 25
15 19 25
15 19 25
15 19 25
15 19 25
15 19 25
14 19 25
14 19 25
14 18 25
14 19 25
14 19 25
14 19 25
14 19 25
15 19 25
14 19 25
15 19 25
14 19 25
14 18 25
15 19 25
15 19 25
14 19 25
15 19 25
14 19 25
14 19 25
15 19 25
14 19 25
14 19 25
14 19 25
14 19 25
14 19 25
15 19 25
15 19 25
14 19 25
15 19 25
14 19 25
15 19 25
14 18 25
14 19 25
14 19 25
14 19 25
14 19 25
14 18 25
14 19 25
14 19 25
14 18 25
15 19 25
14 18 25
14 18 25
14 19 25
14 18 24
14 19 25
15 19 25
14 18 25
14 18 25
14 18 25
14 19 25
14 18 25
14 19 25
14 19 25
14 19 25
15 19 25
14 19 25
14 19 25
14 18 25
14 19 25
15 19 25
14 19 25
14 18 25
14 18 25
14 18 24
14 18 25
14 18 25
14 18 25
15 19 25
14 18 25
14 18 25
14 18 25
14 18 25
15 19 25
14 18 25
14 19 25
14 18 25
14 18 24
14 19 25
15 19 25
14 19 25
14 18 24
14 18 25
14 18 24
14 18 24
14 18 24
14 18 25
14 19 25
14 19 25
14 18 25
14 18 24
14 18 25
14 18 25
14 18 24
14 18 25
14 18 24
14 18 25
14 18 24
14 19 25
14 18 24
14 18 24
14 18 25
14 18 25
14 18 25
14 18 24
14 19 25
14 18 24
14 18 25
14 18 24
13 17 23
7 9 11
7 8 10
7 8 11
7 8 10
7 9 11
7 8 10
6 8 10
7 8 11
7 8 11
5 7 9
7 8 11
8 9 12
7 9 11
7 9 11
8 9 12
6 7 9
8 9 11
8 10 13
7 9 11
8 9 12
8 10 13
8 10 13
7 9 11
6 7 9
7 8 11
7 8 11
8 10 13
8 9 12
7 9 11
7 9 12
8 10 12
8 10 12
7 9 12
8 10 12
7 9 12
7 8 11
7 9 11
7 9 11
7 9 11
8 10 12
7 8 11
7 8 10
8 10 12
6 8 10
7 9 11
7 9 11
8 10 12
8 10 13
8 10 13
5 7 9
7 8 10
7 9 11
8 9 12
6 7 9
8 10 12
8 9 12
8 9 12
8 10 12
8 10 12
9 10 13
9 11 14
7 9 11
6 8 10
7 9 11
7 9 11
9 10 13
7 9 11
7 9 11
7 8 10
8 9 12
6 7 9
8 10 12
6 8 10
8 9 12
6 7 9
7 9 11
6 8 10
8 10 12
9 11 14
9 10 13
6 8 10
7 8 11
7 9 11
7 9 11
8 10 13
9 11 14
9 10 13
7 9 11
8 10 12
6 8 9
7 8 10
7 9 11
7 8 11
8 10 12
8 9 12
7 9 11
7 8 11
7 9 11
9 10 13
7 9 11
7 9 11
6 8 10
7 9 12
7 9 12
6 8 10
9 11 14
8 10 12
6 8 10
8 10 12
7 9 11
7 8 10
8 10 12
8 10 12
7 8 11
6 7 9
7 9 11
14 17 23
14 18 24
14 18 24
14 18 24
14 18 24
14 18 24
14 18 25
15 19 25
14 18 25
14 18 24
14 18 25
14 18 25
14 18 25
14 18 24
14 18 25
14 19 25
14 18 24
14 18 25
15 19 25
14 18 24
14 18 24
14 18 25
14 18 25
14 18 25
14 18 25
14 19 25
14 18 25
15 19 25
14 18 25
14 19 25
14 18 24
14 18 25
15 19 25
15 19 25
14 19 25
14 19 25
14 18 25
14 19 25
14 18 25
14 18 25
14 19 25
14 19 25
15 19 25
14 19 25
14 19 25
14 18 24
14 19 25
14 19 25
15 19 25
14 18 24
14 18 24
14 18 25
14 18 25
14 19 25
15 19 25
14 19 25
14 18 25
14 19 25
14 19 25
14 18 25
15 19 25
14 18 24
14 19 25
14 18 25
14 19 25
14 18 24
14 19 25
14 19 25
14 19 25
14 18 25
14 18 25
14 19 25
15 19 25
14 19 25
14 19 25
14 19 25
14 18 25
14 19 25
14 18 25
14 18 25
14 19 25
14 18 25
14 19 25
14 19 25
14 19 25
14 19 25
14 19 25
14 18 25
15 19 25
15 19 25
14 19 25
15 19 25
14 18 25
14 19 25
14 19 25
14 18 25
14 19 25
15 19 25
14 19 25
14 19 25
14 19 25
14 19 25
15 19 25
14 18 25
14 19 25
15 19 25
14 19 25
14 19 25
14 19 25
14 19 25
15 19 25
14 19 25
14 19 25
14 19 25
15 19 25
14 18 25
14 19 25
14 19 25
14 19 25
14 18 25
15 19 25
14 19 25
14 19 25
15 19 25
14 19 25
14 19 25
15 19 25
14 19 25
14 19 25
14 19 25
14 19 25
15 19 25
15 19 25
14 19 25
15 19 25
14 19 25
14 19 25
14 19 25
15 19 25
14 19 25
15 19 25
14 19 25
15 19 25
14 19 25
14 19 25
14 19 25
14 19 25
15 19 25
14 19 25
14 18 25
15 19 25
15 19 25
15 19 25
14 19 25
14 18 25
15 19 25
15 19 25
14 19 25
14 19 25
14 19 25
14 19 25
14 19 25
14 19 25
15 19 25
14 19 25
14 19 25
14 19 25
14 19 25
14 19 25
15 19 25
14 19 25
15 19 25
15 19 25
14 19 25
14 19 25
15 19 25
14 19 25
15 19 25
14 19 25
14 19 25
14 19 25
14 19 25
14 18 25
15 19 25
15 19 25
15 19 25
14 18 25
14 19 25
14 19 25
14 19 25
14 19 25
14 19 25
15 19 25
14 18 25
14 19 25
14 19 25
14 19 25
14 19 25
14 18 25
15 19 25
14 19 25
14 19 25
15 19 25
14 19 25
14 19 25
14 18 24
14 19 25
14 19 25
15 19 25
14 18 25
14 19 25
15 19 25
14 19 25
14 18 25
15 19 25
14 18 25
14 19 25
14 18 25
14 19 25
14 18 25
14 19 25
14 18 25
14 19 25
14 18 25
14 19 25
14 18 25
14 18 25
14 19 25
14 18 25
15 19 25
14 19 25
14 18 24
14 18 25
14 18 25
15 19 25
14 19 25
15 19 25
14 18 24
14 18 24
14 18 25
14 18 25
14 18 25
14 18 24
14 19 25
14 18 24
14 18 25
14 19 25
14 18 24
14 19 25
14 18 25
14 19 25
14 18 25
14 18 25
14 18 25
14 18 25
14 19 25
14 18 24
14 19 25
14 18 25
14 18 24
14 18 24
14 18 25
14 18 25
14 18 25
14 19 25
14 19 25
14 19 25
14 18 24
14 19 25
14 18 25
14 18 25
14 18 25
14 18 25
14 18 24
13 17 24
14 18 24
14 18 24
14 18 24
14 18 24
14 18 25
14 18 25
14 18 24
14 18 24
14 18 24
10 13 17
7 9 11
8 9 12
7 9 11
6 8 10
7 8 11
7 9 11
8 10 12
7 9 11
8 10 13
8 9 11
8 10 12
8 10 12
7 9 12
7 9 11
7 8 11
7 8 10
8 9 12
8 9 12
8 10 13
6 8 10
8 10 12
6 8 10
6 7 9
7 9 11
7 9 11
7 9 12
10 11 14
9 10 13
7 9 11
7 9 11
7 9 11
8 9 12
8 10 13
7 8 10
8 10 12
8 10 13
7 8 11
8 9 11
7 9 11
6 8 10
9 11 14
6 8 10
8 9 12
6 8 10
7 9 11
6 8 10
7 9 12
7 9 11
9 11 13
8 10 13
7 8 11
9 11 13
8 9 12
8 10 12
8 9 12
7 9 11
9 11 14
5 7 9
7 8 10
8 9 12
6 8 10
8 10 12
7 8 11
7 9 12
8 10 13
8 10 12
8 10 12
7 9 11
9 11 13
7 8 10
8 10 13
7 8 10
7 9 11
7 8 10
7 9 11
7 9 11
8 9 12
7 9 11
7 9 11
8 9 12
9 10 13
7 9 11
8 10 12
8 10 13
7 9 12
8 10 12
9 10 13
6 7 9
7 8 11
8 10 12
6 8 10
7 9 11
9 11 14
9 11 14
9 11 14
7 8 10
7 8 10
9 10 13
5 7 8
7 9 11
6 7 9
8 10 12
8 10 12
6 8 10
6 8 10
8 9 12
7 8 10
7 9 11
6 8 10
6 8 10
7 9 11
7 8 10
7 9 11
7 8 10
9 12 15
14 18 24
14 18 24
14 18 24
14 18 24
14 18 24
14 18 24
14 18 24
14 18 24
14 18 25
14 18 24
14 18 24
14 18 24
14 18 25
14 18 24
14 18 25
14 18 24
14 18 24
14 18 24
14 19 25
14 19 25
15 19 25
14 18 25
14 18 25
14 18 25
14 19 25
14 19 25
15 19 25
14 18 24
14 19 25
14 18 24
14 18 24
14 18 24
14 18 25
14 18 25
14 18 24
14 18 24
14 18 25
14 18 25
14 18 24
14 19 25
14 18 25
14 18 24
14 19 25
14 18 24
14 19 25
14 18 25
14 18 25
15 19 25
14 18 24
14 18 25
15 19 25
14 19 25
14 18 25
14 18 25
15 19 25
14 18 25
14 18 25
14 18 24
14 19 25
14 18 25
14 18 25
14 19 25
14 19 25
15 19 25
14 18 25
14 18 24
14 18 24
14 19 25
14 19 25
14 19 25
14 18 25
14 19 25
14 19 25
14 18 25
14 18 24
14 19 25
14 18 25
14 18 25
14 18 24
14 18 25
14 18 25
14 19 25
14 19 25
14 19 25
15 19 25
14 19 25
14 19 25
14 19 25
14 19 25
14 19 25
14 19 25
14 19 25
14 18 25
14 19 25
14 19 25
14 19 25
15 19 25
15 19 25
15 19 25
14 19 25
14 19 25
14 19 25
14 19 25
15 19 25
14 19 25
14 19 25
14 19 25
14 19 25
15 19 25
15 19 25
14 19 25
15 19 25
14 18 25
14 19 25
15 19 25
14 19 25
14 18 25
14 18 25
14 19 25
14 19 25
14 19 25
14 18 25
15 19 25
14 19 25
14 19 25
14 19 25
14 19 25
14 19 25
14 19 25
14 19 25
15 19 25
14 19 25
14 19 25
14 19 25
14 19 25
14 19 25
14 19 25
14 19 25
14 19 25
15 19 25
14 19 25
14 19 25
14 19 25
14 19 25
14 19 25
14 19 25
14 19 25
14 19 25
14 19 25
14 19 25
14 19 25
14 18 25
14 19 25
15 19 25
14 19 25
14 19 25
14 19 25
14 18 25
14 19 25
14 19 25
14 19 25
14 19 25
14 18 25
14 19 25
14 19 25
15 19 25
14 19 25
15 19 25
15 19 25
14 18 25
15 19 25
15 19 25
14 19 25
14 19 25
14 19 25
15 19 25
14 18 25
14 19 25
14 19 25
15 19 25
14 18 25
14 19 25
15 19 25
14 19 25
14 19 25
14 19 25
14 19 25
15 19 25
15 19 25
14 18 25
14 19 25
14 19 25
14 19 25
14 19 25
14 19 25
15 19 25
14 18 25
14 19 25
14 19 25
14 18 25
15 19 25
14 19 25
15 19 25
14 18 25
14 18 25
14 18 24
14 19 25
14 19 25
14 19 25
14 18 25
15 19 25
14 18 25
14 19 25
14 18 25
14 18 25
14 19 25
14 19 25
14 19 25
14 18 24
14 19 25
14 19 25
14 19 25
14 19 25
14 18 25
15 19 25
14 19 25
14 19 25
14 19 25
14 18 25
14 18 25
14 19 25
14 19 25
14 19 25
14 18 24
14 18 25
14 19 25
14 18 25
15 19 25
14 18 24
14 18 25
14 18 24
14 18 25
14 18 25
15 19 25
14 18 25
14 18 24
14 18 24
14 18 24
14 18 25
14 18 25
14 18 25
14 18 24
14 18 25
14 18 24
13 17 23
14 18 25
14 18 24
14 19 25
14 18 25
14 18 25
14 18 24
14 18 25
14 18 24
14 19 25
14 18 24
14 18 25
14 18 25
14 18 24
14 19 25
14 19 25
14 18 24
14 18 24
14 18 24
14 18 24
14 18 23
14 19 25
14 18 24
14 19 25
14 18 25
14 18 25
14 18 24
14 18 24
14 18 24
14 18 24
13 17 23
6 8 10
8 10 12
8 10 12
7 9 11
8 10 13
8 9 11
7 8 11
8 10 12
6 7 9
8 10 12
6 8 9
7 9 11
7 9 11
6 7 9
8 10 12
7 9 11
7 9 11
7 8 10
7 9 11
7 8 10
7 8 10
7 9 11
8 10 12
7 8 11
7 9 11
7 9 12
7 9 11
6 7 9
5 7 9
7 9 11
7 8 11
8 10 13
7 8 10
8 10 12
7 9 12
7 8 11
8 10 12
8 9 12
8 9 12
8 9 12
7 9 11
6 8 10
8 9 12
6 8 10
7 8 10
7 8 11
7 8 10
8 10 13
7 8 11
7 8 10
7 8 10
8 9 12
8 9 12
6 8 10
5 6 8
7 8 10
8 9 12
7 9 11
7 9 12
6 8 10
8 9 12
8 10 12
7 9 11
8 10 12
9 11 13
6 8 9
9 10 13
7 9 11
6 8 10
7 8 11
7 9 12
9 11 14
7 8 11
6 8 10
8 10 12
6 7 9
8 10 12
6 8 10
7 9 11
8 9 12
8 10 12
6 7 9
8 9 12
7 8 11
6 8 10
8 9 12
7 9 12
8 10 13
6 7 9
7 8 10
8 9 12
8 9 11
7 9 11
7 9 11
7 9 11
7 8 10
7 9 11
7 9 11
7 9 11
7 8 11
9 10 13
8 10 13
6 8 10
8 10 12
8 9 12
8 9 12
6 8 10
7 8 11
8 9 12
7 9 11
6 7 9
7 9 11
7 8 10
6 8 10
13 16 22
14 18 24
14 18 24
13 17 23
13 17 23
14 17 23
14 18 24
14 18 25
14 18 25
14 18 24
14 18 25
14 18 24
14 18 24
14 18 24
14 18 24
14 18 24
14 18 24
13 17 24
14 18 24
14 18 25
15 19 25
14 18 25
14 18 24
14 18 25
14 18 24
14 18 25
14 19 25
14 18 25
14 18 24
14 18 24
14 18 24
14 18 24
14 19 25
14 18 24
14 19 25
14 18 24
14 18 25
14 18 24
14 19 25
14 19 25
14 19 25
14 19 25
14 18 25
14 18 25
14 18 25
14 19 25
14 18 25
15 19 25
14 19 25
14 19 25
14 18 25
14 19 25
14 18 25
14 19 25
14 19 25
14 19 25
14 18 25
14 19 25
14 19 25
14 19 25
15 19 25
14 19 25
14 19 25
14 18 25
14 18 25
14 18 25
14 18 25
15 19 25
15 19 25
14 18 24
14 19 25
14 19 25
15 19 25
14 18 25
14 19 25
14 18 25
14 18 25
14 19 25
14 18 25
14 18 25
15 19 25
15 19 25
14 19 25
14 19 25
14 19 25
14 19 25
14 19 25
14 19 25
14 19 25
14 19 25
14 19 25
14 19 25
14 18 25
14 19 25
14 19 25
14 19 25
14 18 25
14 19 25
15 19 25
14 18 25
15 19 25
14 19 25
14 19 25
14 19 25
14 19 25
14 19 25
14 19 25
15 19 25
14 19 25
15 19 25
14 19 25
15 19 25
15 19 25
15 19 25
15 19 25
14 18 25
15 19 25
14 19 25
14 19 25
14 19 25
14 19 25
15 19 25
15 19 25
15 19 25
14 19 25
14 18 25
14 19 25
14 19 25
14 19 25
14 19 25
14 19 25
14 19 25
14 19 25
14 19 25
14 19 25
14 19 25
15 19 25
14 19 25
15 19 25
14 19 25
15 19 25
14 19 25
15 19 25
14 19 25
14 19 25
14 19 25
14 19 25
15 19 25
15 19 25
14 18 25
14 18 25
14 19 25
14 18 25
14 19 25
14 19 25
14 19 25
15 19 25
15 19 25
14 19 25
14 19 25
14 18 25
14 19 25
14 19 25
15 19 25
14 18 25
14 19 25
14 18 25
14 19 25
14 18 25
14 18 25
14 19 25
15 19 25
14 19 25
14 18 25
14 19 25
14 19 25
15 19 25
15 19 25
14 19 25
14 19 25
14 19 25
15 19 25
14 19 25
14 19 25
14 19 25
14 18 25
14 19 25
14 19 25
14 19 25
14 19 25
14 18 25
14 19 25
15 19 25
14 18 25
15 19 25
14 19 25
14 19 25
14 19 25
14 18 25
15 19 25
14 18 25
14 18 25
14 19 25
14 19 25
14 18 25
14 19 25
14 18 25
14 18 25
14 18 25
14 18 25
14 18 25
14 18 24
14 19 25
14 19 25
15 19 25
14 19 25
14 18 25
14 19 25
14 18 24
14 19 25
14 18 25
14 19 25
14 18 25
14 19 25
14 19 25
14 18 25
14 19 25
14 18 25
14 18 24
14 19 25
14 18 25
14 18 24
14 18 25
14 19 25
14 18 25
14 18 25
14 19 25
14 18 25
14 18 24
14 19 25
14 18 25
14 18 25
14 18 24
14 18 25
14 18 25
14 18 25
14 19 25
14 18 24
14 18 24
14 18 25
14 18 24
14 18 24
14 18 25
14 18 24
14 18 24
14 18 25
14 19 25
14 18 25
14 18 24
14 18 25
14 18 24
14 18 25
14 19 25
14 19 25
14 18 24
14 18 25
14 18 24
14 18 25
14 18 24
14 18 25
14 18 24
14 18 24
14 18 24
14 18 24
14 18 24
14 18 24
14 18 24
14 18 24
14 18 24
14 18 24
14 18 24
14 18 24
14 18 25
13 17 23
14 18 24
14 18 24
9 12 16
7 9 11
6 7 9
5 6 8
6 7 9
7 9 11
7 9 12
7 9 11
7 9 11
7 8 10
8 9 12
7 9 11
8 10 13
7 9 11
7 8 10
9 10 13
7 9 11
8 10 13
8 9 12
6 7 9
7 9 12
7 9 11
8 10 12
8 9 12
7 9 12
6 8 10
7 8 10
6 7 9
8 9 11
7 9 11
8 10 12
8 10 12
6 8 10
8 10 12
7 8 11
7 9 11
9 11 14
8 9 12
5 6 8
7 9 11
7 9 11
6 7 9
7 9 11
7 8 11
8 9 11
9 10 13
7 9 11
8 10 13
6 8 10
7 9 11
8 10 12
7 9 11
7 9 11
8 9 12
8 10 12
7 8 10
8 9 12
8 9 12
7 9 11
8 10 13
8 9 12
7 9 11
6 7 9
7 9 11
7 9 11
5 6 8
7 9 11
7 9 11
7 9 11
8 9 11
6 8 10
7 8 10
8 9 12
8 9 12
8 10 12
8 9 12
8 10 12
9 10 13
9 11 13
7 9 11
7 9 11
8 10 12
6 7 9
7 8 10
7 8 11
7 9 11
6 8 10
7 9 11
6 7 9
6 8 10
9 11 13
6 7 9
6 8 10
7 8 11
6 8 10
9 11 13
7 8 11
7 8 10
8 9 11
9 11 13
6 8 10
7 9 11
6 7 9
8 9 12
8 9 12
6 7 9
7 9 11
8 9 11
6 7 9
6 8 10
8 10 12
6 7 9
5 6 7
10 13 18
14 18 24
14 18 25
14 18 24
13 17 24
14 19 25
14 19 25
14 18 24
14 18 24
14 18 24
14 18 25
14 18 24
13 18 24
14 18 24
14 18 24
14 18 24
14 18 24
14 18 24
14 18 24
14 18 24
14 18 24
14 18 24
14 18 24
14 18 24
14 18 24
14 18 24
14 18 24
13 17 23
14 18 25
14 18 24
14 18 25
14 18 25
14 19 25
14 18 24
14 18 25
14 18 25
14 19 25
14 18 25
15 19 25
15 19 25
14 18 25
14 18 24
14 18 24
14 19 25
14 18 25
15 19 25
14 18 25
14 18 25
14 19 25
14 18 25
14 19 25
14 18 25
14 18 25
14 19 25
14 18 25
14 19 25
14 19 25
14 19 25
14 18 25
14 19 25
14 19 25
14 19 25
14 18 25
14 18 25
14 18 25
14 19 25
14 19 25
14 18 25
14 19 25
14 19 25
14 18 25
14 18 25
14 18 25
14 19 25
14 18 24
14 19 25
14 19 25
14 19 25
14 19 25
14 19 25
14 18 25
14 18 24
14 19 25
14 19 25
14 19 25
15 19 25
14 19 25
15 19 25
14 18 25
15 19 25
14 18 24
14 19 25
14 18 25
14 18 24
14 18 25
14 19 25
14 19 25
15 19 25
14 19 25
14 19 25
15 19 25
15 19 25
14 19 25
14 19 25
14 19 25
14 18 25
14 19 25
14 18 25
14 19 25
14 19 25
15 19 25
14 19 25
15 19 25
14 19 25
15 19 25
14 19 25
15 19 25
14 19 25
14 19 25
14 19 25
15 19 25
14 19 25
14 18 25
15 19 25
14 19 25
15 19 25
14 19 25
14 19 25
14 19 25
14 19 25
14 19 25
14 19 25
15 19 25
14 19 25
14 19 25
14 19 25
15 19 25
14 19 25
14 19 25
14 19 25
14 19 25
14 19 25
14 19 25
14 19 25
14 19 25
14 19 25
15 19 25
15 19 25
14 19 25
14 18 25
14 19 25
14 19 25
14 19 25
14 19 25
14 19 25
14 19 25
14 19 25
14 19 25
14 18 25
14 19 25
14 19 25
14 19 25
14 19 25
14 19 25
14 18 25
15 19 25
14 19 25
14 19 25
14 19 25
14 19 25
14 19 25
14 18 25
14 19 25
15 19 25
15 19 25
14 19 25
15 19 25
14 19 25
14 19 25
14 19 25
15 19 25
15 19 25
14 19 25
14 19 25
14 19 25
14 18 25
14 19 25
14 19 25
14 18 25
14 19 25
15 19 25
14 19 25
14 18 25
14 18 25
14 18 25
14 19 25
14 18 25
14 18 25
15 19 25
14 19 25
14 18 25
14 18 25
15 19 25
14 19 25
15 19 25
15 19 25
14 19 25
14 19 25
15 19 25
14 18 25
14 19 25
14 18 25
14 19 25
14 18 25
15 19 25
14 18 25
14 18 24
14 19 25
14 18 25
14 18 25
14 19 25
14 18 25
14 19 25
14 18 25
14 19 25
14 18 25
14 19 25
14 18 24
14 18 24
14 19 25
14 18 24
14 18 25
14 19 25
14 19 25
14 18 25
14 18 24
14 19 25
14 19 25
14 18 25
14 18 25
14 18 25
14 18 25
14 18 24
14 18 25
14 18 24
14 19 25
14 19 25
14 19 25
13 18 24
14 18 25
14 18 25
13 18 24
14 18 25
14 18 25
14 18 24
14 18 24
14 18 25
14 18 25
14 18 25
14 18 24
13 17 23
14 18 24
14 18 24
14 18 24
15 19 25
14 18 25
14 18 24
14 18 25
14 17 23
14 18 24
14 18 25
14 18 24
14 18 25
15 19 25
13 17 23
14 18 24
13 17 23
14 18 24
14 18 24
14 18 24
14 18 24
13 17 23
14 18 24
13 17 24
13 17 24
13 17 23
14 18 24
14 18 24
7 8 11
7 8 10
6 7 9
6 7 9
7 9 11
6 7 9
6 8 10
6 7 9
7 8 10
8 10 12
7 9 11
7 8 10
6 7 9
7 9 12
7 9 11
7 8 10
6 8 10
8 10 12
7 9 11
7 9 11
6 8 10
7 8 11
7 8 10
8 9 12
7 8 10
8 9 12
7 8 11
7 9 11
7 9 11
7 9 11
8 10 13
7 8 10
7 9 11
5 7 9
8 10 12
7 9 11
7 9 11
7 8 11
8 10 12
8 9 12
7 8 10
8 10 12
8 10 12
8 10 12
9 11 14
8 9 12
8 9 12
7 8 10
8 10 12
6 8 10
7 9 12
6 7 9
7 9 11
7 8 10
8 9 12
7 8 10
7 9 11
7 8 10
8 10 12
8 10 12
6 8 10
8 9 12
8 9 12
7 9 11
7 9 11
7 8 10
8 9 12
7 8 10
8 9 12
8 10 13
7 9 11
7 9 11
7 8 10
7 9 11
7 8 10
6 8 10
8 9 12
8 10 12
7 9 11
6 8 10
8 10 12
8 10 12
8 10 12
8 9 12
7 9 12
7 9 11
6 8 10
8 9 12
8 10 13
8 10 12
8 9 12
9 10 13
7 9 11
8 9 12
8 10 12
7 8 10
7 8 10
6 7 9
6 8 10
8 9 12
7 9 11
7 9 11
8 10 13
6 8 10
7 9 11
6 7 9
7 9 11
5 6 8
8 9 12
5 6 8
6 7 9
8 9 12
14 18 24
13 18 24
14 18 24
14 18 24
14 18 24
13 17 23
14 18 24
14 18 24
14 18 24
14 18 25
14 18 24
13 18 24
14 18 24
14 17 23
14 18 24
13 18 24
14 18 25
14 18 24
14 18 25
14 19 25
14 18 24
14 18 25
14 18 25
14 18 24
14 19 25
14 18 24
13 18 24
14 18 25
14 18 25
14 18 24
14 18 24
14 18 24
14 18 25
14 18 24
14 18 25
14 18 25
14 18 25
14 18 24
14 18 25
14 18 25
14 18 25
14 18 24
14 18 24
14 18 24
14 18 25
14 18 24
14 18 25
14 18 24
14 19 25
14 18 25
14 19 25
15 19 25
14 18 25
14 19 25
14 18 25
14 18 25
14 18 25
15 19 25
14 18 25
14 18 25
14 18 25
15 19 25
14 19 25
14 18 25
14 18 24
14 19 25
14 19 25
14 19 25
14 18 25
14 19 25
14 18 25
14 18 25
14 18 25
14 18 25
15 19 25
14 19 25
14 18 25
15 19 25
14 18 25
14 19 25
14 18 25
14 19 25
14 18 25
14 19 25
14 18 25
14 18 25
14 18 25
14 19 25
14 18 25
15 19 25
14 19 25
15 19 25
14 19 25
14 19 25
14 19 25
14 19 25
14 18 25
14 19 25
14 18 25
14 19 25
15 19 25
14 18 25
14 19 25
14 18 24
14 19 25
15 19 25
14 19 25
14 19 25
15 19 25
14 18 25
14 18 25
15 19 25
14 19 25
14 19 25
15 19 25
14 19 25
14 19 25
15 19 25
14 19 25
14 19 25
14 19 25
14 19 25
14 18 25
14 18 25
15 19 25
14 18 25
14 19 25
14 19 25
14 19 25
14 19 25
15 19 25
14 19 25
14 19 25
14 19 25
15 19 25
14 19 25
14 19 25
15 19 25
15 19 25
14 19 25
15 19 25
14 19 25
15 19 25
15 19 25
14 19 25
14 19 25
14 19 25
14 19 25
14 19 25
14 18 25
14 19 25
14 18 25
14 19 25
14 19 25
14 19 25
14 19 25
14 19 25
14 19 25
15 19 25
14 19 25
14 19 25
14 19 25
14 19 25
14 19 25
14 19 25
15 19 25
14 19 25
15 19 25
15 19 25
14 19 25
14 19 25
14 19 25
15 19 25
15 19 25
14 19 25
15 19 25
14 18 25
14 19 25
14 19 25
14 19 25
14 19 25
14 19 25
14 19 25
14 18 25
14 18 25
14 19 25
14 19 25
14 19 25
14 18 25
15 19 25
14 18 24
14 19 25
14 18 25
14 18 25
15 19 25
15 19 25
14 19 25
14 19 25
14 19 25
14 19 25
14 19 25
14 19 25
14 19 25
15 19 25
14 18 25
14 19 25
15 19 25
15 19 25
14 18 25
14 18 25
15 19 25
14 18 25
14 18 25
14 18 25
14 19 25
14 19 25
14 18 24
14 19 25
14 18 24
14 19 25
14 19 25
15 19 25
14 18 25
14 18 25
14 18 25
14 19 25
14 18 25
14 18 25
14 19 25
14 19 25
14 18 24
14 19 25
14 18 25
14 19 25
14 18 24
14 18 24
14 18 24
14 18 25
15 19 25
14 19 25
14 18 25
15 19 25
14 19 25
14 19 25
14 18 25
14 18 25
14 18 25
14 18 25
14 18 24
14 18 25
14 19 25
14 18 24
14 18 24
14 18 25
14 18 24
14 18 24
14 18 25
14 18 24
14 18 25
14 18 24
14 18 24
14 18 25
14 18 24
14 18 25
14 18 24
14 18 24
13 17 23
14 18 24
14 18 24
14 18 24
14 18 24
13 17 23
14 18 24
13 17 23
13 18 24
14 18 25
14 18 24
13 17 23
13 17 24
14 18 24
14 18 24
14 18 24
14 18 24
14 18 25
14 18 24
14 18 24
14 18 24
14 18 25
11 14 18
5 6 8
7 9 11
6 8 10
6 7 9
4 5 7
5 7 8
8 9 12
7 9 11
7 8 11
7 8 10
7 8 10
6 8 10
6 8 10
7 9 11
6 7 9
6 8 10
5 7 8
6 7 9
5 6 8
6 8 10
7 9 11
6 7 9
6 8 9
7 9 11
7 9 11
7 9 11
7 8 10
7 8 10
8 10 12
6 7 9
7 9 11
7 8 10
8 9 11
7 9 11
7 8 10
8 9 12
8 9 12
6 8 10
7 9 11
6 8 10
6 8 10
7 9 11
6 8 10
7 8 11
7 9 11
7 8 10
7 9 11
7 9 11
8 10 12
6 8 10
7 9 11
7 9 11
8 10 12
6 7 9
7 8 10
7 9 11
8 10 12
8 9 12
7 9 11
6 8 10
9 11 13
8 9 12
8 10 12
5 7 8
8 10 13
7 9 11
8 9 12
6 7 9
9 11 14
6 7 9
7 9 11
8 9 11
7 8 10
8 9 12
6 7 9
7 9 11
8 10 12
7 9 12
6 8 10
6 7 9
7 9 11
5 6 8
8 10 12
6 7 9
6 7 9
7 8 10
6 8 10
7 9 11
8 10 12
7 9 11
6 8 10
7 8 10
7 8 10
5 6 8
8 10 12
7 9 11
8 9 12
7 9 11
7 8 10
5 7 8
7 8 11
7 9 11
7 8 11
7 8 10
7 8 10
7 9 11
6 8 10
8 9 11
7 9 11
7 8 10
10 13 18
14 18 24
13 17 23
13 17 23
13 17 23
14 18 25
13 17 23
14 18 24
14 17 23
14 18 24
13 17 23
14 18 23
14 18 24
14 18 24
13 17 23
14 18 25
14 18 24
13 17 24
13 17 23
14 18 24
14 19 25
14 18 24
14 18 25
14 18 25
14 18 24
14 18 24
13 18 24
14 18 24
13 18 24
14 18 24
14 18 24
14 18 24
13 18 24
14 18 25
15 19 25
14 18 24
14 18 25
14 18 25
14 18 25
14 18 24
14 18 24
14 18 25
14 18 25
14 18 25
14 18 25
14 18 25
14 18 24
14 19 25
14 19 25
14 18 24
14 18 25
14 18 25
14 18 25
14 18 25
14 19 25
14 19 25
14 18 25
14 18 24
14 18 25
14 18 25
14 18 24
14 18 25
14 18 24
14 19 25
14 18 25
14 18 25
14 18 24
14 18 24
15 19 25
14 19 25
14 18 25
14 18 25
14 18 25
15 19 25
14 19 25
14 19 25
15 19 25
14 19 25
14 19 25
14 19 25
14 18 25
14 18 25
14 19 25
14 19 25
14 18 25
14 19 25
14 18 25
14 19 25
14 19 25
15 19 25
14 18 25
14 18 25
14 18 25
14 19 25
14 19 25
14 19 25
14 19 25
14 19 25
14 19 25
15 19 25
14 18 25
15 19 25
14 18 25
15 19 25
14 19 25
14 18 25
14 18 25
14 19 25
14 19 25
15 19 25
15 19 25
15 19 25
15 19 25
15 19 25
15 19 25
14 18 25
15 19 25
14 18 25
15 19 25
14 19 25
14 19 25
14 18 25
14 18 25
14 19 25
14 19 25
15 19 25
14 19 25
14 19 25
14 19 25
14 18 25
14 19 25
15 19 25
14 19 25
14 19 25
14 19 25
14 18 25
14 19 25
14 19 25
14 19 25
14 19 25
14 19 25
14 19 25
14 19 25
14 19 25
14 19 25
15 19 25
14 19 25
14 19 25
15 19 25
14 18 25
14 19 25
14 19 25
14 18 25
14 19 25
14 19 25
14 19 25
14 18 25
14 19 25
15 19 25
14 19 25
14 19 25
15 19 25
14 19 25
14 18 25
14 18 25
14 18 25
14 19 25
14 18 25
14 18 25
15 19 25
14 19 25
15 19 25
14 19 25
15 19 25
14 18 25
14 19 25
14 19 25
14 19 25
14 19 25
14 19 25
14 19 25
14 19 25
15 19 25
14 19 25
14 18 24
14 19 25
14 19 25
14 18 25
14 19 25
14 19 25
14 19 25
14 18 25
14 19 25
14 18 25
14 19 25
14 18 25
14 18 25
14 19 25
14 18 25
14 18 25
14 18 25
15 19 25
14 19 25
14 18 25
15 19 25
14 19 25
14 19 25
14 18 25
14 19 25
14 19 25
14 19 25
14 18 24
14 18 25
15 19 25
14 18 25
15 19 25
14 18 25
14 18 25
14 19 25
14 19 25
14 18 24
14 18 24
14 19 25
14 19 25
15 19 25
14 19 25
14 18 25
14 18 25
14 19 25
13 17 23
14 19 25
14 18 25
15 19 25
14 18 24
14 18 25
14 19 25
14 18 25
14 19 25
14 18 24
14 18 25
14 18 24
14 18 24
14 18 24
14 18 25
14 19 25
14 18 24
14 18 24
14 18 24
14 18 24
14 18 24
14 18 25
14 18 24
14 18 24
13 17 24
14 18 24
14 18 24
14 18 24
14 18 25
14 18 24
14 18 24
14 18 25
14 18 25
14 18 24
14 18 25
14 18 24
14 18 24
14 18 24
14 17 23
14 18 24
14 18 24
13 17 23
14 18 24
13 17 23
14 18 24
14 18 24
14 18 24
14 18 24
14 18 24
13 17 22
14 18 24
13 17 23
13 18 24
13 17 23
13 17 22
13 17 23
14 18 24
14 18 24
14 18 24
14 18 24
13 17 23
8 10 13
5 7 8
6 7 9
7 8 10
6 8 10
6 7 9
8 10 12
8 10 12
7 8 10
6 8 10
6 7 9
7 8 10
6 7 9
7 9 11
6 7 9
7 9 11
6 8 10
6 7 9
7 8 10
8 9 11
8 10 12
6 8 10
6 7 9
7 8 10
7 8 11
7 8 10
6 8 10
6 8 10
8 10 12
7 9 11
7 8 10
8 9 11
6 7 9
6 8 10
6 7 9
8 10 12
7 8 10
6 7 9
6 8 10
7 8 10
7 9 11
6 7 9
7 8 11
7 9 11
8 10 13
5 7 8
6 8 10
7 8 11
7 8 11
7 9 11
6 8 10
8 9 12
6 8 9
8 9 12
7 9 11
7 8 11
7 9 11
7 9 11
5 7 9
6 7 9
7 9 11
7 9 11
7 9 11
6 7 9
7 9 11
7 9 11
6 8 10
8 10 12
8 10 12
7 8 10
7 8 10
7 9 11
7 9 11
8 10 12
5 6 8
7 9 11
7 8 11
7 9 11
7 9 11
7 8 10
7 9 12
7 9 11
6 7 9
6 7 10
7 9 11
6 7 9
7 9 11
7 9 11
7 8 10
8 9 12
6 7 9
7 9 11
7 8 11
7 8 10
7 9 11
7 8 10
7 8 11
7 9 12
7 8 10
8 9 11
7 9 11
6 8 10
7 9 11
8 9 12
7 9 11
7 8 11
6 7 9
7 8 10
7 8 10
7 9 12
13 17 22
14 18 25
13 18 24
13 16 22
13 17 23
14 18 24
13 18 24
13 17 23
13 17 23
14 18 24
13 17 23
13 17 23
13 17 23
13 17 23
13 17 23
14 18 24
14 18 24
14 18 25
14 18 24
13 17 23
13 17 23
14 18 24
14 18 25
14 18 25
14 18 24
14 18 24
14 18 24
14 18 24
14 18 25
14 18 24
13 17 23
14 18 25
14 19 25
14 18 24
14 18 24
14 18 24
14 19 25
14 18 24
14 18 25
14 18 24
14 18 24
14 18 24
13 18 24
14 18 24
14 18 25
14 18 24
14 18 25
14 18 24
14 18 24
14 18 24
14 19 25
14 18 24
14 18 24
15 19 25
14 19 25
14 18 25
14 18 25
14 19 25
14 18 25
14 18 25
14 18 25
14 18 25
14 18 24
14 18 24
14 18 24
14 18 25
14 18 25
14 18 25
14 18 25
14 19 25
14 18 25
14 18 25
14 19 25
14 18 24
14 19 25
14 18 24
14 18 25
14 18 24
14 19 25
14 19 25
14 18 25
14 18 25
14 18 25
15 19 25
14 18 25
15 19 25
14 18 24
14 18 25
14 18 25
14 18 25
14 19 25
14 19 25
14 19 25
14 19 25
14 19 25
14 19 25
14 18 24
14 19 25
15 19 25
14 19 25
14 18 24
14 19 25
14 18 25
14 18 24
14 19 25
14 18 25
14 18 25
14 19 25
14 19 25
14 19 25
14 19 25
15 19 25
14 18 25
14 19 25
14 19 25
14 18 25
14 19 25
14 19 25
14 19 25
14 19 25
14 19 25
14 19 25
15 19 25
14 18 25
15 19 25
14 18 25
14 19 25
15 19 25
14 19 25
14 18 25
15 19 25
14 19 25
14 19 25
14 19 25
15 19 25
15 19 25
14 19 25
14 19 25
15 19 25
14 18 25
14 19 25
14 19 25
14 19 25
14 19 25
14 18 25
14 18 25
14 18 25
14 19 25
14 19 25
14 19 25
14 19 25
14 19 25
14 18 25
14 18 25
14 19 25
14 18 25
14 18 25
15 19 25
15 19 25
14 19 25
14 19 25
14 18 25
14 18 25
14 19 25
14 18 25
14 19 25
14 19 25
14 18 25
15 19 25
14 18 25
14 19 25
14 19 25
15 19 25
15 19 25
14 19 25
14 19 25
14 18 25
14 19 25
14 19 25
15 19 25
14 19 25
14 19 25
14 19 25
15 19 25
14 19 25
14 19 25
14 19 25
14 19 25
14 19 25
14 19 25
14 19 25
14 19 25
14 19 25
14 18 24
14 18 25
14 18 24
14 19 25
14 18 25
14 19 25
14 18 25
14 18 25
14 18 25
14 18 25
14 18 25
14 18 24
14 19 25
15 19 25
14 19 25
14 19 25
14 18 25
15 19 25
14 18 25
14 18 24
14 18 25
14 19 25
15 19 25
14 19 25
14 18 25
14 18 25
14 18 24
14 19 25
14 19 25
14 18 25
14 19 25
14 18 24
14 18 25
14 18 25
14 18 25
14 19 25
15 19 25
15 19 25
14 18 25
14 18 25
14 19 25
14 18 25
14 18 24
14 19 25
14 18 25
14 18 24
14 18 24
14 18 25
14 18 24
13 17 23
14 19 25
14 18 25
14 18 25
14 18 24
14 18 24
14 18 24
14 18 25
14 18 25
14 18 24
13 17 23
14 18 24
14 18 24
14 18 25
14 18 24
14 18 24
14 18 24
13 18 24
14 18 25
14 18 24
14 18 24
14 18 24
14 18 24
14 18 24
14 18 24
14 18 25
13 17 24
14 18 25
13 17 23
14 18 24
14 18 24
14 18 25
14 18 24
14 18 24
13 17 23
14 18 24
13 17 23
14 18 24
12 16 22
13 16 22
13 17 22
13 17 23
13 17 23
13 17 23
13 17 23
14 18 24
13 17 23
13 17 23
11 15 20
7 8 11
6 7 9
5 6 8
7 8 10
6 7 9
4 5 7
5 6 8
6 7 9
4 5 6
8 9 12
7 8 10
6 8 10
8 10 13
6 7 9
6 7 9
5 6 8
7 9 11
5 6 8
6 8 10
6 7 9
6 7 9
6 8 10
7 9 11
6 7 9
6 8 10
8 9 12
5 7 8
8 9 11
7 8 11
8 10 12
8 10 12
7 9 11
6 7 9
8 10 12
7 9 11
6 8 10
7 8 10
7 9 11
8 10 13
8 9 12
7 8 11
6 7 9
6 7 9
7 8 10
7 9 11
7 8 10
7 9 11
9 10 13
7 9 12
6 8 10
7 9 11
6 7 9
5 6 8
7 8 10
6 7 9
7 9 11
5 6 8
6 8 10
8 9 11
8 9 11
7 9 11
7 8 11
6 8 10
9 11 13
7 9 11
5 7 8
8 10 12
7 8 10
7 8 10
7 9 11
6 7 9
7 9 11
7 8 10
6 8 10
7 9 11
7 8 11
8 9 12
6 7 9
7 9 11
6 7 9
8 9 12
7 8 10
7 9 11
7 8 10
9 10 13
5 7 8
7 8 10
6 7 9
6 7 9
7 8 10
6 7 9
6 7 9
6 7 9
5 6 8
6 8 10
5 6 8
5 6 8
8 10 12
8 10 12
9 11 14
6 8 10
6 8 10
7 8 10
6 8 10
5 7 8
5 6 7
6 7 9
6 8 10
12 16 21
13 17 22
13 18 24
12 16 22
12 16 22
13 17 23
14 18 24
12 16 22
13 17 23
13 17 23
14 18 24
13 17 23
13 17 23
13 16 22
13 18 24
13 17 23
13 17 24
13 17 23
13 17 23
13 17 23
13 17 23
13 18 24
13 17 24
14 18 24
13 17 23
14 18 24
14 18 24
14 18 23
14 18 24
14 18 24
14 18 25
14 18 24
13 18 24
14 18 24
14 18 24
14 18 25
14 18 25
14 18 24
14 18 24
14 18 24
14 18 24
14 18 24
14 18 24
14 18 24
14 18 24
14 18 24
14 18 24
14 18 24
14 18 24
14 18 24
14 18 24
14 18 25
14 18 24
14 18 24
14 18 25
14 19 25
14 18 24
14 18 25
14 18 25
14 18 25
14 19 25
14 18 25
14 18 24
14 19 25
14 18 24
14 18 25
14 19 25
14 18 25
14 18 25
14 18 25
14 18 25
14 18 25
14 18 25
14 19 25
14 18 24
14 19 25
14 19 25
14 19 25
14 18 25
14 19 25
14 18 25
14 19 25
14 18 25
14 18 24
14 19 25
14 18 25
14 19 25
15 19 25
14 19 25
14 19 25
14 19 25
14 18 25
14 18 25
14 19 25
14 19 25
15 19 25
15 19 25
14 19 25
14 18 24
14 18 25
14 19 25
14 19 25
14 19 25
14 18 24
14 18 25
14 19 25
14 19 25
14 19 25
14 19 25
14 19 25
15 19 25
14 19 25
14 19 25
14 19 25
14 18 25
14 18 25
14 19 25
14 18 24
14 19 25
14 19 25
15 19 25
14 19 25
15 19 25
14 18 25
15 19 25
14 19 25
14 19 25
14 18 25
14 19 25
14 19 25
14 19 25
14 19 25
14 19 25
14 19 25
15 19 25
15 19 25
14 18 25
15 19 25
14 19 25
14 19 25
14 19 25
15 19 25
14 19 25
14 19 25
15 19 25
15 19 25
14 19 25
14 19 25
15 19 25
14 19 25
14 19 25
14 18 25
14 18 24
15 19 25
14 19 25
15 19 25
14 19 25
14 19 25
15 19 25
15 19 25
14 19 25
15 19 25
14 19 25
14 19 25
15 19 25
15 19 25
14 18 25
14 19 25
14 19 25
14 19 25
14 19 25
14 19 25
15 19 25
14 19 25
14 18 25
14 19 25
15 19 25
14 18 25
14 18 25
14 18 25
14 18 25
15 19 25
14 18 25
14 19 25
14 18 25
14 18 25
14 18 25
14 19 25
14 19 25
14 18 25
14 18 24
14 19 25
15 19 25
14 18 25
14 19 25
15 19 25
14 19 25
14 19 25
14 19 25
15 19 25
14 18 25
14 18 25
14 19 25
14 19 25
15 19 25
14 18 25
15 19 25
15 19 25
14 18 25
14 18 25
14 19 25
14 18 25
14 19 25
14 19 25
14 18 25
14 18 25
14 18 25
14 19 25
14 18 24
14 18 25
14 18 24
14 18 24
14 19 25
14 18 25
14 19 25
14 19 25
15 19 25
14 18 25
14 19 25
14 19 25
14 18 25
14 18 24
14 18 25
14 18 25
14 18 24
14 18 24
14 18 24
15 19 25
14 18 24
14 18 24
14 18 24
14 18 24
14 18 25
14 18 24
13 17 24
14 19 25
13 18 24
14 18 25
14 18 24
14 18 24
14 18 24
14 18 24
14 18 25
14 18 24
14 18 25
14 18 25
13 17 24
14 18 25
14 18 25
14 18 24
14 18 24
14 18 24
14 18 24
14 18 24
14 18 24
14 18 24
14 18 24
14 18 24
14 18 24
13 17 23
14 18 24
13 17 24
14 18 25
14 18 25
14 18 24
13 17 23
14 18 24
13 17 23
12 16 22
14 18 24
13 17 23
13 17 23
13 17 24
13 17 22
14 18 24
13 17 23
13 17 22
14 18 24
13 17 23
14 18 24
13 16 22
13 17 24
9 12 16
6 7 9
6 8 10
7 8 10
6 7 9
7 8 10
7 8 10
6 8 10
6 7 9
7 9 11
5 7 9
6 7 9
6 7 9
6 8 10
6 7 9
7 9 11
8 9 12
6 7 9
8 10 12
6 7 9
7 8 11
8 10 12
6 7 9
8 10 13
7 9 11
6 7 9
7 8 10
7 9 11
7 8 10
7 9 11
7 8 10
5 7 8
7 9 11
5 6 8
7 8 10
6 7 10
6 7 9
7 8 10
6 7 9
6 7 9
7 9 11
6 8 10
5 6 8
6 7 9
7 9 11
6 8 10
6 7 9
6 8 10
8 9 12
8 10 13
7 8 10
9 10 13
7 8 10
7 8 10
7 9 11
8 9 12
6 8 10
7 8 11
8 10 12
7 8 11
7 8 10
8 10 12
8 10 13
5 6 8
7 8 11
6 8 10
6 7 9
9 11 13
6 8 10
7 8 10
6 8 10
6 8 10
5 6 8
6 7 9
7 9 11
7 9 11
6 7 9
5 7 8
7 8 10
8 9 12
6 7 9
7 8 11
6 8 10
7 8 11
7 8 10
6 8 10
8 10 13
7 9 11
6 8 10
7 9 11
7 8 10
6 7 9
6 7 9
5 6 8
6 7 8
7 8 10
7 8 11
7 8 11
6 8 10
7 8 10
6 7 8
7 8 10
6 8 10
7 9 11
6 8 10
6 7 9
7 9 11
9 12 16
13 17 23
12 16 21
13 17 23
14 18 24
13 17 23
13 16 22
13 17 23
12 16 21
13 17 23
13 17 23
13 17 22
14 18 24
14 18 24
14 18 24
13 17 22
14 18 24
14 18 24
13 17 23
14 18 24
13 17 23
14 18 24
13 17 23
14 18 24
14 18 24
14 18 24
14 18 24
14 18 24
13 17 24
14 18 24
14 18 24
14 18 24
14 18 24
14 18 24
14 18 24
13 17 24
14 18 25
14 18 25
13 18 24
14 18 24
14 18 25
14 18 24
14 19 25
14 18 25
14 18 25
14 18 24
14 17 23
14 18 24
14 18 24
14 18 24
14 18 24
14 18 25
14 18 25
14 19 25
14 18 25
14 18 25
14 18 25
14 18 25
14 18 24
14 18 24
14 18 24
14 18 24
14 18 24
14 19 25
14 18 24
14 18 25
14 18 25
15 19 25
14 18 25
14 18 25
14 18 25
14 18 25
14 18 25
14 18 24
14 18 25
14 18 25
14 18 24
14 19 25
14 18 25
14 18 25
14 18 25
14 18 24
14 18 25
14 18 25
14 19 25
14 18 24
14 18 25
14 18 25
14 18 25
14 18 25
14 18 25
14 18 25
14 19 25
14 18 25
14 18 25
14 18 25
15 19 25
14 19 25
14 18 25
15 19 25
14 19 25
14 19 25
14 19 25
14 18 25
14 19 25
14 19 25
14 19 25
14 19 25
14 18 25
14 18 25
14 19 25
14 18 25
14 19 25
15 19 25
14 19 25
14 18 25
14 18 25
14 18 25
14 18 25
15 19 25
15 19 25
14 19 25
14 18 25
14 19 25
14 18 25
14 19 25
14 19 25
14 19 25
14 19 25
14 19 25
14 19 25
14 18 25
15 19 25
15 19 25
14 18 25
14 19 25
14 19 25
14 18 25
15 19 25
14 19 25
14 18 25
14 18 25
14 19 25
14 19 25
15 19 25
15 19 25
14 19 25
14 19 25
14 18 25
14 19 25
15 19 25
14 18 25
14 19 25
14 19 25
14 19 25
14 18 25
14 18 25
14 19 25
14 19 25
15 19 25
15 19 25
14 19 25
14 19 25
14 19 25
15 19 25
15 19 25
14 19 25
14 18 25
14 19 25
14 19 25
14 19 25
14 18 25
14 19 25
14 19 25
14 18 25
14 19 25
14 18 25
14 19 25
14 19 25
14 18 25
14 19 25
14 19 25
14 19 25
15 19 25
14 18 25
14 19 25
14 18 25
14 19 25
15 19 25
14 18 25
14 19 25
14 19 25
14 18 25
14 18 25
15 19 25
14 18 25
14 19 25
15 19 25
14 19 25
14 18 25
14 19 25
14 18 25
14 18 25
14 19 25
14 18 24
14 19 25
14 18 25
15 19 25
14 18 25
15 19 25
14 18 25
14 18 24
14 18 25
14 18 24
14 19 25
14 19 25
14 19 25
14 18 25
14 18 25
14 18 25
14 18 24
14 18 24
14 18 25
14 18 24
14 18 24
14 18 25
14 18 24
14 19 25
14 18 24
14 18 24
14 19 25
14 18 24
14 18 24
14 18 24
14 18 25
14 18 24
14 18 24
14 18 24
14 19 25
14 19 25
14 18 25
14 18 25
14 18 24
14 18 25
14 18 24
14 18 24
14 18 24
14 18 25
14 18 24
14 18 24
14 18 24
13 18 24
14 18 25
13 17 23
13 18 24
14 18 24
14 18 24
14 18 25
14 18 25
14 18 25
14 18 24
13 17 24
14 18 25
14 18 23
14 18 24
14 18 25
13 17 23
14 18 24
14 18 24
14 18 25
13 17 23
14 18 23
13 17 23
14 17 23
14 18 24
13 17 24
14 18 24
13 18 24
12 16 21
14 18 24
13 17 22
14 18 24
13 16 22
13 17 23
13 17 23
13 17 23
13 17 23
13 17 23
13 17 22
13 17 23
12 16 21
13 17 23
13 17 22
13 17 23
8 10 13
5 6 8
6 7 9
7 8 10
6 7 9
6 7 9
6 7 9
6 7 9
7 8 10
5 6 8
6 7 9
5 6 8
6 7 9
6 8 10
7 8 10
6 8 10
6 7 8
6 7 9
7 9 11
7 8 10
6 8 10
6 7 9
7 9 11
8 9 11
7 9 11
6 7 9
6 8 10
8 9 11
7 9 11
7 8 10
7 8 10
7 8 10
6 7 9
7 8 10
6 7 9
8 10 12
8 9 12
6 7 10
7 9 11
8 9 12
7 9 11
5 6 7
6 7 9
6 7 9
6 8 10
7 9 11
7 9 11
5 7 8
7 9 11
7 8 10
7 9 11
7 9 11
8 10 12
7 8 10
7 8 11
6 8 10
8 10 12
6 7 9
7 8 10
7 8 11
7 8 10
7 8 10
8 9 12
6 7 9
8 10 12
6 7 9
6 8 10
7 9 11
7 8 11
8 10 12
8 10 13
7 9 11
6 8 10
7 8 10
6 7 10
6 8 10
6 7 9
7 9 11
7 9 11
8 9 11
7 9 11
6 7 9
6 8 10
6 7 10
8 10 13
6 7 9
6 7 9
7 8 10
5 7 8
6 8 10
7 9 11
7 9 11
6 8 10
7 8 10
8 9 12
7 9 11
6 7 9
6 8 10
5 6 8
7 8 10
6 7 8
7 9 11
7 8 10
6 8 10
5 6 8
6 8 11
13 17 23
14 17 23
13 17 23
13 17 22
13 17 22
13 16 22
12 16 22
13 17 23
13 17 22
13 17 22
13 16 22
13 17 23
13 17 23
13 17 23
13 17 23
14 18 24
13 17 23
13 17 22
13 18 24
13 17 23
14 18 24
14 18 24
13 17 23
13 17 23
14 18 24
14 18 24
13 17 24
14 18 24
13 18 24
14 18 24
13 18 24
13 17 23
13 18 24
13 18 24
14 18 24
14 18 24
13 17 24
13 17 23
14 18 24
14 19 25
14 18 24
14 19 25
14 18 24
14 18 25
14 18 25
14 18 24
14 18 24
14 18 25
14 19 25
14 19 25
14 18 25
14 18 25
15 19 25
14 19 25
14 18 24
15 19 25
14 18 25
14 18 24
14 18 24
14 18 24
14 18 25
14 18 25
14 18 24
14 18 25
14 18 25
14 19 25
14 18 24
14 18 25
14 18 24
14 18 25
14 18 24
14 18 24
14 18 24
14 19 25
14 18 25
14 18 24
14 18 25
14 19 25
14 19 25
14 18 25
14 18 24
14 18 25
15 19 25
14 18 24
14 18 25
15 19 25
14 18 25
14 18 25
15 19 25
14 18 25
14 18 25
14 18 25
14 18 25
14 18 25
14 18 24
14 18 25
14 18 24
14 19 25
14 18 24
14 19 25
14 18 25
14 19 25
14 19 25
14 18 25
14 18 24
14 18 25
14 18 25
14 19 25
14 19 25
14 19 25
14 19 25
14 18 24
14 18 25
14 18 25
15 19 25
14 19 25
14 19 25
14 19 25
15 19 25
15 19 25
14 19 25
14 19 25
14 19 25
14 18 25
14 19 25
15 19 25
14 19 25
15 19 25
15 19 25
14 19 25
14 18 25
15 19 25
14 19 25
14 18 25
14 19 25
15 19 25
14 19 25
15 19 25
14 19 25
15 19 25
15 19 25
14 19 25
14 19 25
14 19 25
14 19 25
14 19 25
14 18 25
15 19 25
15 19 25
14 19 25
14 19 25
14 19 25
14 19 25
14 19 25
14 19 25
14 18 25
15 19 25
14 18 25
15 19 25
14 19 25
14 19 25
14 18 25
14 18 25
14 19 25
14 19 25
14 18 24
14 18 25
14 18 25
14 19 25
14 18 25
14 19 25
14 19 25
14 19 25
14 19 25
14 19 25
14 19 25
14 18 25
14 18 25
14 19 25
14 18 24
14 19 25
14 18 24
14 19 25
14 19 25
14 18 24
14 19 25
14 18 25
14 19 25
15 19 25
14 18 25
15 19 25
14 19 25
14 19 25
14 19 25
14 19 25
15 19 25
14 18 25
14 18 24
14 18 24
14 18 24
15 19 25
14 18 25
14 18 25
14 19 25
14 18 24
14 18 25
14 18 24
14 19 25
14 19 25
14 19 25
14 18 25
14 18 24
14 18 25
14 18 25
14 18 25
15 19 25
14 18 24
14 18 24
14 18 24
14 18 25
15 19 25
14 18 25
14 18 24
14 18 24
14 18 25
14 18 24
14 19 25
14 18 25
14 18 25
14 18 24
14 18 24
14 19 25
14 18 25
13 17 23
14 18 24
13 18 24
14 18 24
14 19 25
14 18 25
14 19 25
14 19 25
14 18 24
13 17 24
14 18 24
14 18 24
14 18 24
13 17 23
13 18 24
14 18 24
14 18 24
14 18 24
14 18 25
13 17 23
14 18 25
13 17 23
14 18 25
14 18 24
14 18 24
14 18 24
14 18 24
14 18 24
13 17 23
14 18 24
14 18 24
14 18 24
13 17 23
13 17 22
14 18 24
14 18 24
13 17 23
13 17 23
13 17 23
13 17 23
13 18 24
13 17 23
13 17 23
14 18 23
13 18 24
13 17 23
14 17 23
14 17 23
13 16 22
13 17 23
13 17 23
13 17 23
13 17 24
13 17 23
13 17 23
12 16 21
13 17 23
13 16 22
12 16 22
13 17 23
12 16 21
11 15 20
6 8 10
6 7 9
6 7 9
7 8 10
7 8 10
7 9 11
6 7 9
7 8 10
6 8 10
5 6 7
5 6 7
7 8 11
7 8 10
7 8 11
6 8 10
7 9 11
7 8 10
6 8 10
7 8 10
8 9 12
4 5 7
6 8 10
8 9 11
6 8 9
7 8 10
6 8 9
7 9 12
7 9 11
6 7 9
6 7 9
6 7 9
6 8 10
7 9 11
7 8 11
7 8 10
7 8 11
7 9 11
5 7 8
7 9 11
7 8 11
6 7 9
7 8 10
7 9 11
6 7 9
7 9 12
6 8 10
7 9 11
7 8 11
8 9 12
7 8 10
7 9 11
6 7 9
6 8 10
8 10 13
8 10 12
8 9 12
6 7 9
7 8 10
7 8 10
7 8 10
7 8 10
8 9 12
6 8 10
5 7 8
6 8 10
7 8 10
7 8 10
7 9 11
8 9 12
7 8 10
7 9 11
6 7 9
6 7 9
8 10 13
5 6 7
6 7 9
7 8 10
5 7 8
7 9 11
6 7 9
7 8 10
6 7 9
6 7 9
6 7 9
6 7 9
6 7 9
6 7 9
6 8 10
7 8 10
6 7 9
6 7 9
6 7 9
6 7 9
6 8 10
7 9 11
5 6 8
7 8 10
6 7 9
5 6 7
6 7 9
6 7 9
5 6 8
6 7 9
7 9 11
11 14 19
12 16 21
13 17 22
13 17 23
12 16 21
12 16 21
12 16 21
12 16 21
12 16 22
13 17 23
13 17 23
13 17 23
13 17 22
12 16 22
13 17 23
13 17 22
14 18 24
12 16 22
13 17 23
13 17 23
13 17 22
13 17 23
13 17 23
13 17 22
14 18 24
12 16 22
14 18 24
14 18 24
13 17 23
14 18 24
13 17 23
14 18 24
14 18 24
13 17 24
14 18 24
14 18 24
13 17 23
13 17 23
14 18 24
14 18 24
14 18 24
14 19 25
14 18 24
14 19 25
13 17 24
14 18 25
13 17 24
13 18 24
14 18 24
14 18 24
14 18 24
14 18 25
14 18 25
14 18 24
13 17 23
14 18 24
14 19 25
14 19 25
14 18 25
14 18 25
14 18 23
14 18 24
14 18 24
14 19 25
15 19 25
14 18 25
14 18 25
14 19 25
14 18 25
14 18 25
14 18 25
14 18 25
14 18 24
14 18 24
14 18 25
14 18 25
15 19 25
14 18 24
14 18 24
14 18 25
15 19 25
14 18 25
14 18 24
14 18 25
14 18 25
14 18 25
14 18 25
14 18 24
14 19 25
14 18 24
15 19 25
14 19 25
14 19 25
14 18 24
15 19 25
14 19 25
14 18 25
14 18 25
14 19 25
14 18 24
14 19 25
14 18 25
14 19 25
14 18 24
14 19 25
14 19 25
14 19 25
14 19 25
14 18 25
14 19 25
14 18 25
14 18 24
15 19 25
14 18 24
14 19 25
14 19 25
14 19 25
14 19 25
14 18 25
14 19 25
14 18 25
14 19 25
14 18 25
14 19 25
14 18 25
14 19 25
14 19 25
14 18 25
15 19 25
14 18 24
14 19 25
14 18 25
14 19 25
14 18 25
14 18 25
15 19 25
15 19 25
14 19 25
14 18 25
15 19 25
14 19 25
15 19 25
14 18 25
14 19 25
15 19 25
14 19 25
14 18 25
15 19 25
14 18 25
14 18 25
14 19 25
14 18 25
14 18 25
14 19 25
14 19 25
14 19 25
14 18 25
14 18 25
15 19 25
15 19 25
14 18 25
14 18 25
14 19 25
14 18 25
15 19 25
14 18 25
14 19 25
15 19 25
14 19 25
14 19 25
15 19 25
14 18 25
14 19 25
14 19 25
14 18 25
14 18 25
14 19 25
14 18 25
14 19 25
14 19 25
14 19 25
14 19 25
14 19 25
14 19 25
15 19 25
14 19 25
14 19 25
14 19 25
14 18 25
14 19 25
14 18 25
14 18 25
14 19 25
14 18 24
15 19 25
14 18 25
14 19 25
14 18 25
14 18 24
14 19 25
14 18 25
14 19 25
14 18 24
14 18 24
14 18 25
14 18 24
15 19 25
14 19 25
14 19 25
14 19 25
14 18 25
14 18 25
14 18 25
14 18 24
14 18 25
14 18 24
14 18 25
14 18 25
14 18 25
14 18 24
14 18 24
14 18 25
14 18 24
14 18 25
14 18 25
14 18 24
14 18 24
14 19 25
14 19 25
14 18 24
14 18 25
14 19 25
14 18 24
14 18 24
14 18 25
14 18 24
13 17 23
14 18 24
14 18 24
14 18 24
13 18 24
14 19 25
13 17 24
14 19 25
14 18 24
14 18 24
14 18 24
13 17 23
14 18 25
13 17 23
14 18 24
14 18 24
14 18 24
14 18 24
14 18 24
14 18 24
13 17 23
14 18 24
14 18 24
13 17 23
14 18 24
13 18 24
13 17 23
14 18 24
13 18 24
13 17 23
13 17 23
14 18 24
13 17 23
13 17 23
13 18 24
13 16 22
14 18 24
14 18 24
14 18 24
13 17 23
13 17 23
14 18 24
13 17 22
14 18 24
13 17 22
13 17 23
12 16 21
13 16 22
12 16 22
13 17 23
13 17 22
12 16 22
12 16 21
13 17 22
12 16 21
12 16 21
13 17 22
12 16 21
13 17 23
12 15 20
12 15 20
7 8 10
5 6 8
6 8 10
6 8 10
6 7 9
5 7 8
7 9 11
5 6 8
7 9 11
5 6 8
8 10 12
6 7 9
8 9 12
5 7 8
8 9 11
6 8 10
6 7 9
7 8 10
6 8 10
7 9 11
6 7 9
6 7 8
6 8 10
7 8 10
6 7 9
8 10 12
6 7 9
6 7 9
8 10 12
6 8 10
8 10 12
7 9 11
7 8 10
5 7 8
6 7 9
6 7 9
7 9 11
7 9 11
7 8 10
6 8 10
5 7 9
7 9 11
6 7 9
6 8 10
6 7 9
6 8 10
6 7 9
7 8 10
7 9 11
5 6 8
6 8 10
6 7 9
6 7 9
6 8 10
7 8 11
7 9 12
6 8 10
7 8 10
6 8 10
7 9 11
7 9 11
8 9 12
7 9 11
5 6 7
7 9 11
6 7 9
6 8 10
6 8 10
7 8 10
7 9 11
7 8 10
8 9 12
7 8 10
7 9 12
7 9 11
6 8 10
7 8 10
5 7 8
6 7 9
6 8 10
7 8 10
6 8 10
5 6 8
8 10 12
6 8 10
4 5 7
6 7 9
5 7 8
6 8 10
7 9 11
5 6 8
6 7 9
5 6 7
6 7 9
6 7 9
7 8 10
6 7 8
5 6 8
6 7 9
5 7 8
4 5 7
6 8 10
10 13 18
12 15 20
12 15 21
12 15 20
13 17 22
12 16 22
13 16 22
12 16 22
12 16 22
13 16 22
12 16 21
12 16 21
13 17 22
13 16 22
13 17 23
12 15 21
13 17 22
13 17 23
13 17 23
13 17 22
13 17 23
13 17 23
13 17 23
13 17 23
13 17 23
13 17 22
13 17 23
14 18 24
14 18 25
13 17 22
13 17 23
13 17 24
13 17 23
14 18 24
14 18 24
13 17 23
14 18 24
14 18 24
14 18 24
14 18 24
13 17 23
14 18 25
14 18 24
13 17 23
14 18 24
14 18 24
13 17 23
14 18 24
14 18 24
14 18 24
14 18 24
14 18 24
13 18 24
14 19 25
14 18 24
14 18 25
14 18 25
14 18 24
14 18 24
14 18 24
14 19 25
14 18 24
14 18 24
14 18 25
14 18 24
14 18 24
15 19 25
14 18 25
14 18 24
14 18 25
14 18 25
14 18 24
14 18 25
15 19 25
14 19 25
14 18 25
14 18 24
14 18 24
14 19 25
14 18 25
14 18 24
14 18 25
14 18 24
14 18 25
14 19 25
14 19 25
14 19 25
14 19 25
14 19 25
13 17 23
14 18 25
14 18 24
14 18 24
14 19 25
14 18 24
14 19 25
14 19 25
14 18 25
14 18 25
14 19 25
14 18 25
14 18 25
14 18 25
14 18 25
14 18 25
14 18 25
14 18 25
14 18 24
14 18 25
14 19 25
14 18 24
14 18 25
14 18 25
14 19 25
15 19 25
14 19 25
14 18 25
15 19 25
15 19 25
14 18 25
14 19 25
14 18 25
14 19 25
14 19 25
15 19 25
14 18 25
14 18 25
14 19 25
15 19 25
14 19 25
15 19 25
15 19 25
14 18 25
14 18 25
14 19 25
14 19 25
14 18 25
14 18 25
14 19 25
14 18 25
14 19 25
14 19 25
14 19 25
15 19 25
15 19 25
14 19 25
14 19 25
15 19 25
14 19 25
14 18 25
14 19 25
14 18 25
14 19 25
14 19 25
14 19 25
14 18 25
14 19 25
14 19 25
14 18 25
14 19 25
14 19 25
14 18 24
14 18 25
14 19 25
14 18 25
15 19 25
14 18 25
14 18 25
14 19 25
14 18 25
14 19 25
14 18 25
14 18 25
15 19 25
14 18 25
15 19 25
14 19 25
14 18 25
14 19 25
14 19 25
14 18 24
14 18 25
14 18 25
14 18 25
15 19 25
14 19 25
14 18 25
14 19 25
14 18 25
15 19 25
14 18 25
15 19 25
14 18 25
14 18 25
14 19 25
14 18 25
14 18 25
14 18 24
14 18 25
14 19 25
14 18 24
14 18 24
15 19 25
14 18 25
14 18 25
14 19 25
14 18 24
14 18 24
14 18 25
14 18 25
14 18 24
14 18 25
14 19 25
14 18 25
15 19 25
14 18 25
14 18 24
14 18 25
14 19 25
14 19 25
14 18 24
15 19 25
14 18 24
14 18 25
14 18 24
14 18 24
14 18 24
14 19 25
14 17 23
14 18 25
14 19 25
14 18 25
14 18 24
14 18 25
14 18 25
14 18 25
14 18 25
14 18 24
14 18 24
14 19 25
14 18 25
14 18 24
14 18 24
15 19 25
13 17 23
13 17 23
14 19 25
14 18 24
13 17 23
14 18 24
14 18 24
13 18 24
14 18 24
13 17 23
14 18 24
14 18 24
13 17 23
13 18 24
14 18 24
14 18 24
14 18 24
14 19 25
13 17 23
14 18 24
14 18 24
13 17 23
13 17 23
13 17 23
13 17 23
12 16 22
13 17 24
13 17 23
14 18 24
13 17 23
12 16 22
13 16 22
13 17 23
13 17 23
13 17 23
13 17 23
13 17 24
13 17 23
12 16 21
13 17 23
12 16 22
13 17 23
12 16 21
12 15 21
13 17 23
13 17 22
12 16 21
12 16 21
12 15 20
12 16 21
12 16 21
12 16 22
12 16 21
12 15 21
10 13 18
5 6 7
7 8 10
7 8 10
6 7 9
5 6 7
6 8 10
5 6 8
7 9 11
6 7 9
7 8 10
6 7 9
6 8 10
6 8 10
6 7 8
6 7 9
5 6 8
6 7 9
6 8 10
7 8 10
7 8 10
7 9 11
7 8 10
6 7 9
7 8 11
7 8 11
7 8 10
5 7 8
7 9 11
6 8 10
5 6 7
7 9 11
5 6 8
6 8 10
7 9 11
5 6 8
7 8 10
6 8 10
7 8 10
6 8 9
6 8 10
7 8 10
7 8 10
6 7 9
8 10 12
5 6 8
7 9 11
6 8 9
6 8 10
8 9 12
7 8 11
6 7 9
6 7 9
7 9 11
7 8 10
6 7 9
8 9 12
8 9 12
6 8 10
7 9 11
6 8 10
7 8 10
5 7 8
7 8 10
7 8 10
6 7 9
6 7 9
6 8 10
5 6 8
6 7 9
7 8 10
6 8 10
6 7 9
7 9 11
7 8 10
6 7 9
6 7 9
6 7 9
6 8 10
7 9 11
7 8 10
6 8 10
7 9 11
6 8 9
6 7 8
7 9 11
8 9 12
7 9 11
6 7 9
7 8 10
6 7 9
7 8 10
6 7 9
6 7 9
6 7 9
7 8 10
6 8 10
5 6 8
5 6 8
6 7 9
4 5 7
8 11 14
12 16 21
12 15 21
12 15 20
12 15 20
12 15 20
12 15 20
12 16 22
12 16 22
13 17 22
12 16 21
13 17 23
12 16 21
13 17 22
13 17 23
12 15 21
12 16 21
13 17 23
13 17 22
13 17 23
13 17 23
12 16 22
13 16 22
13 16 22
13 17 23
13 17 22
13 17 23
14 18 24
13 17 22
13 17 24
13 18 24
13 17 23
13 17 23
13 17 23
13 17 24
13 17 23
13 18 24
14 18 25
14 18 24
14 18 24
14 18 25
14 18 24
13 18 24
13 17 23
13 17 23
14 18 24
14 18 24
14 18 24
14 18 24
14 18 24
14 18 24
13 17 23
14 18 24
14 18 24
14 18 24
14 18 24
14 18 23
14 18 24
14 18 25
14 18 24
14 18 24
13 18 24
14 18 24
14 18 25
14 18 25
14 19 25
14 18 25
14 18 24
14 19 25
14 18 24
14 18 24
14 18 25
14 18 25
14 18 24
14 18 24
14 18 25
14 18 25
14 19 25
14 18 25
14 18 25
14 18 24
14 18 24
14 18 24
14 18 25
14 18 24
14 18 25
14 18 25
14 18 24
14 18 24
14 18 24
14 18 24
14 18 24
14 18 24
14 18 24
14 18 25
14 18 25
14 19 25
14 19 25
14 19 25
14 19 25
14 18 25
14 18 24
14 18 24
15 19 25
14 18 25
14 19 25
15 19 25
14 18 25
14 18 25
14 18 25
14 18 25
14 19 25
14 19 25
14 19 25
14 18 24
14 19 25
14 18 25
14 18 24
14 18 25
14 19 25
14 19 25
14 18 25
14 18 24
14 19 25
14 18 25
14 18 24
14 18 25
14 19 25
14 19 25
14 18 24
14 19 25
14 19 25
14 18 25
14 19 25
14 19 25
14 19 25
15 19 25
14 18 25
14 18 25
14 18 25
14 18 25
14 18 25
14 19 25
15 19 25
14 19 25
14 19 25
14 19 25
14 19 25
15 19 25
14 19 25
15 19 25
15 19 25
14 19 25
14 19 25
14 19 25
14 19 25
14 19 25
14 19 25
15 19 25
14 19 25
14 19 25
14 18 25
14 19 25
14 18 25
14 18 24
14 18 25
14 19 25
14 19 25
14 19 25
14 19 25
14 19 25
14 19 25
14 19 25
14 19 25
14 18 24
14 19 25
14 19 25
14 19 25
14 18 25
14 18 24
15 19 25
14 19 25
14 18 25
14 18 25
14 18 25
14 19 25
14 19 25
14 18 25
14 19 25
14 18 25
15 19 25
14 19 25
14 18 25
13 17 24
14 18 25
15 19 25
14 19 25
14 18 24
14 18 24
14 18 24
15 19 25
14 18 25
14 18 24
14 18 24
14 18 25
14 18 25
14 19 25
14 19 25
14 18 24
14 18 25
14 18 25
14 18 25
14 18 25
14 18 24
14 18 25
14 18 24
14 18 25
14 18 24
14 18 24
14 18 24
14 19 25
14 19 25
14 18 24
14 18 24
14 18 24
14 18 25
14 18 24
14 18 25
13 17 24
14 18 24
14 18 24
14 18 25
14 19 25
14 18 24
14 18 25
14 18 24
15 19 25
14 18 24
13 17 23
13 17 24
14 18 24
14 18 25
14 18 24
14 18 24
13 17 23
14 18 25
13 17 22
14 18 23
14 18 24
14 18 25
13 17 23
14 18 24
14 18 24
13 17 23
14 18 24
14 18 24
14 17 23
14 18 25
14 18 24
13 17 23
14 18 24
13 17 23
13 17 23
13 17 23
13 17 22
14 18 23
13 18 24
13 17 23
13 17 23
13 17 23
14 18 24
14 18 24
13 17 22
14 18 24
13 17 23
13 17 23
13 17 23
13 17 22
12 15 20
13 17 24
13 17 23
13 17 23
14 17 23
12 16 21
11 15 20
13 17 22
13 17 23
12 16 21
12 16 21
12 16 21
12 16 22
12 16 22
12 16 22
11 14 20
12 16 22
11 14 19
12 15 20
12 16 21
12 16 22
12 15 20
7 9 11
5 6 7
5 6 8
4 5 7
7 8 10
5 6 8
6 7 9
6 7 9
4 5 6
7 8 10
5 6 8
6 7 9
5 7 8
7 9 11
7 8 10
7 8 10
6 7 9
6 8 9
6 7 9
5 7 8
6 7 9
7 8 10
6 7 9
5 7 8
6 7 9
7 9 11
7 8 10
7 9 11
7 9 11
6 7 9
6 7 9
6 7 9
7 9 11
5 7 8
7 8 10
7 9 11
6 7 9
6 8 10
5 6 8
7 8 10
6 7 9
7 8 10
7 9 11
8 10 12
5 6 8
8 10 12
7 8 10
6 8 10
6 7 9
6 7 9
7 9 11
6 7 9
6 7 9
7 9 11
7 9 11
7 8 11
5 7 8
6 7 9
7 9 11
6 7 9
6 8 10
6 7 9
5 7 9
6 7 9
6 8 10
7 8 11
7 8 10
6 7 9
5 6 8
6 7 9
5 6 8
8 10 13
6 8 9
6 8 10
5 6 8
8 9 11
7 8 11
6 7 9
5 6 8
6 8 10
6 7 9
6 7 9
6 7 9
7 8 10
7 9 11
5 6 8
7 8 10
5 6 7
7 8 10
7 8 10
5 6 8
5 6 8
6 7 9
8 9 11
3 4 6
6 7 9
5 6 8
5 6 8
5 6 8
8 11 14
12 15 20
13 17 22
11 14 19
12 16 21
13 16 22
12 16 22
13 16 22
12 15 21
12 15 21
11 15 20
13 17 23
13 17 23
11 15 20
12 16 21
12 16 21
12 16 22
13 17 23
13 17 22
13 17 23
12 16 22
13 17 23
13 17 24
13 17 23
14 18 24
13 17 23
13 17 23
13 17 23
13 17 23
12 15 21
13 17 22
13 17 23
13 17 23
13 17 23
14 18 24
13 17 22
13 16 22
14 18 25
14 18 24
14 18 24
14 18 23
14 18 24
14 18 24
14 18 24
13 17 23
13 17 23
14 18 25
13 18 24
14 18 24
13 17 22
14 18 24
14 18 25
14 18 24
14 18 24
14 18 25
14 18 25
14 18 24
13 18 24
13 18 24
14 18 24
14 18 24
14 18 24
14 18 25
14 18 24
14 18 24
14 18 25
14 18 24
14 18 25
14 18 25
14 18 24
14 18 25
13 17 23
14 18 24
14 18 24
14 18 24
14 18 24
14 18 25
14 18 24
14 18 24
14 18 25
14 18 25
14 19 25
15 19 25
14 18 24
14 19 25
14 18 24
14 19 25
14 18 24
14 18 24
15 19 25
14 18 24
14 18 25
14 19 25
14 19 25
14 18 25
14 18 25
14 18 24
14 18 25
14 18 25
14 18 25
14 18 24
14 18 25
14 18 24
14 19 25
14 18 25
14 18 25
14 18 24
14 18 24
14 18 25
14 19 25
14 18 25
14 19 25
15 19 25
14 18 24
14 19 25
15 19 25
14 18 25
14 18 25
14 18 24
14 18 25
14 19 25
14 18 25
14 18 25
14 19 25
14 19 25
15 19 25
14 18 25
14 18 25
15 19 25
15 19 25
14 19 25
14 19 25
14 19 25
14 18 25
14 19 25
14 18 25
14 18 25
14 19 25
14 19 25
14 18 25
14 19 25
14 18 25
14 19 25
14 19 25
14 18 25
15 19 25
14 18 24
14 19 25
14 19 25
15 19 25
15 19 25
14 19 25
14 18 25
14 18 25
14 19 25
14 18 25
14 18 25
14 19 25
14 18 25
14 18 25
14 19 25
14 19 25
14 18 25
14 18 25
15 19 25
14 18 25
14 18 25
14 19 25
14 18 25
14 18 25
14 19 25
14 18 24
14 19 25
14 19 25
14 18 25
14 18 25
14 19 25
14 18 25
14 19 25
14 19 25
14 19 25
14 18 25
14 18 25
14 19 25
14 19 25
14 19 25
14 18 25
14 19 25
15 19 25
14 18 25
14 18 25
14 18 25
14 19 25
14 18 25
14 18 24
14 18 25
14 18 25
14 18 25
14 19 25
14 19 25
14 18 25
14 18 25
15 19 25
14 18 25
14 18 25
14 19 25
14 18 25
14 18 25
14 18 25
14 18 25
14 18 25
14 18 25
14 18 25
14 18 24
14 18 25
14 18 25
14 18 24
14 18 25
14 18 24
14 18 25
14 19 25
14 19 25
14 18 25
14 18 25
14 18 24
14 18 24
13 17 23
14 18 24
14 18 25
14 18 24
14 18 24
14 18 24
14 18 24
15 19 25
14 18 25
14 18 24
14 18 25
13 18 24
14 18 24
14 18 25
14 18 25
14 18 24
14 19 25
14 18 24
13 18 24
14 18 24
13 17 23
13 17 23
14 18 25
14 18 24
14 18 25
14 18 25
13 17 23
14 18 25
14 18 24
14 18 25
13 17 23
14 18 24
13 17 23
13 17 23
14 18 24
14 18 24
12 16 22
14 18 24
12 16 22
14 18 24
13 17 23
13 17 23
13 17 23
14 18 25
13 17 23
13 17 23
12 16 21
13 17 23
13 17 23
12 16 21
14 18 24
13 17 23
12 16 21
13 17 22
13 17 22
12 16 21
12 16 21
13 16 22
13 17 22
13 17 23
12 15 21
12 16 22
12 15 20
12 16 21
12 15 21
12 16 21
12 16 21
11 14 19
11 14 19
13 17 23
12 15 20
11 15 20
11 15 20
11 15 20
11 14 18
11 15 20
7 9 12
4 5 6
7 8 11
4 5 7
4 5 7
4 5 7
5 7 8
5 6 7
6 7 10
5 6 8
6 8 10
5 7 8
6 7 9
5 6 7
6 7 9
5 6 8
6 8 10
5 6 8
8 9 12
7 8 11
5 6 7
6 8 10
5 6 7
6 7 9
7 8 10
7 8 10
5 6 8
6 8 10
6 7 9
6 7 9
7 9 11
7 9 11
5 6 8
5 6 7
6 8 10
6 8 10
7 8 10
5 7 8
6 7 9
4 5 7
8 10 12
7 8 11
7 8 10
6 7 9
7 8 10
6 7 8
6 7 9
5 6 7
7 8 11
7 8 11
8 9 12
6 8 10
7 9 11
5 6 8
6 7 9
6 7 9
6 7 9
8 10 12
6 7 8
6 7 9
6 8 10
5 7 8
6 7 9
7 9 11
6 8 10
6 7 9
5 6 8
6 7 9
5 6 8
7 8 10
7 8 10
6 7 9
5 6 8
7 8 10
6 7 9
6 7 9
6 8 10
5 7 9
7 8 10
6 7 9
7 9 11
7 8 10
5 6 8
6 7 9
7 8 10
5 7 8
5 6 8
5 6 8
5 6 8
6 7 9
6 7 10
5 7 8
5 6 8
6 7 9
5 6 8
6 7 9
4 5 7
7 8 11
10 13 17
12 15 21
11 15 20
11 14 20
12 16 21
12 16 21
12 15 20
12 16 21
12 16 21
12 16 21
12 16 22
12 15 20
12 15 21
13 17 23
11 15 20
13 17 22
12 16 21
13 16 22
12 16 21
13 17 23
13 17 23
12 16 22
13 17 22
13 16 22
12 16 21
13 17 23
13 17 22
12 16 22
13 17 22
13 16 22
13 17 23
13 17 23
13 17 24
13 17 23
13 16 22
13 17 22
13 17 23
14 18 24
13 17 23
14 18 24
14 18 24
14 18 24
13 17 23
14 18 24
13 17 24
14 18 24
14 18 24
13 17 23
13 17 23
14 18 24
14 18 24
13 16 22
14 18 24
14 18 24
13 17 23
14 18 24
14 18 24
14 18 24
13 17 23
13 17 23
14 18 24
14 18 24
14 18 24
14 18 24
14 18 25
14 18 25
14 18 25
14 18 24
14 18 24
13 18 24
14 18 25
14 18 24
14 18 24
14 19 25
14 18 24
14 18 25
14 18 25
14 18 25
14 18 24
14 18 24
14 19 25
14 19 25
13 17 23
14 18 24
14 19 25
14 18 25
14 18 25
14 18 25
14 18 24
14 18 25
14 18 24
14 18 24
14 18 25
14 19 25
14 18 24
14 19 25
14 18 24
14 18 25
14 18 25
14 18 25
14 19 25
14 18 25
14 18 25
14 18 25
15 19 25
14 19 25
14 18 25
14 18 25
14 18 24
14 19 25
14 18 25
14 18 25
15 19 25
14 18 24
14 18 24
14 18 25
14 18 25
14 18 25
15 19 25
14 19 25
14 18 25
14 19 25
14 18 24
14 18 25
14 19 25
14 18 25
14 18 25
14 19 25
14 19 25
14 18 25
15 19 25
14 19 25
14 19 25
14 19 25
15 19 25
15 19 25
14 19 25
14 19 25
14 19 25
14 18 25
14 19 25
14 19 25
14 18 25
15 19 25
15 19 25
14 19 25
14 18 24
14 19 25
14 19 25
14 18 25
14 19 25
14 18 25
14 19 25
15 19 25
14 18 25
14 18 25
14 19 25
14 18 25
14 19 25
15 19 25
14 19 25
14 18 25
14 19 25
14 18 25
14 18 25
14 19 25
14 19 25
14 19 25
14 19 25
15 19 25
14 18 24
14 19 25
15 19 25
14 19 25
14 18 25
14 19 25
14 18 25
14 18 25
14 18 25
14 18 25
14 18 25
14 18 25
15 19 25
14 18 24
14 19 25
14 19 25
14 19 25
14 18 24
14 18 25
14 18 25
14 18 25
14 18 24
14 18 24
14 18 25
14 18 24
14 19 25
14 18 24
14 19 25
14 19 25
14 18 25
14 18 25
14 18 24
14 18 24
14 19 25
14 18 25
14 18 25
14 18 25
14 18 25
14 18 25
14 18 24
14 18 25
14 18 24
14 18 25
14 18 24
14 18 25
14 18 25
14 18 24
14 18 25
14 18 24
14 18 24
14 19 25
14 18 24
14 18 24
14 19 25
14 18 24
14 18 25
14 18 24
13 18 24
14 19 25
14 18 24
14 18 24
14 18 25
14 18 25
14 18 24
13 18 24
14 18 24
13 17 23
14 18 25
14 18 25
14 18 24
13 17 24
14 19 25
14 18 24
14 18 24
14 18 23
14 18 24
14 18 24
14 18 24
14 18 24
13 18 24
14 18 24
14 18 24
14 18 24
14 18 25
13 18 24
14 18 24
13 18 24
13 17 23
13 17 23
14 18 24
13 17 23
13 17 23
12 16 22
13 17 23
13 17 23
13 17 23
13 17 23
13 16 22
13 17 23
13 16 22
13 17 22
13 17 22
13 17 23
12 16 22
13 17 22
12 16 22
13 16 22
13 16 22
13 17 23
13 17 23
13 16 22
13 17 22
12 16 21
12 16 21
12 16 22
13 17 23
12 16 21
13 16 22
12 16 22
12 16 21
12 16 21
10 14 18
13 17 22
12 16 22
11 14 19
11 14 19
13 16 22
11 14 19
11 14 19
12 15 21
11 15 20
11 15 19
10 14 18
7 9 12
5 6 7
6 7 9
5 6 8
6 7 9
5 7 8
5 6 8
6 7 8
5 6 8
8 9 12
5 6 7
7 8 10
5 7 8
5 6 8
5 6 8
7 8 10
6 7 9
4 5 6
6 7 9
6 7 9
6 8 10
6 7 9
5 6 8
5 7 8
4 5 6
5 7 8
7 8 10
7 8 11
7 9 11
7 8 10
5 7 8
6 7 9
6 8 10
5 6 7
6 8 10
6 7 9
6 7 9
6 8 10
7 8 10
6 7 9
6 8 10
6 7 9
7 8 11
7 8 11
8 9 12
6 7 9
6 7 9
6 7 9
7 9 11
6 7 9
6 7 9
5 7 8
6 7 9
6 8 10
7 9 11
5 7 8
8 9 12
6 7 9
6 7 9
6 8 10
6 7 9
7 8 10
6 7 9
7 8 11
5 7 9
7 8 11
5 6 8
5 6 7
5 7 8
4 5 7
6 7 9
6 8 9
6 7 9
6 7 9
5 7 8
7 8 10
5 6 8
6 8 10
6 7 9
4 5 7
6 8 10
6 8 10
7 9 11
6 7 9
5 6 8
6 7 9
5 6 8
5 6 8
4 5 6
5 6 7
5 6 8
6 8 10
4 5 7
6 7 9
5 6 8
7 9 11
11 15 20
11 14 19
11 14 19
12 15 21
11 15 20
11 15 20
11 14 19
12 16 22
12 15 20
12 15 20
12 15 21
11 15 20
12 15 21
12 16 22
13 16 21
12 16 21
13 17 22
13 17 22
13 16 22
12 16 22
13 16 22
13 17 23
12 16 22
13 16 22
12 16 21
13 16 22
12 16 21
13 16 22
13 17 23
12 16 21
13 17 23
12 16 22
14 17 23
14 18 24
13 17 23
13 17 23
13 18 24
14 18 24
13 17 22
14 18 24
13 17 23
12 16 22
13 17 23
13 17 23
13 18 24
13 17 23
14 18 24
14 18 24
13 17 23
14 18 24
13 17 23
13 17 23
14 18 24
13 17 23
13 17 24
14 18 24
14 18 24
14 18 24
14 18 25
14 18 25
14 18 24
13 17 24
14 18 25
14 18 24
14 18 24
14 18 25
14 18 24
14 18 24
14 18 24
13 17 24
14 18 25
14 18 24
14 18 24
14 18 24
14 18 24
14 18 24
14 18 25
14 19 25
14 18 25
14 18 24
14 18 25
14 18 24
14 18 23
14 18 25
14 18 25
14 18 24
14 18 24
14 18 25
14 18 24
14 18 24
14 19 25
14 18 24
14 18 24
14 18 24
14 19 25
14 18 24
14 18 25
14 18 25
14 18 24
14 18 24
14 18 25
14 18 25
14 18 25
14 18 25
14 19 25
14 18 25
14 19 25
14 18 24
14 19 25
14 18 25
14 19 25
14 19 25
14 18 24
14 19 25
14 18 25
14 19 25
14 18 25
14 18 25
14 18 25
14 18 25
14 18 24
14 19 25
14 18 25
14 19 25
14 18 25
14 18 25
14 18 25
14 19 25
14 19 25
14 18 25
14 18 25
14 19 25
14 18 25
14 19 25
15 19 25
14 18 25
15 19 25
14 19 25
14 19 25
14 19 25
15 19 25
14 18 25
14 19 25
14 18 25
14 19 25
15 19 25
14 19 25
14 19 25
14 18 25
14 18 25
14 19 25
14 19 25
14 18 25
14 19 25
14 19 25
14 19 25
14 18 25
14 19 25
14 19 25
14 18 25
15 19 25
14 19 25
14 18 25
14 18 25
14 18 24
14 18 25
14 18 25
14 18 25
14 19 25
14 18 24
14 19 25
13 18 24
14 19 25
14 19 25
14 18 25
14 19 25
14 18 24
14 19 25
14 18 24
14 18 25
14 18 25
14 18 25
14 18 24
14 18 25
14 19 25
14 19 25
14 19 25
15 19 25
14 18 25
14 18 25
14 18 25
14 19 25
14 18 25
14 18 25
14 18 25
14 18 24
14 18 24
14 19 25
14 18 24
14 18 25
14 18 25
14 18 25
14 18 25
14 18 24
14 18 25
14 19 25
14 19 25
14 18 25
14 18 25
14 18 25
14 19 25
14 18 24
14 18 24
14 18 24
14 19 25
14 18 24
14 18 25
14 18 25
14 18 24
14 18 25
14 18 25
15 19 25
14 18 25
14 18 24
14 18 25
14 18 24
14 18 25
14 18 25
14 18 24
14 18 25
14 18 24
14 18 24
13 18 24
13 18 24
14 18 24
13 18 24
14 18 24
14 18 24
14 18 24
14 18 24
14 18 25
14 18 24
14 18 24
14 18 24
14 18 24
13 17 24
13 17 23
14 18 24
14 18 24
13 17 23
13 18 24
13 18 24
13 17 23
14 18 24
14 18 24
13 17 23
13 17 23
13 17 23
14 18 24
13 17 23
13 17 23
13 17 23
13 17 23
13 17 23
13 17 23
13 17 23
13 17 23
13 16 22
13 16 22
13 17 22
13 17 23
13 17 23
12 15 21
13 17 22
13 16 22
12 16 22
13 17 22
12 15 21
12 15 21
13 17 22
12 16 21
11 15 20
12 16 22
11 15 20
12 15 21
12 15 20
11 15 20
12 16 21
12 16 22
12 16 21
11 15 20
12 15 20
12 15 21
12 16 21
11 15 20
12 16 21
11 14 19
11 15 20
11 15 19
11 14 19
11 14 18
11 14 19
11 14 19
10 13 17
10 12 16
7 9 11
5 6 8
6 7 9
6 7 9
6 7 9
5 6 8
5 6 7
5 7 8
6 7 9
6 7 9
4 5 7
5 6 7
4 5 7
7 9 11
6 8 10
5 6 8
5 7 8
5 6 7
6 7 9
6 8 10
7 8 10
6 7 9
5 6 8
5 7 8
6 7 9
6 7 9
7 8 10
5 6 8
6 8 10
5 7 8
5 7 8
6 8 10
6 7 9
6 7 9
6 7 9
5 6 8
5 6 8
5 6 8
6 7 9
6 8 10
7 8 10
6 7 9
5 6 8
4 5 6
7 8 10
5 6 8
8 9 12
8 10 12
6 7 9
6 7 9
5 6 8
5 7 9
5 7 8
7 8 10
5 6 8
5 7 8
7 8 10
6 7 9
6 8 10
7 9 11
6 7 9
6 8 10
5 6 8
6 7 9
7 8 10
6 7 9
6 7 9
7 8 10
8 9 12
6 7 9
5 6 8
6 8 10
5 6 7
5 6 8
6 7 9
5 6 8
5 6 8
5 6 7
6 7 8
5 6 8
7 8 10
6 7 8
6 7 9
5 7 8
7 8 10
5 6 7
5 6 8
6 7 9
5 6 8
6 7 9
5 6 8
5 6 7
5 6 8
8 10 13
10 13 17
11 15 20
10 13 18
11 15 20
11 14 19
11 15 20
11 15 20
11 14 19
11 15 20
12 16 22
12 16 21
10 14 18
12 16 21
12 15 21
11 14 19
12 15 20
11 14 20
11 15 20
12 16 21
12 16 22
11 15 20
13 16 22
12 15 20
13 16 22
12 16 22
13 16 22
13 17 22
13 17 23
13 17 22
13 17 22
13 17 23
13 16 22
13 17 23
13 17 23
12 16 21
13 17 23
13 17 23
13 17 23
14 18 24
13 17 23
13 17 23
13 17 22
13 17 23
13 17 22
14 18 24
14 18 24
12 15 21
14 18 24
13 17 23
13 18 24
13 17 23
14 18 24
13 17 23
13 18 24
13 17 23
14 18 24
14 18 24
14 18 24
14 18 24
14 18 24
14 18 24
14 18 24
13 17 23
13 17 23
14 18 24
13 17 24
14 18 24
14 18 25
13 18 24
14 18 25
14 18 24
14 18 25
14 18 25
14 19 25
14 18 24
15 19 25
14 18 25
14 18 24
14 18 24
14 19 25
14 18 24
14 19 25
14 18 24
14 18 24
14 18 24
13 17 24
14 18 25
14 18 24
14 18 24
14 18 24
14 18 24
14 18 24
14 19 25
14 19 25
14 18 25
14 18 24
14 19 25
14 18 24
14 18 24
14 19 25
14 18 24
14 18 24
14 18 25
15 19 25
14 18 24
15 19 25
14 18 25
14 18 24
14 18 24
14 19 25
14 19 25
14 19 25
14 19 25
14 19 25
14 18 24
14 18 25
14 19 25
14 19 25
14 19 25
15 19 25
15 19 25
14 18 25
14 19 25
14 18 24
14 18 25
14 18 25
14 18 25
14 18 25
15 19 25
14 19 25
14 19 25
14 19 25
14 19 25
14 18 25
14 19 25
15 19 25
14 18 25
14 18 25
14 18 24
14 18 25
14 18 25
14 19 25
14 18 24
15 19 25
14 18 25
14 19 25
14 18 24
15 19 25
14 19 25
15 19 25
14 19 25
14 19 25
14 18 25
14 19 25
14 19 25
14 19 25
14 19 25
15 19 25
14 19 25
14 19 25
14 19 25
15 19 25
15 19 25
14 18 25
14 18 25
14 19 25
14 19 25
14 18 25
14 18 25
14 19 25
14 18 25
14 18 25
14 18 24
14 19 25
14 18 25
14 18 25
14 18 24
14 18 25
14 18 25
14 18 25
14 18 24
14 18 25
14 18 25
14 18 24
14 19 25
14 18 25
14 19 25
14 18 25
14 19 25
14 18 25
14 18 25
14 19 25
14 18 25
14 18 25
14 18 25
14 18 25
14 18 24
14 18 24
14 18 24
14 19 25
14 18 24
14 18 24
14 19 25
14 18 24
14 19 25
14 18 24
14 18 25
14 18 24
14 18 25
14 18 25
14 18 25
14 18 25
14 18 24
14 18 24
14 18 25
14 18 24
14 18 25
14 18 25
14 18 24
14 18 24
14 18 24
13 18 24
14 19 25
14 18 24
14 18 24
14 18 24
14 18 24
14 18 24
14 18 25
13 18 24
14 18 24
14 18 25
14 18 25
14 18 24
14 18 24
14 18 24
14 18 24
14 17 23
14 18 24
14 18 24
13 17 23
13 17 24
14 18 24
14 18 24
14 18 24
13 17 23
13 17 23
13 17 23
13 17 23
13 17 23
14 18 24
13 18 24
13 17 23
13 17 23
13 16 22
14 18 24
14 18 24
14 18 24
13 18 24
13 17 23
12 16 22
14 18 24
13 18 24
14 18 24
14 18 24
14 18 24
13 17 23
13 17 24
13 17 23
14 18 24
14 18 24
13 17 23
12 16 22
13 16 22
13 17 23
13 17 22
13 17 23
13 16 22
12 16 21
13 16 22
13 16 22
11 15 20
13 17 22
12 16 21
12 16 22
12 16 21
12 16 21
12 16 22
12 15 20
12 16 21
11 15 20
11 14 19
11 15 20
11 14 19
11 14 19
12 16 21
11 14 19
11 14 19
11 15 20
11 14 18
11 14 18
11 14 19
11 14 18
10 13 17
11 14 18
10 13 18
11 14 19
6 8 10
5 6 8
6 7 9
4 5 6
4 5 7
6 7 9
5 6 8
6 7 9
5 5 7
7 8 10
8 9 12
5 6 8
6 7 9
5 7 9
7 8 10
4 6 7
6 8 10
5 6 8
6 7 9
5 6 7
6 7 9
6 7 9
4 5 7
5 6 8
6 7 9
5 6 8
6 7 9
7 8 10
6 7 9
5 6 8
5 6 8
6 8 10
6 7 9
6 7 9
6 7 9
6 7 9
6 8 10
6 7 9
5 6 7
6 7 9
6 7 9
6 7 9
7 8 11
6 7 9
7 9 11
6 8 10
7 8 10
5 6 7
5 6 8
5 6 8
6 7 9
5 6 7
6 7 9
6 7 9
7 8 11
6 7 9
6 7 9
6 7 9
6 7 9
6 7 9
6 7 9
5 6 8
5 6 8
5 6 8
4 5 7
6 8 10
5 6 8
6 7 9
6 8 10
6 7 9
5 6 8
5 6 8
6 8 10
7 9 11
7 8 10
5 6 8
7 8 10
5 6 7
5 6 8
5 6 7
5 7 8
6 7 9
4 5 6
7 8 10
5 7 8
5 6 8
7 8 10
6 7 9
4 5 7
6 7 9
4 5 6
5 6 8
8 11 14
10 14 18
11 14 18
10 13 17
11 15 20
12 15 21
10 13 17
12 15 20
11 15 20
11 15 20
12 15 20
12 15 20
12 16 22
11 14 19
11 15 20
12 15 21
11 14 19
12 16 21
12 16 21
11 15 20
13 17 23
11 14 19
13 16 22
11 14 19
11 15 20
12 16 21
13 17 22
12 15 20
12 16 22
13 16 22
13 17 23
13 17 22
12 16 21
12 16 22
12 16 21
13 17 24
13 17 23
13 17 23
13 16 22
12 16 22
13 16 22
13 17 23
14 18 24
14 18 24
13 17 23
13 17 23
13 17 24
13 17 23
13 17 23
13 17 23
14 18 24
13 17 22
13 17 23
13 17 23
14 18 24
14 18 24
13 17 23
14 18 24
14 18 24
14 18 24
14 18 24
14 18 25
14 18 25
14 18 24
14 18 24
14 18 24
14 18 24
14 18 24
14 18 25
14 18 24
14 18 24
14 18 24
13 18 24
14 18 24
14 18 24
14 18 25
14 18 24
14 19 25
13 17 23
14 18 24
14 18 24
13 18 24
14 18 24
14 19 25
14 18 24
14 18 25
14 18 23
13 17 23
13 18 24
14 18 24
14 18 25
14 18 25
14 19 25
14 18 24
14 19 25
14 18 24
14 19 25
14 19 25
14 18 24
13 17 23
14 19 25
14 18 25
14 18 25
14 18 25
15 19 25
14 18 25
14 18 24
14 18 25
14 18 25
14 18 25
15 19 25
14 18 25
14 18 24
14 19 25
14 19 25
14 18 24
15 19 25
14 18 25
15 19 25
14 19 25
14 19 25
14 18 24
14 18 25
14 18 25
14 19 25
14 18 25
14 19 25
14 19 25
14 18 25
14 18 25
14 18 25
14 18 25
14 18 25
14 18 24
14 18 25
15 19 25
15 19 25
14 18 25
14 18 25
14 19 25
14 18 25
14 19 25
14 18 25
15 19 25
14 19 25
14 19 25
14 18 25
14 19 25
14 19 25
14 19 25
14 19 25
14 19 25
14 18 24
14 19 25
14 19 25
14 19 25
14 19 25
14 19 25
14 18 25
14 19 25
14 18 25
14 19 25
14 19 25
14 18 25
14 19 25
14 19 25
14 18 24
14 19 25
14 19 25
14 19 25
14 18 24
14 18 25
14 18 25
14 18 25
14 19 25
14 18 25
14 18 25
14 19 25
14 18 24
14 19 25
14 18 25
14 19 25
14 19 25
14 18 25
14 18 25
14 19 25
14 18 24
15 19 25
14 18 24
14 18 24
15 19 25
14 18 25
14 19 25
14 18 24
14 18 25
14 18 25
14 18 24
14 18 25
14 19 25
14 18 24
14 18 25
14 18 24
14 18 25
14 18 25
14 19 25
14 18 25
14 18 25
14 18 24
14 18 24
14 18 25
14 18 24
14 18 24
14 18 25
14 18 24
14 18 24
14 18 24
14 18 24
14 18 24
14 18 25
14 18 24
14 18 25
14 18 25
15 19 25
14 18 25
14 18 24
14 18 24
14 18 24
14 18 25
14 17 23
14 18 24
14 18 24
13 18 24
14 18 24
14 18 24
14 18 24
14 18 24
14 18 24
14 18 25
14 18 24
14 18 24
14 18 24
14 18 24
14 18 25
14 18 24
14 18 24
14 18 24
13 17 23
13 17 23
13 17 23
14 18 24
13 17 23
14 18 23
14 18 24
14 18 25
14 18 24
13 17 23
14 18 24
13 18 24
13 17 23
13 17 23
13 17 23
14 18 24
12 16 22
13 17 23
13 17 22
12 16 21
13 17 23
13 17 22
13 17 23
12 16 22
13 17 22
13 17 22
13 17 23
13 16 22
13 17 22
13 17 22
13 17 23
13 16 22
13 17 22
13 16 22
12 16 21
12 16 21
13 17 23
12 16 21
11 15 20
12 15 21
12 16 21
12 16 22
12 16 21
11 14 20
10 13 18
12 16 21
11 14 19
12 16 21
12 16 21
11 14 20
12 15 20
10 13 17
10 13 18
11 14 19
10 13 18
10 13 17
12 15 21
11 14 19
10 14 18
10 13 17
10 13 18
11 14 18
10 13 17
6 7 9
6 7 9
5 6 8
5 7 8
4 5 7
7 8 10
6 7 9
6 7 9
5 6 8
7 8 10
6 7 9
5 6 8
5 7 8
5 6 8
7 8 11
4 5 7
6 7 9
5 7 9
6 7 9
6 7 9
4 5 7
7 8 10
5 6 7
5 6 7
5 7 8
7 8 10
6 7 9
6 7 9
7 8 10
6 7 9
5 6 8
5 6 7
5 6 8
6 8 10
6 7 9
5 6 8
5 7 8
6 7 9
6 7 9
6 7 9
5 6 7
6 7 9
4 5 7
7 9 11
5 6 7
6 7 9
7 9 11
6 7 9
7 8 11
7 8 10
5 6 8
6 7 9
5 6 8
8 9 11
5 7 8
5 6 8
6 7 9
5 6 8
6 7 8
6 7 9
5 6 8
5 6 7
6 7 9
6 7 9
6 7 8
6 7 9
6 7 9
7 9 11
7 8 10
6 7 9
6 7 9
6 7 9
5 6 7
4 5 7
6 7 9
6 7 9
6 7 9
7 8 10
4 4 6
5 6 7
6 7 9
7 8 10
6 8 10
6 7 9
6 8 10
6 8 10
5 6 8
4 5 6
4 5 7
7 8 10
10 13 17
9 12 16
9 12 16
9 12 16
11 14 19
10 13 18
11 14 18
11 14 18
11 15 20
11 14 19
11 14 19
12 15 20
12 15 20
11 15 20
11 14 18
12 16 22
12 15 21
12 15 20
11 15 20
11 15 20
13 16 22
12 16 21
12 15 20
12 16 22
12 16 22
11 15 20
11 15 20
11 15 19
13 17 23
13 16 22
12 15 21
13 17 22
13 17 22
13 17 23
13 17 22
12 16 22
13 17 23
13 17 23
13 17 22
13 17 23
13 17 23
12 16 22
13 17 23
13 17 23
14 19 25
13 17 23
13 16 22
13 17 22
14 18 24
13 17 23
14 18 24
13 17 23
13 17 23
13 17 23
13 18 24
13 17 23
13 17 23
13 17 23
13 17 23
14 18 24
14 18 24
13 18 24
14 18 24
13 17 23
13 17 23
14 18 25
14 18 25
13 18 24
14 18 24
14 18 25
13 18 24
14 18 24
14 18 24
14 18 25
14 18 23
14 18 25
14 18 24
14 18 24
14 18 24
13 17 23
13 18 24
14 19 25
14 18 24
14 18 25
14 18 24
14 18 24
14 18 24
14 18 25
14 18 24
14 18 24
14 18 24
14 18 24
14 17 23
14 19 25
14 19 25
14 18 25
14 18 24
14 18 24
14 18 24
14 18 25
14 18 24
14 18 24
14 18 24
13 17 24
14 18 24
14 18 25
14 18 24
13 18 24
14 18 24
14 18 25
14 18 25
14 18 24
14 18 25
14 18 24
14 19 25
14 19 25
14 18 25
14 18 24
14 19 25
14 19 25
15 19 25
14 19 25
14 19 25
14 18 24
14 18 24
14 18 25
14 19 25
14 18 25
14 18 24
14 19 25
14 19 25
14 18 25
14 18 25
14 18 25
14 19 25
14 18 25
14 18 25
14 19 25
14 18 25
14 18 25
14 18 24
15 19 25
15 19 25
14 19 25
14 19 25
14 18 25
14 19 25
14 18 25
14 18 25
14 18 25
14 18 25
14 18 25
14 19 25
14 19 25
14 18 24
14 18 25
14 18 24
15 19 25
14 19 25
15 19 25
14 18 25
14 18 24
14 18 24
14 18 25
14 18 25
14 19 25
14 18 25
14 19 25
14 18 24
14 18 25
14 19 25
14 18 25
14 18 25
14 18 25
14 18 24
14 19 25
14 18 24
14 18 24
14 18 25
14 18 25
14 18 25
14 18 25
14 18 25
14 19 25
14 18 25
14 18 24
14 18 24
14 18 25
14 19 25
15 19 25
14 18 25
14 18 25
14 18 24
14 18 24
14 18 25
14 18 25
14 19 25
14 18 25
14 18 25
14 18 25
14 18 25
14 18 25
14 18 24
14 18 24
14 18 24
14 18 24
14 19 25
14 18 25
14 18 25
14 18 25
14 18 25
14 18 25
14 18 24
14 18 24
14 18 24
14 18 24
13 18 24
14 18 24
14 18 24
14 18 24
14 18 25
14 18 25
14 18 24
14 18 24
13 18 24
14 18 24
14 18 24
13 17 23
14 18 25
14 18 25
13 17 23
14 18 24
13 17 23
13 17 23
13 17 23
14 18 24
13 17 24
13 17 23
14 18 24
14 18 24
14 18 25
13 17 23
14 18 24
14 18 25
14 18 23
14 18 24
14 18 24
13 17 23
14 18 24
14 18 24
14 18 24
13 17 23
13 17 23
13 17 23
13 17 23
13 17 22
13 17 23
13 17 23
13 17 23
13 17 22
13 16 22
13 17 22
14 18 24
13 17 23
12 16 22
13 17 23
13 17 22
13 17 23
13 17 23
13 16 22
13 17 22
12 16 22
13 17 22
12 15 20
13 17 22
11 15 20
13 17 22
13 16 22
12 16 22
13 17 23
12 16 22
12 16 21
12 16 21
12 15 20
11 15 19
12 16 21
13 17 23
11 15 20
12 16 21
12 16 21
11 15 19
10 13 18
10 14 18
11 14 19
13 16 22
11 15 20
11 15 20
11 14 19
11 14 19
10 13 18
10 13 18
9 12 16
11 14 19
11 14 19
10 13 18
10 13 17
10 13 17
11 14 18
10 13 17
9 12 17
9 12 16
4 5 7
5 6 8
4 5 7
4 5 7
5 6 8
6 8 10
5 6 7
6 7 9
4 5 6
6 7 9
5 7 8
6 7 8
6 7 9
5 6 8
4 5 7
6 8 9
6 8 10
6 7 9
6 7 9
6 8 10
4 4 6
6 7 9
7 8 10
6 7 8
5 7 8
5 6 7
4 5 7
6 7 9
5 6 8
7 8 10
6 7 9
6 8 10
6 7 9
6 7 9
5 6 8
7 8 10
5 7 8
6 7 9
5 6 8
6 7 9
6 8 10
6 7 9
7 9 11
5 6 8
6 8 10
4 5 7
6 7 9
5 6 8
7 8 10
6 8 10
6 7 9
4 5 7
4 5 7
7 8 10
7 8 10
6 7 9
6 7 8
5 6 8
8 9 12
5 6 7
6 7 9
6 7 8
6 7 9
7 9 11
5 6 8
7 8 10
6 7 8
6 7 8
5 6 8
5 6 7
5 6 8
5 7 8
9 10 13
6 7 9
5 6 8
5 6 7
6 7 9
5 6 8
5 6 7
5 6 8
6 7 9
5 6 7
5 6 8
3 4 5
5 6 8
4 5 6
5 6 7
5 7 9
10 13 17
9 12 17
10 12 16
9 12 16
10 13 17
12 15 20
10 14 18
11 14 19
11 14 19
10 13 17
11 15 20
10 13 17
11 14 19
11 15 19
10 13 17
12 15 20
12 15 21
12 15 21
12 16 21
13 16 21
11 14 19
12 16 21
13 17 22
12 15 20
12 16 22
12 16 21
12 15 21
12 16 22
12 16 21
12 16 22
13 17 23
13 17 22
12 16 22
12 16 22
12 15 21
13 16 22
12 15 21
13 16 22
13 17 23
12 16 22
13 16 22
13 17 23
12 16 22
13 16 22
13 17 23
12 16 22
13 17 23
13 17 22
14 18 24
13 17 23
14 18 24
13 17 23
12 16 21
13 17 22
13 17 23
13 17 22
14 18 25
13 17 23
13 17 24
13 17 23
13 17 23
14 18 24
14 18 24
14 18 24
14 18 24
13 17 23
14 18 24
13 18 24
14 18 24
13 17 23
14 18 24
14 18 24
14 18 24
14 18 24
13 18 24
14 18 24
13 17 22
15 19 25
13 17 23
13 17 23
14 18 24
14 18 24
13 17 23
13 17 23
14 18 24
14 18 24
14 18 24
14 18 24
14 18 25
13 17 23
14 19 25
14 18 24
13 18 24
14 18 24
14 18 25
14 18 24
14 18 25
14 18 25
14 18 25
14 18 24
14 18 25
14 18 25
14 18 24
13 17 23
14 18 25
14 18 24
15 19 25
14 18 24
14 18 24
14 18 24
14 18 24
14 18 25
14 18 24
14 18 24
14 18 24
14 18 24
14 19 25
14 19 25
14 19 25
14 18 25
14 18 25
14 18 25
14 18 25
14 18 24
14 18 24
14 18 25
15 19 25
14 18 25
14 18 25
14 19 25
14 18 25
14 19 25
14 19 25
14 18 25
14 19 25
14 18 24
14 19 25
14 18 25
14 18 25
14 19 25
14 19 25
14 18 24
14 19 25
14 18 24
14 18 25
13 18 24
14 18 24
14 18 25
14 18 25
14 19 25
15 19 25
14 18 25
14 18 25
14 19 25
14 18 25
14 19 25
14 18 25
14 18 25
14 18 25
14 18 25
14 18 25
14 18 25
14 19 25
14 18 25
14 18 25
14 18 25
15 19 25
14 19 25
14 18 25
14 18 25
14 18 25
14 18 25
14 18 24
14 18 24
14 18 25
14 18 25
14 19 25
14 19 25
14 18 25
14 18 25
14 18 25
14 18 25
14 18 25
14 18 24
14 18 24
14 19 25
14 19 25
14 18 25
14 18 25
14 18 25
14 18 25
14 18 25
14 18 25
14 18 25
14 18 24
14 18 24
14 18 25
14 19 25
14 18 24
14 18 24
14 18 24
13 18 24
14 18 24
14 18 24
14 18 25
14 18 24
14 18 24
14 18 24
13 18 24
13 17 23
14 18 24
14 18 24
14 18 25
14 18 24
14 18 24
14 18 24
14 18 24
14 18 24
14 18 24
14 19 25
14 18 24
13 17 24
14 18 24
14 18 25
14 18 24
14 18 25
14 18 24
13 18 24
14 18 24
13 17 22
13 18 24
14 18 24
14 18 25
13 17 23
14 18 24
14 18 24
14 18 24
13 17 23
13 18 24
13 17 22
14 18 24
14 18 24
13 17 23
14 18 24
14 18 24
14 18 24
13 17 23
13 18 24
14 18 24
14 18 25
14 18 24
13 17 24
13 17 23
13 18 24
14 18 24
13 17 22
13 17 22
13 17 22
13 17 23
13 17 23
12 16 22
14 18 24
13 17 23
13 17 23
13 17 22
13 17 23
13 17 23
13 17 22
13 17 23
13 17 23
12 16 22
12 16 21
13 17 22
13 17 24
12 16 21
12 15 20
13 17 23
12 15 20
12 16 22
11 15 20
12 16 21
13 17 23
12 16 22
12 15 21
12 16 21
12 16 21
12 16 21
12 15 20
12 15 20
12 16 21
11 15 20
11 14 19
10 13 18
10 13 18
12 15 20
10 14 18
11 14 19
10 13 18
11 14 18
11 14 19
11 14 19
10 13 18
10 12 17
10 14 18
10 13 17
10 13 17
10 13 18
11 14 19
10 13 18
9 12 16
10 13 18
10 12 17
9 12 16
6 8 10
4 5 6
5 6 8
4 5 7
5 6 7
4 5 7
5 6 7
5 6 8
5 6 7
6 7 9
5 6 7
4 5 7
4 4 6
6 8 10
5 6 7
6 8 9
6 7 8
6 7 9
4 5 6
6 7 8
5 6 8
4 5 7
5 6 8
5 6 8
4 5 7
5 6 7
6 8 10
5 7 9
4 5 7
7 8 10
7 8 10
6 7 9
5 7 8
5 6 7
5 6 8
5 7 8
5 6 7
6 8 10
5 6 8
5 7 8
5 6 7
5 6 7
5 6 8
5 6 8
6 8 10
5 6 8
6 7 9
5 6 8
5 6 7
5 6 8
6 7 9
6 7 9
6 8 10
6 7 8
4 5 7
5 7 8
6 8 9
5 6 7
6 7 9
5 6 8
6 7 9
5 6 7
4 5 7
7 8 10
5 6 8
6 7 9
6 7 9
5 6 8
5 6 8
4 5 7
6 8 9
5 6 8
5 5 7
7 8 10
5 6 7
4 5 7
6 7 9
5 6 8
4 5 7
4 5 7
5 6 8
4 5 7
5 6 7
5 6 8
4 5 6
7 9 12
8 10 13
10 13 17
10 13 17
9 11 15
10 12 16
11 14 18
9 11 15
10 13 17
11 14 19
10 13 18
10 13 17
11 14 19
11 14 19
11 14 19
10 13 18
10 13 18
11 14 19
11 15 20
11 15 20
11 15 20
11 15 20
11 14 19
12 16 21
11 14 19
12 15 20
11 15 20
11 14 19
13 16 22
12 16 21
12 15 21
13 17 22
12 15 20
12 16 22
12 16 21
13 16 22
12 16 21
12 16 21
12 16 22
12 16 22
12 16 21
13 17 23
12 16 21
12 16 21
13 17 22
13 17 22
13 17 22
12 16 22
13 17 23
13 17 23
12 16 21
13 16 22
13 17 23
13 17 23
13 17 23
13 17 23
13 17 22
13 17 23
13 17 23
13 18 24
13 18 24
13 17 23
14 18 24
13 17 23
13 16 22
13 18 24
13 17 23
14 18 24
13 17 23
14 18 24
14 18 24
13 17 23
13 17 23
14 18 24
14 18 24
14 18 24
14 18 24
14 18 24
14 18 24
14 17 23
13 18 24
14 18 24
14 18 24
14 18 24
14 18 25
14 18 24
14 18 24
13 17 24
14 18 24
14 18 24
14 18 24
13 17 24
14 18 24
14 18 24
13 17 23
14 18 25
14 18 25
14 18 24
14 18 25
14 18 24
14 18 25
14 18 24
14 18 24
14 18 24
14 18 24
14 18 24
14 18 24
14 18 24
14 18 24
14 18 24
14 19 25
14 18 24
14 18 24
14 18 24
14 18 25
14 19 25
14 18 24
14 18 24
14 18 25
14 19 25
14 18 25
14 18 24
14 18 25
14 18 25
14 18 25
14 18 25
14 19 25
14 18 25
14 19 25
14 18 25
14 18 25
14 18 24
14 18 25
14 19 25
14 19 25
14 18 25
15 19 25
14 18 24
14 19 25
14 18 25
14 19 25
14 18 25
14 18 25
14 19 25
14 19 25
14 18 25
14 18 24
14 19 25
14 19 25
14 18 24
14 18 25
14 18 24
14 19 25
14 18 25
14 19 25
14 18 25
14 18 25
14 18 25
14 19 25
14 19 25
14 18 24
14 18 25
14 18 24
15 19 25
14 18 24
14 18 25
15 19 25
14 18 25
14 18 24
14 19 25
14 19 25
14 18 25
14 18 24
14 18 25
15 19 25
14 19 25
14 18 24
15 19 25
14 18 24
15 19 25
14 18 25
14 18 24
14 19 25
14 18 25
14 19 25
14 18 25
14 18 24
14 19 25
14 19 25
14 18 25
14 18 25
14 19 25
14 18 24
14 19 25
14 18 25
14 18 24
14 18 24
14 18 24
14 18 25
14 18 25
14 18 24
14 18 24
14 18 25
14 18 25
14 18 24
14 18 25
14 18 25
14 18 24
15 19 25
14 18 24
14 18 24
14 18 24
14 18 24
14 18 25
14 19 25
14 18 24
13 18 24
13 18 24
14 18 25
14 19 25
13 17 23
14 18 24
14 18 24
14 18 24
13 17 23
14 18 24
14 18 24
13 18 24
14 18 25
14 18 24
14 19 25
14 18 24
14 18 24
14 18 24
14 18 24
13 17 24
13 17 23
13 17 23
13 17 24
14 18 24
14 18 24
14 18 25
14 19 25
13 17 23
14 18 25
13 17 22
14 18 24
13 17 23
13 17 23
13 18 24
13 17 23
13 17 23
13 17 23
14 18 23
13 17 23
14 18 24
13 17 24
14 17 23
13 17 23
13 17 23
12 16 22
13 17 23
13 17 22
12 16 22
13 16 22
14 18 24
13 17 23
13 17 22
13 17 23
13 17 23
13 17 22
12 15 21
13 17 22
13 17 22
12 16 22
13 16 22
13 17 23
12 16 21
11 15 21
12 16 21
12 16 21
13 16 22
13 16 22
12 16 21
12 16 21
12 16 21
12 15 20
12 16 21
11 15 20
12 16 22
12 15 21
13 16 22
11 14 19
12 15 21
11 15 19
11 15 20
12 15 21
12 15 20
10 13 17
11 15 19
12 15 20
11 14 19
11 14 19
11 14 19
10 13 18
9 12 16
11 14 19
10 14 18
10 13 17
9 12 16
9 11 15
9 11 14
9 12 16
10 12 16
9 12 16
8 10 14
7 9 12
4 5 6
5 6 7
3 4 6
4 5 7
6 7 8
4 5 7
6 7 8
4 5 7
6 7 9
5 6 7
6 8 9
5 6 8
4 5 6
5 6 7
5 6 8
7 8 10
5 6 8
6 7 9
5 6 8
5 6 7
5 6 8
6 7 9
6 7 9
5 6 7
6 7 9
4 5 7
5 6 8
5 6 8
5 6 7
5 6 8
6 7 8
6 7 8
5 6 8
7 8 10
6 7 9
6 8 10
6 7 9
4 5 7
6 7 9
4 5 7
5 6 8
5 6 8
7 9 11
5 6 7
6 7 9
6 8 10
5 6 8
5 7 8
5 6 8
5 6 8
6 7 9
6 7 9
4 5 6
6 8 10
6 7 9
5 6 7
5 6 8
7 8 11
6 8 10
4 5 7
6 7 9
6 7 9
6 7 9
5 6 7
6 7 9
5 6 8
6 7 9
5 6 8
5 6 8
4 5 6
5 6 8
5 7 8
5 6 8
5 6 7
4 5 6
5 6 7
5 6 8
6 8 9
4 5 6
5 6 7
6 7 9
5 6 7
7 9 12
9 12 15
8 10 14
8 11 14
8 10 13
8 11 14
9 12 16
10 13 17
10 12 17
9 11 15
9 12 16
10 14 18
10 13 18
10 13 17
9 12 16
9 13 17
10 13 17
11 15 20
11 15 20
11 15 20
11 14 19
11 15 19
11 14 19
11 15 20
12 16 21
11 14 19
11 14 19
12 16 21
12 15 20
12 15 20
12 15 21
12 16 21
12 16 21
13 16 22
13 17 22
12 15 20
12 16 21
13 17 23
13 16 22
13 16 22
12 16 21
13 17 23
13 17 23
12 15 21
13 17 22
13 17 23
12 16 22
13 16 22
12 16 22
12 16 21
13 17 22
13 17 23
13 17 23
13 16 22
13 17 22
14 18 24
13 17 23
13 17 23
14 18 24
14 18 24
14 18 24
13 18 24
13 17 23
13 17 23
14 18 24
14 18 24
13 17 23
13 17 23
13 17 23
13 17 23
13 18 24
13 17 23
13 17 24
13 18 24
13 17 23
13 17 24
13 17 23
13 17 23
13 18 24
14 18 24
14 18 24
14 18 24
14 18 24
13 18 24
14 18 24
13 17 23
14 18 25
14 18 24
14 18 24
14 18 24
14 18 24
14 18 24
14 19 25
14 18 24
13 17 23
14 18 24
14 18 25
14 18 24
14 18 24
14 18 24
14 18 24
14 19 25
14 18 25
14 18 25
14 18 25
14 18 25
14 18 24
14 18 24
14 18 25
14 18 25
15 19 25
14 18 24
14 18 24
14 18 24
14 18 24
14 18 24
14 18 25
14 19 25
14 18 25
14 18 24
14 18 24
14 18 24
14 18 24
14 19 25
14 18 24
14 18 24
14 18 25
14 19 25
14 19 25
14 18 25
14 18 25
15 19 25
14 19 25
14 18 24
14 18 25
14 18 24
14 18 24
14 18 25
14 19 25
14 18 24
14 18 24
14 19 25
14 19 25
14 18 25
14 19 25
14 19 25
14 19 25
14 19 25
14 19 25
14 18 24
15 19 25
14 18 24
14 18 25
14 18 25
14 18 25
15 19 25
14 18 25
14 18 25
14 19 25
14 18 25
14 18 25
14 19 25
14 19 25
14 19 25
15 19 25
14 19 25
14 18 25
14 19 25
14 18 24
14 18 25
14 19 25
15 19 25
14 18 25
14 18 24
14 18 25
14 18 25
14 19 25
14 18 25
14 19 25
15 19 25
14 18 24
14 18 24
14 18 25
14 19 25
14 19 25
14 18 25
14 18 24
14 18 24
14 18 24
14 18 25
14 18 25
14 18 25
14 18 25
14 18 24
14 18 25
14 18 24
14 18 24
14 18 25
14 19 25
14 18 25
14 18 24
14 18 24
14 18 24
14 18 24
14 18 24
14 18 24
14 18 25
14 18 24
14 18 24
14 18 25
14 18 24
14 18 23
14 18 25
14 18 25
14 18 24
14 18 24
14 19 25
13 18 24
14 18 25
14 18 24
14 18 24
14 18 25
14 18 25
14 18 24
14 18 24
14 18 24
14 18 25
14 18 25
13 17 24
14 18 24
14 18 24
13 17 23
14 18 24
14 18 24
14 18 24
14 18 24
14 18 24
14 18 24
13 17 23
14 18 24
14 18 25
14 18 24
13 17 23
13 17 23
14 18 24
13 18 24
13 17 23
14 18 24
13 18 24
14 18 24
13 17 23
13 17 23
13 17 23
13 17 23
13 17 23
13 17 23
13 17 23
14 18 23
13 17 23
13 17 23
12 16 22
13 17 23
13 18 24
13 17 22
13 17 23
13 16 22
13 17 23
13 17 23
13 17 23
13 17 23
13 16 22
12 15 21
12 15 20
13 16 22
12 16 21
12 16 21
12 15 21
13 16 22
12 15 20
13 16 21
12 16 21
11 15 20
12 16 21
12 15 21
12 16 21
12 16 21
12 16 21
11 15 20
12 15 20
12 15 20
12 16 21
11 14 19
12 16 21
11 15 20
11 15 20
10 13 17
10 13 18
11 14 19
10 13 18
9 12 16
10 13 17
10 13 18
11 14 19
11 14 19
11 15 20
10 13 18
10 13 17
10 13 18
9 12 16
8 11 14
9 12 17
9 11 14
11 13 18
10 13 17
9 11 15
10 12 16
8 10 14
9 11 15
7 9 12
4 5 7
3 4 5
5 6 8
4 5 6
4 5 6
6 7 8
4 5 6
5 7 8
4 5 6
5 6 7
5 6 7
4 5 7
5 6 8
6 7 8
5 6 7
5 6 8
6 7 8
5 6 7
6 7 9
6 7 9
5 7 8
6 7 9
5 7 9
5 6 8
6 7 9
7 8 10
5 6 8
5 6 8
4 5 6
6 7 9
6 7 9
5 7 8
5 6 7
4 5 7
7 9 11
4 5 7
4 5 6
5 6 7
6 8 10
5 6 7
5 7 8
4 5 7
4 5 7
5 6 7
5 6 7
6 7 9
5 6 8
5 6 8
6 7 8
6 7 9
5 6 8
5 6 8
5 6 8
6 7 9
5 6 7
5 6 7
5 6 7
5 6 8
6 7 9
6 7 9
6 7 9
6 7 9
4 5 7
5 6 8
6 7 8
5 7 8
5 6 8
6 7 8
4 5 6
5 6 7
5 6 7
5 6 8
5 6 8
6 7 9
4 5 6
5 6 7
5 6 7
5 6 7
4 5 6
4 5 7
6 7 10
8 11 14
9 11 15
10 12 16
9 12 16
8 11 14
9 12 16
10 13 18
9 12 16
9 12 16
11 14 18
10 13 17
10 14 18
10 13 18
10 13 18
9 12 16
11 15 20
11 14 18
12 15 20
11 14 19
11 14 19
11 14 19
11 14 19
11 15 20
12 16 21
12 15 20
11 14 19
11 15 19
12 15 20
11 15 19
12 15 20
12 15 21
12 16 21
12 16 21
11 15 20
10 14 18
12 16 21
12 16 21
14 18 24
12 16 21
13 17 23
12 16 21
12 16 21
12 16 21
13 17 23
13 17 22
12 16 22
12 16 21
12 16 22
14 18 24
13 17 22
12 16 21
14 19 25
13 17 23
13 17 23
13 16 22
13 16 22
12 16 21
13 17 22
13 17 23
12 16 22
13 18 24
13 17 23
14 18 24
13 18 24
13 17 23
13 17 23
13 17 23
13 17 23
14 18 24
14 18 24
13 17 24
13 18 24
14 18 24
14 18 24
13 17 23
14 18 24
13 17 24
13 17 23
14 18 24
14 18 24
13 17 23
14 19 25
13 17 23
13 17 23
14 18 24
14 18 24
13 17 24
13 17 23
14 18 24
13 17 23
14 18 24
14 18 25
14 19 25
14 18 24
14 18 24
14 18 24
14 18 24
14 18 24
14 18 24
14 18 25
14 19 25
14 18 25
14 18 25
14 18 24
14 18 25
14 18 24
14 18 24
13 17 24
14 18 25
14 18 24
14 18 24
14 18 24
14 18 24
14 18 25
14 18 24
14 18 24
14 18 24
14 18 25
14 18 25
13 18 24
14 18 25
14 18 25
14 19 25
14 19 25
14 19 25
15 19 25
14 18 24
14 18 24
14 19 25
14 19 25
14 18 25
14 19 25
14 18 25
14 18 25
14 18 24
14 18 25
14 19 25
14 18 25
14 18 25
14 18 25
14 18 24
15 19 25
14 18 25
14 18 24
14 18 25
14 19 25
14 18 24
14 18 25
14 18 25
14 18 25
14 18 24
14 19 25
14 18 25
14 19 25
14 19 25
14 18 25
14 18 25
14 19 25
14 19 25
14 18 25
14 19 25
14 18 25
14 19 25
14 19 25
14 19 25
14 18 25
14 18 24
14 19 25
14 19 25
14 18 25
14 18 25
14 19 25
14 19 25
14 18 25
14 18 25
14 18 25
14 18 24
14 18 24
14 18 25
14 18 25
14 18 25
14 18 24
14 18 25
14 18 25
14 18 24
14 18 25
14 18 24
14 18 25
14 18 25
14 18 24
14 18 25
14 18 24
14 18 25
14 18 25
14 19 25
14 18 24
14 18 25
14 18 25
14 18 24
14 18 25
14 18 25
14 18 25
14 18 24
14 18 24
14 18 24
14 18 24
14 19 25
14 18 25
14 18 24
13 17 23
14 18 24
14 18 24
14 18 24
14 18 25
14 18 24
14 18 25
14 18 24
14 18 24
14 18 24
14 18 24
14 18 24
14 18 24
14 18 24
14 18 25
14 18 24
14 18 25
14 18 24
13 18 24
13 17 23
14 18 24
14 18 24
13 17 23
14 18 24
14 18 24
13 18 24
14 18 25
14 18 25
14 18 24
13 17 23
14 18 24
13 17 23
14 18 24
13 17 23
14 18 24
13 17 23
13 17 24
14 18 24
13 16 22
14 18 24
14 18 23
14 18 24
13 17 23
13 17 23
13 17 24
12 16 22
14 18 24
13 17 24
13 18 24
13 17 23
12 16 21
14 18 24
13 17 23
12 16 22
13 17 23
12 16 21
13 17 23
13 17 23
13 17 23
13 16 22
12 16 21
13 17 22
13 17 22
13 17 22
13 17 22
13 17 23
12 16 21
13 16 22
12 16 22
12 16 22
12 16 21
12 15 20
12 16 21
12 16 21
12 16 22
12 15 21
12 15 20
12 16 22
11 14 19
11 15 20
11 14 19
12 15 20
11 14 19
12 16 21
11 14 19
10 13 18
11 15 20
11 14 19
11 15 20
10 13 18
10 14 18
10 13 17
11 14 19
10 12 17
11 15 20
10 13 17
10 13 18
10 13 17
9 12 16
10 13 17
10 12 17
8 10 14
10 12 17
9 12 16
8 10 13
10 13 18
9 11 15
8 11 14
8 11 15
9 11 14
7 9 12
3 4 5
3 3 5
4 5 6
4 5 7
4 5 7
4 5 7
5 6 7
3 4 5
5 6 8
5 6 8
4 5 7
4 5 6
3 4 5
4 5 6
4 5 6
4 5 7
5 6 7
5 7 8
5 6 8
6 7 9
4 5 7
4 5 6
6 7 9
5 6 7
5 6 7
6 7 9
6 7 9
6 7 8
5 6 8
4 5 7
6 7 9
6 7 8
6 7 9
4 5 7
5 6 7
6 8 9
7 8 10
5 6 8
5 6 7
6 8 10
6 7 9
5 6 8
5 6 8
5 6 8
6 7 9
7 8 10
5 5 7
5 6 7
4 5 6
5 6 7
4 5 7
5 6 7
7 8 10
5 6 7
5 6 8
6 7 9
6 7 9
4 5 7
5 6 8
5 6 8
7 9 11
5 6 7
4 5 6
5 6 8
6 7 8
5 6 7
4 5 7
5 6 8
4 5 7
4 5 7
5 6 7
5 6 8
5 6 7
4 5 7
5 6 7
3 3 4
4 5 6
4 5 6
8 11 14
7 9 13
8 11 14
8 10 14
7 9 12
8 11 14
8 11 14
10 13 18
9 12 16
9 11 15
10 13 17
10 12 17
9 12 16
9 12 16
9 12 16
10 13 17
9 12 16
10 12 17
10 13 18
11 14 19
9 12 17
12 15 20
10 14 18
12 15 21
11 15 20
11 14 18
11 15 20
11 15 20
11 15 20
11 14 19
13 16 22
12 16 22
12 15 20
12 16 21
11 14 19
11 14 19
11 15 20
12 16 21
12 16 21
12 15 20
12 15 21
12 16 21
13 17 22
13 17 22
12 16 21
12 16 22
13 17 23
11 15 20
13 16 22
13 16 22
12 16 22
13 16 22
12 16 21
12 16 21
13 17 23
13 16 22
12 16 22
13 17 24
13 17 23
13 17 23
13 17 23
13 17 22
14 18 24
13 17 23
14 18 24
13 17 23
12 16 22
13 17 23
13 17 22
13 16 22
13 18 24
12 16 22
13 17 23
14 18 24
14 18 24
13 17 23
13 17 23
13 17 23
13 17 23
14 18 24
14 18 24
14 17 23
13 17 23
13 17 23
13 17 23
14 18 24
14 18 24
14 18 24
13 17 23
14 18 24
13 17 23
13 17 23
13 17 23
14 18 25
14 18 24
13 17 24
14 19 25
13 18 24
13 17 23
14 18 24
14 18 24
14 18 24
14 18 24
14 18 25
14 19 25
14 18 24
14 18 25
14 18 24
14 18 25
14 18 24
13 17 23
14 18 25
14 18 24
14 18 25
14 18 24
14 18 24
14 18 24
14 18 24
14 18 24
14 19 25
14 18 24
14 18 25
14 18 25
14 18 24
14 18 24
15 19 25
14 18 25
14 18 25
14 18 25
14 18 25
14 18 25
14 18 24
14 18 24
14 18 25
14 18 24
14 18 24
14 18 24
14 18 24
14 18 24
14 18 25
15 19 25
14 18 24
14 19 25
15 19 25
14 18 25
14 18 24
14 19 25
14 18 25
14 18 25
14 18 25
14 19 25
14 18 24
14 18 25
14 18 24
14 19 25
14 19 25
14 18 25
14 19 25
14 18 24
14 19 25
14 18 25
14 19 25
14 19 25
14 18 25
14 19 25
14 19 25
14 19 25
14 18 25
14 18 24
14 18 24
14 19 25
14 19 25
15 19 25
14 18 25
14 18 25
14 18 25
14 18 24
14 19 25
14 18 25
14 18 24
14 18 24
14 19 25
15 19 25
14 18 25
14 19 25
14 18 25
13 18 24
14 18 25
14 19 25
14 18 24
14 18 24
14 18 25
14 18 24
14 18 25
14 18 24
14 18 24
14 18 25
14 18 25
14 18 24
14 18 24
14 18 24
14 18 24
14 18 24
14 18 24
13 17 23
14 18 24
14 18 24
13 17 23
15 19 25
14 18 25
14 18 24
14 18 25
14 18 24
14 18 24
13 17 23
14 18 24
14 18 24
13 17 23
14 18 24
14 18 24
14 18 24
13 18 24
14 18 24
14 18 24
14 18 24
14 18 24
14 18 24
13 17 23
14 18 24
14 18 24
13 18 24
14 18 23
14 18 24
12 16 22
14 18 24
14 18 25
13 17 23
13 17 23
13 17 23
14 18 24
13 17 23
13 17 23
13 17 23
13 17 23
13 17 23
13 17 23
13 17 23
14 18 24
13 17 23
13 16 22
13 17 23
13 17 23
13 17 23
13 17 22
13 17 23
13 17 23
14 18 24
13 17 23
14 18 24
13 17 23
14 18 24
13 17 23
12 16 21
13 17 23
14 18 24
13 17 23
13 17 22
13 17 22
13 16 22
12 16 22
12 16 22
12 16 21
13 17 22
13 16 22
12 15 21
11 15 20
13 16 22
12 16 21
13 17 22
12 15 21
12 16 21
12 16 21
12 16 21
12 16 21
11 15 20
12 16 21
12 15 20
12 15 20
11 15 20
11 14 18
12 15 21
11 15 20
11 15 20
11 15 20
11 14 19
10 13 17
11 14 18
9 12 16
10 13 17
10 12 17
11 14 19
11 15 20
12 15 20
9 11 15
12 15 20
10 13 18
9 12 16
10 12 16
8 11 15
10 13 17
8 11 15
9 11 15
9 12 16
9 12 16
9 11 15
8 10 14
9 12 15
8 11 14
8 10 14
6 8 10
8 10 13
7 9 12
7 8 11
6 7 9
4 5 7
3 4 5
5 6 8
4 4 6
4 5 6
5 6 8
5 6 8
4 5 6
3 4 5
4 5 7
6 8 10
5 6 7
5 6 8
4 4 6
5 6 8
5 6 7
5 6 8
6 7 9
5 6 8
4 5 6
5 7 8
6 7 9
4 5 6
4 5 7
5 6 8
5 7 8
5 6 8
6 7 9
6 7 9
6 7 9
5 6 7
5 6 8
5 6 8
5 6 7
4 5 6
5 6 7
5 6 8
4 5 6
4 5 7
4 5 6
6 8 10
4 5 7
4 5 7
5 7 8
5 7 8
5 6 8
5 6 7
6 7 9
5 6 8
5 7 8
7 9 11
7 9 11
5 6 8
5 6 7
5 6 8
3 4 5
6 7 9
6 7 9
6 7 9
4 5 7
4 4 6
5 6 7
5 6 7
5 6 8
4 5 6
5 6 7
5 6 7
5 6 8
6 7 8
4 5 6
4 5 6
5 6 7
4 4 6
3 4 5
5 6 8
7 9 12
7 9 12
7 9 12
8 11 14
8 10 14
9 11 15
8 10 13
9 12 16
9 12 16
9 12 15
9 12 16
9 12 16
8 10 14
9 11 15
11 14 18
10 13 17
10 13 18
10 13 17
9 12 16
10 12 17
10 13 17
10 14 18
10 13 18
10 13 18
11 14 19
11 14 19
11 15 20
11 14 18
11 14 19
11 15 20
12 16 21
11 14 19
12 15 21
12 16 21
12 15 20
12 15 21
11 14 19
12 16 21
13 16 22
12 15 21
12 16 21
11 14 19
12 15 21
12 15 21
12 16 21
12 16 21
13 16 22
12 16 21
13 17 23
13 16 22
13 17 23
11 15 20
13 16 22
13 16 22
13 17 23
13 17 23
14 17 23
13 17 22
13 17 23
12 16 21
13 17 22
13 16 22
13 17 23
13 17 23
13 17 23
13 17 23
13 17 23
13 17 23
14 18 24
14 18 23
14 17 23
13 17 23
14 18 24
13 17 23
14 18 24
13 17 23
14 18 24
13 17 23
13 17 23
13 17 23
13 17 23
13 17 23
14 18 24
13 17 24
14 18 24
13 17 23
13 17 23
14 18 24
14 18 24
14 18 24
13 17 23
14 19 25
13 17 23
14 18 24
13 17 24
14 18 24
14 18 24
14 18 25
14 18 24
14 18 24
13 17 23
14 18 24
14 18 24
14 18 24
14 18 25
13 17 24
14 18 24
14 18 24
14 18 24
13 17 23
14 18 24
14 18 25
14 18 24
14 18 25
14 19 25
14 18 24
14 18 24
14 18 25
14 18 24
14 18 24
14 18 25
14 18 24
14 18 24
14 18 24
14 18 24
13 17 23
14 18 24
14 18 24
14 18 25
14 18 25
15 19 25
14 18 25
14 18 24
14 18 24
14 18 25
14 19 25
14 18 25
14 18 24
14 18 25
14 18 25
14 18 25
14 18 24
14 18 24
14 18 24
14 18 25
14 18 24
14 18 24
14 18 24
14 19 25
14 19 25
14 19 25
14 19 25
14 18 24
14 18 24
14 19 25
14 18 24
14 19 25
14 18 25
14 19 25
14 18 24
14 18 25
14 19 25
14 18 25
14 18 25
14 18 24
14 18 25
14 18 24
14 18 25
14 18 24
14 18 24
14 18 25
14 18 25
14 18 24
14 18 24
14 19 25
14 18 25
14 18 25
14 18 25
14 19 25
13 18 24
14 18 24
14 18 25
14 18 24
14 18 24
14 19 25
13 18 24
14 18 25
14 18 24
15 19 25
14 18 24
14 18 25
14 18 24
14 19 25
14 18 24
14 18 25
14 18 25
14 18 24
14 18 24
14 18 24
14 18 24
14 18 24
14 18 24
14 18 24
14 18 25
14 18 24
14 18 25
14 18 24
14 18 24
14 18 24
14 19 25
14 18 24
13 18 24
14 18 24
13 17 23
14 18 24
14 18 24
14 18 25
14 18 24
14 18 24
14 18 24
14 18 24
13 17 23
14 19 25
14 18 24
14 18 24
14 18 24
13 18 24
14 18 24
14 18 24
14 18 24
13 17 23
14 18 24
13 17 23
13 18 24
12 16 22
14 18 24
13 17 23
13 17 23
13 18 24
13 17 23
14 18 24
13 17 23
14 17 23
13 17 24
14 18 24
13 17 23
12 16 22
13 18 24
13 17 23
13 17 23
13 17 23
13 17 23
14 18 24
13 17 23
13 17 22
14 18 24
13 16 22
13 17 22
13 17 23
13 17 23
13 17 23
13 17 23
13 17 23
13 16 22
12 16 21
12 16 22
13 17 23
13 16 22
12 16 21
13 16 22
13 17 23
14 18 24
13 16 22
13 17 22
12 16 21
12 16 22
12 15 21
12 16 22
13 17 23
13 16 22
12 16 21
12 16 21
13 17 23
11 15 20
12 16 22
12 15 20
11 15 20
13 17 22
12 15 21
11 14 19
11 15 20
11 15 20
12 16 21
12 15 20
12 15 21
11 15 19
11 14 19
10 14 19
9 12 16
11 14 18
11 15 20
10 13 17
10 13 17
11 14 19
10 13 17
10 12 16
9 12 16
10 12 16
9 12 16
9 12 16
11 14 18
9 11 15
8 11 15
8 11 14
8 10 13
8 10 14
8 10 14
7 9 12
7 9 12
6 8 11
6 8 11
7 9 12
8 10 13
8 10 13
7 9 12
5 7 9
5 6 7
4 5 6
3 4 5
3 4 5
4 5 6
4 5 6
4 5 7
5 6 8
4 5 7
4 4 6
6 7 8
5 6 7
3 4 5
5 6 8
5 6 7
3 4 5
5 6 8
4 5 6
3 4 5
5 6 7
5 6 7
4 5 7
6 7 9
4 5 7
5 6 8
4 5 6
6 7 9
6 7 9
5 6 8
4 5 7
3 4 5
5 7 8
5 6 7
5 7 8
5 6 7
6 7 9
5 6 8
5 6 8
5 6 7
6 8 9
4 5 7
5 5 7
4 5 6
6 7 9
4 5 7
5 7 8
5 6 8
5 6 7
5 6 7
4 5 7
6 8 9
4 5 6
5 6 8
4 5 7
6 8 10
5 6 7
5 6 7
4 5 6
5 6 7
4 5 6
5 6 7
6 8 9
4 4 6
3 4 5
4 5 7
3 4 5
4 5 6
5 6 7
5 6 7
3 4 5
3 4 5
5 6 7
6 7 10
7 9 12
8 11 14
9 11 15
8 10 13
8 10 14
7 9 12
9 11 15
8 10 14
7 9 11
9 11 15
8 11 15
10 13 17
8 11 14
9 12 16
10 13 17
8 11 14
9 11 15
10 13 18
10 13 18
10 12 17
10 13 18
11 14 19
9 11 15
10 13 17
12 15 21
10 13 18
10 13 18
11 14 19
11 14 19
11 15 20
11 15 20
11 14 19
11 15 20
11 15 20
11 14 19
12 15 21
12 16 21
11 14 19
11 14 20
11 15 20
12 15 20
11 14 19
11 14 20
12 16 21
13 16 22
12 15 21
11 14 19
12 16 21
12 15 21
13 17 23
13 16 22
13 16 22
12 15 20
12 16 22
12 16 22
12 16 22
13 17 22
13 17 23
13 17 22
13 17 23
13 17 23
12 16 22
13 17 23
11 15 20
13 17 22
12 16 22
13 17 23
13 17 23
13 17 22
13 17 23
13 17 23
13 17 23
13 17 23
13 17 23
13 17 23
14 18 24
13 17 23
12 16 22
13 17 23
13 17 23
13 17 23
14 18 24
13 17 23
14 18 24
14 18 24
14 18 24
13 17 23
13 17 23
13 17 23
13 17 24
14 18 24
13 17 23
13 17 23
14 18 24
13 17 23
14 18 24
13 17 24
14 18 24
14 18 24
14 18 24
14 18 24
14 18 24
14 18 24
13 17 22
14 18 24
13 17 24
14 18 24
14 19 25
14 18 24
14 18 24
14 18 24
13 17 23
14 18 24
14 18 24
14 18 24
14 18 25
14 18 24
14 18 24
14 18 24
14 18 25
14 18 25
14 19 25
14 18 24
14 18 25
13 17 23
14 19 25
14 18 25
14 18 24
14 18 24
13 17 23
14 18 25
14 18 25
14 18 25
14 19 25
14 18 25
14 19 25
14 18 24
14 19 25
14 18 24
14 18 25
14 18 25
14 18 24
14 18 24
14 18 25
14 18 25
14 18 25
15 19 25
14 18 24
14 18 25
14 18 24
14 18 24
14 18 25
14 18 25
14 18 25
14 19 25
14 18 25
14 18 24
14 18 24
14 19 25
14 19 25
15 19 25
14 18 24
14 19 25
14 18 25
14 18 24
15 19 25
14 18 25
14 18 25
14 18 25
14 18 25
14 18 25
14 19 25
14 19 25
14 18 24
14 18 24
14 18 25
14 18 25
14 18 25
14 18 24
14 18 25
14 18 24
14 18 25
14 18 25
14 18 25
14 19 25
14 18 25
14 18 25
14 18 24
14 18 25
14 18 24
14 18 25
14 18 24
14 18 25
14 18 24
14 18 25
14 18 25
14 18 25
14 18 24
14 18 24
14 18 24
14 18 25
13 17 24
14 18 24
14 18 24
13 17 23
14 18 25
14 18 24
14 18 25
14 18 24
14 18 24
14 18 24
14 18 25
13 17 23
14 18 24
14 18 24
14 18 25
14 18 24
14 18 24
14 18 24
14 19 25
14 18 24
14 18 24
14 18 24
14 18 24
13 17 24
14 18 24
14 18 24
14 18 24
14 18 25
14 18 24
14 18 24
13 17 23
14 18 24
13 17 23
14 18 25
13 17 23
14 18 24
14 18 24
14 18 24
14 18 24
12 16 22
13 17 23
13 17 23
14 18 24
13 17 24
13 17 23
13 17 23
14 18 24
14 18 24
13 17 23
13 17 23
13 17 23
13 17 23
14 18 24
13 17 23
13 17 23
13 16 22
13 17 23
13 17 22
13 17 22
13 16 22
13 17 23
12 16 21
13 17 23
13 16 22
13 16 22
13 17 22
13 17 23
13 17 23
12 16 21
13 17 23
12 16 22
11 15 20
12 15 20
13 17 23
13 17 23
13 16 22
13 17 22
12 16 21
11 15 20
11 14 19
12 16 22
11 15 20
12 15 20
13 17 22
11 14 19
12 16 21
12 16 22
11 14 19
11 14 19
11 14 19
11 15 20
12 15 20
10 13 18
11 14 19
10 13 17
10 14 18
10 13 17
10 13 17
11 15 19
11 15 20
10 13 18
11 14 18
11 14 18
11 14 18
11 14 18
8 11 14
10 13 17
9 11 15
9 12 16
7 9 13
9 11 15
8 11 15
9 12 15
8 11 14
9 11 15
9 11 15
8 10 13
7 9 13
8 10 14
8 11 14
7 9 12
7 9 11
6 8 11
7 9 11
5 7 9
7 9 12
5 7 9
5 6 8
4 5 6
5 6 7
4 5 6
4 5 6
3 4 5
4 5 7
5 6 7
3 4 5
4 5 6
4 5 6
4 5 6
3 4 5
6 7 9
4 5 6
5 6 8
4 4 6
3 4 5
4 5 6
5 7 8
4 5 6
4 5 7
4 5 7
5 6 7
4 4 6
3 3 4
5 6 8
5 6 7
5 6 8
4 5 7
6 7 9
5 6 7
4 5 6
5 6 8
3 4 5
4 5 7
4 5 6
4 5 6
4 5 7
5 6 8
5 6 7
5 6 8
6 7 9
5 6 8
4 4 6
5 6 8
5 6 8
5 6 7
4 5 7
5 6 7
6 7 9
4 5 6
4 5 6
5 6 8
4 5 7
5 6 7
5 6 7
4 5 6
3 4 5
4 5 6
4 5 6
6 7 9
5 6 7
4 5 7
5 6 7
4 5 6
3 4 5
3 3 4
4 5 6
5 7 9
7 9 11
7 8 11
8 10 13
7 9 12
7 9 12
8 10 13
7 8 11
7 9 12
8 11 14
8 10 14
8 10 14
8 10 14
9 12 15
9 12 16
8 10 14
9 12 16
10 12 17
9 12 16
9 12 16
9 12 17
9 11 15
8 11 15
10 13 17
10 12 17
9 12 16
10 14 18
10 13 18
10 13 18
11 14 19
10 13 18
11 14 19
11 15 20
10 13 17
10 13 18
11 14 19
12 15 21
12 15 21
12 16 21
11 15 20
12 16 22
12 15 20
12 15 20
12 15 21
12 15 21
12 16 21
11 15 20
11 15 20
11 15 20
11 15 20
12 16 21
13 17 23
12 15 21
13 16 22
12 16 22
13 17 23
12 16 21
12 15 20
12 16 21
13 16 22
13 17 22
12 16 22
13 17 23
12 16 22
13 17 23
13 17 22
13 16 22
12 16 22
13 17 23
13 16 22
13 17 23
14 18 24
13 17 23
13 17 24
13 17 23
14 18 24
13 16 22
13 17 23
13 17 23
13 17 23
13 17 23
13 17 22
13 17 23
13 17 23
13 17 23
14 18 24
14 18 24
13 17 23
13 17 23
14 18 24
14 18 24
14 18 24
13 17 22
13 17 23
13 17 23
14 18 25
14 18 24
13 17 23
13 18 24
14 18 24
14 18 25
14 18 24
14 18 25
14 18 24
13 18 24
13 17 23
14 18 24
14 18 24
14 18 24
14 18 25
14 18 24
14 18 24
14 18 24
14 19 25
14 18 25
14 18 24
14 19 25
14 18 24
14 18 24
14 18 24
14 18 24
14 18 24
14 18 24
14 18 24
14 18 25
14 18 25
14 18 24
14 18 24
14 18 24
14 18 25
14 18 25
13 18 24
14 18 24
14 18 24
14 18 25
14 18 25
14 18 25
14 18 24
14 18 24
14 18 24
14 18 25
14 18 25
14 19 25
14 18 24
14 19 25
14 18 24
14 18 24
14 18 24
14 18 25
14 18 24
14 18 24
14 18 25
14 18 24
14 19 25
14 18 24
14 18 25
14 18 25
14 19 25
14 18 25
14 18 25
14 18 24
14 18 25
14 19 25
14 18 25
14 18 24
14 19 25
14 19 25
14 18 24
14 19 25
14 18 25
14 18 25
14 18 25
14 18 25
14 18 25
14 19 25
15 19 25
14 18 24
15 19 25
14 19 25
14 18 24
14 18 25
14 18 24
14 19 25
14 19 25
14 18 25
14 18 24
15 19 25
14 18 25
14 18 25
14 18 25
14 18 25
14 18 24
14 18 24
14 18 24
14 18 24
14 18 25
14 18 24
14 19 25
14 18 25
13 18 24
14 18 24
13 18 24
14 18 24
14 18 24
14 18 24
13 18 24
14 18 24
13 18 24
14 18 24
13 17 23
14 18 24
14 18 25
14 18 24
14 18 24
14 18 24
13 17 24
14 18 25
14 18 24
14 18 24
14 18 24
14 18 24
14 18 24
14 18 25
13 18 24
14 18 24
14 19 25
14 18 24
14 18 24
14 18 24
14 18 25
13 17 24
14 18 24
14 18 24
14 18 24
14 18 24
13 17 23
14 18 24
13 17 24
14 18 24
14 19 25
13 17 23
13 17 23
12 16 22
13 18 24
13 17 23
13 17 23
13 17 23
14 18 24
13 17 23
14 18 24
14 18 24
13 16 22
13 17 24
13 17 23
13 17 23
13 17 23
13 16 22
13 17 23
12 16 21
13 17 23
12 16 22
13 17 22
13 16 22
13 18 24
13 17 23
12 16 22
13 17 23
12 16 22
13 17 23
13 16 22
13 17 23
12 16 22
13 17 22
13 17 23
12 15 21
12 16 22
12 16 22
12 16 21
12 15 20
12 15 20
12 16 21
12 15 20
12 16 21
12 15 20
11 14 19
11 15 20
13 16 22
10 13 18
11 15 20
12 15 20
12 15 20
10 13 18
11 15 19
11 14 19
12 15 20
11 14 19
10 13 18
11 14 18
11 14 18
12 15 20
11 14 19
11 14 19
11 15 20
10 13 18
10 13 18
9 12 16
10 13 18
11 15 20
10 12 16
10 13 17
9 11 15
10 12 16
9 12 16
8 11 14
7 9 12
9 12 16
8 10 14
9 11 15
8 11 14
8 10 13
8 11 14
8 10 14
8 10 14
6 8 10
7 9 12
8 10 14
7 9 12
7 8 11
6 7 10
5 7 9
7 9 12
7 8 11
5 6 8
4 5 6
3 4 5
3 4 5
3 4 5
4 4 6
4 5 6
3 4 5
5 6 8
4 5 6
3 3 4
5 6 8
4 4 6
5 6 7
4 5 6
5 6 8
5 6 8
5 6 8
5 6 8
4 5 6
4 5 6
3 3 4
5 7 8
4 5 6
4 5 7
4 5 6
7 8 10
3 4 5
4 5 7
4 5 6
4 5 7
4 5 6
4 4 6
6 7 8
5 7 8
4 5 7
6 7 9
3 4 5
4 4 6
6 7 9
5 6 8
5 6 7
3 4 6
5 6 8
5 6 8
5 5 7
4 5 7
5 6 8
6 7 9
4 5 6
3 4 5
5 5 7
3 4 6
5 6 8
4 5 6
4 5 6
5 5 7
3 4 5
4 5 6
5 6 7
5 6 7
5 6 7
3 4 5
4 5 6
4 5 7
4 4 5
4 5 6
4 5 7
6 8 10
6 8 10
8 10 13
7 9 12
6 8 11
6 7 10
8 10 13
7 9 12
7 9 12
8 10 13
8 10 13
9 12 16
7 8 11
9 11 15
8 10 14
9 11 15
9 11 15
7 10 13
9 12 16
9 11 15
9 11 15
9 12 16
9 12 16
9 12 16
10 13 17
10 14 18
10 13 17
10 13 17
10 13 18
9 12 16
11 14 19
11 14 19
10 13 18
10 13 18
11 14 19
11 14 18
11 14 19
11 14 19
12 15 20
12 16 21
12 16 21
11 14 19
12 16 21
12 16 21
11 15 20
12 16 21
12 15 20
12 15 21
12 16 21
12 15 21
13 17 22
12 15 21
12 16 22
12 15 20
12 16 21
13 17 23
12 16 21
12 15 21
13 16 22
13 16 22
12 16 21
12 16 21
12 16 21
13 17 22
13 17 23
12 16 21
13 17 23
13 17 22
13 17 22
12 16 22
12 16 21
13 17 23
13 16 22
14 17 23
13 17 22
13 17 22
13 17 23
12 16 22
13 17 23
14 18 24
13 17 23
13 17 23
13 17 23
14 18 24
13 17 23
14 18 24
13 18 24
13 17 23
14 18 24
14 18 24
13 17 23
14 18 23
13 18 24
14 18 24
13 17 23
14 18 24
13 17 23
13 17 23
13 17 23
13 17 23
14 18 24
13 18 24
14 18 24
13 17 23
14 18 24
13 17 23
14 18 24
14 18 25
13 17 23
14 18 24
14 19 25
14 18 24
14 18 24
14 18 24
14 18 24
14 18 24
14 18 25
14 18 24
14 18 24
13 17 23
14 18 24
14 18 25
14 18 24
14 18 24
14 18 24
14 18 24
14 19 25
14 18 24
14 18 25
14 18 25
14 18 24
14 18 25
14 19 25
14 18 24
14 19 25
14 18 25
14 18 24
14 18 24
14 19 25
15 19 25
14 18 24
14 18 25
14 18 24
14 18 24
14 18 25
14 18 24
14 18 25
14 19 25
14 19 25
14 18 25
14 18 25
14 18 25
13 18 24
14 18 25
15 19 25
14 18 25
14 18 25
14 18 25
14 18 24
14 18 25
14 18 25
14 18 24
14 18 25
14 18 24
14 18 25
14 18 24
14 18 24
14 18 25
14 19 25
14 18 25
14 18 25
14 19 25
14 18 25
15 19 25
14 18 25
14 19 25
14 18 24
14 18 25
14 18 25
14 18 24
14 19 25
14 19 25
14 18 25
14 18 25
14 18 25
13 18 24
14 18 25
14 18 25
14 18 25
14 18 25
14 18 24
14 19 25
14 19 25
14 19 25
14 18 25
14 19 25
14 18 24
14 18 25
14 18 25
14 18 24
14 18 24
14 18 24
14 18 24
14 18 24
14 18 24
14 18 25
14 18 25
14 18 24
14 18 24
14 18 25
14 18 24
14 18 24
14 18 25
14 18 25
14 18 24
14 18 25
13 17 23
14 18 24
14 18 24
14 18 24
14 18 24
14 18 24
14 18 24
14 18 24
14 18 24
13 17 23
14 18 24
13 18 24
14 18 25
14 18 24
14 18 24
13 18 24
13 17 23
13 17 23
14 18 24
14 18 23
13 17 23
13 17 23
14 18 24
13 17 23
13 18 24
14 18 24
14 18 24
14 18 24
13 17 23
14 18 24
13 17 23
13 17 23
14 18 24
13 17 23
12 16 22
13 17 22
13 17 23
13 17 23
12 16 21
13 17 23
13 17 22
13 17 23
13 16 22
13 17 23
13 17 22
12 16 22
12 16 21
13 17 23
13 17 23
13 17 23
12 16 22
13 17 22
12 16 22
13 16 22
12 16 21
12 16 22
12 16 21
13 16 22
11 15 20
12 15 20
12 16 21
12 15 20
12 16 22
12 15 20
11 14 19
11 14 19
11 14 19
13 16 22
11 14 19
11 15 20
12 15 20
12 15 21
11 14 19
12 16 22
11 15 20
12 16 21
12 16 21
11 14 18
12 15 20
11 15 20
11 14 19
11 14 19
10 13 18
10 13 17
10 13 17
11 14 19
11 14 19
11 13 18
10 14 18
11 14 19
11 15 20
9 11 15
10 13 18
9 12 16
9 12 16
9 12 16
10 13 17
9 12 16
9 12 16
9 12 16
7 10 13
7 9 13
8 10 13
8 10 13
8 10 13
6 8 10
7 8 11
7 9 12
7 9 12
5 7 9
8 10 13
5 7 9
6 7 10
6 7 10
4 5 7
7 8 11
5 6 8
4 6 7
5 6 7
2 2 3
4 4 6
3 4 5
3 4 5
4 5 6
4 5 6
4 4 6
4 5 6
4 5 6
4 5 6
4 5 6
4 5 6
4 5 6
3 4 5
6 7 9
4 5 6
5 6 7
4 5 6
4 5 6
4 5 6
5 6 8
4 5 7
4 5 6
5 6 7
4 5 6
4 5 6
5 6 8
5 6 8
5 6 8
5 6 7
5 6 7
4 5 7
5 6 7
5 6 7
4 5 6
4 4 6
5 6 7
4 5 6
4 4 6
4 5 6
4 5 7
5 6 7
4 5 6
3 4 5
5 6 8
5 6 8
4 5 6
4 5 6
4 5 6
6 7 9
4 5 6
5 6 7
4 5 7
5 6 7
5 6 7
4 4 6
3 4 5
5 6 7
3 4 5
4 5 7
3 4 5
4 5 6
5 6 8
5 6 8
6 7 10
5 6 8
6 8 10
7 9 12
6 8 10
7 9 12
7 8 11
7 9 12
7 9 12
9 12 16
6 8 11
8 10 13
7 10 13
8 11 14
7 9 12
9 12 15
9 12 16
8 10 14
8 11 14
8 11 15
9 12 16
10 13 17
9 12 16
10 12 17
10 13 17
10 13 17
9 12 16
9 12 16
11 14 19
10 13 18
9 12 16
11 14 18
11 14 19
10 13 17
13 17 22
11 14 18
10 13 17
11 14 19
10 13 17
11 14 19
11 15 20
11 15 20
11 14 19
12 15 20
13 16 22
11 14 19
12 16 21
11 15 20
12 16 22
13 16 22
12 15 20
12 16 21
12 16 21
12 16 21
12 15 20
12 16 21
12 16 21
12 16 21
12 16 22
13 17 22
12 16 21
12 16 22
12 16 21
12 16 22
12 15 20
13 16 22
13 17 24
13 17 23
13 17 23
13 17 23
13 16 22
13 17 22
12 16 21
13 17 23
12 15 21
13 17 23
13 16 22
14 18 24
13 17 23
13 16 22
14 18 24
14 18 24
13 17 22
13 17 23
13 17 23
14 18 24
13 17 23
13 17 23
13 17 23
13 17 23
13 17 23
14 18 24
13 17 23
14 18 24
14 18 24
13 17 23
14 18 24
14 18 24
13 17 23
14 18 24
14 18 24
13 17 23
14 18 24
13 17 23
14 18 25
13 18 24
13 18 24
14 18 24
14 18 24
14 18 24
14 18 24
14 18 24
14 18 24
13 17 23
14 18 24
14 18 25
14 18 24
14 18 24
14 18 24
14 19 25
14 18 24
14 18 24
13 18 24
14 18 25
14 18 24
14 18 24
14 18 25
14 18 24
14 18 25
14 18 25
14 18 24
14 18 24
14 19 25
14 18 24
14 18 25
14 18 24
14 18 25
14 18 24
14 19 25
14 18 25
14 18 24
14 18 24
14 18 25
14 18 24
14 18 25
14 19 25
14 18 25
14 18 24
14 18 24
14 18 25
14 19 25
14 18 25
14 18 25
14 18 24
14 18 25
14 18 24
14 18 24
14 18 24
15 19 25
14 18 24
14 19 25
14 18 25
14 18 25
14 19 25
14 19 25
14 18 24
14 19 25
14 18 25
14 19 25
14 18 25
15 19 25
14 19 25
14 18 25
14 18 25
14 18 25
14 19 25
14 19 25
14 19 25
14 18 25
14 18 25
14 18 24
14 18 24
14 19 25
14 18 24
14 19 25
14 18 24
14 18 25
14 18 25
14 19 25
14 18 24
14 18 24
14 18 24
14 18 24
14 18 25
14 18 24
14 18 24
14 18 24
14 18 24
14 18 24
14 18 24
14 18 25
14 18 24
14 18 24
14 18 24
14 18 24
14 19 25
14 18 24
13 18 24
14 18 25
14 18 25
14 18 25
14 18 24
14 18 24
14 18 25
14 18 25
14 18 24
13 17 23
14 18 24
13 17 23
14 18 24
14 18 24
14 18 24
13 17 23
14 18 24
13 17 23
13 17 23
14 18 24
14 18 24
14 18 24
14 18 24
14 18 24
13 17 24
14 18 24
13 17 23
13 17 23
13 17 23
13 17 24
14 18 24
14 18 24
13 17 23
13 17 23
14 18 24
14 18 24
14 18 24
14 18 24
14 18 24
14 18 25
13 17 23
13 17 23
13 17 24
14 18 24
14 18 24
13 17 24
13 17 22
13 17 23
13 17 23
13 17 22
13 17 23
13 17 23
13 17 23
13 17 23
13 17 23
13 17 23
13 16 21
12 16 22
13 17 22
13 16 22
13 16 22
13 16 22
14 18 24
13 17 22
13 17 22
13 17 22
12 16 21
12 15 21
12 16 22
12 15 20
13 17 23
12 15 21
13 16 22
12 15 21
12 16 21
11 15 20
13 16 22
12 15 21
11 14 19
12 16 21
12 15 21
12 15 20
12 16 21
11 14 19
12 16 21
11 14 19
11 14 19
11 14 19
12 15 20
12 15 20
12 15 20
9 12 16
10 13 17
10 12 16
10 13 17
10 13 18
10 13 18
11 14 19
11 15 20
10 13 18
10 13 18
10 13 18
10 13 17
11 14 19
10 13 18
9 12 16
9 11 15
8 10 14
8 10 14
9 12 15
9 12 16
8 10 14
9 11 15
8 10 13
8 10 14
7 9 12
8 11 14
7 9 12
7 9 12
6 8 10
6 8 11
8 10 14
5 7 9
7 9 11
5 7 9
6 8 10
4 5 7
5 6 8
5 7 9
4 5 6
3 4 5
2 2 3
3 3 4
3 4 5
4 4 6
4 4 5
5 6 7
3 4 5
5 6 7
4 5 6
5 6 7
5 5 7
5 6 8
5 6 7
5 6 7
4 4 6
5 6 7
4 5 6
4 4 6
4 4 5
3 4 5
5 6 7
5 6 7
3 4 5
5 6 7
4 5 7
3 4 5
4 5 6
6 7 8
4 5 6
4 5 7
4 5 7
4 5 6
4 5 7
6 7 8
5 6 7
4 5 6
4 5 6
5 6 8
6 7 9
4 5 6
5 6 8
5 6 7
5 6 7
4 5 6
5 6 7
5 6 8
4 5 6
5 6 7
5 6 7
4 5 6
4 5 7
4 5 6
4 4 6
4 5 6
3 4 5
4 5 6
4 4 5
3 4 5
5 6 8
4 5 6
5 6 8
5 7 9
5 7 9
6 7 9
7 9 12
6 7 9
6 7 10
6 7 10
6 8 11
9 11 14
7 9 11
7 8 11
8 11 14
8 10 13
6 8 11
7 9 12
8 10 13
7 10 13
8 10 13
8 10 14
9 11 15
9 12 16
8 11 14
10 13 18
9 11 15
9 11 15
9 12 16
9 12 16
10 13 17
10 13 17
11 14 19
8 10 14
10 13 17
10 13 17
11 14 19
11 14 18
11 14 19
10 12 17
10 13 18
10 14 18
11 15 20
11 14 19
11 15 20
11 15 20
11 14 19
11 14 19
12 15 20
12 16 21
12 15 20
11 15 20
11 14 19
12 16 21
12 16 21
11 15 20
12 16 21
13 17 22
12 16 22
12 16 21
12 16 21
12 16 22
11 15 20
12 15 21
13 16 22
12 16 21
13 17 23
13 16 22
13 17 23
13 17 22
13 16 22
13 17 23
12 16 22
12 16 21
12 16 22
13 17 23
13 17 23
13 16 22
13 17 23
13 17 23
13 16 22
14 18 24
13 17 23
14 18 24
13 16 22
13 17 23
13 17 23
13 17 23
13 17 23
13 17 22
13 17 23
13 17 23
13 17 23
14 17 23
13 17 23
14 18 23
14 18 24
14 18 24
13 17 23
13 17 23
14 18 24
13 18 24
14 18 24
14 18 24
13 17 23
13 17 23
13 17 24
13 17 24
14 18 24
14 18 24
14 18 24
14 18 24
14 18 24
13 18 24
14 18 24
14 18 25
14 18 24
14 18 24
14 18 24
14 18 24
14 18 25
14 19 25
13 17 23
14 18 24
14 18 24
14 18 25
14 18 24
13 17 23
14 18 25
14 18 25
13 17 23
14 19 25
14 18 25
14 18 24
14 18 24
14 19 25
14 18 24
14 18 24
14 19 25
14 18 24
14 19 25
14 18 24
14 18 24
14 18 25
14 18 24
14 18 24
14 18 24
14 18 24
14 18 24
14 18 25
14 18 24
14 19 25
14 18 25
14 18 24
14 19 25
14 18 25
14 18 24
14 19 25
14 18 25
14 18 25
14 18 25
14 19 25
14 18 25
14 18 24
14 18 25
14 18 25
14 18 25
15 19 25
14 18 25
14 18 25
14 18 24
14 19 25
14 18 24
14 19 25
14 18 25
14 18 24
13 18 24
14 18 25
14 18 24
14 18 25
14 18 25
14 18 24
14 19 25
14 18 25
14 18 25
14 19 25
14 18 24
14 19 25
14 18 24
14 18 24
14 18 24
14 18 24
13 18 24
14 19 25
14 18 24
14 18 24
14 18 24
13 17 24
14 19 25
13 17 23
14 18 24
14 18 24
14 18 25
14 18 25
14 18 24
14 18 24
14 18 25
14 18 24
13 17 23
14 18 24
13 17 23
14 18 24
14 18 24
14 18 24
14 18 24
13 17 24
13 18 24
14 18 25
14 18 25
14 18 24
14 18 24
14 18 24
14 18 24
14 18 25
14 18 24
14 18 24
13 18 24
13 17 23
14 18 24
13 17 23
13 17 23
14 18 24
14 18 24
14 18 24
14 18 25
13 17 23
13 17 23
14 18 24
14 18 24
13 17 24
14 18 24
13 17 23
13 17 23
13 17 23
13 17 23
13 17 23
13 17 23
13 17 23
13 17 23
13 17 23
13 17 23
14 18 24
14 18 24
13 17 23
13 17 23
13 17 23
13 17 23
12 16 22
13 17 23
12 16 21
13 17 22
12 16 21
14 18 24
13 17 23
12 16 21
12 16 22
12 16 22
13 17 23
13 17 23
12 16 22
13 16 22
13 17 23
12 16 21
12 15 20
12 16 22
13 16 22
12 16 22
12 16 22
12 16 21
13 17 22
12 15 20
12 16 21
13 17 23
12 16 22
12 16 22
11 14 19
13 16 21
12 16 21
12 15 20
12 15 21
12 15 20
11 15 20
12 16 21
11 15 20
12 15 20
11 15 20
12 15 21
11 14 19
10 14 18
10 13 18
11 14 19
11 15 20
11 14 19
10 13 18
10 13 18
11 14 19
12 15 19
10 13 17
10 13 18
10 13 18
9 12 16
8 10 14
10 13 17
8 11 14
10 13 18
9 12 16
7 9 13
9 11 15
8 11 14
8 11 14
8 10 14
9 11 15
7 9 13
8 11 14
8 10 13
7 9 12
6 8 11
7 9 11
8 11 14
8 10 13
7 9 12
7 9 12
6 8 11
6 8 10
4 5 7
6 8 10
6 8 10
6 8 11
5 7 9
6 8 10
5 7 9
3 4 6
3 4 5
5 6 7
3 4 5
2 3 4
3 4 5
3 3 4
5 6 8
4 5 6
4 5 7
3 3 4
5 6 7
3 4 5
4 5 7
3 3 4
4 4 6
4 5 6
3 4 5
4 5 6
4 5 6
5 6 7
5 6 7
3 4 5
3 4 5
4 5 6
3 4 5
4 4 5
4 5 7
4 5 6
3 3 4
4 5 6
5 6 7
3 4 5
4 5 6
4 4 6
5 6 7
4 5 6
3 4 5
5 6 8
5 6 8
4 5 7
3 4 5
5 6 7
3 4 5
4 5 7
3 4 5
3 4 5
4 4 5
4 5 6
4 5 6
5 6 7
3 4 5
4 5 6
3 4 5
3 4 5
3 3 4
3 4 5
4 5 7
5 6 8
4 6 7
5 6 8
4 5 7
5 6 7
5 6 8
8 9 12
5 6 8
8 10 13
6 7 9
6 8 10
7 9 12
7 8 11
7 9 12
7 8 11
8 10 13
8 10 14
9 11 15
8 11 14
8 10 14
8 11 15
7 9 12
7 9 12
9 11 15
9 11 15
10 12 16
10 12 16
9 11 15
9 11 15
9 11 15
10 12 17
10 13 17
10 13 17
10 12 17
10 13 17
12 15 20
12 15 20
11 14 19
11 14 19
10 13 17
11 14 19
10 13 17
12 15 20
10 13 17
12 15 20
12 15 21
11 14 19
12 16 21
11 15 19
11 15 20
11 14 19
11 15 20
11 14 19
11 15 20
11 14 19
11 15 20
12 16 22
12 15 20
12 16 22
11 15 20
12 16 21
12 16 21
13 16 22
12 16 22
12 16 21
12 16 22
12 16 22
12 16 21
12 16 22
13 17 22
12 16 21
13 17 23
13 17 22
13 17 22
13 16 22
11 15 20
13 16 21
12 16 21
13 17 23
13 17 22
13 17 23
13 17 22
13 16 22
13 18 24
13 17 23
13 17 22
13 17 23
13 17 23
12 15 21
13 16 22
14 18 24
13 17 22
13 17 23
13 17 23
13 17 22
14 18 24
14 18 24
13 17 23
14 18 24
14 18 24
14 18 25
13 17 24
14 18 23
14 18 24
14 18 24
13 17 23
14 18 25
13 17 23
14 18 24
14 18 24
14 18 24
14 18 24
14 18 24
14 18 24
14 18 24
13 17 23
13 18 24
13 17 23
13 18 24
13 17 23
13 18 24
14 18 24
14 18 25
14 18 24
14 18 24
14 18 24
14 18 24
14 18 24
14 18 25
14 18 24
14 18 25
14 18 24
14 18 24
14 18 24
14 18 24
14 18 24
14 18 24
14 18 24
14 18 24
14 18 24
14 18 24
14 18 24
14 18 24
14 18 25
14 18 24
14 18 25
14 18 25
14 18 24
14 18 25
14 18 25
14 18 25
14 18 24
14 18 24
14 19 25
14 18 25
14 18 25
14 18 24
14 19 25
14 18 25
14 18 25
14 18 24
14 18 25
14 18 25
14 18 24
15 19 25
14 18 24
14 19 25
14 18 25
14 18 25
14 18 25
14 18 24
15 19 25
15 19 25
14 18 25
14 18 25
14 18 25
14 18 25
14 18 24
14 18 24
14 18 24
14 18 24
14 18 24
14 19 25
14 18 24
14 18 25
14 19 25
14 18 25
14 18 24
14 18 24
14 18 25
14 18 24
14 18 24
14 18 24
14 18 24
14 18 24
14 19 25
14 18 24
14 18 24
14 18 24
14 18 24
14 18 25
14 18 24
14 18 24
14 18 24
14 18 25
14 18 24
14 18 24
14 18 25
14 18 24
14 18 24
14 18 24
14 18 25
14 18 24
14 18 24
14 18 24
14 18 24
14 18 24
13 17 23
14 18 24
13 17 23
14 18 24
13 18 24
14 18 24
14 18 24
14 18 24
14 18 24
13 17 23
14 18 24
13 17 23
14 18 23
13 17 24
14 18 24
14 18 25
14 18 24
14 18 24
14 17 23
14 18 24
14 18 24
14 18 24
14 18 24
13 17 23
13 17 23
14 18 24
14 18 24
14 18 24
13 17 23
13 17 22
14 18 24
13 17 23
13 17 23
14 18 24
13 17 23
13 17 23
14 18 24
13 17 23
13 17 23
12 16 21
14 18 24
12 16 22
12 16 22
13 17 23
13 17 23
12 16 21
13 17 22
13 17 22
12 16 21
12 16 22
13 16 22
13 16 22
12 16 22
13 17 23
12 16 22
12 16 22
13 16 22
13 17 22
12 15 21
12 15 21
12 16 22
12 15 20
12 15 21
12 15 20
13 17 23
13 17 23
13 16 22
12 16 22
12 16 21
13 17 23
12 16 21
11 15 19
11 15 20
11 15 20
12 16 21
10 13 18
10 13 18
12 16 21
10 13 18
12 15 20
12 15 21
11 14 19
10 13 18
10 13 17
11 15 20
10 13 17
11 14 18
11 14 18
11 15 20
12 15 20
10 13 17
10 13 17
11 14 19
12 15 20
11 14 19
9 12 16
10 12 16
9 12 16
10 13 17
8 11 14
10 13 18
8 11 14
8 10 14
9 11 14
7 9 11
9 11 15
9 12 16
7 8 11
9 12 15
7 8 11
5 6 8
8 10 13
7 9 12
5 6 8
7 9 12
7 9 12
6 8 11
7 9 12
5 6 8
5 7 9
5 6 8
6 7 10
7 8 11
6 8 10
6 7 9
5 6 8
3 4 5
4 5 6
4 5 6
3 3 4
3 4 5
3 3 4
4 4 5
3 4 5
3 4 4
4 5 6
3 3 4
5 6 7
2 3 4
4 5 6
4 5 7
3 4 5
3 4 5
5 6 7
2 3 3
4 5 6
3 4 5
4 5 6
5 5 7
4 5 6
3 4 5
3 4 5
4 5 6
3 4 5
4 5 6
4 5 6
3 4 5
4 5 6
6 7 9
3 4 5
3 4 5
3 4 5
3 4 5
4 5 6
4 5 6
3 4 5
3 4 5
3 4 5
4 5 6
2 3 4
4 5 6
3 3 4
3 3 4
3 4 5
3 4 5
3 3 4
4 5 6
3 4 5
3 3 4
2 3 3
4 5 7
3 4 6
4 5 7
4 5 6
4 5 7
4 5 6
6 7 9
3 4 6
4 5 6
6 7 9
5 6 8
6 8 10
6 8 10
6 7 9
5 7 9
7 8 11
7 9 11
6 8 11
9 11 15
7 9 12
9 11 14
7 9 12
7 9 12
8 10 14
8 10 14
8 10 13
9 12 15
8 11 14
9 12 16
8 11 14
9 11 15
9 12 16
9 12 16
9 11 15
10 13 18
10 13 17
10 12 16
8 11 15
10 13 18
10 13 18
10 12 17
11 14 18
11 14 18
11 15 20
12 15 20
10 13 17
11 15 20
12 15 20
11 14 19
11 15 19
11 15 20
10 14 18
11 14 18
11 14 19
13 16 22
11 14 19
11 14 19
11 14 19
12 15 21
12 15 21
11 14 19
12 15 21
12 16 21
13 17 22
12 16 21
12 16 22
12 16 22
12 16 21
12 15 21
12 15 21
13 17 23
12 16 21
12 16 22
12 16 21
13 16 22
13 17 23
13 17 22
12 15 21
13 18 24
13 17 23
12 16 22
13 18 24
13 17 23
13 16 21
13 17 23
14 18 23
12 16 22
13 17 22
14 18 24
13 17 23
13 17 23
13 17 23
12 16 21
13 17 23
13 17 23
14 18 24
13 17 24
12 16 21
12 15 20
13 17 22
13 17 22
14 18 24
14 18 24
13 17 22
14 18 24
14 18 24
13 17 23
13 17 23
13 17 23
13 17 23
13 18 24
13 17 23
13 18 24
14 18 24
14 17 23
13 17 23
14 18 24
13 16 22
14 18 24
14 18 24
14 18 25
14 18 25
14 18 24
14 18 24
14 18 24
14 18 24
14 18 24
14 18 24
14 18 24
14 18 24
14 18 24
14 18 23
14 18 24
13 18 24
14 18 25
14 18 24
14 19 25
13 17 23
14 18 24
14 18 24
14 18 25
14 18 24
14 18 24
14 18 24
14 18 25
14 17 23
14 18 24
14 18 24
14 18 24
14 18 24
14 18 25
14 18 25
14 18 25
13 18 24
14 19 25
14 18 24
14 18 25
14 18 25
13 17 23
14 18 24
14 18 25
14 18 24
14 18 24
14 18 24
14 19 25
14 18 24
14 18 25
14 18 24
14 18 24
14 18 24
14 19 25
14 18 24
14 19 25
14 18 24
14 19 25
14 18 24
14 19 25
13 17 23
14 18 24
14 19 25
14 19 25
15 19 25
15 19 25
14 19 25
14 19 25
13 17 24
14 18 24
14 18 25
14 18 24
13 17 24
14 18 24
14 18 24
14 19 25
14 18 25
14 18 24
14 18 24
14 18 24
14 18 24
14 18 24
14 19 25
14 18 24
14 18 24
14 18 24
13 18 24
14 18 25
14 18 24
13 17 24
14 18 25
14 18 24
14 18 24
14 18 25
14 18 25
14 18 24
14 18 25
13 17 23
14 18 24
14 17 23
14 18 24
14 18 24
14 18 24
14 18 23
13 17 23
13 17 24
14 18 24
14 18 24
13 17 24
14 18 24
14 19 25
14 18 24
14 18 24
14 18 24
13 17 23
14 18 24
13 17 23
13 17 23
14 18 24
14 18 24
14 18 24
14 18 24
14 18 24
14 18 24
13 17 23
13 17 23
14 18 24
13 17 23
13 17 22
13 17 23
13 17 23
13 18 24
13 17 22
13 17 23
13 17 23
13 17 23
14 18 24
13 17 23
13 18 24
13 17 23
13 17 24
13 17 23
13 17 22
12 16 21
13 17 24
13 17 23
13 17 23
13 16 22
12 16 22
13 16 22
13 17 22
13 17 22
13 17 23
13 17 22
13 17 23
12 15 21
13 17 23
13 17 22
12 15 21
12 16 21
12 15 21
12 16 21
13 17 22
13 17 23
13 17 22
12 15 20
12 16 21
12 16 21
12 16 21
11 15 21
12 16 21
12 15 20
12 15 20
12 16 21
11 15 20
11 14 19
11 15 20
11 14 19
12 15 20
11 14 19
10 13 17
11 15 20
11 15 20
10 13 17
12 15 20
10 13 17
10 13 18
11 14 19
9 12 16
11 14 19
10 14 18
10 13 18
10 13 17
10 13 17
11 14 18
9 12 16
10 13 17
9 11 15
9 12 16
8 11 15
10 13 17
9 11 15
10 12 16
9 12 16
9 12 16
9 11 15
10 13 17
8 11 14
7 9 12
7 9 12
8 10 13
8 10 13
7 9 11
7 9 12
7 9 11
7 10 13
7 8 11
6 7 10
6 7 10
8 10 13
5 7 9
6 7 9
5 7 9
6 7 10
6 7 10
5 6 8
4 4 6
4 5 7
3 3 5
3 4 6
4 5 7
4 5 6
2 3 4
4 5 6
4 5 6
2 3 3
3 3 4
2 3 3
3 3 4
3 3 4
3 4 5
3 3 4
5 6 7
2 3 4
5 6 7
3 3 4
4 5 6
3 3 4
4 5 6
4 5 6
5 6 8
4 5 7
4 5 6
3 4 5
4 4 6
4 4 6
2 3 4
4 5 6
5 6 7
4 5 6
3 3 4
5 6 7
3 4 5
3 4 5
3 4 5
3 4 5
4 4 6
4 5 7
3 4 5
4 4 5
4 5 6
3 4 5
3 4 5
3 3 4
2 3 4
3 3 4
3 3 4
2 3 4
4 5 6
3 3 4
3 4 5
3 4 5
3 4 6
3 4 5
3 4 6
4 5 7
3 4 6
4 5 7
4 5 7
4 5 7
5 7 9
6 7 9
6 7 9
6 7 10
5 7 9
7 9 11
5 6 8
5 6 9
5 7 9
8 10 13
8 10 14
7 9 12
6 8 10
7 9 12
8 10 13
8 10 13
9 11 14
9 11 15
8 11 14
8 11 14
9 12 16
8 11 15
9 11 14
9 11 15
9 11 15
8 11 15
10 12 16
10 12 17
10 13 17
9 11 15
9 12 16
10 14 18
10 12 17
10 13 18
10 13 17
10 13 17
11 14 18
10 13 18
12 15 20
11 14 19
11 14 19
11 15 20
10 13 18
11 14 19
12 15 21
11 15 19
10 13 18
10 13 18
11 14 20
13 16 21
12 16 21
11 15 20
13 16 22
12 15 20
11 14 19
12 16 21
12 15 20
11 14 19
12 16 21
13 17 23
11 14 20
13 16 22
13 16 22
13 16 22
12 16 21
12 16 22
11 15 20
12 16 21
12 16 21
13 17 23
13 17 22
11 14 19
13 16 22
13 18 24
11 15 20
13 17 22
13 17 23
12 16 22
13 16 22
12 16 22
13 17 23
13 17 22
13 17 22
14 18 24
13 16 22
13 17 23
13 17 23
12 16 22
14 18 24
13 17 23
14 18 24
13 17 23
14 18 24
14 18 24
13 18 24
13 17 23
13 17 23
13 17 23
13 17 23
14 18 24
13 17 23
14 18 24
13 17 23
13 17 23
14 18 25
14 18 24
14 18 24
14 18 24
13 18 24
13 17 24
14 18 24
14 18 24
14 17 23
14 18 24
14 18 24
14 18 24
14 18 24
14 19 25
14 18 24
14 18 25
14 18 24
14 18 24
14 18 23
14 18 24
13 18 24
14 18 24
13 17 23
14 18 24
14 18 24
14 19 25
14 18 24
14 18 24
14 18 24
14 18 25
14 18 24
14 18 24
14 18 24
13 17 23
14 18 25
14 18 24
14 18 25
14 18 25
14 18 24
14 18 24
14 18 25
14 18 25
14 18 24
14 18 24
14 18 25
14 18 24
14 19 25
14 18 25
14 18 25
15 19 25
13 18 24
14 18 24
14 18 24
14 19 25
14 18 24
14 19 25
14 18 24
14 18 25
14 18 25
14 18 25
14 18 25
14 18 24
14 19 25
14 18 25
14 18 24
14 18 25
14 18 25
14 18 24
14 19 25
14 19 25
14 18 24
14 18 25
14 18 25
15 19 25
14 18 24
14 18 25
14 18 25
14 18 24
14 18 25
13 17 23
14 18 24
14 18 25
14 18 24
14 18 24
14 18 25
14 18 25
13 17 23
14 18 25
14 19 25
14 18 24
14 18 24
14 18 25
14 19 25
14 18 24
14 18 25
14 18 24
14 18 24
13 18 24
14 18 25
13 18 24
14 18 25
14 18 24
14 18 25
14 18 24
14 18 24
14 18 24
14 18 24
14 18 24
14 18 24
13 18 24
14 18 24
13 17 24
14 18 24
14 18 24
13 17 23
13 18 24
14 18 24
14 18 24
14 18 24
13 18 24
14 18 24
13 17 23
14 18 24
13 17 23
14 18 25
14 18 24
14 18 24
13 17 23
13 17 22
14 18 24
13 17 23
13 17 23
13 17 23
13 17 23
13 17 23
14 18 24
13 17 23
13 17 23
13 17 23
13 17 23
13 17 23
13 17 23
12 16 21
14 18 24
12 16 22
13 18 24
13 17 23
13 17 23
13 17 23
12 16 21
13 17 22
12 16 21
13 17 22
12 16 22
13 16 22
12 16 22
12 16 21
13 17 23
13 17 23
13 17 22
13 17 23
13 17 23
13 16 22
13 16 22
12 16 22
12 16 21
12 16 21
12 16 22
13 17 23
12 15 21
11 14 19
12 15 21
11 15 20
12 15 21
12 15 20
11 15 20
12 15 21
12 15 21
12 15 21
11 14 20
11 14 19
11 15 20
11 14 19
12 15 21
10 14 18
11 15 20
11 15 20
12 16 21
11 14 18
10 14 18
11 14 19
9 12 16
10 13 18
11 15 19
11 14 19
10 13 18
11 15 20
9 12 17
10 13 17
9 12 16
10 13 18
10 13 18
9 12 15
9 11 15
10 12 16
9 12 16
10 13 17
9 11 15
10 13 17
8 11 14
9 11 15
9 11 15
8 10 14
8 10 14
9 11 15
8 10 13
7 9 12
7 9 12
7 9 12
7 9 12
8 10 13
7 9 12
6 8 11
6 8 10
7 9 12
7 8 11
5 7 9
5 7 9
4 5 7
6 8 11
5 6 8
5 7 9
4 5 6
4 5 7
6 7 9
4 5 7
4 4 6
3 3 4
3 4 5
2 3 4
3 4 5
3 4 5
3 3 4
3 3 4
2 3 4
2 3 3
2 3 3
3 3 4
3 4 5
3 3 4
3 3 4
4 4 5
3 4 5
3 4 5
4 5 6
2 2 3
3 4 4
2 3 4
2 2 3
5 5 7
4 5 6
3 4 5
3 4 5
4 5 6
2 2 3
4 4 6
3 4 5
3 4 5
4 5 6
4 5 6
3 4 5
3 4 5
3 3 4
3 4 5
3 3 4
2 3 4
2 3 4
4 4 6
3 3 4
3 4 5
2 3 4
1 2 2
2 3 4
2 2 3
4 5 6
3 4 5
3 3 4
3 3 5
3 4 5
3 4 5
3 4 5
4 5 7
4 5 7
4 5 6
4 5 7
5 7 9
5 6 7
5 6 8
6 7 10
7 8 11
6 8 10
5 7 9
5 7 9
6 7 9
7 9 12
6 8 10
7 9 11
7 9 12
6 8 11
8 10 14
6 8 11
8 10 13
6 8 11
8 10 13
8 11 15
7 9 13
9 12 16
8 10 13
9 12 16
11 14 19
9 11 15
9 12 16
10 13 17
10 13 17
9 11 15
8 11 15
9 12 16
10 13 17
10 13 18
11 14 19
10 13 18
10 13 18
10 13 18
11 15 19
11 14 19
11 13 18
10 14 18
10 14 18
11 14 18
11 14 19
9 12 16
10 13 18
12 16 21
10 13 17
11 15 20
11 14 19
12 15 20
11 14 19
11 15 20
12 15 20
10 13 18
12 16 21
13 16 22
12 15 20
11 14 20
12 16 21
12 16 21
12 16 21
12 16 21
13 17 22
11 15 20
11 14 19
12 16 21
12 15 21
12 16 21
13 17 22
12 16 22
13 17 23
13 17 23
13 17 23
13 17 23
13 16 22
12 15 21
13 17 23
13 17 23
13 17 23
13 17 23
13 16 22
13 17 23
13 16 22
11 15 21
13 17 22
13 17 22
12 16 21
13 17 23
12 16 22
13 17 22
14 18 24
13 17 23
13 17 24
13 17 23
13 17 23
13 17 23
13 17 22
14 18 24
14 18 24
13 17 22
13 17 23
14 18 24
14 18 24
13 17 23
13 18 24
14 17 23
14 18 24
14 18 24
14 18 24
13 17 23
14 18 24
13 17 23
14 18 24
14 18 25
14 18 24
13 17 23
13 17 24
13 17 23
14 18 24
13 17 23
14 18 24
14 18 24
14 18 25
14 18 24
14 18 24
13 17 23
14 18 24
14 19 25
14 18 23
13 17 24
14 18 24
13 18 24
14 18 24
14 18 24
14 18 24
14 18 24
14 18 24
14 18 24
13 17 23
14 18 25
14 18 24
14 18 25
14 18 24
14 18 25
14 19 25
14 18 24
13 18 24
14 18 24
14 18 25
14 18 24
14 18 24
13 17 24
14 18 25
14 18 24
14 18 24
14 18 24
14 18 25
14 18 24
14 18 24
14 19 25
13 17 23
14 18 24
14 18 25
14 18 24
14 18 25
14 18 25
14 19 25
14 19 25
14 18 24
14 18 24
14 18 24
14 18 24
15 19 25
14 18 25
14 18 24
14 18 25
14 18 24
14 18 25
14 18 24
14 18 25
14 18 24
14 19 25
14 18 24
14 18 24
14 18 24
14 18 24
14 19 25
13 18 24
13 17 24
14 18 24
14 19 25
14 18 24
14 19 25
14 18 25
14 18 24
14 18 24
14 18 24
14 19 25
14 18 24
14 18 24
14 18 24
14 18 24
14 18 23
14 18 24
14 18 24
14 18 24
14 18 24
13 18 24
14 18 24
14 18 25
13 17 23
14 18 24
14 18 24
13 17 23
13 17 23
14 18 24
14 18 24
14 18 24
13 17 23
13 18 24
14 18 24
13 17 23
13 17 23
14 18 24
13 18 24
14 18 24
14 18 24
13 17 23
14 18 24
13 17 23
13 17 23
13 17 23
13 17 22
14 18 24
14 18 24
13 17 23
13 18 24
13 17 23
13 17 23
13 18 24
13 17 23
13 17 23
12 16 22
12 16 22
12 16 22
13 17 23
13 17 23
13 17 23
13 17 24
13 16 22
13 17 22
13 17 22
13 17 23
13 17 23
13 17 23
14 18 23
13 17 23
13 16 22
13 16 22
13 17 22
13 17 22
13 17 22
13 17 23
14 18 24
13 17 22
12 16 22
13 17 23
13 16 22
12 15 21
12 15 21
12 15 20
12 15 21
12 16 21
13 16 22
11 15 20
11 15 20
13 16 21
12 15 20
12 16 21
13 17 22
11 15 20
11 15 20
12 15 21
12 15 20
12 15 21
12 16 21
11 14 20
11 15 20
11 14 19
11 14 19
11 14 19
10 14 18
11 14 19
10 14 18
10 13 18
11 14 19
9 12 16
11 14 18
10 13 18
10 13 18
9 11 15
11 14 19
10 13 18
9 11 15
10 13 17
9 12 16
11 14 18
10 12 16
9 11 15
10 13 17
8 10 14
9 11 15
9 11 15
8 10 13
7 10 13
8 10 13
9 11 15
7 9 12
7 9 13
8 10 13
9 11 15
7 9 12
7 9 12
7 9 12
7 9 12
7 9 12
6 8 10
6 8 11
5 7 9
6 7 10
7 9 11
5 7 9
6 7 9
4 5 7
5 6 8
5 6 8
5 7 9
5 6 8
4 5 7
5 7 9
5 6 8
3 4 5
4 5 7
4 5 6
3 3 4
3 3 4
2 3 4
4 5 6
2 3 3
2 3 4
3 3 4
2 3 3
2 3 4
2 3 4
2 3 3
3 4 5
4 5 6
3 3 4
2 2 3
1 2 3
4 5 6
1 2 3
3 4 4
2 3 4
3 3 4
5 6 7
3 4 5
4 5 6
3 4 5
2 3 3
3 3 4
4 5 6
3 4 5
3 3 4
4 4 6
3 3 4
3 4 5
2 3 3
3 3 4
2 2 3
3 4 5
3 3 4
2 3 4
2 3 3
1 2 2
2 3 3
2 3 3
3 3 4
3 3 4
3 4 5
3 4 5
3 3 5
2 3 4
4 5 7
5 6 8
4 5 6
2 3 4
4 5 7
5 6 8
5 7 9
6 8 10
6 7 10
5 7 9
5 6 8
6 7 10
7 9 11
6 8 11
7 9 12
7 9 12
7 9 12
7 9 12
7 8 11
7 9 12
7 9 12
7 9 13
7 9 13
6 8 11
8 11 14
9 11 15
10 13 17
8 10 13
10 13 17
9 11 15
9 12 16
10 13 18
9 12 16
9 11 15
10 13 18
9 12 16
10 12 16
9 12 16
11 14 18
11 14 19
11 14 19
9 12 16
10 14 18
10 12 16
11 15 20
9 12 17
11 14 18
11 15 20
12 15 20
11 14 19
11 15 20
9 12 16
12 15 21
12 16 22
11 14 19
10 14 18
11 15 20
11 14 19
11 14 19
12 15 21
12 16 21
12 16 21
12 15 20
12 16 21
12 16 21
12 15 20
12 16 21
12 16 21
13 17 22
12 15 21
12 16 21
13 17 22
13 17 22
13 17 23
12 16 21
13 17 23
13 17 22
13 17 22
12 16 22
12 16 22
13 17 23
12 16 21
13 17 22
12 16 22
13 17 23
13 17 23
13 17 23
13 17 23
13 17 23
13 17 23
12 16 22
13 17 23
14 18 24
12 15 20
13 17 23
13 17 23
14 18 24
13 17 23
13 17 22
13 17 23
13 17 23
13 16 22
14 18 23
13 17 23
13 17 22
14 18 24
13 17 23
13 16 22
14 18 24
13 17 23
14 17 23
13 17 23
14 18 23
13 17 22
14 18 24
13 17 23
14 18 24
14 18 24
13 17 23
14 18 24
14 18 24
13 17 23
14 18 24
14 18 24
14 18 24
13 17 23
14 17 23
14 18 24
14 18 24
14 18 24
14 18 24
13 17 23
14 18 25
14 18 24
14 18 25
14 18 24
14 18 24
14 18 24
13 18 24
14 18 25
14 18 24
14 18 24
13 18 24
13 17 23
13 17 23
14 19 25
14 18 24
14 18 24
14 18 24
14 18 24
14 18 25
13 18 24
14 18 24
13 18 24
14 18 24
15 19 25
14 18 24
14 18 24
14 18 24
14 18 24
14 18 24
14 18 25
14 18 24
14 18 24
14 18 24
14 18 25
13 17 23
14 18 24
14 18 24
14 18 25
14 18 25
15 19 25
14 18 24
14 18 24
14 18 24
14 19 25
14 18 25
14 18 24
14 18 24
14 18 25
14 18 25
14 18 25
14 19 25
14 18 24
14 18 25
14 18 25
14 18 25
14 18 24
14 18 25
14 18 25
14 18 25
14 18 25
14 18 25
14 18 25
14 18 24
14 18 24
14 18 24
14 18 24
14 18 25
14 18 24
14 18 24
13 18 24
14 18 24
14 18 24
14 18 24
13 17 23
14 18 23
14 18 24
14 18 24
13 17 24
14 18 24
14 18 24
14 17 23
14 18 24
14 18 24
14 18 25
13 17 23
14 18 24
14 18 24
13 17 24
14 18 24
13 17 24
14 18 24
13 18 24
13 17 23
14 18 24
13 17 23
14 18 24
14 18 24
13 17 23
13 17 23
13 17 23
13 17 23
13 18 24
14 17 23
13 17 23
14 18 24
13 17 22
14 18 24
13 17 23
14 18 24
14 18 24
14 18 24
13 17 23
13 17 24
13 17 23
13 17 22
13 17 23
13 17 23
13 17 23
13 17 23
13 17 22
13 17 23
12 15 20
13 17 22
13 17 23
13 17 22
13 17 23
13 17 22
14 18 24
13 17 22
13 16 22
13 17 22
13 16 22
12 16 21
13 17 23
13 17 22
13 16 22
13 17 23
13 16 22
12 16 22
12 16 21
11 15 21
13 17 23
13 16 22
12 16 22
12 16 21
12 16 21
13 16 22
13 17 23
11 14 19
13 17 22
12 15 21
11 14 19
12 15 20
11 15 20
12 16 22
11 14 19
10 13 17
11 15 20
12 16 22
11 14 19
12 15 20
13 17 22
11 14 18
11 15 20
10 13 17
11 14 19
12 15 20
11 14 19
10 13 18
10 13 17
11 14 19
10 14 18
10 14 18
9 12 16
11 14 19
10 13 17
10 12 17
11 14 18
10 13 17
9 11 15
8 11 14
9 11 15
10 13 17
9 12 16
8 11 15
9 12 16
9 12 16
8 11 14
8 11 14
8 11 14
8 10 13
7 9 12
8 10 13
9 12 16
7 9 12
8 10 14
7 8 11
7 9 12
7 9 12
7 9 12
8 10 14
7 9 11
5 6 8
6 8 11
6 8 10
5 7 9
6 8 10
5 7 9
4 5 7
6 7 9
5 6 8
5 6 8
5 7 9
4 5 6
4 5 7
4 6 7
4 5 6
5 6 8
2 3 4
3 4 6
4 4 6
3 4 6
2 2 3
2 2 3
3 4 5
2 3 4
2 3 4
2 3 4
1 2 2
1 2 2
2 2 3
2 2 3
2 3 4
2 3 3
3 3 4
2 2 3
3 3 4
3 4 4
1 2 2
2 3 4
3 4 4
3 4 4
2 2 3
3 4 5
3 4 5
3 3 4
3 4 5
2 2 3
3 4 4
2 2 3
3 4 5
2 2 3
1 2 2
2 2 3
1 1 2
2 2 3
2 3 3
2 3 4
4 4 6
3 3 4
2 3 3
3 4 5
3 4 5
3 3 4
4 5 6
4 5 7
3 4 5
4 6 7
5 6 7
4 6 7
3 4 5
5 6 7
5 6 7
5 6 8
5 6 8
5 7 9
5 7 9
6 8 10
5 6 8
7 9 11
6 7 10
7 9 11
7 9 12
7 9 12
7 9 11
7 9 12
7 8 11
8 10 13
7 9 12
7 9 12
7 9 12
9 11 15
7 10 13
9 11 15
9 11 15
9 11 15
7 10 13
8 11 14
9 11 15
9 12 16
10 12 16
8 11 15
10 13 18
8 11 15
9 11 15
10 13 18
8 10 13
11 14 19
10 13 17
11 14 18
10 13 18
11 15 20
11 14 19
10 13 17
11 15 20
11 14 18
11 14 19
11 14 19
11 14 19
11 14 19
11 14 19
12 15 20
12 15 20
10 13 18
11 14 19
11 14 18
11 15 20
11 14 19
11 15 20
12 16 21
12 16 21
12 15 20
11 15 20
12 15 20
13 17 22
12 16 22
13 17 22
12 15 21
12 15 21
12 15 21
13 17 22
13 16 22
12 15 21
12 16 22
12 15 20
12 16 21
12 15 21
12 16 22
12 16 21
12 16 21
13 17 23
12 16 21
13 17 23
12 15 21
12 16 21
13 17 23
12 16 21
13 17 23
12 16 22
13 17 23
13 17 24
13 17 23
12 15 20
13 17 22
12 16 22
13 17 22
13 17 23
13 17 23
13 17 23
13 17 23
13 17 23
14 18 24
13 16 22
14 18 24
13 17 22
13 17 23
13 17 23
13 17 23
14 18 24
12 16 22
13 17 23
14 18 24
13 17 23
14 18 24
13 17 23
13 17 23
13 17 22
13 17 23
13 17 23
14 17 23
14 18 24
13 17 23
14 18 24
13 17 23
13 17 23
14 18 24
13 18 24
14 18 24
14 18 24
13 17 23
14 18 24
14 18 25
14 18 25
14 18 24
14 18 24
14 18 24
13 18 24
14 18 24
14 18 25
14 17 23
13 17 23
13 17 24
14 19 25
14 18 24
14 18 24
14 19 25
14 18 24
14 18 24
14 18 24
14 18 24
14 18 24
14 18 24
13 18 24
14 18 24
14 18 24
14 18 24
14 18 25
14 18 25
14 18 24
14 18 24
14 18 25
14 18 24
14 18 24
14 18 24
14 18 24
14 18 25
15 19 25
14 18 25
14 18 24
14 19 25
14 18 24
14 18 25
14 18 24
14 18 25
14 18 24
14 18 25
14 18 24
14 18 25
14 18 24
14 18 25
14 18 24
14 18 24
14 18 24
14 18 24
14 18 24
14 18 24
14 18 25
14 18 25
14 18 24
14 18 24
13 17 24
14 18 24
15 19 25
14 18 24
14 18 24
14 18 24
14 18 24
14 18 25
14 18 25
13 18 24
14 18 24
14 18 24
13 17 23
14 18 24
14 18 24
14 18 25
14 18 24
14 18 24
14 18 24
13 17 23
14 18 25
13 17 23
14 18 25
13 17 23
14 18 24
14 18 25
13 17 23
14 18 25
14 18 24
13 17 24
14 18 25
13 17 23
14 18 24
14 18 24
14 18 24
14 18 24
14 18 24
13 17 23
14 18 25
14 18 24
13 17 22
13 17 23
13 17 23
14 18 24
13 17 23
14 18 24
13 17 22
13 17 23
14 18 24
13 17 23
14 18 24
13 17 23
14 18 24
13 17 23
13 16 22
13 17 23
13 17 23
13 17 23
13 17 23
13 17 23
12 16 21
14 18 24
13 17 23
13 17 22
13 17 23
13 17 22
13 17 23
13 17 23
13 17 23
13 16 22
12 16 21
12 16 21
13 17 23
13 16 22
11 15 20
13 16 22
13 17 23
12 15 20
12 16 22
13 17 22
13 17 23
11 15 20
12 16 21
13 17 22
13 16 22
12 16 21
13 16 22
12 16 22
13 16 22
12 15 21
12 16 22
12 15 21
12 16 21
11 14 19
12 16 21
11 15 20
11 14 19
10 13 18
12 15 20
10 13 18
11 14 19
11 15 19
11 14 19
11 15 20
12 16 21
10 13 17
12 15 20
11 15 20
10 13 17
10 13 18
11 14 18
11 14 19
10 14 18
10 13 18
10 14 18
10 12 17
10 13 17
10 13 17
9 12 16
11 14 18
9 12 16
10 13 17
9 12 15
9 11 15
8 11 14
9 12 15
7 9 13
9 12 16
8 10 13
7 9 12
9 11 15
10 12 16
8 10 13
9 11 15
6 8 11
8 10 13
8 10 13
7 9 12
7 9 12
7 9 12
6 8 11
7 9 12
6 7 10
5 6 8
5 7 9
4 5 7
6 7 9
6 8 10
4 5 6
5 6 8
5 6 8
4 5 7
5 6 8
6 8 10
3 4 5
4 5 7
4 5 7
4 5 7
4 5 7
3 4 5
4 5 6
4 5 6
3 4 5
3 4 5
3 4 5
3 4 5
3 3 4
2 2 3
2 2 3
2 3 4
2 2 3
2 3 3
0 1 1
3 3 4
2 2 3
1 2 2
1 1 2
1 1 2
2 2 3
2 2 3
2 3 3
2 2 3
2 2 3
2 3 4
1 2 2
2 3 3
1 1 2
2 3 3
2 2 3
3 3 4
1 1 1
2 2 2
2 2 3
2 3 3
2 2 3
3 3 4
2 3 3
4 5 6
4 5 6
3 3 4
3 4 5
5 6 8
3 4 5
5 6 7
4 4 6
4 6 7
2 3 4
4 5 6
5 6 8
2 3 4
4 6 7
6 7 9
4 5 6
4 5 6
5 6 8
4 5 7
6 8 10
6 8 10
6 7 10
8 10 13
5 7 9
7 8 11
6 8 11
6 8 11
8 10 13
7 9 11
7 9 11
7 8 11
8 10 13
9 11 15
7 9 12
8 11 14
7 9 12
8 10 14
9 11 15
8 10 14
8 11 14
9 11 15
9 12 15
9 12 15
9 12 16
10 13 17
10 12 17
11 14 19
8 11 14
10 13 17
9 12 16
9 12 16
9 12 16
11 15 19
11 14 19
12 16 21
10 12 17
11 14 18
9 12 15
10 14 18
10 13 17
11 14 18
11 14 19
10 13 17
11 15 20
10 14 18
10 12 17
11 14 18
11 14 19
11 14 19
12 16 21
11 14 19
11 15 20
11 15 20
12 15 21
13 17 22
12 16 21
13 16 22
11 15 20
12 15 20
12 15 20
11 14 19
13 17 23
13 17 23
11 15 20
12 16 21
12 16 21
12 16 22
13 16 22
12 16 21
13 17 23
12 16 21
12 16 22
12 16 21
13 16 22
13 16 21
13 16 22
13 17 23
13 17 23
13 16 22
13 16 22
13 17 22
13 17 22
12 16 22
13 17 23
13 17 23
12 16 21
12 16 21
13 17 22
13 17 23
12 16 21
14 18 24
13 17 22
13 17 23
14 17 23
14 18 24
13 17 23
13 18 24
14 18 24
13 17 23
13 17 23
13 18 24
13 17 23
14 18 25
14 18 23
13 18 24
13 17 23
13 17 23
14 18 24
14 18 25
13 17 23
13 17 24
13 17 22
13 17 23
14 18 23
13 16 22
13 18 24
14 18 23
13 17 23
14 18 25
13 17 23
14 18 24
14 18 25
13 17 23
13 18 24
14 18 25
14 18 24
14 18 24
13 17 23
14 18 25
13 17 23
14 18 24
13 17 23
14 18 24
14 19 25
14 18 24
14 18 24
13 17 24
14 18 24
14 18 24
14 18 24
14 18 24
14 18 24
13 18 24
14 18 24
14 18 24
14 18 25
14 18 24
13 17 23
14 18 24
14 18 24
14 18 24
14 18 23
14 18 24
14 19 25
14 19 25
13 17 23
14 18 24
14 19 25
14 18 25
14 18 25
14 18 24
14 18 24
14 18 25
14 18 24
14 18 24
14 19 25
14 19 25
14 18 24
14 18 24
14 18 24
14 19 25
14 18 25
14 18 25
14 19 25
14 18 25
14 18 24
14 18 25
14 18 24
14 18 24
13 18 24
14 18 25
14 18 24
14 18 24
14 18 24
14 18 24
14 18 24
14 19 25
14 18 24
14 19 25
14 18 24
14 18 24
15 19 25
14 18 24
14 18 25
14 18 24
14 18 24
14 18 24
14 18 24
13 17 23
14 18 24
14 18 24
14 18 24
14 18 24
13 17 23
13 18 24
14 18 24
14 18 25
14 18 24
13 17 23
14 18 24
14 18 24
14 18 24
13 17 23
13 17 23
13 17 23
13 17 24
13 17 23
13 18 24
13 17 23
13 17 23
14 18 24
13 17 23
14 18 24
13 17 23
14 18 24
13 17 23
13 17 23
13 17 23
13 16 22
13 18 24
13 17 23
13 17 23
13 17 23
14 18 24
13 17 23
14 17 23
13 17 23
13 17 23
14 18 24
14 18 24
13 17 23
13 17 22
13 17 22
13 17 23
13 17 22
13 16 22
14 18 24
13 17 23
13 16 22
13 16 22
13 17 23
13 16 22
13 17 22
13 17 23
12 16 21
12 16 22
13 16 22
12 16 21
13 17 22
13 16 22
12 16 22
12 16 22
13 17 22
12 16 21
13 17 23
12 16 22
12 16 21
12 16 21
12 15 21
12 16 21
12 15 21
12 16 22
11 15 20
12 15 20
11 14 19
12 15 21
11 15 20
11 14 19
12 15 20
12 16 21
12 16 21
12 15 20
11 14 18
10 13 18
11 14 19
12 15 20
11 14 19
11 14 18
10 14 18
10 13 17
10 13 17
10 14 18
10 13 18
10 13 18
10 13 17
12 15 20
9 12 16
10 13 18
9 12 16
10 13 17
9 12 15
8 11 15
9 12 16
8 11 14
10 13 17
10 12 17
9 12 16
9 12 17
10 13 17
8 10 14
9 11 15
8 10 14
9 11 15
7 10 13
8 11 14
8 10 14
8 10 13
9 12 15
7 9 12
7 10 13
8 10 14
6 8 10
8 10 13
7 8 11
7 9 11
8 10 13
6 8 10
7 8 11
6 7 10
6 7 9
6 7 9
6 7 9
5 6 8
5 7 9
5 6 8
6 8 10
5 6 8
4 6 7
3 4 5
3 4 5
4 4 6
5 6 8
4 5 7
3 4 5
2 3 4
3 4 5
3 4 5
2 3 4
4 4 6
4 5 6
2 3 4
2 3 4
1 1 2
2 2 3
2 2 3
2 2 3
3 3 4
2 2 3
2 2 3
2 3 3
2 3 3
1 2 2
2 2 3
2 2 3
0 0 1
2 2 3
2 2 3
1 1 2
2 2 3
2 3 4
3 3 4
1 1 1
2 2 3
1 2 2
2 3 4
1 1 2
2 3 4
2 2 3
2 2 3
2 2 3
2 2 3
4 4 6
3 4 5
2 3 4
3 4 5
4 5 7
3 4 5
3 4 5
4 5 6
4 5 6
4 5 7
4 5 7
4 5 7
4 5 7
6 8 10
3 4 5
5 6 8
5 6 8
4 6 8
6 8 10
6 8 11
6 8 10
6 8 10
6 8 10
7 9 11
6 8 10
7 9 12
6 8 10
7 9 12
7 9 12
7 9 12
6 8 11
7 9 11
7 9 11
9 11 15
8 10 14
8 11 14
8 11 14
10 12 16
8 11 14
8 11 14
9 12 15
9 11 15
9 12 16
10 12 16
9 12 16
10 13 17
9 12 16
9 12 16
10 13 18
10 13 18
11 14 19
10 13 17
10 13 17
10 13 17
11 14 18
11 15 20
11 14 19
11 15 20
11 14 19
10 13 18
11 14 19
11 15 20
11 14 19
11 14 19
9 12 16
12 15 21
11 14 19
11 14 19
11 14 19
11 14 19
12 15 20
10 14 19
12 15 20
11 15 20
12 15 21
12 15 21
12 16 21
12 15 21
11 14 19
12 16 22
13 16 22
12 16 21
11 15 20
12 15 20
12 15 21
12 15 21
12 15 21
12 15 21
12 16 21
12 15 21
12 15 21
12 16 22
13 16 22
12 16 21
13 16 22
12 16 21
13 17 23
11 14 19
13 17 22
13 17 23
13 17 23
14 18 24
13 17 22
13 17 22
12 16 22
13 17 22
12 16 22
13 17 22
14 18 24
13 17 23
12 16 21
12 16 22
14 18 24
13 17 23
13 17 23
13 17 23
14 18 24
13 17 23
13 17 23
13 18 24
13 17 22
13 18 24
13 17 23
13 17 23
14 18 24
13 17 23
13 17 23
13 17 23
13 17 23
14 18 24
14 18 24
13 17 22
14 18 24
14 18 24
14 18 24
13 17 23
14 18 24
14 18 24
13 17 23
13 17 23
14 18 24
13 17 24
14 18 24
14 18 24
14 18 23
13 17 23
14 18 24
14 18 24
13 17 23
13 17 24
14 18 24
14 18 25
14 18 25
14 18 24
14 18 25
14 18 24
13 17 23
13 17 23
14 18 24
13 17 23
14 18 24
14 18 24
14 18 24
14 18 24
14 18 25
14 18 24
14 18 24
14 19 25
14 18 24
14 18 24
14 18 25
14 18 24
14 18 24
14 18 25
14 18 25
14 18 25
14 18 24
14 18 24
14 18 24
14 18 25
14 18 25
14 18 24
14 18 24
14 18 25
14 18 25
14 18 24
14 18 24
14 18 24
14 19 25
14 18 25
14 18 24
14 18 25
14 18 25
13 18 24
14 18 24
14 18 24
14 18 24
14 18 24
14 18 24
14 18 24
14 18 24
14 18 24
14 18 24
14 18 24
14 18 24
14 18 24
14 18 24
14 18 24
13 17 24
13 17 23
13 17 22
14 18 24
14 18 24
14 18 24
13 17 23
13 18 24
14 18 24
13 17 23
14 18 24
14 18 24
14 18 24
14 18 24
14 18 24
13 17 23
13 17 22
14 18 25
14 18 24
13 17 23
14 18 24
14 18 24
14 18 24
14 18 23
13 17 23
14 18 24
14 18 24
14 18 24
13 18 24
13 17 23
14 18 24
14 18 24
13 16 22
13 17 23
14 18 24
13 18 24
14 18 25
13 17 23
13 17 23
13 17 22
14 18 24
13 17 23
13 17 22
13 17 23
14 18 24
13 17 23
14 18 24
13 17 23
13 17 23
13 17 23
13 18 24
13 17 23
13 17 23
13 17 23
13 16 22
13 17 23
13 17 22
13 17 23
13 17 23
13 17 23
13 16 22
13 17 23
12 16 21
13 17 22
13 17 23
11 15 20
13 17 23
12 16 21
12 16 22
13 17 23
12 16 21
12 16 22
12 15 20
13 16 22
12 16 21
12 15 20
12 16 22
12 16 21
13 16 22
11 14 19
12 16 21
11 15 20
13 16 22
10 12 17
12 16 22
12 15 20
12 15 20
11 14 19
10 14 18
11 14 19
12 15 20
12 15 20
12 15 21
11 14 19
10 13 18
12 15 20
11 14 19
11 15 20
10 13 17
11 14 18
10 13 18
9 12 16
11 14 18
10 13 18
9 12 16
10 13 17
9 12 17
11 13 18
11 14 19
11 14 19
9 12 16
10 13 17
10 13 18
10 13 17
9 12 16
10 12 16
9 12 16
9 12 16
9 11 15
9 12 16
9 11 15
8 11 14
9 11 15
8 11 15
8 10 13
8 11 14
7 10 13
9 11 15
8 10 14
7 9 12
9 11 15
8 10 13
6 8 11
7 9 12
7 9 12
8 11 14
6 8 10
7 8 11
6 8 10
6 8 11
5 7 9
5 7 9
6 7 9
4 5 7
6 8 10
5 6 8
5 6 8
4 5 6
4 5 7
4 6 7
6 7 9
5 6 8
4 5 7
3 3 5
3 4 5
4 5 7
4 5 6
3 4 5
3 4 6
4 5 7
4 5 6
3 3 4
2 3 4
1 1 2
3 4 5
1 1 1
2 2 3
3 3 4
2 2 3
2 3 4
2 2 3
1 2 2
3 3 4
2 3 4
2 2 3
2 2 3
3 4 5
2 2 3
1 2 2
2 3 4
1 1 2
1 2 2
1 2 2
3 4 5
1 2 2
2 3 4
1 2 2
2 3 4
2 3 4
3 4 5
3 3 4
3 4 5
3 3 4
2 3 4
2 3 4
5 6 8
4 6 7
4 4 6
4 5 7
4 5 6
3 4 6
4 5 7
4 5 7
6 7 9
4 5 7
5 7 9
6 7 9
5 6 8
6 7 10
6 7 10
6 8 10
5 7 9
7 9 11
7 9 11
6 8 10
7 9 12
7 9 12
7 9 12
7 9 11
7 9 12
9 11 14
7 8 11
6 8 11
9 11 15
7 9 12
7 9 12
8 11 14
9 11 15
7 9 12
8 11 14
9 12 16
8 10 13
9 11 14
10 13 17
9 11 15
10 13 17
9 11 15
10 13 17
9 11 15
9 11 15
10 13 17
10 12 16
11 14 19
9 12 17
11 14 19
11 14 19
10 13 17
10 13 17
9 12 16
11 14 18
11 14 18
11 14 18
10 14 18
10 13 18
10 13 18
10 13 17
10 14 18
11 14 19
12 15 21
11 14 19
11 14 18
11 14 19
11 15 19
12 15 21
11 14 20
11 15 20
11 15 20
11 15 20
12 16 21
11 14 19
12 16 21
12 15 21
11 15 20
12 16 22
12 16 21
12 16 21
13 16 22
12 16 21
12 16 22
12 16 21
13 17 22
12 16 21
13 16 22
12 16 21
12 16 22
13 16 22
13 17 23
13 17 22
13 17 22
13 17 22
13 17 23
13 16 22
12 16 21
13 18 24
12 16 22
13 17 23
13 17 22
13 17 22
13 17 23
13 17 22
13 17 23
13 16 22
12 16 22
13 17 23
13 17 23
13 17 23
13 17 23
13 17 23
14 18 25
13 16 22
13 17 23
13 17 23
13 17 22
13 17 23
13 17 22
14 18 23
13 17 23
13 17 23
12 16 22
13 17 22
13 17 23
13 17 23
14 18 24
14 18 25
14 18 24
13 17 23
13 17 23
13 17 23
13 17 23
13 17 23
13 17 24
13 17 23
14 18 24
14 18 24
13 17 23
13 17 23
14 18 24
14 18 24
14 18 24
13 17 24
14 18 24
13 17 23
13 17 23
13 17 23
14 18 24
14 18 24
14 18 24
14 18 24
14 19 25
13 17 23
13 18 24
14 18 25
14 18 24
14 18 25
14 18 24
13 18 24
14 18 25
14 18 24
14 18 25
14 18 25
14 18 24
14 18 25
14 18 24
14 18 24
14 19 25
14 18 25
14 18 24
15 19 25
14 18 25
14 18 25
14 18 24
14 18 25
14 18 25
14 18 24
14 18 25
14 18 24
14 18 25
14 19 25
14 18 24
14 18 24
14 18 24
13 17 23
14 18 24
14 18 24
14 18 24
14 18 24
14 18 24
14 18 25
14 19 25
14 18 24
14 18 25
14 18 24
13 18 24
14 18 24
14 18 25
14 18 24
14 18 25
14 18 24
14 18 24
14 18 24
13 18 24
14 18 25
14 18 24
14 18 24
14 18 24
14 18 25
14 18 24
14 18 24
14 18 24
13 17 23
14 18 24
14 18 24
14 18 24
14 18 24
13 18 24
13 18 24
14 18 24
14 18 24
13 17 22
13 17 23
14 18 24
14 18 25
13 17 23
14 17 23
14 18 24
13 17 23
13 17 23
13 17 23
13 17 23
13 17 23
14 18 24
14 18 24
13 18 24
14 18 24
13 17 23
13 17 23
13 17 23
14 18 24
14 18 24
13 17 23
13 17 23
13 17 23
13 17 22
13 18 24
13 17 22
13 17 23
13 16 22
13 17 22
13 17 23
13 17 23
14 18 23
13 17 23
13 17 23
13 17 23
13 16 22
13 17 24
12 16 22
12 15 21
13 17 22
12 16 21
13 17 23
12 16 22
13 16 22
12 16 21
13 17 22
13 17 23
12 15 21
13 17 23
12 16 21
13 17 22
13 17 23
13 16 22
12 15 21
12 16 21
12 16 21
13 16 22
12 16 21
12 15 21
13 16 22
12 15 20
11 14 19
12 16 21
12 16 21
11 14 19
12 15 20
11 15 20
10 14 18
11 15 20
12 16 21
11 14 18
12 16 21
12 15 21
12 16 21
11 14 19
10 13 18
12 15 20
11 15 19
10 14 18
12 15 21
10 13 18
11 15 19
10 14 18
10 13 17
10 13 18
11 14 19
10 12 17
10 13 17
10 13 18
10 13 18
10 13 17
11 13 18
8 11 15
9 12 16
8 11 14
9 12 16
9 12 16
9 12 15
8 11 14
8 10 14
9 11 15
9 12 16
8 10 13
9 11 15
9 12 15
9 11 15
7 9 12
7 9 12
8 11 14
9 12 15
7 9 12
7 10 13
7 9 12
8 10 13
7 9 13
7 9 12
6 8 11
6 7 9
7 9 12
6 8 11
7 9 12
6 7 10
5 6 9
4 5 7
6 8 11
5 7 9
6 8 10
5 6 8
5 7 9
4 5 7
4 5 7
4 5 6
4 5 6
4 5 6
5 6 8
5 6 7
4 5 6
3 4 5
3 4 5
4 5 7
2 3 4
4 4 6
2 3 4
3 4 5
3 4 5
4 5 7
3 3 4
3 3 4
2 3 3
1 2 2
2 3 4
2 3 4
2 2 3
2 2 3
2 3 4
3 3 4
2 3 4
2 2 3
3 4 5
2 3 3
3 4 5
3 4 5
3 4 5
3 3 4
2 2 3
3 4 5
2 3 3
4 5 7
4 4 6
3 3 4
4 5 6
3 3 4
3 4 5
4 5 6
4 5 6
3 4 5
4 5 7
4 5 7
3 4 6
5 6 8
4 5 7
4 6 7
4 5 6
4 5 7
4 6 7
4 5 6
5 6 8
5 7 9
5 7 9
6 7 10
7 8 11
6 7 9
6 8 10
6 7 10
6 7 10
6 8 10
8 10 13
7 9 12
7 8 11
7 9 12
7 9 11
7 8 11
8 10 13
8 10 14
7 10 13
8 10 13
8 10 13
8 10 14
8 10 13
8 11 14
7 9 12
8 11 15
9 12 15
9 11 15
9 11 15
8 11 14
9 12 16
8 10 14
9 11 15
9 11 15
9 11 15
10 14 18
9 12 16
11 14 18
11 14 19
11 14 19
10 13 17
8 11 15
11 14 18
10 13 18
10 13 18
9 12 16
10 13 18
10 14 18
11 14 19
11 14 19
11 15 20
11 14 19
11 14 19
11 14 19
12 15 20
12 16 21
11 15 20
12 16 21
11 15 20
12 15 20
12 16 21
12 15 20
12 15 21
12 15 20
12 15 21
12 16 21
13 16 22
13 17 23
12 16 22
12 16 21
12 16 21
12 15 20
11 14 19
13 17 22
13 17 22
13 17 23
13 16 22
13 17 22
13 17 22
12 16 22
12 16 21
13 17 22
13 16 22
13 17 22
13 17 22
12 15 20
13 16 22
13 17 22
12 16 22
12 16 21
13 17 22
13 17 23
14 18 24
13 17 23
13 17 23
13 17 22
13 17 23
13 17 23
13 17 22
13 17 23
13 17 23
13 17 23
14 18 24
13 17 23
14 18 24
13 17 23
12 16 22
13 17 23
14 18 25
13 17 22
14 18 24
13 17 23
13 17 24
13 17 23
13 17 23
12 16 21
14 18 24
14 18 24
13 17 23
13 17 23
14 18 24
13 17 23
14 18 24
14 18 24
14 18 23
14 18 24
13 17 23
14 18 25
13 17 23
14 18 24
14 18 24
13 17 23
13 18 24
13 17 23
14 18 24
13 17 23
14 18 24
14 18 24
14 19 25
14 18 24
14 18 24
14 18 24
13 17 22
14 18 24
14 18 24
14 18 24
14 18 23
14 18 24
13 17 23
13 17 24
14 18 24
14 18 24
14 18 24
14 18 24
14 18 24
14 18 24
14 18 24
14 18 24
14 18 24
14 18 24
14 18 24
14 18 25
14 18 24
14 18 25
14 18 24
14 18 24
14 18 24
14 18 24
14 18 25
14 18 25
14 18 24
14 19 25
14 18 24
14 18 25
14 18 24
13 17 23
14 18 24
14 18 25
14 18 24
14 18 24
14 18 25
13 17 23
13 18 24
13 18 24
14 18 24
14 18 24
13 17 23
14 18 25
13 18 24
14 18 25
14 18 25
14 18 24
14 18 24
14 18 24
14 18 25
13 17 23
14 18 24
14 18 24
13 17 23
14 18 24
14 18 24
13 18 24
14 18 24
13 17 23
14 18 25
14 18 23
14 18 25
14 18 24
14 18 24
13 17 23
13 17 23
14 17 23
13 17 23
13 17 23
14 18 25
14 18 24
14 18 24
14 18 24
14 18 24
13 17 23
13 17 24
14 18 23
14 18 24
14 18 24
14 18 24
13 18 24
14 18 23
14 18 24
14 18 24
13 17 22
13 16 22
13 17 22
13 17 23
13 17 24
13 17 22
13 17 23
13 17 23
14 18 24
13 17 23
13 17 23
14 18 24
13 16 22
12 16 22
13 17 22
13 16 22
13 17 23
13 17 23
12 16 22
13 17 22
13 16 22
12 16 22
13 16 22
13 17 23
12 16 21
12 16 22
12 16 21
12 15 20
13 17 23
12 16 21
13 16 22
12 15 20
13 16 22
12 16 21
11 14 19
12 16 22
13 17 22
12 15 20
13 16 22
12 16 21
12 15 21
12 15 21
12 16 21
12 15 20
12 15 20
12 16 21
12 15 20
11 14 19
13 17 23
11 14 19
12 15 20
11 14 18
12 16 22
12 16 21
13 16 22
11 14 19
11 14 19
12 15 20
10 14 19
11 14 19
11 15 19
11 14 18
10 13 18
11 15 20
12 16 21
10 13 18
9 12 17
9 12 16
11 15 20
11 14 18
9 12 16
10 13 17
10 13 18
11 14 19
10 13 17
11 14 18
9 12 16
10 13 17
10 12 17
9 12 16
9 11 15
9 12 15
9 11 15
9 12 16
8 11 14
9 11 15
8 11 14
9 11 15
9 12 16
8 10 14
8 10 14
9 12 15
7 9 12
8 10 13
7 9 12
8 11 14
7 8 11
7 9 12
7 8 11
6 8 11
7 10 13
7 9 12
7 9 12
7 9 11
7 8 11
6 8 11
6 8 10
5 6 8
5 6 8
5 7 9
4 6 7
5 7 9
6 8 11
5 6 7
5 6 8
4 5 7
5 6 7
5 6 8
4 5 6
4 5 6
3 4 6
4 5 6
4 5 7
4 5 7
3 4 5
5 6 8
4 4 6
3 4 5
3 4 5
3 3 5
4 4 6
2 3 4
3 4 5
2 3 4
3 4 5
3 4 5
2 3 4
3 4 5
3 4 5
3 4 5
2 3 3
3 3 4
4 5 6
4 5 6
2 3 4
4 5 6
2 3 4
3 3 4
3 3 4
4 4 6
2 3 4
3 4 5
4 4 6
3 4 5
3 3 4
3 3 5
3 4 5
3 3 5
3 4 5
5 6 7
5 6 7
4 5 7
5 6 7
4 5 6
5 6 8
5 6 8
4 4 6
4 6 7
5 6 8
4 5 7
5 6 8
6 8 10
5 6 8
5 7 9
5 6 8
6 7 9
5 6 8
4 5 6
8 10 13
7 8 11
7 9 11
7 9 12
8 11 14
6 8 11
8 10 13
8 10 13
6 8 11
7 9 12
7 9 12
8 11 14
7 9 12
8 10 13
8 10 14
9 11 15
8 11 14
8 10 14
9 11 15
8 10 14
9 12 16
8 10 13
8 11 14
10 13 18
10 13 17
11 14 18
9 12 16
10 13 17
11 14 18
9 11 14
11 14 18
9 12 16
11 14 19
9 11 15
10 13 17
11 14 19
10 13 17
11 14 19
9 12 16
11 14 19
10 13 17
10 13 18
11 14 19
9 12 16
10 13 18
11 14 19
11 15 20
10 13 17
12 15 20
12 15 20
11 14 19
10 13 17
11 14 19
11 14 18
12 16 21
11 14 19
12 16 21
11 14 19
11 14 18
12 15 20
12 16 21
12 16 21
10 13 18
11 15 20
12 16 22
13 16 22
11 15 20
12 16 21
11 15 20
12 16 21
12 16 21
12 16 22
13 17 23
13 16 22
12 16 22
12 16 21
13 17 23
12 16 21
13 17 23
12 16 21
12 16 21
13 17 22
13 17 22
14 18 24
12 16 21
14 18 24
13 17 24
13 17 23
13 17 24
13 17 23
13 17 23
12 16 22
13 17 22
13 17 23
13 17 23
12 16 22
13 17 23
12 16 22
14 18 24
13 17 23
13 17 23
13 18 24
13 17 22
13 17 23
13 17 22
13 17 23
13 17 23
13 17 23
14 18 24
14 18 24
13 17 23
14 18 24
13 17 22
13 17 23
14 18 24
14 18 24
13 17 23
13 17 23
14 18 24
13 17 23
14 18 24
13 18 24
13 17 23
14 19 25
13 17 23
14 18 25
14 18 24
13 17 24
13 18 24
14 18 24
14 18 24
13 17 23
14 19 25
13 18 24
14 18 24
14 18 24
13 18 24
13 17 23
13 17 23
14 18 25
13 17 24
14 18 24
14 18 24
14 18 24
14 18 25
14 18 24
14 18 24
14 18 24
14 18 24
13 17 23
14 18 24
13 17 23
14 18 24
14 18 24
14 18 24
14 18 24
14 18 24
14 18 24
14 18 24
14 18 24
13 17 23
14 18 24
14 18 24
14 18 24
14 18 24
14 18 25
14 18 24
14 18 25
14 18 24
14 18 24
14 18 24
14 18 25
14 18 25
14 19 25
14 18 24
14 18 24
14 18 24
14 18 24
14 18 25
14 18 24
14 18 24
13 18 24
14 18 24
14 18 24
14 18 24
14 18 24
14 18 24
13 18 24
13 17 24
14 18 24
13 17 23
14 18 24
14 18 24
13 17 23
14 18 25
14 18 24
13 17 23
13 17 23
14 18 24
14 18 24
13 17 23
14 18 24
14 18 24
14 18 24
13 17 23
14 18 24
13 18 24
14 18 24
14 17 23
14 18 24
14 18 24
13 17 23
13 17 23
14 18 24
13 17 24
14 18 24
13 17 22
13 17 23
14 18 24
13 17 23
13 17 23
13 16 22
13 16 22
13 17 23
13 17 23
14 18 24
13 17 23
13 17 23
13 17 23
13 17 23
13 17 23
13 18 24
12 16 22
13 18 24
13 17 23
13 17 23
13 17 23
13 17 22
13 17 22
13 17 23
12 16 22
12 16 22
12 16 22
13 17 23
13 16 22
13 17 23
13 16 22
13 16 22
13 16 22
12 16 22
13 16 22
13 17 23
12 16 21
13 16 22
12 16 22
12 16 22
13 17 23
13 16 22
12 15 21
11 15 19
12 16 22
13 16 22
12 15 21
12 16 22
13 17 23
12 15 20
12 15 20
12 15 21
12 16 22
11 14 19
12 16 21
11 15 20
12 16 21
12 16 21
11 15 20
11 14 19
11 14 19
11 15 20
12 15 20
11 14 20
10 13 18
12 15 20
12 15 20
10 13 17
10 13 17
10 13 17
11 15 20
10 13 17
11 15 19
10 13 18
10 13 17
10 13 17
11 14 19
10 13 18
10 14 18
11 14 19
8 11 15
10 12 17
8 11 14
9 11 15
10 13 17
10 13 17
10 12 16
10 13 17
9 12 16
10 12 16
8 11 14
8 10 14
8 10 13
9 12 16
8 11 15
9 11 15
9 11 15
7 8 11
8 10 13
8 10 13
8 10 13
7 9 11
9 11 15
7 9 12
7 9 12
6 8 11
6 8 11
7 9 12
5 7 9
5 7 9
5 7 9
7 9 12
6 8 10
6 8 10
7 8 11
6 7 10
5 6 8
5 7 9
4 6 7
6 7 10
4 5 7
4 5 7
6 8 10
4 5 6
5 6 8
4 5 6
4 5 7
5 6 8
3 4 6
4 5 6
4 6 7
3 3 4
4 5 7
3 4 5
4 5 6
3 3 4
3 4 6
3 4 5
3 4 6
3 4 5
3 4 5
4 4 6
4 5 6
3 3 4
3 3 4
3 4 5
4 4 6
3 4 5
3 4 5
2 2 3
3 3 4
2 3 4
4 5 6
3 4 5
2 3 4
3 3 4
2 3 3
3 4 5
3 4 5
4 5 7
3 4 5
3 4 5
3 4 5
2 2 3
4 5 7
4 5 7
3 4 5
4 5 6
4 5 7
5 6 8
4 4 6
4 5 7
5 6 8
4 5 7
5 6 8
4 5 6
6 8 10
5 6 8
6 7 9
5 6 8
5 7 9
7 9 11
5 7 9
6 8 10
6 7 9
8 10 13
6 7 10
8 10 13
7 8 11
7 9 12
6 8 10
8 10 13
8 10 13
8 10 13
8 10 13
8 10 13
7 9 12
9 11 15
8 10 13
8 10 13
7 10 13
8 10 14
9 11 15
10 12 16
9 12 16
9 12 16
9 11 15
9 11 15
8 11 14
9 12 16
9 11 15
10 13 17
9 12 16
9 12 16
9 12 16
10 13 17
10 12 17
9 12 16
10 12 16
11 14 19
10 13 17
11 14 19
10 13 18
10 13 18
11 15 19
11 15 19
10 14 18
11 14 19
12 15 20
11 15 19
12 15 20
12 16 21
11 14 19
11 14 19
10 13 18
11 14 19
11 15 20
12 15 20
11 14 18
11 14 19
11 15 20
11 14 19
11 15 20
11 15 20
12 15 20
11 14 18
12 15 20
12 16 22
12 16 22
12 15 21
12 16 22
12 16 21
13 17 23
12 16 21
13 17 22
12 15 20
13 17 22
13 17 22
12 16 21
12 16 22
12 16 22
12 16 22
13 17 23
12 16 21
13 17 23
12 16 22
13 17 22
14 18 24
13 17 23
13 17 23
13 16 22
12 16 21
12 16 21
13 17 23
13 17 23
14 18 24
13 17 23
14 18 24
13 17 23
13 16 22
12 16 21
13 17 23
13 17 24
13 17 23
13 17 23
13 17 23
13 16 22
13 17 23
12 16 22
14 18 24
13 17 23
14 18 23
13 17 23
13 17 24
14 18 24
13 17 23
14 17 23
14 18 24
14 18 24
13 18 24
13 17 23
14 18 24
14 18 24
14 18 25
13 17 23
14 18 25
13 17 23
14 18 24
13 18 24
13 17 23
13 17 24
13 17 23
14 18 24
14 18 24
14 18 24
13 17 23
14 18 24
14 18 24
14 18 24
14 18 24
14 18 24
14 18 24
14 18 24
14 18 25
14 18 24
14 18 24
14 18 24
14 18 25
14 17 23
14 18 24
14 18 25
14 18 24
14 18 24
13 17 23
14 18 25
14 18 24
14 18 24
14 18 24
13 18 24
14 18 24
13 17 23
14 18 24
14 18 24
14 18 25
14 18 24
14 18 23
14 18 24
14 18 25
14 18 24
13 17 23
14 19 25
14 18 24
14 18 25
14 18 24
14 19 25
14 18 24
14 18 24
14 18 24
13 17 24
14 18 24
14 18 24
14 18 25
14 18 24
14 18 24
14 18 24
14 18 25
14 18 24
14 18 24
14 18 24
14 18 24
14 18 24
14 18 24
14 18 24
14 18 24
14 18 24
13 17 23
13 17 23
14 18 25
14 18 24
14 18 24
14 18 24
13 17 23
13 17 23
14 18 24
13 17 23
14 18 24
13 18 24
13 17 23
13 17 23
13 17 23
14 18 24
13 17 23
14 18 24
14 18 24
13 17 23
14 18 24
13 18 24
13 17 23
13 17 23
13 17 23
13 17 23
14 18 24
13 18 24
14 18 24
13 17 23
13 17 23
13 18 24
12 16 22
14 18 24
13 17 24
13 17 22
12 16 22
13 17 23
14 18 24
13 17 22
13 17 23
13 17 23
13 17 23
13 17 23
14 18 24
13 16 22
13 16 22
12 16 21
13 17 23
13 17 23
13 17 23
13 17 22
13 16 22
12 15 20
12 16 22
13 17 22
12 16 21
13 16 22
12 16 21
12 15 21
12 16 22
12 16 21
13 17 23
12 16 21
12 16 21
12 16 21
12 16 22
12 16 22
11 15 20
11 15 20
12 16 21
12 16 21
12 16 21
12 15 20
12 15 21
12 15 21
12 15 21
11 15 20
11 15 20
12 16 21
12 15 20
12 15 20
11 14 19
12 15 21
11 14 19
12 15 21
11 14 20
12 16 21
11 15 20
11 14 19
11 14 18
11 14 19
11 14 19
11 15 20
10 13 18
11 15 20
10 13 18
11 14 19
10 13 17
10 13 17
9 12 16
11 14 18
11 14 18
9 12 16
10 13 17
7 10 13
11 14 18
10 13 17
9 12 16
10 13 17
11 14 18
9 12 16
10 12 17
9 11 15
10 13 17
8 10 14
10 12 16
9 12 15
9 11 15
9 12 16
9 12 16
8 11 14
7 10 13
8 10 13
8 10 13
8 10 13
9 11 15
9 11 15
7 10 13
7 9 12
7 9 12
5 7 9
7 8 11
5 6 8
6 7 10
5 6 8
8 10 13
7 8 11
7 8 11
6 8 10
6 7 9
5 6 8
5 7 9
5 7 9
5 6 9
5 7 9
5 6 8
6 8 11
5 6 8
5 6 8
5 6 8
5 6 8
6 7 9
4 6 7
3 4 5
4 5 7
4 5 6
4 5 7
4 5 7
4 5 7
4 5 7
2 2 3
4 4 6
3 3 4
4 5 7
4 5 6
4 5 6
3 4 5
3 4 5
3 4 6
3 4 5
2 3 4
3 4 5
4 5 7
3 4 6
3 4 5
5 6 7
4 4 6
2 3 4
5 6 8
3 4 5
3 4 6
4 5 7
4 5 6
4 5 7
3 3 4
4 5 6
4 5 7
5 6 7
3 4 5
2 3 4
4 6 7
5 6 7
4 5 6
4 6 7
4 5 6
5 6 8
4 5 7
3 4 5
5 6 8
5 7 8
5 6 8
5 7 9
5 6 8
6 8 10
6 8 11
7 9 12
6 8 10
6 7 9
7 9 11
6 8 10
7 9 12
8 10 13
7 8 11
7 9 12
6 8 11
7 9 11
8 11 14
7 10 13
7 9 12
8 10 13
7 9 12
8 10 13
9 11 15
8 10 14
8 11 14
8 10 14
9 11 15
9 11 15
10 12 16
8 10 13
8 11 14
8 11 15
9 12 16
9 11 15
10 12 17
9 11 15
10 12 17
9 12 16
10 12 17
10 12 17
10 13 17
10 13 17
9 12 16
9 12 16
10 13 17
10 13 17
10 13 17
11 15 20
11 14 19
10 13 18
10 12 16
10 13 18
11 14 19
10 13 17
11 14 18
11 14 19
11 14 19
11 14 19
11 14 19
12 15 20
12 15 20
11 15 20
10 13 18
12 15 21
11 14 18
13 16 22
12 15 20
12 15 20
13 16 22
12 16 21
12 15 20
12 16 21
12 15 21
12 16 22
13 16 22
12 16 22
13 17 22
12 16 22
11 15 20
13 17 22
12 16 22
12 16 22
12 16 21
12 16 21
13 17 23
12 16 22
13 16 22
12 16 21
13 16 22
14 18 24
13 17 23
12 16 21
13 16 22
13 17 22
13 17 23
13 17 23
13 17 23
13 17 22
12 15 20
13 17 22
13 17 23
12 16 22
12 16 21
13 17 23
13 17 23
13 17 23
12 16 22
13 17 23
14 18 24
13 17 22
13 17 23
14 18 24
14 18 24
13 17 23
14 18 24
14 18 24
13 17 23
13 16 22
13 17 23
13 17 24
13 17 23
14 17 23
14 18 24
14 18 24
14 18 24
13 17 22
13 17 22
13 18 24
14 17 23
14 18 24
14 18 24
14 18 25
13 17 23
13 17 23
13 17 23
14 18 24
14 18 24
14 18 24
13 17 23
13 17 23
14 18 24
13 17 23
14 18 24
13 17 23
14 18 24
14 18 24
14 18 25
14 19 25
14 18 24
14 18 24
14 18 24
14 18 24
14 18 24
14 18 24
14 18 24
14 18 24
14 18 25
14 18 24
14 18 24
14 18 25
14 18 24
14 18 24
14 18 24
14 17 23
14 18 24
14 18 25
13 18 24
14 18 24
14 18 24
15 19 25
14 19 25
14 18 24
14 18 24
14 18 24
14 18 24
14 19 25
14 18 24
14 19 25
13 17 23
14 18 24
14 19 25
13 17 23
14 18 24
14 18 25
14 18 24
14 18 24
14 18 24
14 18 24
13 18 24
14 18 24
14 18 25
14 18 24
13 17 23
14 18 24
13 17 23
13 17 23
14 18 25
14 18 24
13 17 23
14 18 24
14 18 24
13 17 23
14 18 24
14 18 24
14 18 24
14 18 24
14 18 24
14 18 24
14 18 24
13 17 23
14 18 24
13 18 24
14 18 24
13 17 23
13 17 23
13 17 23
13 17 23
13 17 23
13 17 23
13 18 24
13 17 22
13 17 22
13 17 23
14 18 24
13 17 23
13 17 22
14 18 24
13 17 23
13 17 23
13 17 22
13 17 23
13 17 23
13 17 23
12 16 22
12 16 21
13 17 22
13 17 23
13 17 24
13 17 23
13 17 23
13 17 24
13 17 23
13 17 24
13 16 22
13 17 23
13 16 22
13 17 23
12 16 21
13 16 22
12 16 21
13 17 23
12 16 21
13 17 23
12 16 22
13 16 22
12 16 22
12 16 21
11 15 20
12 15 21
12 16 21
12 16 21
12 16 21
12 16 22
13 16 22
13 16 22
12 15 21
11 14 19
12 15 21
12 15 20
12 16 22
13 16 22
11 15 20
12 16 22
12 15 20
12 15 20
12 15 20
13 16 21
11 14 19
12 16 21
12 15 20
11 15 20
11 14 19
11 14 19
11 14 19
12 15 20
11 14 19
11 14 19
11 14 19
11 14 19
9 12 16
10 14 18
10 13 17
10 13 17
11 14 18
11 14 19
10 13 18
11 14 19
11 14 19
11 14 18
10 13 18
9 12 16
10 13 18
11 14 19
10 13 17
10 13 18
9 12 16
9 12 16
10 12 17
9 12 16
9 12 16
9 12 15
8 11 14
9 11 14
10 13 17
7 9 13
9 12 16
8 10 13
7 9 12
8 10 14
8 10 13
7 9 13
9 11 15
7 9 12
8 10 13
7 9 12
8 10 13
7 9 11
7 9 12
8 10 13
7 9 12
7 10 13
7 9 12
6 7 9
6 8 11
6 7 9
8 9 12
5 6 8
6 7 10
7 9 12
5 6 8
6 7 9
6 8 10
5 6 8
5 7 9
5 7 9
4 6 7
5 6 7
5 7 9
7 9 11
4 6 7
6 7 9
5 7 9
4 5 7
6 8 10
4 5 7
4 6 7
4 5 7
3 4 5
4 5 6
4 5 6
4 5 7
3 4 5
3 4 6
4 5 7
4 5 6
3 3 5
3 4 6
3 3 4
3 3 4
3 4 5
3 4 6
3 4 5
4 5 7
3 4 5
5 6 8
3 4 5
3 4 6
4 5 6
4 5 6
3 3 5
3 4 5
3 4 5
3 4 5
4 5 6
5 6 8
5 6 8
3 4 5
3 3 5
3 4 6
4 6 7
4 5 7
5 6 8
4 6 7
5 6 8
3 4 6
4 5 6
5 7 9
4 6 7
5 7 9
6 7 9
4 5 7
5 6 8
7 9 11
7 8 11
4 5 7
6 7 10
7 8 11
7 9 12
5 6 8
6 8 11
8 11 14
7 8 11
7 8 11
7 9 12
8 10 14
8 10 13
7 8 11
7 9 12
7 9 12
9 11 15
8 10 13
10 12 16
7 9 12
8 10 13
9 11 15
8 11 14
9 12 16
9 11 15
8 11 15
8 11 15
9 11 15
9 12 16
10 13 17
9 12 17
10 12 17
10 13 17
10 13 17
9 11 15
10 13 17
10 12 17
8 11 14
11 14 19
9 12 16
10 13 17
10 13 18
10 13 18
11 14 19
10 13 17
11 14 19
11 14 18
10 13 18
11 14 18
11 14 19
11 14 19
11 14 19
10 14 18
11 15 19
12 15 21
11 15 20
12 15 20
10 13 18
10 13 18
12 15 21
11 15 20
11 14 19
11 15 20
11 15 20
12 16 21
12 15 20
11 15 19
13 17 22
11 14 19
12 15 20
13 16 22
12 16 22
12 16 21
12 16 21
11 15 20
11 15 20
13 16 22
12 15 21
14 18 24
12 15 21
13 16 22
13 16 22
13 16 22
12 16 21
13 16 22
12 15 21
12 16 21
13 16 22
12 16 22
12 16 22
12 16 22
12 16 22
12 15 21
12 16 22
13 17 23
13 17 23
13 17 23
13 17 22
13 17 22
13 17 22
12 16 21
12 16 21
13 17 23
13 16 22
13 17 23
12 16 21
14 18 24
12 16 21
13 17 22
13 17 23
14 18 24
13 17 23
14 17 23
13 17 23
14 17 23
12 16 21
14 18 24
13 17 23
14 17 23
14 18 23
13 17 23
13 18 24
13 17 23
13 17 22
13 17 23
14 18 24
14 18 24
14 18 24
13 17 23
14 18 24
13 18 24
14 18 24
14 18 24
13 17 23
14 18 24
14 18 24
14 18 24
13 18 24
14 18 24
14 18 24
14 18 24
13 17 23
14 18 24
14 18 24
13 17 23
13 17 23
14 18 24
13 18 24
14 18 24
14 18 24
14 18 24
14 18 24
14 18 24
14 18 23
14 18 25
14 18 24
13 18 24
14 18 24
14 18 24
14 18 24
14 18 24
14 18 25
14 18 24
14 18 24
14 19 25
14 18 24
14 18 25
14 18 24
14 18 24
14 18 25
14 18 24
14 18 24
14 18 24
14 18 25
14 18 24
14 18 24
14 18 24
13 18 24
14 18 24
14 18 25
13 17 23
14 18 24
14 18 24
13 17 23
14 18 24
14 18 24
14 18 24
13 17 23
14 18 24
14 18 24
13 17 23
14 18 25
14 18 25
14 18 24
14 18 24
14 18 25
14 18 24
14 18 24
13 17 23
13 17 23
14 18 24
13 17 23
13 17 23
14 18 24
14 18 24
13 17 23
14 18 24
14 18 24
13 17 23
14 18 24
14 18 24
13 17 23
13 17 22
14 18 24
13 17 23
13 18 24
13 16 22
13 17 23
13 17 23
13 17 24
14 18 24
13 17 23
12 16 22
12 16 21
14 18 24
13 17 23
13 17 23
14 18 25
13 17 23
14 18 24
13 17 23
13 17 23
13 16 22
13 17 23
13 17 23
13 17 22
13 17 23
12 16 22
12 16 21
12 16 21
13 16 22
13 17 23
13 17 24
12 16 21
13 17 23
12 16 21
12 16 21
11 14 19
13 17 23
13 17 23
13 17 23
12 15 21
11 15 20
13 16 22
12 15 20
12 16 21
12 15 21
12 15 21
12 15 21
13 17 23
12 15 21
12 16 21
12 16 22
12 15 21
12 16 21
12 15 21
11 15 20
12 15 21
11 14 19
11 15 20
12 15 20
12 16 21
12 15 21
12 16 21
12 16 21
12 15 21
12 16 21
11 14 19
11 14 19
13 16 22
11 15 20
12 15 20
11 14 19
11 15 20
11 14 19
11 14 19
12 15 20
11 14 19
12 16 21
11 15 20
10 14 18
11 15 20
11 14 19
10 13 18
11 14 19
10 13 17
10 13 18
9 12 16
10 12 17
10 13 17
10 13 17
9 11 15
9 12 16
10 12 17
10 13 17
10 12 16
9 11 15
9 12 16
9 12 16
9 11 15
9 11 15
8 11 15
9 11 15
9 12 16
8 11 14
7 9 12
9 11 15
8 10 13
8 10 14
9 11 15
8 10 13
7 8 11
8 10 13
8 11 14
6 8 11
6 8 11
7 9 12
6 8 11
7 9 12
7 9 12
8 10 13
6 8 10
7 8 11
7 8 11
6 8 10
6 8 10
6 8 10
7 9 12
6 8 11
6 7 9
7 9 12
4 5 7
4 5 7
5 6 8
4 5 7
5 6 8
5 6 8
4 5 6
5 6 8
5 6 8
5 6 8
5 7 9
4 5 7
3 4 6
5 6 8
5 6 8
4 5 6
5 6 8
4 5 6
5 7 9
3 4 6
3 3 4
3 3 4
3 4 5
3 4 6
3 4 5
5 6 8
4 5 7
3 4 6
3 4 5
4 5 7
4 5 6
4 5 7
4 5 7
3 4 5
4 5 6
5 6 7
4 5 6
5 6 7
5 6 8
4 5 7
6 8 10
2 3 4
5 6 8
7 8 10
3 4 6
4 5 7
6 8 10
5 6 8
5 6 8
5 6 8
5 6 8
6 7 10
5 6 8
4 5 7
5 7 9
5 6 8
4 5 7
7 9 12
5 7 9
7 8 11
5 7 9
5 6 9
6 7 9
7 9 12
7 9 12
6 7 10
6 8 11
8 10 13
7 9 12
7 10 13
7 9 12
8 10 13
8 10 14
6 8 11
7 9 12
8 10 13
8 10 14
9 12 16
7 9 13
8 10 14
9 12 16
8 10 13
9 12 16
8 10 14
8 10 13
8 11 14
10 13 17
8 10 14
10 13 17
9 11 15
9 12 16
8 11 15
8 11 14
9 11 15
10 13 17
9 11 15
9 12 16
10 13 18
10 13 18
10 13 17
11 14 18
10 13 18
12 15 20
10 13 17
10 14 19
10 14 18
10 14 18
12 15 20
10 13 18
11 14 18
10 13 18
12 15 20
12 15 21
11 14 19
11 14 19
12 16 21
12 15 21
11 15 19
10 13 18
12 16 21
11 14 19
11 15 19
11 14 19
11 15 20
11 15 20
12 15 20
12 16 21
12 15 20
11 15 20
11 15 20
11 15 20
13 17 22
11 14 19
13 16 22
12 15 20
12 15 21
13 17 23
13 16 22
13 17 22
12 16 21
13 16 22
12 16 21
13 17 23
11 15 20
12 16 21
12 16 21
13 17 23
13 16 22
13 16 21
12 16 21
13 17 23
13 17 24
13 16 22
13 17 22
13 16 22
12 16 22
12 16 21
14 18 23
13 17 23
13 16 22
14 17 23
11 15 20
12 16 21
14 18 24
13 17 23
14 18 24
13 17 23
13 17 23
13 17 22
13 17 23
13 17 23
13 17 23
13 17 23
13 17 23
14 18 24
14 18 24
13 17 23
13 18 24
13 16 22
13 17 23
13 17 23
13 17 23
14 18 23
13 18 24
14 18 24
13 18 24
13 17 23
13 17 23
13 17 23
13 17 23
14 18 24
14 18 25
13 17 24
13 17 24
13 17 23
13 17 23
14 18 24
13 17 23
13 17 23
14 18 24
13 18 24
14 18 24
14 18 24
14 18 24
13 17 23
14 18 24
13 18 24
14 18 24
14 18 24
13 18 24
14 18 24
14 18 24
14 18 24
14 18 25
14 18 25
14 18 24
14 18 24
14 18 25
14 18 24
14 18 25
13 17 23
14 18 24
14 18 24
14 18 24
14 18 24
14 18 24
14 18 25
13 18 24
14 18 24
14 18 24
14 18 24
14 18 24
14 18 25
14 18 24
13 17 23
14 18 25
14 18 25
14 18 24
13 18 24
13 17 23
14 18 24
14 18 25
14 18 25
13 18 24
13 17 23
14 18 25
14 18 24
14 18 24
13 17 24
14 18 25
14 18 24
14 18 24
14 18 24
14 18 24
14 18 24
14 18 24
13 17 23
14 18 24
14 18 24
14 18 23
13 17 23
13 17 23
14 18 24
13 18 24
14 18 24
14 18 24
13 17 23
13 17 23
14 18 24
13 17 22
13 17 23
13 17 23
14 18 24
14 18 24
13 17 22
13 17 23
14 18 24
13 16 22
13 17 23
14 18 24
14 18 24
13 17 23
13 17 23
13 16 22
13 17 23
13 17 22
13 17 22
13 17 23
13 17 23
13 17 23
13 18 24
13 17 23
13 17 23
13 17 22
13 17 23
13 17 23
13 17 23
13 17 23
13 16 22
12 16 22
13 17 23
11 15 20
13 17 22
13 17 23
13 16 22
13 17 23
13 17 22
12 16 22
11 15 20
12 16 22
12 16 21
12 15 21
12 16 21
13 17 23
13 17 24
13 17 22
13 16 22
12 16 21
12 16 21
12 16 21
13 16 22
12 15 20
12 16 22
12 15 20
12 15 20
12 16 22
12 16 22
13 17 23
12 16 21
11 15 19
12 15 20
12 16 21
12 16 22
11 14 19
11 15 20
11 14 19
12 15 20
12 16 21
12 15 21
11 15 19
12 15 20
11 14 19
10 13 17
11 14 19
11 14 19
12 15 20
11 14 19
12 15 20
10 13 18
10 12 17
11 14 19
11 14 19
10 13 18
10 13 18
11 14 18
10 13 17
10 13 18
10 13 17
10 13 17
10 13 17
10 13 17
10 13 17
10 12 17
9 12 16
10 13 17
8 11 14
10 12 16
8 11 15
10 13 17
9 11 15
8 10 14
9 12 16
8 11 15
9 11 15
8 11 14
9 11 15
8 11 14
9 11 15
8 11 15
8 10 14
7 9 11
9 12 16
8 10 13
7 9 11
7 9 12
7 8 11
8 10 13
7 9 11
6 8 10
8 10 13
8 10 13
6 7 10
5 7 9
6 7 10
6 7 9
7 8 11
5 7 9
6 8 10
4 6 8
6 8 11
6 8 10
6 8 10
6 7 10
5 6 8
5 7 9
5 6 8
6 7 10
5 6 8
6 7 9
6 8 10
5 6 8
5 6 8
4 4 6
4 5 7
5 6 7
4 5 7
5 6 8
3 4 5
3 4 5
4 5 7
3 4 6
3 4 5
3 3 4
4 6 7
4 5 7
5 6 8
4 5 7
4 5 6
5 6 7
4 5 6
4 5 7
3 4 5
3 4 6
4 4 6
4 5 7
4 5 7
5 6 8
5 6 8
5 7 9
3 4 6
4 5 7
5 6 8
4 5 6
5 6 7
6 7 10
5 6 7
6 8 11
5 6 8
5 6 8
5 7 9
5 6 8
5 7 9
4 6 7
5 7 9
6 8 10
6 8 10
6 7 10
5 6 8
5 7 9
5 7 9
5 6 8
6 7 9
7 9 12
6 8 10
7 9 11
8 10 12
7 9 12
7 8 11
7 9 12
7 9 12
7 9 12
7 9 11
6 8 11
8 11 14
7 9 12
8 11 14
8 10 13
8 10 13
7 9 12
8 10 13
7 10 13
9 12 16
8 11 14
8 11 14
8 10 13
9 12 16
9 11 15
9 12 16
8 11 15
9 11 15
9 11 15
8 11 14
9 12 16
9 11 15
9 12 16
10 13 17
9 11 15
11 14 19
10 13 17
11 14 18
11 14 19
11 14 19
10 13 17
10 14 18
10 12 17
11 15 20
10 13 17
10 13 17
12 15 20
10 12 17
11 14 19
11 14 19
10 13 18
10 14 18
11 15 20
11 15 20
11 15 20
11 14 19
12 15 21
12 16 21
11 15 20
11 14 19
12 15 20
11 14 18
11 15 20
11 15 20
11 14 20
12 15 20
12 15 21
12 15 20
11 15 20
12 15 21
12 16 21
12 16 21
12 15 20
12 16 21
12 16 21
12 16 21
12 15 20
13 16 22
12 16 21
12 16 21
12 16 22
13 17 22
12 15 20
12 16 22
12 16 22
12 16 21
12 16 22
13 17 22
11 15 20
13 17 22
13 16 22
13 17 23
13 17 22
13 17 23
13 17 22
12 16 22
13 17 23
13 17 22
13 17 23
13 17 23
13 16 22
13 17 23
13 17 23
13 16 22
13 17 23
13 17 23
13 17 23
13 17 22
12 16 21
14 18 24
13 17 23
14 18 24
13 17 23
13 17 23
13 17 23
14 18 24
13 17 23
13 17 23
13 16 22
13 16 22
13 17 24
13 17 23
13 17 23
13 17 23
13 17 23
14 18 24
13 17 23
13 17 23
13 17 23
14 18 24
14 18 25
14 18 24
13 17 23
14 18 24
14 18 24
14 18 24
14 18 24
14 18 24
14 18 24
13 17 23
14 18 24
14 18 24
14 18 25
14 18 24
13 18 24
14 18 24
13 18 24
14 18 24
14 18 25
14 18 24
13 17 23
14 18 24
14 17 23
13 17 23
14 18 24
14 18 24
14 18 25
13 17 23
14 18 24
14 18 24
14 18 24
14 18 25
14 18 24
14 18 24
13 17 23
14 18 24
14 18 24
14 18 24
14 18 25
14 18 24
13 17 23
13 17 23
13 17 23
14 18 24
14 18 24
14 18 24
14 18 24
14 18 24
14 18 24
14 18 24
14 18 24
13 17 23
14 18 24
14 18 24
13 18 24
13 17 23
14 18 24
14 18 25
14 18 25
14 18 24
14 17 23
13 17 23
13 18 24
14 18 24
14 18 24
14 18 25
13 17 23
12 16 22
14 18 24
13 17 23
14 19 25
13 17 23
14 18 24
14 18 24
13 17 23
13 17 23
14 18 23
13 17 23
14 18 24
13 17 23
14 18 24
13 17 23
13 16 22
13 17 23
14 18 24
13 17 23
14 18 24
14 18 24
13 17 23
13 17 23
13 17 23
14 18 25
13 17 23
13 17 23
13 17 23
14 18 24
13 17 23
12 16 21
13 17 23
13 17 23
13 17 22
13 17 23
14 18 24
13 17 23
13 17 22
14 18 24
13 17 23
12 16 21
13 17 22
13 17 22
12 16 22
13 17 23
13 17 22
12 16 22
13 17 22
13 17 22
12 16 21
13 16 22
12 16 21
12 16 22
12 16 21
12 16 21
13 17 22
12 16 21
12 16 21
13 16 22
12 15 20
13 16 22
12 15 21
13 16 22
11 14 19
12 16 22
12 15 21
11 15 20
12 16 21
13 16 22
11 14 19
12 15 21
11 14 19
11 15 20
11 15 20
12 15 21
12 15 20
12 16 21
11 14 19
12 15 21
10 13 18
11 14 19
11 14 19
12 15 20
11 14 19
10 14 18
11 14 19
11 14 19
11 14 19
11 14 19
10 13 18
12 15 20
11 15 20
11 14 19
10 13 18
11 14 19
10 14 18
12 15 20
9 11 15
11 14 19
9 12 16
11 14 18
10 13 18
9 11 15
10 12 17
9 12 16
9 11 15
10 12 17
8 11 15
9 11 15
9 11 15
9 11 15
10 12 16
8 10 14
9 12 16
8 10 13
10 13 17
7 9 12
9 12 15
7 9 12
8 10 14
8 10 13
7 9 12
9 11 15
9 11 15
9 12 15
7 9 13
7 9 12
7 9 11
9 11 14
8 10 13
7 9 12
7 9 11
8 10 13
6 7 10
5 7 9
6 7 10
7 9 12
6 8 10
6 8 10
6 7 10
7 8 11
6 7 9
6 8 10
6 8 10
5 6 8
5 6 8
7 8 11
7 8 11
6 7 10
5 6 7
5 6 8
6 7 9
5 6 8
6 7 9
6 7 9
4 5 7
4 5 7
5 6 8
6 7 9
5 6 8
6 7 9
3 4 5
4 5 6
4 5 7
5 6 8
3 4 6
4 5 7
6 7 9
4 5 6
6 8 10
5 6 8
5 6 8
4 5 6
5 7 9
5 6 8
4 5 7
5 6 8
5 6 7
5 6 8
6 7 9
4 6 7
4 6 7
6 7 10
7 8 11
3 4 6
5 6 8
5 6 8
5 6 8
6 7 9
4 5 7
5 6 8
6 7 9
6 7 9
6 8 10
5 7 9
8 10 13
6 7 10
7 9 12
6 8 10
5 7 9
7 10 13
7 9 11
6 8 11
6 7 10
7 9 11
7 8 11
7 9 13
7 9 12
6 7 10
8 10 13
8 10 13
7 9 13
8 10 13
7 9 12
7 10 13
7 9 12
7 9 12
7 9 12
8 10 14
9 11 15
8 10 13
9 11 15
7 9 12
9 12 16
9 11 15
10 12 16
9 11 15
10 13 17
9 12 16
8 11 14
7 10 13
10 13 17
9 11 15
10 12 16
9 11 15
10 13 17
8 11 14
9 11 15
10 13 18
10 13 17
11 14 19
9 12 17
10 13 17
10 13 18
11 14 19
11 14 18
11 14 19
11 14 18
12 15 20
10 13 17
10 13 18
10 13 17
10 13 18
12 16 21
10 13 18
11 15 20
11 14 18
11 14 20
11 14 19
11 14 19
12 16 21
12 16 21
12 16 21
12 15 20
11 14 19
12 16 22
12 15 21
12 16 21
12 15 20
12 15 21
12 15 20
12 15 20
13 17 22
11 15 20
12 15 21
12 15 20
12 15 21
12 15 20
13 17 23
10 14 19
11 15 20
12 16 21
12 15 21
13 16 22
11 15 20
13 17 22
13 17 22
12 16 21
13 17 22
13 16 22
13 17 22
13 17 23
12 16 21
12 15 20
13 17 23
13 16 22
13 17 23
13 17 23
13 16 22
12 16 21
13 17 22
13 17 23
13 17 23
14 18 23
13 17 23
13 17 22
13 16 22
12 16 22
13 17 23
14 18 24
13 17 23
14 18 24
13 17 23
13 17 22
13 17 22
14 18 24
13 17 23
13 17 23
13 17 22
13 17 23
13 17 23
13 17 22
13 17 23
13 17 23
13 17 22
14 18 24
13 18 24
13 17 23
14 18 24
13 17 24
14 18 24
13 17 23
14 18 24
13 17 23
14 18 24
13 17 23
14 18 24
14 18 24
14 18 24
14 17 23
13 17 23
13 17 23
13 17 23
14 18 23
14 18 24
14 18 24
14 18 24
14 18 24
14 18 24
14 18 24
14 18 24
13 17 23
14 18 24
14 18 24
14 18 24
14 18 24
13 17 23
14 18 24
14 18 24
14 18 25
14 18 24
14 18 24
14 18 24
14 18 24
13 17 23
14 18 24
14 18 24
14 18 25
14 18 24
14 18 25
14 18 24
13 16 22
14 18 24
14 18 24
14 19 25
14 18 24
14 18 25
14 18 24
14 18 24
14 18 25
14 18 24
14 18 24
13 17 23
14 18 25
14 18 24
13 17 23
14 18 24
13 18 24
14 18 24
14 18 24
14 18 25
14 18 24
14 18 24
14 18 24
14 18 24
14 18 24
14 18 24
14 18 25
13 17 23
14 18 25
14 18 25
14 18 24
13 17 23
12 16 22
13 17 24
14 18 24
14 18 24
13 17 23
14 18 24
14 18 24
14 18 24
14 17 23
13 17 22
13 17 23
13 17 22
13 17 23
12 16 21
13 17 22
13 16 22
13 17 23
13 17 23
13 17 23
13 17 22
12 16 22
12 16 22
13 17 23
14 18 24
13 17 23
13 16 22
13 17 22
13 17 23
13 17 23
13 17 23
13 17 23
12 16 21
13 17 23
12 16 21
12 16 22
13 17 23
13 17 23
12 16 21
12 16 21
12 16 22
13 17 23
12 15 21
13 17 23
13 16 22
12 15 21
12 15 20
12 15 21
13 17 23
12 16 22
12 16 21
12 15 20
12 16 22
12 15 21
12 15 21
12 16 21
12 16 21
12 16 21
12 15 20
13 17 22
12 16 21
12 16 21
13 17 22
12 15 21
11 15 20
12 15 20
11 15 20
12 16 21
11 14 19
11 15 20
11 14 19
11 15 20
11 15 20
11 14 19
11 15 20
11 15 19
12 15 20
12 16 21
12 15 21
12 16 22
11 14 19
11 14 19
11 14 19
10 13 18
11 14 18
10 13 17
10 13 17
10 13 18
11 14 19
9 12 16
9 12 16
10 13 17
10 13 18
9 11 15
10 13 18
10 13 17
10 13 17
9 12 16
10 13 17
9 12 16
10 13 18
9 12 16
10 13 17
9 12 16
10 12 16
9 12 16
9 11 15
9 12 16
9 12 16
9 11 15
8 11 14
9 11 15
8 11 14
7 9 12
10 12 16
7 10 13
9 11 15
9 11 15
9 12 16
9 11 14
7 9 13
8 10 14
7 9 12
7 9 12
8 10 13
7 9 12
8 10 13
8 10 13
7 9 12
7 9 12
7 9 11
7 9 12
8 10 13
7 8 11
7 9 12
5 7 9
7 9 12
6 8 10
5 6 8
6 7 9
6 7 9
4 5 6
7 8 11
5 6 8
5 7 9
6 8 10
6 7 10
5 7 9
6 8 10
5 7 9
4 5 7
5 6 8
5 6 7
5 6 8
5 6 8
5 6 8
5 6 7
5 7 9
6 7 9
4 6 7
4 5 7
4 5 7
5 6 8
5 6 8
3 4 5
4 5 7
4 5 7
4 5 6
4 5 7
6 7 9
5 6 8
4 6 7
6 7 9
3 4 6
5 7 9
4 5 6
4 5 7
5 6 8
6 7 9
5 6 8
5 6 8
5 7 9
6 7 9
5 7 9
5 7 9
4 5 7
7 9 11
4 6 7
5 6 8
4 5 7
6 8 10
6 8 10
6 8 11
7 9 12
6 8 10
7 8 11
7 9 12
7 9 12
7 8 11
6 8 11
7 9 11
6 8 10
7 9 12
7 9 12
7 9 12
7 9 12
6 8 11
9 12 15
6 8 10
7 9 12
6 8 10
7 9 12
7 9 12
8 10 14
7 9 13
7 9 12
9 11 15
8 11 14
5 7 10
9 11 15
7 9 13
8 10 13
8 11 14
10 13 17
9 11 15
9 11 15
9 12 16
9 12 15
9 12 16
8 11 14
10 14 18
9 11 15
9 11 15
12 15 20
11 14 19
11 14 19
9 11 15
10 13 18
10 13 18
10 13 18
10 13 17
11 14 18
11 14 19
10 13 18
11 14 19
11 14 19
9 12 16
10 14 18
10 13 17
11 14 19
10 14 18
11 14 19
10 13 18
12 16 21
10 13 18
11 14 19
11 15 20
11 15 20
12 15 20
11 15 20
12 15 21
13 16 22
11 15 21
11 15 19
11 14 19
10 13 18
13 16 22
12 16 22
11 15 20
11 15 20
11 15 20
11 14 19
13 16 22
12 15 21
12 15 21
12 16 22
12 16 21
13 17 23
12 15 21
12 16 21
13 16 22
11 15 20
13 16 22
12 16 22
13 17 23
12 16 22
12 16 21
13 17 23
13 17 23
13 17 22
13 16 22
12 16 22
12 15 21
12 16 21
13 17 23
13 17 23
13 16 22
12 15 20
13 17 23
13 17 23
13 18 24
13 17 23
13 17 23
13 17 22
13 16 22
12 16 22
12 16 21
13 17 23
13 17 23
13 17 22
13 17 22
13 17 23
13 17 23
13 17 23
13 17 23
13 17 22
14 18 24
13 17 23
13 17 23
13 17 23
13 17 23
13 17 23
14 18 24
14 18 24
12 16 22
13 17 22
14 17 23
13 17 23
13 17 23
14 17 23
13 17 22
13 17 23
14 18 24
14 18 24
14 18 24
14 18 24
14 18 24
13 17 23
14 18 24
13 17 23
14 18 24
14 18 24
14 18 24
14 18 25
14 18 24
13 17 23
14 18 24
13 17 23
14 18 24
14 18 24
13 17 23
13 17 23
14 18 24
14 18 25
14 18 24
14 18 25
14 18 25
14 18 24
13 17 23
14 18 24
13 17 23
14 18 25
14 18 24
14 18 24
14 18 24
14 18 24
14 18 25
14 18 24
14 18 24
14 18 24
14 18 25
14 18 23
13 17 23
14 18 24
14 18 24
14 18 24
14 18 24
14 18 24
13 18 24
14 18 24
14 18 24
14 18 24
14 18 24
15 19 25
14 18 24
14 18 24
14 18 24
13 17 23
13 17 23
13 17 23
14 17 23
13 17 23
13 17 24
14 18 24
13 18 24
14 18 24
13 17 23
14 18 24
14 18 24
13 17 23
13 17 23
14 18 24
13 17 23
14 18 24
13 17 22
13 17 23
13 17 23
13 18 24
13 17 23
14 18 25
13 17 23
13 17 23
14 18 24
13 17 23
13 17 23
13 17 23
14 18 24
13 17 24
13 17 23
13 17 23
13 17 23
13 17 23
12 16 21
13 17 23
14 18 24
12 16 21
13 17 23
13 17 23
12 16 22
14 18 24
12 16 22
13 17 23
12 16 21
13 16 22
14 18 24
13 17 23
13 16 22
13 17 22
12 16 22
13 17 23
12 16 21
13 17 23
12 16 21
12 16 22
12 16 21
12 16 21
12 15 21
13 16 22
12 16 21
13 16 22
13 16 22
12 15 21
12 16 21
12 15 20
13 17 23
12 16 21
13 16 22
12 16 21
12 16 21
13 16 22
11 15 20
13 16 22
12 16 21
12 15 21
12 15 21
12 15 20
12 15 20
11 14 19
11 15 20
11 15 20
11 14 18
10 13 18
11 15 20
11 15 20
11 14 19
12 16 21
11 15 20
11 15 20
12 16 21
11 14 18
12 16 21
11 14 19
11 14 19
11 14 19
11 15 20
12 15 20
10 12 17
11 14 19
11 15 20
11 14 19
10 13 17
10 13 17
9 11 16
10 13 17
11 14 19
10 13 18
9 12 17
10 13 17
10 13 17
10 13 17
10 13 17
9 12 16
9 12 16
10 13 18
9 12 16
9 12 16
8 11 15
9 11 15
9 12 16
9 11 15
8 10 14
10 13 17
7 10 13
8 10 14
9 12 16
7 10 13
10 13 17
8 10 13
7 9 12
7 9 13
9 11 15
8 10 14
7 9 12
8 10 13
7 9 12
7 9 12
8 10 13
8 10 13
8 10 14
8 10 13
6 8 10
7 9 12
7 9 12
8 10 13
6 7 10
7 9 12
7 8 11
6 8 11
6 8 10
4 6 8
6 7 9
6 8 10
6 8 11
5 6 8
5 7 9
6 7 10
6 8 10
6 7 10
6 7 9
7 8 10
5 6 8
4 6 7
5 6 8
5 6 8
5 7 9
6 7 10
4 5 7
4 5 7
5 6 7
5 6 8
4 5 7
5 7 9
5 6 8
4 5 7
6 7 9
5 7 9
5 6 8
5 6 7
6 7 9
5 6 8
4 6 7
5 7 8
6 8 10
6 8 10
6 8 10
6 8 10
5 7 9
5 7 9
5 6 8
4 5 6
6 8 10
5 6 8
4 5 7
6 8 10
6 8 10
5 6 8
5 6 8
5 7 9
6 8 10
6 8 10
6 8 10
6 8 10
6 8 10
5 6 8
5 7 9
6 8 11
7 8 11
5 6 8
7 8 11
8 10 12
6 8 11
7 8 11
8 10 14
7 10 13
6 8 10
8 10 13
8 10 13
8 11 14
7 9 13
8 10 13
9 11 14
7 9 12
8 11 14
7 9 13
8 10 14
7 9 13
8 11 14
7 9 13
8 10 13
8 10 14
10 13 17
8 10 14
8 10 13
9 12 15
10 13 17
10 13 17
9 12 17
9 12 16
9 12 16
9 11 15
10 13 17
10 12 17
9 12 16
10 12 16
11 14 19
9 12 16
10 13 18
11 14 19
12 15 20
10 13 17
10 13 17
9 12 16
10 13 18
10 13 18
10 13 18
11 14 19
11 14 19
11 14 19
11 14 19
11 14 19
11 14 18
12 16 21
11 14 19
10 13 17
12 15 20
12 15 20
11 14 19
12 15 20
12 15 20
12 15 20
12 15 20
11 14 19
11 14 19
12 15 21
13 16 22
11 15 20
12 16 22
12 16 21
12 16 22
12 16 21
11 14 19
12 15 20
12 16 21
11 15 20
12 15 21
12 16 21
13 16 22
12 15 20
12 16 22
12 16 21
12 16 21
12 16 21
12 15 21
13 17 23
13 17 22
12 16 21
12 16 21
13 17 23
12 16 21
11 15 20
13 16 22
12 15 21
13 17 23
13 16 22
13 17 22
12 16 21
12 16 22
12 16 21
13 17 24
12 16 21
13 17 23
12 16 21
14 18 24
13 17 23
13 16 22
13 18 24
14 18 24
13 17 23
12 15 20
14 17 23
13 17 23
13 17 23
14 18 24
12 16 22
13 17 23
14 18 23
13 17 23
12 16 22
13 17 23
13 17 23
13 16 22
13 17 22
13 17 23
13 17 22
14 18 24
13 17 22
14 18 24
14 18 24
14 18 24
14 18 24
14 18 24
13 17 24
14 18 24
14 18 24
13 16 22
14 18 24
14 18 24
13 16 22
14 18 24
14 18 24
14 18 24
14 18 24
14 18 24
14 18 24
13 17 23
14 18 24
13 17 23
13 17 24
14 18 24
14 18 24
13 17 23
14 18 24
14 18 24
14 18 24
13 17 24
14 18 24
14 18 25
14 18 24
13 17 23
14 18 24
14 18 24
14 18 24
14 18 24
13 17 23
13 17 24
14 18 24
14 18 24
14 18 24
14 18 25
14 18 24
14 18 25
14 18 24
13 18 24
14 18 24
14 18 24
13 17 24
14 18 24
14 18 24
14 18 24
14 18 24
14 18 24
14 18 24
14 18 24
13 18 24
14 18 24
13 17 23
13 17 24
13 17 23
14 18 24
14 18 24
13 18 24
14 18 24
14 18 24
14 18 24
13 17 22
13 17 23
13 17 23
14 18 24
13 17 23
14 18 24
13 17 23
13 17 24
13 17 22
14 17 23
13 17 23
14 18 24
14 17 23
14 18 24
13 18 24
13 17 23
13 17 24
13 16 22
13 17 23
14 18 24
13 17 23
14 18 24
13 17 23
14 18 24
13 17 23
13 17 23
13 17 23
13 17 23
13 17 22
13 17 23
13 17 23
14 18 24
13 17 23
13 17 23
13 17 23
13 17 23
12 16 21
12 16 22
13 17 22
13 17 23
13 17 22
12 16 22
14 18 24
13 17 23
13 17 22
12 16 22
13 16 22
12 15 21
12 16 22
12 16 22
13 17 22
13 17 22
13 17 23
12 16 21
13 16 22
12 16 22
12 15 20
12 16 22
12 16 21
12 16 21
12 15 21
11 14 19
12 16 21
13 16 22
12 16 22
12 16 21
12 16 21
11 15 20
12 16 22
12 16 21
12 15 21
12 15 20
11 14 19
11 14 19
12 15 21
12 16 21
12 15 20
11 14 19
12 15 21
11 14 19
12 16 21
11 14 19
11 14 19
11 15 20
11 15 19
11 14 19
11 15 19
11 14 19
11 15 20
9 12 16
10 13 18
9 12 16
11 14 18
11 14 19
11 14 19
11 14 19
10 13 18
10 13 18
10 13 17
10 13 17
12 15 20
9 12 17
9 12 17
9 12 17
9 11 15
10 13 17
10 13 17
10 13 17
10 12 17
11 14 18
9 11 15
9 12 16
9 11 15
9 12 15
10 13 17
10 13 17
9 11 15
10 13 17
9 12 16
8 10 14
10 12 16
8 11 14
9 11 15
7 9 12
7 9 13
8 10 14
9 12 16
9 11 15
7 10 13
9 11 15
7 9 13
9 11 15
7 9 12
7 9 12
7 8 11
7 8 11
7 9 12
7 8 11
7 9 12
6 8 11
7 9 12
8 10 14
6 8 10
7 9 11
7 9 12
5 7 9
7 9 11
7 9 12
6 8 10
5 7 9
6 8 11
7 9 12
4 5 7
6 8 11
5 6 8
5 6 8
6 8 10
7 9 12
5 6 8
6 7 9
7 9 11
4 6 7
6 7 9
3 4 5
4 5 7
5 6 8
5 6 8
6 7 9
3 4 5
4 6 7
6 7 10
4 5 6
5 6 8
6 7 9
6 8 10
5 6 8
5 7 9
6 7 10
7 8 11
5 6 8
5 7 9
4 6 7
5 6 8
5 6 8
4 6 7
5 7 8
4 5 7
5 7 9
6 7 10
6 7 9
6 7 9
6 7 9
5 7 9
5 7 9
7 9 11
7 8 11
6 8 11
8 10 13
5 7 9
6 8 10
7 9 11
6 7 10
7 9 12
5 6 8
7 9 12
8 10 13
6 8 11
8 10 13
6 8 10
7 9 12
7 9 12
8 10 13
7 9 12
8 11 14
7 9 13
7 10 13
8 10 13
7 9 12
8 10 13
7 9 12
8 10 13
8 11 14
8 11 15
8 10 14
9 12 15
8 10 14
8 10 13
8 10 14
10 12 17
8 10 14
8 10 14
11 14 18
9 12 16
8 10 14
9 11 15
10 13 18
10 12 17
10 13 18
10 13 17
10 13 17
10 13 17
9 11 15
11 14 19
10 13 17
11 14 19
10 13 17
10 13 17
10 14 18
10 13 17
10 13 17
11 14 18
12 15 20
12 15 20
10 14 18
12 15 20
10 13 18
12 15 21
11 14 19
10 13 18
11 14 19
11 14 19
12 16 22
12 15 20
11 14 19
11 15 19
12 15 20
10 13 18
11 15 20
12 15 20
11 14 19
11 14 19
11 14 19
12 16 21
12 16 22
13 16 22
11 15 20
12 15 20
12 16 21
11 15 20
12 15 21
12 15 20
12 16 21
11 15 20
12 15 20
13 16 22
13 16 22
13 16 22
12 16 22
12 15 20
11 15 20
14 18 24
12 16 21
13 17 22
13 16 22
12 16 21
13 17 23
13 17 22
12 15 21
13 17 23
12 15 21
12 16 21
12 16 22
13 17 23
13 16 22
13 17 23
13 17 22
13 16 22
13 17 22
13 16 22
13 17 23
11 15 20
13 17 23
12 16 21
13 16 21
12 16 21
13 17 22
13 17 23
13 17 23
13 17 23
13 17 23
13 17 22
13 17 22
12 16 22
14 17 23
13 17 23
13 17 23
13 17 23
13 17 23
13 16 22
13 17 23
13 17 23
14 18 24
14 18 24
14 18 24
13 17 23
14 18 24
14 18 23
13 17 23
14 18 24
14 18 24
13 17 24
14 18 25
14 18 24
13 17 23
13 17 23
14 18 24
13 17 23
13 18 24
14 18 24
13 18 24
13 17 23
14 18 24
14 18 25
13 18 24
13 18 24
13 17 23
14 18 24
13 17 23
14 18 24
14 18 24
13 17 23
14 18 24
14 18 24
14 18 24
14 18 24
14 18 24
14 18 25
13 18 24
14 18 25
14 18 25
14 18 24
14 18 24
13 17 23
14 18 25
13 18 24
14 18 24
14 18 24
14 18 24
14 18 24
14 18 24
14 18 24
13 17 24
14 18 24
14 18 24
14 18 25
14 18 24
13 17 23
13 17 23
13 18 24
13 17 23
13 17 23
13 17 24
14 18 24
14 18 24
13 17 23
13 17 24
13 17 23
14 18 24
13 17 23
14 18 24
13 17 24
13 17 23
13 16 22
14 18 24
13 17 23
13 17 23
13 17 23
13 17 23
13 17 23
13 17 23
13 16 22
13 17 22
12 16 22
14 18 24
14 18 24
13 17 23
13 17 23
13 17 23
14 17 23
13 17 22
14 18 24
13 17 23
14 18 24
13 17 23
13 18 24
12 16 22
14 18 24
13 18 24
13 16 22
13 17 22
12 16 22
13 17 23
13 17 22
13 17 23
12 16 22
13 17 23
12 15 20
12 16 21
12 16 22
13 17 23
13 17 23
13 17 22
13 16 22
13 17 22
13 17 23
12 16 22
12 16 22
13 16 22
13 16 22
12 16 21
12 16 22
13 16 22
13 17 22
13 17 23
13 17 22
13 16 22
12 16 22
13 16 22
12 16 21
12 15 20
12 15 20
11 15 20
12 16 21
13 16 22
12 16 22
12 15 20
12 16 21
12 16 21
13 16 22
13 16 22
12 15 20
11 15 20
11 15 19
11 15 20
11 14 19
11 15 20
12 15 20
12 15 20
11 15 20
12 16 21
11 15 20
11 15 19
12 15 20
10 14 18
11 14 19
11 14 19
11 14 19
11 14 19
11 15 20
10 13 17
10 13 18
10 13 18
10 13 18
10 13 17
11 14 19
10 13 17
10 13 18
10 13 17
10 13 18
10 13 17
11 14 18
11 13 18
9 12 17
9 12 16
10 12 17
10 13 17
11 14 18
10 12 17
10 13 17
10 13 17
10 13 17
11 14 18
9 11 15
9 12 16
9 12 15
7 10 13
10 12 16
8 11 15
10 12 16
9 11 15
8 10 14
10 13 17
8 11 14
7 9 12
8 10 14
8 10 14
7 9 12
9 12 16
7 9 12
7 9 12
8 10 13
8 10 13
6 8 11
8 10 13
9 11 14
7 8 11
6 8 11
7 9 12
8 11 14
7 9 12
6 8 10
7 9 12
5 7 9
7 9 11
7 8 11
8 10 13
6 8 11
8 10 13
6 8 11
7 9 12
7 8 11
7 9 12
5 6 8
6 8 10
6 8 11
6 8 10
6 7 10
6 7 10
7 8 11
5 6 8
6 7 10
5 7 9
5 7 9
4 5 7
4 6 7
5 6 8
5 7 9
5 6 8
4 5 7
6 8 10
4 5 7
5 7 9
5 7 9
5 6 8
6 7 10
6 7 10
6 7 10
5 6 8
5 7 9
5 6 8
5 6 8
5 6 8
5 6 8
5 6 8
4 6 7
6 7 10
7 8 11
5 6 8
6 7 9
5 6 8
7 8 11
6 7 10
5 6 8
6 7 9
6 8 10
6 8 10
6 8 10
7 9 11
6 8 11
6 7 9
6 8 10
7 9 12
6 8 10
7 8 11
7 8 11
6 8 11
5 7 9
7 9 11
8 10 13
7 9 11
8 10 14
8 10 14
9 12 16
7 8 11
8 10 13
9 11 14
8 11 14
7 9 13
8 10 13
8 10 13
9 11 15
9 12 16
8 10 13
9 11 15
8 10 13
10 12 17
8 11 14
9 11 15
9 12 16
9 12 16
9 11 15
9 12 16
10 13 17
8 10 14
10 12 16
10 13 17
9 12 16
9 12 16
9 12 15
9 12 16
10 13 17
10 13 17
9 12 16
10 13 17
10 13 17
9 12 16
9 11 15
10 13 17
10 13 17
10 13 17
12 15 20
11 14 19
10 13 18
9 12 17
11 14 18
10 14 18
10 14 18
10 12 17
11 14 19
11 14 19
11 14 19
11 14 19
10 13 18
12 15 20
11 15 20
11 14 19
10 14 18
12 16 21
12 15 20
11 14 19
11 15 20
11 14 19
11 15 20
11 15 20
12 15 20
12 15 20
12 15 20
13 16 22
11 15 20
12 16 21
12 16 22
13 17 23
12 16 21
12 16 22
12 16 21
11 14 19
13 16 22
13 17 22
13 16 22
13 17 22
12 16 21
12 15 21
12 16 22
12 16 22
12 16 22
12 16 21
13 17 23
13 17 22
13 17 22
12 16 21
13 17 23
13 16 22
12 16 22
13 17 22
13 17 23
13 16 22
13 16 22
13 17 22
13 17 23
12 16 22
12 16 21
13 17 23
13 17 23
12 16 22
13 17 23
14 18 24
14 18 25
13 17 22
13 17 23
13 17 23
14 18 24
13 17 23
13 17 23
14 18 24
13 18 24
13 17 23
13 17 23
14 18 24
14 18 24
13 17 22
12 16 22
13 17 23
13 17 22
13 17 23
13 17 23
12 16 22
13 17 23
13 17 23
13 17 23
14 19 25
13 17 23
13 18 24
13 17 23
13 18 24
13 17 23
14 18 24
14 18 24
14 18 24
14 18 24
13 17 23
14 18 24
14 18 25
14 18 24
14 18 23
14 18 24
14 18 24
14 18 24
13 17 23
14 18 24
14 18 24
14 18 24
14 18 24
14 18 24
14 18 25
13 17 23
14 18 24
14 18 24
14 18 24
14 18 24
14 18 24
13 18 24
14 18 25
14 18 24
13 17 23
14 18 24
13 17 23
14 17 23
14 18 24
14 18 25
14 18 24
14 18 24
14 18 24
13 17 23
14 18 24
13 17 23
14 18 24
14 18 24
14 18 24
13 17 23
14 18 24
14 18 25
13 18 24
14 18 24
14 18 24
13 17 23
13 18 24
14 18 24
14 18 24
13 17 23
13 17 23
14 18 25
13 17 22
13 17 23
14 18 24
13 17 23
13 17 24
14 18 24
13 17 23
13 17 24
13 18 24
13 17 23
13 16 22
13 17 23
13 16 22
13 16 22
14 18 25
13 17 23
13 17 23
13 17 23
13 17 23
13 17 24
13 17 23
13 17 23
13 17 23
13 17 23
13 17 23
13 17 23
13 18 24
13 17 23
13 17 22
14 18 24
13 16 22
13 17 23
13 17 23
12 16 22
12 16 22
13 17 22
14 18 24
13 17 22
12 16 21
12 16 22
14 18 24
13 17 23
12 15 20
12 16 21
13 17 22
13 17 22
12 16 21
13 17 22
12 16 21
14 17 23
12 16 21
12 15 21
12 16 21
12 16 22
13 17 23
13 17 22
12 15 21
13 17 23
12 15 21
12 15 21
13 17 23
13 16 22
12 16 21
12 15 21
12 15 21
13 16 22
12 15 21
11 14 19
12 16 21
13 16 22
11 15 20
11 14 19
12 15 21
12 15 21
12 15 20
10 14 18
12 16 21
12 15 20
11 14 19
12 15 20
11 14 19
11 15 19
10 13 18
10 14 19
11 14 19
11 14 19
10 13 17
11 14 19
10 13 17
11 14 19
9 12 17
11 14 18
10 13 17
9 12 17
11 15 20
11 14 19
10 13 17
10 13 18
10 12 17
9 12 16
10 13 18
10 12 17
9 12 15
11 14 18
11 14 19
10 12 16
10 13 17
10 13 17
10 13 17
9 12 16
9 12 16
8 10 14
9 11 15
10 13 17
9 12 16
10 12 16
9 12 16
8 11 14
10 12 17
8 10 14
7 9 12
7 10 13
9 11 15
7 9 13
7 9 12
9 11 15
8 10 14
7 9 13
7 9 12
7 9 12
8 10 13
7 9 12
8 11 14
8 10 13
8 10 13
8 10 13
6 7 9
7 10 13
8 10 13
6 7 10
7 9 11
7 9 12
7 8 11
8 10 13
6 7 10
7 9 12
6 7 10
7 9 12
7 9 12
6 8 11
5 7 9
6 7 9
7 9 12
6 7 10
5 6 8
7 8 11
6 7 9
6 8 10
6 7 9
5 7 8
5 7 9
5 6 8
7 9 11
7 8 11
7 8 11
6 8 10
6 8 10
5 6 8
6 7 10
6 8 10
6 8 11
6 8 10
7 8 11
6 7 9
6 7 10
6 7 10
5 6 8
5 7 9
5 6 8
6 7 10
6 8 10
5 6 8
7 9 11
5 6 8
7 9 12
6 7 9
6 8 10
5 6 8
6 8 10
6 8 10
6 8 10
6 8 10
5 7 9
5 6 8
6 7 9
7 8 11
4 6 7
7 8 11
6 8 11
7 9 12
7 9 12
8 10 14
6 8 10
8 10 13
8 10 13
6 8 10
8 10 13
8 11 14
7 9 12
7 9 11
8 10 14
8 10 13
7 9 12
7 9 12
9 12 16
8 10 13
9 12 15
8 10 13
9 12 16
7 9 13
6 7 10
9 11 15
10 12 16
10 13 17
9 12 16
7 10 13
8 11 14
9 12 15
8 11 15
9 12 16
10 13 17
10 12 17
8 11 14
9 11 15
10 13 17
9 11 15
9 12 16
9 12 15
10 13 18
10 13 18
9 12 16
10 13 17
10 13 18
10 13 17
10 14 18
11 15 20
11 14 19
10 13 17
11 14 19
11 14 18
11 14 19
11 15 20
12 15 20
10 13 18
10 13 18
9 12 16
11 15 20
11 14 18
12 15 20
11 14 19
11 15 20
11 14 19
11 14 19
11 14 19
11 14 18
10 14 18
10 13 17
12 15 21
11 15 20
11 15 20
12 15 21
11 14 19
11 14 20
12 16 22
11 14 19
12 16 21
11 15 20
12 16 21
12 15 21
12 16 21
11 15 20
12 16 21
11 15 20
12 15 20
12 16 22
12 16 21
13 16 22
12 15 21
11 15 20
12 15 21
12 15 21
11 15 20
12 16 22
12 16 21
12 15 21
12 16 21
12 15 20
12 16 22
13 16 22
13 17 23
14 18 24
12 16 21
13 17 22
13 17 22
12 15 21
12 16 22
13 17 24
13 17 22
13 17 23
13 17 23
12 16 22
13 17 23
12 16 21
13 17 22
14 18 24
13 17 23
13 17 23
13 17 23
13 16 22
11 15 20
14 18 24
13 17 23
13 16 22
12 16 22
12 16 21
12 16 22
13 17 23
14 18 24
13 17 23
14 18 24
13 17 22
13 17 23
13 17 24
14 18 24
13 17 23
13 17 23
14 18 24
13 17 23
14 18 24
13 17 23
13 18 24
13 17 23
14 18 24
13 18 24
13 17 23
14 19 25
13 17 23
13 17 23
14 18 24
14 18 24
14 18 24
14 18 24
14 18 24
13 17 23
14 18 24
13 18 24
14 18 25
14 18 24
14 18 24
14 18 24
13 17 23
14 18 24
14 18 24
14 18 24
13 17 23
13 17 24
14 18 24
14 18 24
13 17 24
14 18 24
14 18 24
14 18 25
14 18 24
14 18 25
14 19 25
12 16 22
14 18 24
14 18 24
14 18 25
13 17 23
14 18 25
14 18 24
13 17 23
14 18 24
14 18 24
13 17 22
14 18 25
14 18 24
13 17 23
13 17 23
14 18 24
13 17 23
14 18 24
14 18 24
14 18 24
13 17 23
13 17 24
13 17 23
13 17 23
14 18 25
14 18 24
13 17 22
13 17 23
13 17 23
13 17 23
13 17 23
14 18 24
13 17 24
14 18 24
14 18 24
13 17 23
13 17 22
13 17 23
13 17 23
13 17 23
13 17 23
13 17 23
13 17 23
13 17 23
13 17 22
12 16 22
13 17 23
13 17 23
13 17 23
13 17 23
13 17 23
13 17 22
13 17 23
12 16 21
12 16 22
13 17 23
12 16 22
13 17 23
13 17 22
13 17 23
13 17 23
12 16 22
13 17 22
12 16 22
13 18 24
12 16 22
13 17 23
12 16 21
13 17 23
13 17 24
12 16 22
12 16 22
12 16 22
13 17 23
12 16 21
12 16 21
12 16 22
12 15 21
14 18 24
12 15 21
13 17 22
11 15 20
13 16 21
12 16 21
12 16 21
11 15 20
12 16 21
13 17 23
12 16 21
12 15 21
11 15 20
12 16 21
12 15 20
10 13 18
12 15 21
12 15 20
12 15 21
13 17 23
12 15 20
11 15 20
12 16 21
11 14 19
13 16 22
11 14 19
11 15 20
11 14 18
11 14 19
12 15 20
12 15 21
10 13 17
10 13 18
11 14 19
10 13 18
11 14 19
9 12 16
11 14 19
10 13 17
11 14 19
11 14 19
11 14 19
11 14 19
10 13 18
10 13 17
10 13 18
10 13 18
11 14 19
9 12 16
10 13 17
10 13 17
11 14 18
10 13 17
9 12 16
10 12 17
10 13 17
10 13 17
8 11 15
9 12 16
8 10 13
8 11 14
10 12 16
9 12 16
8 10 14
10 13 17
9 11 15
10 13 17
8 10 13
9 11 15
8 11 14
10 13 17
10 12 16
7 10 13
7 9 13
7 9 11
7 8 11
8 10 13
8 10 13
8 10 13
9 11 15
8 10 13
6 7 10
10 12 16
8 10 14
6 8 10
7 9 12
7 9 12
7 9 12
7 9 11
7 8 11
7 9 12
6 8 10
7 9 12
5 7 9
5 6 8
7 9 12
7 8 11
5 7 9
6 8 10
7 9 11
7 9 11
6 7 9
6 8 11
7 9 11
7 9 11
5 7 9
6 8 10
5 6 9
6 8 10
5 7 9
6 8 10
4 5 7
5 7 9
6 8 10
6 8 10
5 6 8
4 5 7
7 9 12
6 7 10
6 7 10
6 8 10
5 6 8
5 7 9
6 7 10
6 8 10
5 6 8
6 8 10
5 6 8
5 6 8
6 8 10
7 9 11
6 8 10
6 8 10
6 7 9
6 8 10
5 6 8
6 7 10
6 8 10
7 9 12
7 8 11
5 7 9
5 7 9
6 8 10
5 7 9
8 10 13
6 7 9
6 8 10
7 9 12
7 9 11
7 9 12
6 8 11
7 9 12
6 7 10
6 8 10
8 10 13
6 8 11
8 10 14
5 7 9
6 8 11
7 9 12
8 10 14
8 11 14
8 10 14
7 9 11
8 10 13
9 12 16
9 11 14
9 11 15
7 9 12
8 10 14
8 10 13
8 11 14
9 11 15
8 10 14
9 12 16
8 11 15
10 13 17
10 12 16
9 12 16
8 11 14
9 12 16
9 11 15
9 12 16
9 12 16
10 12 17
10 12 16
11 14 19
9 12 16
11 14 19
12 15 21
10 13 17
10 13 17
9 12 16
10 14 18
10 13 18
12 16 21
9 12 16
11 15 20
10 13 18
11 14 18
10 13 18
10 13 18
10 13 17
11 14 19
11 14 19
11 14 18
11 15 20
12 15 20
11 15 19
11 14 18
11 15 20
12 16 21
11 15 20
12 16 21
12 15 20
11 14 19
12 15 20
10 13 17
12 15 20
13 16 22
12 15 21
12 15 20
11 15 20
11 15 20
12 16 22
12 16 21
11 15 20
12 15 21
12 16 21
12 16 21
12 16 22
11 15 20
12 15 20
13 16 22
12 16 22
13 16 22
13 17 22
12 16 21
12 15 21
13 16 22
12 16 21
13 17 22
12 16 22
13 17 22
13 17 23
12 16 22
12 16 22
13 17 23
13 17 23
13 17 23
13 16 22
13 17 23
13 17 23
13 17 23
12 16 21
13 17 22
13 16 22
12 16 21
13 17 22
13 17 22
13 17 22
13 16 22
12 16 22
13 17 23
13 17 22
13 17 23
13 17 23
14 18 24
13 17 22
13 17 23
14 18 23
13 17 23
13 17 23
13 17 23
14 18 24
14 18 24
14 18 24
13 17 23
13 17 23
14 18 24
14 18 24
14 18 24
13 17 23
13 18 24
13 18 24
13 16 22
14 18 24
14 18 24
14 18 23
14 18 24
14 18 24
14 18 24
14 18 24
14 18 24
14 18 24
14 18 24
13 18 24
13 17 23
13 17 23
14 18 24
13 17 23
14 18 24
13 17 23
14 18 24
14 18 24
13 17 23
13 17 23
14 18 24
14 18 24
13 17 23
13 17 23
14 18 24
14 18 24
14 18 24
14 18 25
14 18 24
14 18 24
14 18 24
14 18 24
14 18 24
13 18 24
13 17 23
14 18 24
13 17 23
13 18 24
14 18 24
14 18 24
14 18 24
14 18 25
14 18 24
13 18 24
14 18 25
14 18 24
14 18 24
13 17 23
14 17 23
13 17 23
14 18 24
14 18 24
14 18 24
14 18 24
13 17 23
13 17 23
13 17 22
14 18 24
13 17 23
13 17 23
13 17 23
14 18 24
13 17 23
13 17 23
14 18 24
13 17 23
14 18 25
13 17 23
13 17 23
12 16 21
14 18 24
14 18 25
14 18 24
13 17 23
13 17 23
13 17 23
13 17 23
14 18 24
13 17 23
13 17 23
13 17 22
13 17 22
13 16 22
13 17 23
14 18 24
13 17 23
12 16 22
13 17 23
13 17 23
13 17 22
13 17 23
13 17 23
13 17 23
12 15 20
12 16 22
12 16 21
12 16 22
13 17 22
12 16 21
12 16 21
13 17 22
13 17 22
12 16 21
12 16 21
13 17 23
13 17 22
13 16 22
13 16 22
13 17 22
13 17 23
12 16 22
12 15 21
12 16 21
11 14 19
12 16 22
11 15 20
13 17 22
12 16 21
11 15 20
12 15 21
13 16 22
12 16 21
11 15 20
12 15 21
11 15 20
12 15 20
12 16 21
12 15 21
11 15 20
11 14 19
12 16 21
11 15 20
10 13 18
11 14 19
11 15 20
12 16 21
11 14 19
12 16 22
11 14 19
12 15 21
10 13 17
11 14 19
10 13 17
11 14 19
12 16 21
10 13 18
10 13 18
10 13 18
11 14 19
12 15 20
9 12 17
9 12 16
10 13 18
10 14 18
9 11 15
11 14 19
11 14 18
11 14 18
10 13 17
10 13 18
9 12 16
10 13 18
11 14 19
9 12 16
10 13 17
10 13 18
10 13 17
10 12 16
8 10 14
10 13 18
8 11 15
9 12 16
9 12 16
10 13 17
11 14 18
8 11 15
9 11 15
9 12 15
8 10 14
8 10 14
10 13 17
9 12 16
9 12 15
9 12 16
8 11 15
9 11 15
7 9 12
8 10 14
8 10 14
8 10 13
9 11 15
8 11 14
9 11 15
8 10 13
8 10 13
8 10 13
8 10 13
7 10 13
8 10 13
8 10 13
8 10 13
7 9 12
7 9 11
8 10 13
7 8 11
8 10 13
7 9 11
8 10 13
7 9 12
6 8 11
7 9 12
7 8 11
7 9 12
6 8 10
4 6 7
6 8 10
6 8 10
6 8 10
7 9 12
7 9 12
5 6 8
8 10 12
6 8 10
7 9 11
7 8 11
7 8 11
6 7 9
6 8 10
6 7 10
6 7 10
6 7 10
6 8 11
6 8 10
5 7 9
7 8 11
7 9 11
7 9 12
6 7 10
6 8 11
6 7 10
6 8 11
5 6 8
6 8 11
5 6 8
6 8 11
6 8 10
6 8 10
6 8 10
6 8 11
6 8 10
6 8 11
7 8 11
6 7 10
5 7 9
6 7 9
7 9 12
6 8 10
6 8 10
6 8 11
7 9 12
7 9 12
6 8 11
7 9 12
6 8 11
7 9 11
6 8 11
5 7 9
6 8 11
7 9 12
7 9 11
7 9 12
8 10 14
7 9 12
8 10 13
9 11 15
8 10 13
9 11 15
8 10 13
9 11 15
8 11 14
9 11 15
8 11 14
7 10 13
7 9 12
7 9 12
9 11 15
8 11 14
9 12 16
8 11 15
10 12 16
9 12 15
10 12 16
9 12 16
11 14 19
8 11 15
10 13 18
10 13 17
9 12 17
9 12 16
10 13 18
9 12 16
9 12 16
10 13 18
11 14 19
10 13 17
10 13 18
10 13 18
10 13 18
11 15 20
11 14 18
11 14 19
11 14 18
10 14 18
11 14 20
10 13 17
10 14 19
11 14 19
10 13 18
11 15 20
11 15 20
10 14 19
12 15 20
11 15 20
12 16 21
11 14 19
11 14 19
11 14 19
11 15 20
12 16 21
12 15 21
11 14 19
13 16 22
12 15 20
12 15 21
11 14 19
12 16 22
12 16 21
12 15 21
12 15 20
12 16 21
13 17 22
12 15 20
10 14 19
12 15 20
12 15 20
13 17 22
12 16 21
12 16 22
12 15 20
12 15 21
13 16 22
12 16 21
11 15 20
13 16 22
12 16 22
12 16 21
11 15 20
12 16 21
13 16 22
11 15 20
12 15 21
12 16 21
12 16 21
13 16 22
13 17 23
13 17 22
13 17 23
13 17 22
13 17 23
13 17 22
13 17 23
13 16 22
13 17 23
14 17 23
13 17 23
13 17 24
13 17 22
13 17 22
12 16 21
12 16 22
14 18 24
13 17 23
12 16 22
13 17 23
12 16 22
13 17 23
14 18 24
13 16 22
13 17 22
14 18 25
14 18 24
14 18 23
14 18 24
13 17 22
13 17 23
13 17 23
13 18 24
13 17 23
13 16 22
14 18 24
13 17 23
14 18 24
13 17 23
13 17 23
13 17 22
14 18 24
13 17 23
14 18 24
13 17 23
13 17 24
14 18 25
13 17 23
14 18 24
13 17 23
14 18 24
13 17 22
13 17 23
13 17 23
14 18 24
14 18 24
14 18 24
13 17 23
14 18 24
14 18 24
14 18 25
13 17 23
14 18 24
14 18 24
14 18 24
14 18 24
14 19 25
14 18 24
14 18 24
13 17 23
14 18 24
14 18 24
14 18 24
14 18 24
14 18 25
14 18 24
13 17 23
13 17 23
13 17 23
14 18 24
14 18 24
14 18 24
14 18 24
14 18 24
13 17 23
14 18 24
14 18 24
14 18 24
13 18 24
14 18 24
14 17 23
14 18 24
14 18 24
14 18 24
14 18 24
14 18 24
12 16 22
13 17 23
13 17 24
14 18 24
14 18 24
14 18 24
13 17 23
13 17 23
14 18 24
13 17 23
14 18 24
13 17 23
13 17 23
14 18 24
12 16 22
13 17 23
13 16 22
13 17 23
13 18 24
13 17 23
13 17 23
13 17 22
13 17 23
13 17 23
14 18 24
14 18 23
13 17 23
13 17 23
13 17 23
13 17 23
13 17 23
13 16 22
13 17 23
13 17 23
13 17 23
12 16 21
12 16 22
12 15 21
13 17 23
12 16 22
12 16 21
13 16 22
13 17 22
12 16 22
13 17 23
12 16 22
12 16 21
13 16 22
13 17 23
13 17 23
12 16 21
13 17 23
12 16 21
13 16 22
12 16 22
12 16 21
13 17 23
12 16 21
12 15 20
12 16 21
12 16 21
12 15 21
11 15 20
12 15 21
12 16 22
13 16 22
11 15 20
11 14 19
12 16 21
11 15 20
12 15 21
11 14 19
11 14 19
12 15 20
12 15 20
12 15 20
11 14 19
11 14 19
12 15 20
11 15 20
11 15 20
10 13 18
11 14 19
11 15 20
11 14 19
11 15 20
10 13 18
11 15 20
10 14 18
11 14 18
9 12 16
11 14 18
10 14 18
10 13 18
10 13 18
10 13 17
11 14 19
11 15 20
9 12 16
10 13 17
10 13 18
8 11 14
11 15 19
9 12 16
10 13 17
10 13 17
9 12 17
10 13 17
8 11 15
9 11 15
10 12 16
9 11 15
9 12 16
10 12 17
10 12 16
9 11 15
9 11 15
8 10 13
10 12 16
9 12 16
9 11 15
9 11 15
9 12 15
8 10 14
9 12 16
8 10 14
9 11 15
9 12 15
8 10 14
7 9 11
7 9 12
6 8 11
8 10 13
9 11 15
8 10 14
7 9 12
10 12 16
7 9 12
7 9 12
8 10 13
7 9 12
7 9 12
7 9 12
7 9 12
8 10 14
8 10 14
7 8 11
6 8 10
7 9 12
6 7 10
6 8 11
7 9 12
5 7 9
6 8 11
6 8 10
6 8 11
7 9 12
7 9 12
8 10 13
8 10 13
6 7 10
7 9 12
6 8 10
8 10 13
7 8 11
6 8 11
6 7 9
6 8 11
6 8 11
7 9 11
7 9 12
6 7 10
5 6 8
6 8 11
8 10 13
7 9 12
6 8 11
7 8 11
5 7 9
6 8 11
7 9 12
7 9 12
7 9 13
6 8 10
6 8 10
7 9 12
5 7 9
6 8 11
6 8 11
7 9 12
6 8 10
8 10 13
6 8 11
7 9 12
7 9 11
8 10 13
7 9 12
8 10 13
8 10 13
7 9 12
8 10 14
6 8 10
7 9 12
7 9 12
8 10 13
8 10 14
8 10 13
8 11 14
8 10 13
9 12 16
8 11 14
8 10 13
8 10 13
9 11 14
7 9 12
9 11 15
9 12 16
9 12 15
7 10 13
8 11 14
9 11 15
9 11 15
9 11 15
8 10 14
9 11 15
8 11 14
8 11 15
9 12 16
9 12 16
9 12 16
9 11 16
9 12 16
10 12 16
10 13 17
10 13 17
8 11 14
11 14 18
9 12 15
10 13 18
9 12 16
11 14 18
10 12 17
10 13 18
11 14 18
10 13 17
9 12 15
10 13 17
10 13 17
11 15 20
10 13 18
11 14 19
10 13 18
11 14 19
10 12 17
11 14 19
11 14 18
11 14 19
11 15 20
12 15 21
11 14 19
10 14 18
10 13 17
12 15 20
11 15 20
10 13 18
12 15 20
12 16 21
12 15 20
11 14 19
12 15 21
11 15 20
10 14 19
10 14 18
12 16 21
10 14 18
11 14 19
12 16 22
12 16 21
12 16 21
12 15 21
11 15 20
13 16 22
12 16 21
12 15 20
12 16 21
12 16 21
12 15 21
12 16 21
12 16 21
13 16 22
12 16 21
12 16 22
12 15 20
13 17 23
12 16 22
12 15 20
12 16 21
13 17 22
12 15 21
12 16 22
13 17 23
12 16 22
13 16 22
12 16 22
12 16 21
12 16 22
12 16 21
13 16 22
13 17 23
13 17 23
12 16 22
13 17 23
13 17 23
13 17 23
13 17 23
13 17 22
13 18 24
13 17 23
13 17 22
13 17 23
13 17 23
13 17 23
13 18 24
13 17 23
13 17 23
13 18 24
13 17 23
13 17 24
14 18 24
12 16 21
13 17 23
13 17 22
13 17 23
13 17 23
13 17 23
13 17 23
13 17 23
13 17 23
13 17 23
13 17 24
14 18 24
13 17 22
14 18 24
13 16 22
14 18 24
13 17 23
14 18 23
13 17 23
14 18 24
14 17 23
14 18 24
13 18 24
14 18 24
13 17 23
14 18 23
14 18 24
13 17 23
14 18 24
14 18 24
14 18 25
14 18 24
14 18 24
14 18 24
14 18 24
14 18 24
13 18 24
13 17 23
14 18 24
14 18 24
13 17 23
14 18 25
14 18 24
13 18 24
13 17 24
14 18 24
14 18 24
14 18 24
14 18 24
14 18 24
14 18 24
13 17 23
13 17 23
13 17 23
14 18 24
14 18 24
14 18 24
13 18 24
14 17 23
13 17 23
14 19 25
13 17 23
13 17 23
13 17 23
14 18 24
13 17 23
14 18 25
14 18 24
13 17 23
14 18 25
14 18 24
13 17 23
13 17 23
13 17 23
13 17 23
13 17 23
14 18 24
13 17 24
13 17 23
13 17 24
13 17 23
14 18 24
13 17 23
13 16 22
13 17 23
13 17 23
12 16 22
13 17 23
14 18 24
14 18 24
13 17 23
12 16 22
12 16 22
13 17 23
13 17 23
13 17 22
13 17 23
12 16 21
13 16 22
13 16 22
13 17 22
13 17 23
12 15 20
13 17 23
13 17 23
13 17 23
12 15 21
13 17 23
13 17 22
12 16 21
13 16 22
13 16 22
12 16 21
12 16 21
13 17 23
13 17 23
13 16 22
12 15 21
12 16 22
13 16 22
13 16 22
12 16 21
12 16 21
12 15 20
13 16 22
12 16 21
13 17 23
12 15 20
12 16 22
12 16 21
12 15 21
12 16 21
13 16 22
13 16 21
11 14 19
12 16 21
12 15 20
12 16 21
11 15 20
12 16 21
11 14 19
12 15 20
11 14 19
12 15 20
11 14 19
11 15 20
12 15 20
12 15 20
11 15 20
11 14 18
11 15 20
12 15 20
12 15 20
11 15 20
11 14 19
12 15 20
11 15 20
11 14 18
10 13 18
11 14 19
12 15 20
11 15 20
10 13 17
11 14 18
11 14 18
9 11 15
10 13 18
11 15 20
11 14 19
10 14 18
10 13 17
9 12 17
10 13 17
11 14 19
10 12 17
10 13 18
9 11 15
11 14 19
8 10 13
9 12 16
9 12 16
9 11 15
8 10 13
9 12 16
8 10 14
8 10 14
9 11 15
10 12 17
10 12 16
10 12 16
8 10 14
9 12 15
9 11 15
9 12 15
9 11 15
8 10 13
8 10 13
7 9 12
8 10 13
8 11 15
7 10 13
9 11 15
8 10 13
9 12 15
8 10 14
9 11 15
8 11 14
7 10 13
8 10 13
7 9 12
7 10 13
8 10 13
7 9 12
6 8 11
7 9 12
7 9 12
5 7 9
7 9 12
6 8 11
6 8 11
6 7 10
8 10 13
7 9 12
7 9 12
6 7 9
7 9 12
7 9 12
6 8 10
5 7 9
7 9 11
7 9 12
6 8 10
7 9 12
7 9 12
7 9 11
5 6 8
7 8 11
6 8 10
6 8 11
7 9 12
7 8 11
7 9 11
7 9 12
6 7 10
7 8 11
7 9 12
6 8 10
6 7 10
8 10 13
6 8 10
6 8 11
7 9 12
7 9 11
6 8 10
8 10 14
7 9 11
5 6 8
7 9 11
5 7 10
7 9 11
6 7 10
7 9 12
7 9 12
6 8 10
8 10 14
6 8 10
7 9 12
6 8 11
7 8 11
8 10 13
9 11 14
6 7 10
6 8 10
8 11 14
6 8 10
8 10 14
7 9 11
7 9 12
8 10 13
8 11 14
8 11 14
7 9 12
8 10 13
7 9 12
8 10 13
9 11 15
8 10 14
9 11 15
7 9 13
8 11 15
8 11 14
9 12 16
9 11 15
10 13 17
8 10 13
8 10 14
9 12 16
9 12 15
9 11 15
9 12 16
9 11 14
9 12 16
10 13 17
10 13 17
10 13 17
9 12 16
11 14 18
9 12 16
10 13 17
9 11 15
10 13 18
10 13 17
10 13 18
12 15 20
10 12 16
10 13 17
11 14 18
10 13 17
11 14 19
10 13 17
10 13 17
10 13 17
11 14 18
11 15 20
12 16 21
11 14 19
11 14 19
11 14 19
11 14 19
11 14 19
12 15 20
11 14 18
11 14 19
10 14 18
10 13 18
11 14 19
12 15 20
11 14 19
10 14 18
12 15 20
12 15 20
10 14 19
12 16 21
11 14 19
11 15 20
11 14 19
11 15 20
11 14 19
13 16 22
12 16 21
12 16 21
13 17 23
12 15 21
12 16 22
13 16 22
13 16 22
13 16 22
12 15 21
12 15 20
12 15 20
12 15 21
13 17 22
12 16 22
12 16 21
12 16 21
13 16 22
12 15 21
13 17 22
12 16 22
12 16 22
13 17 23
13 16 22
12 16 21
13 16 22
12 16 21
12 16 22
13 17 22
13 16 22
12 16 21
13 17 22
12 16 21
13 17 22
13 17 22
13 17 23
13 17 23
13 17 23
13 17 22
13 17 22
12 16 21
13 17 23
13 17 22
13 16 22
14 18 24
12 15 21
13 17 22
12 16 21
13 17 22
13 18 24
13 17 23
13 16 22
13 17 23
13 17 23
13 17 23
12 16 21
13 17 23
13 17 23
13 17 23
13 17 23
13 17 23
13 17 23
14 18 24
14 18 24
13 17 23
13 17 23
13 17 23
14 18 24
13 18 24
14 18 24
14 18 24
13 17 23
13 17 23
13 17 23
13 17 23
14 18 24
14 18 23
14 18 24
13 17 23
13 18 24
14 18 24
14 18 24
13 17 23
14 18 24
14 18 24
13 17 23
14 18 24
14 18 24
14 18 24
13 17 24
14 18 24
13 17 23
14 18 25
14 18 24
14 17 23
14 18 24
14 18 24
14 18 25
13 17 23
13 17 23
13 18 24
14 18 24
13 18 24
13 18 24
14 18 24
14 18 24
14 18 24
13 17 23
14 18 24
13 17 23
13 17 23
14 18 24
14 18 24
14 18 23
14 18 24
13 17 23
14 18 24
14 18 24
13 17 22
13 17 22
13 17 23
14 19 25
13 17 23
13 17 22
14 17 23
14 18 24
13 17 22
13 17 23
12 16 22
14 18 24
13 17 23
13 17 23
13 17 23
14 18 24
14 18 24
13 17 23
13 17 23
13 17 22
14 18 25
13 18 24
13 17 23
13 17 23
13 17 22
13 17 22
13 17 23
13 17 23
13 17 23
13 16 22
13 17 23
13 16 21
12 16 22
13 17 23
13 17 22
13 16 22
13 17 22
13 17 23
13 16 22
12 16 22
13 17 22
13 17 22
14 18 23
13 16 22
13 17 22
12 16 22
13 17 22
12 16 21
12 16 21
11 15 20
13 17 22
12 16 22
11 15 20
13 17 23
12 15 20
12 16 21
12 16 21
12 16 21
12 15 20
13 16 22
13 16 21
12 15 21
11 15 20
12 16 21
12 16 21
11 15 20
10 14 18
12 15 21
12 16 21
13 16 22
11 15 20
11 15 20
12 15 21
11 14 19
12 15 21
13 17 23
12 16 22
10 13 17
12 16 21
12 15 21
11 15 20
12 15 20
11 14 19
11 14 19
12 16 21
12 15 20
11 14 19
10 13 17
11 15 20
10 13 17
11 15 20
11 15 20
11 15 20
10 13 18
10 13 17
10 14 18
11 14 19
11 14 19
10 12 17
10 13 17
10 13 17
10 13 17
10 12 17
10 13 17
11 14 19
10 13 18
11 14 18
10 12 17
10 13 17
10 13 17
10 13 18
10 12 17
10 12 17
10 13 17
9 12 15
9 11 15
9 12 16
11 14 18
11 14 18
9 11 15
9 11 15
9 11 15
8 11 15
7 9 13
9 11 15
8 10 14
8 10 13
9 12 16
7 9 12
8 10 13
8 10 14
9 12 15
9 12 15
7 9 13
9 11 15
10 13 18
9 11 15
8 11 14
7 10 13
7 10 13
9 11 15
7 9 13
6 8 11
9 11 14
7 10 13
6 8 10
8 10 13
6 8 11
7 10 13
7 10 13
7 9 12
9 12 15
7 9 12
5 7 9
8 10 13
8 10 13
9 11 15
7 9 12
5 7 9
6 8 11
6 7 10
7 8 11
7 9 12
7 9 12
7 9 11
6 8 11
6 7 9
6 8 10
7 9 12
7 9 12
7 9 12
6 8 10
8 10 13
6 8 10
6 8 10
7 9 11
7 9 11
6 8 11
6 7 10
7 9 12
6 8 11
6 7 9
7 9 12
6 8 10
6 7 10
7 8 11
7 9 12
5 7 9
7 9 11
6 8 11
8 10 13
7 9 11
6 8 11
8 10 13
6 8 10
6 8 11
8 10 13
7 9 12
7 9 12
7 9 12
7 9 12
6 8 10
7 9 12
8 10 13
7 9 11
8 10 13
7 9 12
8 11 14
7 9 12
8 10 13
8 10 14
8 10 13
8 10 13
8 10 14
9 11 15
8 10 13
9 11 14
7 9 12
7 9 12
7 9 12
8 10 14
8 10 13
9 12 16
9 11 15
9 11 15
8 11 14
8 11 14
8 11 14
10 13 17
8 11 14
9 12 16
10 12 17
8 10 14
9 12 16
10 13 17
9 12 16
9 12 16
8 11 14
8 10 13
9 12 15
9 12 16
10 14 18
10 13 18
8 11 15
10 13 17
10 12 17
10 12 17
11 14 18
9 12 16
12 15 21
11 15 20
12 15 20
10 13 18
11 14 19
10 13 18
10 13 17
11 14 19
11 14 19
10 13 18
11 14 19
11 15 20
11 15 19
10 14 18
12 16 21
10 13 17
12 16 21
12 15 20
11 15 20
10 13 18
10 13 18
11 14 19
11 14 19
12 15 21
11 15 20
11 14 19
11 14 19
12 16 21
12 15 21
11 15 20
12 15 20
12 15 20
12 16 21
11 15 20
12 16 21
12 15 21
12 16 21
12 16 22
11 14 19
11 15 20
12 15 21
11 14 19
12 16 21
12 15 21
12 16 21
12 15 21
11 14 20
13 17 23
13 16 22
12 15 21
12 16 22
12 16 21
12 16 21
12 16 22
13 17 23
12 16 22
12 16 22
13 17 23
12 16 22
12 16 22
12 16 22
13 17 23
13 17 22
12 16 21
12 16 21
12 16 22
12 16 21
13 17 23
13 16 22
12 16 22
13 17 23
13 17 22
12 16 22
13 18 24
13 17 23
13 17 23
14 17 23
12 16 22
13 17 23
12 16 22
13 17 23
13 17 22
12 16 21
13 17 22
13 18 24
13 17 23
14 17 23
14 18 24
13 16 22
13 17 23
13 17 22
13 17 24
13 18 24
14 18 24
13 17 23
13 17 23
13 17 23
14 18 24
13 17 22
13 17 22
14 18 24
14 18 24
13 17 22
13 16 22
12 16 22
13 17 23
14 17 23
13 17 23
13 17 23
14 18 24
14 18 24
13 17 23
14 18 24
13 17 23
13 17 23
14 18 24
14 18 24
14 18 24
13 17 23
13 17 23
14 18 23
14 18 24
13 17 24
14 18 24
13 17 23
13 18 24
14 18 24
14 18 24
14 18 24
14 18 24
14 18 24
14 18 25
14 18 24
14 18 25
13 17 23
13 17 23
13 17 23
14 17 23
13 17 23
13 18 24
13 17 23
13 17 23
14 18 24
14 18 24
12 16 22
13 17 23
13 17 23
13 17 23
13 17 24
14 18 24
14 18 24
13 17 23
13 17 23
13 17 23
13 17 22
13 17 23
13 17 23
13 17 22
13 17 23
13 17 23
13 17 23
13 16 22
13 17 23
13 17 23
14 18 24
13 17 23
13 18 24
13 17 23
13 17 23
13 17 23
12 16 22
13 17 23
13 17 23
14 18 24
13 17 23
13 17 23
13 17 23
13 17 22
13 17 22
13 16 22
13 16 22
13 17 23
12 16 21
13 17 23
13 17 22
13 17 22
13 17 23
13 16 22
13 16 22
13 16 22
13 17 22
13 17 23
13 16 22
11 15 20
13 17 23
13 17 22
12 16 22
12 16 21
12 16 21
12 16 21
11 15 20
13 16 22
12 16 21
11 15 20
12 15 21
12 16 22
13 17 23
13 17 22
12 16 22
12 15 20
12 15 21
11 15 20
12 16 21
12 15 21
12 16 21
11 14 19
11 15 20
11 14 19
12 15 21
12 16 21
11 15 20
12 15 20
12 15 21
12 15 20
11 15 20
12 16 21
12 16 21
11 14 19
11 15 20
12 15 20
11 14 19
10 14 18
11 14 19
11 14 19
11 14 19
12 16 21
11 14 19
11 14 19
11 14 19
11 14 18
11 14 19
10 13 17
11 14 19
10 13 17
10 13 18
11 14 19
10 13 17
12 15 20
11 14 18
11 14 18
11 14 18
9 12 16
11 15 19
10 13 18
11 14 18
10 13 17
11 14 19
10 12 17
10 13 17
11 14 19
10 13 18
10 13 17
9 12 16
10 13 17
10 13 17
9 12 16
11 14 19
10 13 17
10 13 18
9 11 15
9 12 16
11 14 19
9 11 15
9 12 16
9 12 16
8 10 14
8 10 14
8 11 14
9 11 15
9 11 15
8 10 13
9 11 15
7 9 12
8 11 14
10 12 17
9 11 15
9 11 15
8 11 14
8 10 13
9 11 15
6 7 10
7 9 12
8 10 13
9 11 14
9 11 15
9 11 14
8 10 13
8 10 14
7 9 11
7 9 12
8 10 13
7 9 12
9 11 14
7 8 11
7 9 13
6 7 10
8 10 13
7 9 12
6 8 11
8 11 14
7 9 13
8 10 13
7 8 11
6 7 10
6 8 10
7 9 12
7 9 12
7 9 11
7 9 12
6 8 11
6 8 10
8 10 13
7 9 12
6 8 10
6 8 10
6 8 10
9 11 14
7 8 11
8 10 13
7 8 11
7 8 11
6 8 11
7 8 11
6 8 10
5 7 9
8 9 12
6 8 10
7 9 12
6 8 11
7 9 12
8 10 13
6 8 11
7 9 12
6 8 11
8 10 14
8 10 13
7 8 11
8 10 13
7 9 12
8 10 14
7 9 12
8 10 13
7 9 12
7 9 12
7 9 12
9 12 16
8 10 13
6 8 10
7 9 13
9 11 15
7 9 12
9 12 15
8 11 14
8 10 13
7 9 13
8 11 14
8 11 15
9 12 16
9 11 15
8 11 14
8 10 14
9 11 15
8 11 14
9 11 15
8 11 15
9 12 16
7 9 13
8 11 14
9 12 16
8 11 14
8 10 14
8 10 13
9 11 15
9 11 15
8 11 14
9 11 15
9 11 15
9 11 15
8 10 13
10 13 17
10 13 17
10 13 17
8 11 15
9 12 16
9 12 16
9 12 16
11 14 19
8 11 15
9 12 16
10 13 17
10 13 17
11 14 19
10 13 18
11 14 19
9 12 16
10 13 18
9 12 16
11 14 19
11 14 18
9 12 16
10 13 18
10 13 18
11 15 19
11 14 19
10 13 18
11 15 20
11 15 20
11 14 19
11 14 19
11 14 18
10 13 18
11 15 20
13 16 21
11 15 20
10 14 19
11 14 19
12 15 20
11 15 20
12 16 22
12 15 20
12 16 21
11 14 19
13 16 21
11 15 20
12 15 21
11 14 19
12 15 20
12 16 22
11 14 19
11 15 20
12 16 21
12 15 20
12 16 22
12 15 21
11 14 19
13 16 22
12 16 22
12 15 20
12 15 21
12 16 22
12 16 22
12 15 21
12 15 21
12 16 21
13 16 22
13 16 22
14 18 24
12 16 21
12 15 21
11 15 21
12 16 22
13 17 22
12 15 21
13 16 22
12 16 21
12 16 22
13 17 23
13 17 22
13 17 23
13 16 22
13 17 22
13 17 23
13 17 23
13 17 22
14 18 24
13 17 23
13 17 23
12 16 22
13 17 22
12 16 21
12 16 22
13 17 23
13 17 24
12 16 21
13 17 23
13 16 22
12 16 22
13 16 22
13 17 23
13 17 23
13 17 22
14 18 24
13 17 24
13 18 24
13 17 23
13 17 23
13 17 22
13 17 23
13 17 22
13 17 23
13 17 22
13 17 23
13 17 23
13 17 23
13 17 23
14 17 23
14 18 24
14 18 25
14 18 24
13 17 23
14 18 24
13 16 22
13 17 23
13 17 22
13 17 23
14 18 24
14 18 24
14 18 24
13 17 24
13 17 23
14 18 24
14 18 24
14 18 24
14 18 24
14 17 23
14 18 23
14 18 25
13 18 24
13 17 23
14 18 24
13 17 23
13 17 24
14 18 24
14 18 23
14 18 24
14 18 24
13 18 24
13 17 23
14 18 24
14 18 24
14 18 24
13 17 23
13 17 23
14 18 24
13 17 23
13 17 23
14 18 24
13 17 23
13 17 23
14 18 24
14 17 23
13 17 23
13 18 24
13 17 24
14 18 24
13 17 24
13 17 23
13 17 23
14 18 24
14 18 24
14 18 24
14 18 24
14 18 24
13 17 22
13 17 23
14 18 24
13 17 23
13 17 23
13 16 22
13 17 23
13 17 23
13 17 23
12 15 21
13 17 23
14 18 24
13 17 22
13 17 22
12 15 20
14 18 24
13 17 23
13 17 23
13 17 23
14 18 24
12 16 22
13 16 22
13 16 22
12 16 22
13 17 24
13 17 22
13 17 23
14 18 24
13 16 22
12 16 21
12 16 21
13 17 23
12 15 20
13 16 22
12 16 21
12 15 21
11 15 20
12 16 22
13 17 22
13 16 22
12 16 22
12 15 20
12 15 21
11 15 19
12 16 21
12 16 21
12 15 21
12 16 21
12 16 22
12 15 21
12 15 21
11 15 20
12 16 21
13 16 22
12 15 20
12 15 20
11 14 19
12 15 20
12 15 21
11 15 19
11 14 19
12 15 20
11 15 20
12 15 20
12 15 20
11 14 19
12 15 21
10 13 18
11 14 19
11 15 19
11 15 19
11 14 18
11 14 19
12 15 20
11 14 19
11 15 19
11 15 20
11 14 19
11 15 20
9 12 17
10 13 18
10 12 17
9 12 16
11 14 19
10 12 16
10 13 18
11 14 19
10 13 18
11 14 19
11 14 19
10 13 17
9 12 16
10 12 16
10 12 16
10 13 18
10 13 17
8 11 15
10 13 17
9 11 15
9 11 15
9 12 16
9 12 16
10 12 17
9 12 15
9 12 16
9 12 16
10 13 17
8 10 14
9 11 15
9 12 15
9 12 16
8 11 15
10 13 17
9 11 15
8 10 13
8 11 14
9 11 15
9 11 15
8 10 13
8 11 15
9 11 14
9 11 15
9 12 16
7 10 13
9 11 15
7 9 12
8 10 13
8 10 14
8 10 13
8 10 13
8 11 14
10 12 17
7 9 12
6 8 11
7 9 12
8 11 14
9 11 15
7 9 12
6 7 10
7 9 12
7 8 11
7 9 12
7 8 11
7 9 12
7 9 12
7 9 12
7 9 12
7 8 11
7 9 12
7 9 11
8 10 13
6 8 11
7 9 12
5 7 9
9 11 14
8 10 14
7 9 12
8 10 13
7 9 12
7 8 11
7 8 11
6 8 10
7 9 12
7 8 11
7 9 12
8 10 13
7 9 11
7 9 12
7 9 12
6 7 10
7 9 12
7 9 12
8 10 13
6 8 11
8 10 13
6 8 10
7 8 11
7 9 12
5 6 8
8 10 13
6 8 11
9 11 15
6 8 10
6 8 10
6 8 10
8 10 13
8 11 14
6 8 11
6 8 11
7 9 12
8 11 14
8 11 14
7 9 12
7 9 12
8 10 13
9 11 15
9 11 15
7 8 11
8 10 13
9 12 16
8 10 13
9 11 15
8 11 14
9 12 16
8 10 13
7 9 13
7 9 13
7 9 13
9 11 15
7 10 13
9 11 15
8 10 14
9 11 15
9 11 15
9 11 14
9 12 16
9 11 15
8 11 14
9 12 16
7 9 12
9 12 16
8 10 13
9 12 15
10 12 17
10 13 17
10 13 17
9 12 16
9 11 15
10 13 18
10 13 17
9 12 16
8 11 14
10 13 18
8 11 15
10 12 17
10 13 18
10 13 17
10 13 17
10 13 17
11 15 20
11 14 18
10 13 18
10 13 18
12 15 20
10 14 18
10 14 19
10 14 18
12 15 20
10 13 18
11 14 19
12 15 21
11 14 18
10 13 18
11 15 20
11 14 19
11 14 19
12 15 20
11 14 19
11 14 19
12 16 21
12 16 22
11 15 20
11 14 19
12 15 20
12 15 21
12 15 21
11 14 19
12 16 21
12 15 21
12 15 21
10 14 19
11 14 19
11 14 19
11 14 18
12 15 20
13 16 22
12 16 21
12 15 21
11 14 19
12 16 22
12 15 20
12 16 21
13 17 23
12 16 21
12 16 21
12 15 21
12 16 21
11 15 20
13 17 22
12 16 22
13 17 22
12 16 21
12 15 20
11 15 20
12 16 21
13 16 22
12 16 21
13 16 22
13 17 23
12 16 22
12 15 21
13 16 22
12 16 21
13 17 22
13 17 22
12 16 21
14 18 24
13 17 22
14 18 24
13 17 23
13 16 22
12 16 22
13 17 22
13 17 23
14 18 24
13 16 22
12 16 22
12 16 21
13 17 23
13 17 23
14 18 24
13 17 23
13 16 22
13 17 23
13 17 23
14 18 24
13 18 24
12 16 22
12 16 22
13 17 23
13 17 23
14 18 23
13 17 23
13 17 23
13 16 22
13 16 22
13 17 23
13 17 23
13 17 23
13 17 23
13 17 23
14 18 24
13 17 23
14 18 24
13 17 22
13 17 23
13 17 22
13 17 23
13 17 23
13 17 23
14 18 24
14 18 24
14 18 24
13 17 23
13 18 24
14 18 25
13 17 23
13 17 23
13 17 23
14 18 24
14 18 24
14 18 24
14 18 24
13 17 23
14 18 24
14 18 24
14 18 24
13 17 23
13 17 23
13 17 23
14 17 23
14 18 24
14 18 24
14 18 24
14 17 23
14 17 23
14 18 24
13 17 23
13 17 23
14 18 24
14 18 24
14 18 24
13 17 23
13 17 23
13 17 23
13 17 23
13 17 23
13 17 23
14 17 23
14 18 24
14 18 24
13 17 23
13 17 23
14 18 24
14 18 24
13 17 24
13 17 22
13 17 23
13 17 23
14 18 24
13 17 23
12 16 21
13 17 23
13 17 23
13 17 22
13 17 23
13 17 23
13 17 22
12 16 22
13 17 23
12 16 21
13 17 23
13 17 23
13 17 22
12 16 21
13 17 23
12 15 21
13 17 23
13 16 22
13 16 22
13 17 22
13 17 23
12 15 21
13 17 22
13 17 23
14 18 24
12 16 22
13 16 22
12 16 22
13 18 24
12 16 21
13 16 22
13 17 23
12 16 22
12 15 21
12 16 22
13 17 22
13 17 23
13 17 22
13 16 22
12 16 21
12 16 22
12 16 22
12 16 21
12 16 22
12 16 21
12 16 21
12 16 21
12 15 20
12 15 20
12 15 20
12 16 22
12 16 22
11 15 20
13 16 21
11 15 20
12 15 20
12 16 21
13 16 22
12 16 21
12 15 20
11 14 19
12 15 21
11 14 19
11 15 20
12 15 20
13 16 22
10 13 18
10 14 18
11 15 19
12 15 20
9 12 17
10 13 17
10 13 18
11 15 20
11 15 20
11 14 19
10 14 18
12 15 20
10 14 19
11 14 19
11 14 19
10 13 17
10 13 18
9 12 15
11 15 20
11 14 19
11 14 18
11 14 18
11 14 19
10 13 17
11 14 18
10 14 18
10 13 17
10 13 17
11 14 19
10 13 18
10 13 17
10 12 16
10 13 17
9 12 16
9 12 16
10 13 17
9 12 16
9 12 16
10 13 17
9 12 16
9 12 16
9 11 15
11 14 19
9 12 15
9 12 16
9 11 15
9 11 15
9 12 16
7 9 12
10 12 16
9 12 15
8 10 14
8 10 14
7 9 12
8 11 14
9 11 15
9 11 15
8 11 14
8 11 14
7 9 12
9 12 16
9 11 15
8 10 14
7 9 12
8 10 13
8 10 13
7 9 13
8 10 13
7 9 12
6 8 11
7 9 11
9 11 15
8 10 13
8 10 13
8 11 14
6 8 10
7 9 12
8 10 13
9 11 15
7 9 12
7 9 12
6 8 11
8 10 13
7 8 11
7 9 11
7 9 12
8 10 13
7 9 13
8 10 14
8 10 13
8 11 14
8 10 13
7 9 12
7 9 11
8 10 14
7 8 11
6 8 11
7 9 12
7 9 11
8 10 13
6 8 10
8 10 13
6 7 10
7 9 12
6 7 10
9 11 14
7 8 11
7 9 12
8 10 13
8 10 14
7 9 12
7 9 13
6 8 10
8 10 13
6 8 11
8 10 13
7 9 12
6 8 10
7 9 11
8 10 13
7 9 12
8 10 14
7 9 12
8 10 13
9 11 15
7 9 12
8 11 14
7 9 12
8 10 13
7 9 12
9 11 15
7 9 12
7 9 13
8 11 15
10 13 17
9 12 16
8 10 14
7 9 13
8 10 14
8 10 14
9 11 15
9 11 15
9 11 15
8 10 13
9 11 15
9 11 15
10 13 17
8 11 14
9 12 16
9 12 16
10 13 17
10 13 17
9 11 15
9 12 17
9 11 15
9 12 16
9 12 16
10 13 17
10 13 17
9 12 16
9 12 16
11 14 19
10 13 17
10 12 17
10 13 17
11 14 19
11 14 18
10 13 18
10 12 17
10 13 17
11 14 18
10 13 17
10 12 17
11 14 19
12 15 20
10 14 19
10 13 17
11 14 19
11 14 19
11 14 18
10 14 18
10 14 18
11 14 19
10 13 18
11 15 19
11 15 20
10 13 17
11 14 19
11 15 20
12 15 20
11 14 19
10 14 18
12 15 20
11 15 20
12 15 20
10 14 19
13 17 22
11 15 20
10 13 18
12 16 21
12 15 20
12 16 22
12 16 21
12 16 21
12 15 20
12 15 21
11 15 20
12 15 21
12 16 22
12 15 20
12 15 20
12 16 22
12 16 21
12 15 21
12 15 20
12 15 21
13 17 22
12 16 22
13 17 22
12 16 21
13 17 22
12 16 21
12 15 20
12 16 21
12 16 21
13 17 23
13 16 22
12 16 21
12 16 21
13 17 23
12 16 22
12 16 21
13 17 23
12 16 22
12 16 21
12 16 22
13 17 23
12 16 22
13 17 23
13 17 22
13 17 22
14 18 24
12 15 20
12 16 22
12 16 22
12 16 21
12 16 21
13 17 22
13 17 23
12 16 21
13 17 23
12 16 22
12 16 22
13 17 23
13 17 23
13 17 23
14 18 24
13 17 23
13 18 24
13 17 23
13 17 23
13 17 23
13 17 23
13 17 23
14 18 24
13 17 23
14 18 24
14 18 24
13 17 23
14 18 24
13 17 22
14 18 25
13 17 23
13 17 23
14 18 24
14 18 24
13 17 23
13 17 23
13 17 23
14 18 24
12 16 22
13 17 23
13 17 23
13 16 22
13 17 22
13 17 23
13 17 23
14 18 24
13 17 23
14 18 25
14 18 24
13 17 23
14 18 24
13 17 24
14 18 25
14 18 24
14 18 24
14 18 24
14 17 23
14 18 24
14 18 24
14 18 25
13 17 23
13 17 23
14 18 24
14 18 24
13 17 23
14 18 24
14 18 24
13 18 24
14 18 24
14 18 24
14 18 24
14 18 24
13 17 22
13 18 24
13 17 23
14 18 24
13 17 23
13 17 23
13 17 23
14 17 23
13 17 23
13 17 22
12 16 22
14 18 24
14 18 24
14 18 24
13 17 23
13 17 23
14 18 24
13 17 23
13 17 23
14 17 23
13 16 22
13 16 22
12 16 22
13 17 22
13 17 23
13 17 23
13 17 22
11 15 20
13 17 23
14 18 24
13 17 23
14 18 24
13 17 23
13 17 22
13 16 22
12 15 21
12 16 22
12 16 22
12 16 22
13 17 23
13 17 23
12 16 22
12 16 21
13 17 22
14 18 24
13 17 23
13 16 22
13 16 22
12 15 21
12 16 21
13 17 23
12 15 21
12 16 22
12 16 22
11 15 20
12 16 21
12 16 22
12 16 22
12 16 21
12 16 21
12 16 21
12 16 22
13 16 22
12 16 21
12 15 20
12 15 21
12 16 22
11 15 20
11 15 20
11 15 20
12 16 21
12 15 20
13 17 22
12 16 21
12 15 21
12 15 21
11 15 20
12 16 21
11 15 20
11 14 19
12 15 20
12 15 21
13 16 22
11 14 19
11 15 20
11 14 19
10 13 18
12 15 20
11 15 20
11 15 20
11 14 19
11 14 19
10 14 18
10 14 18
10 13 18
11 14 19
12 15 20
11 15 20
11 14 19
10 13 17
10 13 18
12 16 21
11 14 19
10 13 18
10 13 18
10 13 18
10 13 17
10 13 18
11 14 18
11 14 19
10 12 17
10 13 17
10 13 17
10 13 17
9 12 16
10 13 17
11 14 19
12 15 20
9 12 16
10 13 18
9 12 16
9 11 15
10 13 18
8 11 14
10 12 16
8 10 14
10 12 17
10 13 18
10 13 18
9 11 15
9 11 15
8 11 14
9 11 15
9 11 15
10 13 17
9 12 16
8 11 14
7 10 13
10 12 17
7 9 13
8 10 14
8 11 14
8 10 14
8 11 14
8 11 14
8 10 13
8 10 13
8 11 14
9 11 15
9 12 16
7 9 12
10 12 16
7 9 12
8 10 13
8 10 14
8 10 13
7 9 12
7 9 12
7 9 12
7 9 11
6 8 11
9 11 15
8 11 14
9 11 15
8 10 14
7 9 13
7 8 11
7 9 12
9 11 15
9 11 15
7 9 12
6 8 10
7 9 12
8 10 13
7 9 12
7 9 13
6 8 11
7 10 13
7 9 12
8 11 14
8 10 13
8 10 14
7 8 11
6 8 11
6 8 11
9 11 14
7 8 11
7 9 12
7 9 12
7 9 12
6 8 10
7 8 11
7 9 12
6 8 11
7 9 12
6 8 10
8 10 13
8 11 14
7 10 13
8 11 14
8 10 13
7 9 12
7 9 11
8 10 13
7 9 12
8 10 13
8 10 13
7 9 12
7 10 13
7 10 13
8 10 13
8 10 14
10 12 16
8 11 14
7 9 12
9 12 15
8 11 14
8 11 14
9 12 16
8 10 14
9 11 14
8 11 14
10 12 17
8 10 13
9 11 15
9 11 14
8 10 13
9 12 16
9 12 16
10 13 17
8 10 14
9 12 16
8 11 14
9 11 15
9 12 16
9 11 15
10 13 17
10 13 17
10 12 16
10 13 18
8 10 13
10 13 17
9 11 15
10 13 17
10 13 17
10 13 18
8 11 14
9 11 15
10 13 18
10 14 18
8 11 14
11 14 18
10 13 17
10 13 17
10 13 17
11 14 19
11 14 19
12 15 20
10 13 17
10 13 17
10 13 17
11 14 19
12 15 21
10 13 17
10 14 18
11 14 18
10 13 18
10 14 18
11 15 20
11 14 18
11 15 20
11 15 19
12 15 20
12 15 20
11 14 19
11 14 19
11 14 18
11 14 19
11 14 19
11 14 19
12 15 20
12 16 21
11 14 19
11 14 19
11 14 19
10 13 18
10 13 18
12 15 20
11 15 20
11 14 19
12 16 21
12 15 20
12 16 21
12 16 21
12 15 20
12 16 22
12 16 21
11 15 20
12 16 21
11 14 19
11 14 19
13 17 22
12 16 21
12 16 21
12 15 21
13 17 23
12 15 20
13 17 23
12 16 22
12 15 21
13 17 23
12 16 21
13 16 22
13 16 22
12 16 21
12 16 21
13 16 22
13 17 23
13 17 23
13 16 22
12 15 21
13 17 23
12 16 21
13 17 23
12 16 21
13 17 22
13 17 23
13 17 23
12 16 21
13 17 23
13 17 23
13 17 22
14 18 24
13 17 23
12 16 22
13 16 22
12 16 22
12 15 21
13 16 22
13 17 23
13 17 23
13 17 22
14 18 24
13 17 23
13 17 23
13 17 24
13 17 23
13 17 23
14 18 24
13 17 22
13 17 23
13 17 23
13 17 23
13 17 23
13 17 23
14 18 24
13 16 22
14 18 24
13 17 23
13 17 23
13 17 22
14 18 24
14 18 24
14 18 24
13 17 23
13 17 23
13 16 22
13 17 23
13 17 23
13 17 22
13 17 23
14 18 24
14 18 24
13 17 23
14 17 23
14 18 24
14 18 24
13 17 24
14 18 24
14 18 24
13 17 23
13 17 23
14 18 24
14 18 24
14 18 24
14 18 24
13 17 23
14 18 24
14 18 24
13 17 23
14 18 24
14 18 24
13 17 23
13 17 23
14 18 24
13 17 23
14 18 24
13 17 23
13 17 23
13 17 23
13 17 23
13 17 23
13 17 23
13 17 23
13 17 22
14 18 24
14 18 24
14 18 24
13 17 23
13 17 23
13 17 22
13 18 24
14 18 24
13 16 22
13 17 22
14 17 23
13 17 23
14 18 24
13 17 24
13 17 23
12 16 21
13 17 23
13 17 23
13 17 23
13 17 23
13 17 22
12 16 22
13 17 23
13 17 23
13 17 23
13 18 24
13 17 23
13 16 22
12 16 21
13 17 23
13 16 22
13 16 22
13 17 23
13 16 22
12 16 22
13 17 24
12 16 22
12 16 22
13 17 23
13 17 23
13 16 22
12 16 21
12 15 20
14 18 24
13 17 23
13 17 22
13 17 23
12 16 21
12 16 21
12 16 22
13 17 23
13 17 23
12 15 20
13 16 22
12 16 22
11 15 20
12 16 22
12 15 21
13 17 22
12 15 21
12 16 21
12 16 21
12 15 21
12 16 21
12 15 21
11 14 19
12 16 21
11 15 20
12 16 21
12 16 21
12 15 20
12 16 21
12 15 20
13 16 22
12 16 21
11 14 19
11 14 19
12 15 21
12 15 20
11 15 20
13 16 22
12 15 20
12 16 21
10 13 18
12 16 21
11 14 19
9 12 17
12 15 20
11 15 19
12 15 21
10 13 18
11 14 19
11 14 18
10 14 18
11 14 19
11 14 19
9 12 16
12 15 20
10 13 18
12 15 21
10 13 17
9 12 16
11 15 20
10 14 18
10 13 17
11 14 19
11 14 18
11 14 18
10 13 17
10 13 18
10 13 18
10 12 17
9 12 16
11 14 19
9 12 16
10 13 17
9 12 17
10 12 17
10 12 17
9 12 16
10 13 17
11 14 19
11 13 18
10 13 18
9 12 16
10 13 17
8 11 15
9 12 15
9 12 16
9 11 15
10 13 17
7 8 11
9 12 16
10 12 17
9 11 15
8 11 14
8 10 13
8 11 14
8 10 14
9 12 16
7 9 12
9 11 15
8 11 14
9 11 15
9 11 15
9 11 15
9 11 15
9 12 16
7 8 11
8 11 14
7 9 12
7 9 12
7 9 12
8 10 14
8 11 14
7 9 12
8 11 14
7 9 12
9 11 15
7 9 12
8 10 13
7 9 12
7 9 12
7 9 12
8 10 13
8 11 14
7 9 11
8 10 14
6 8 11
8 10 14
8 10 13
8 10 14
8 11 14
7 9 12
9 12 15
8 10 14
8 10 14
8 10 13
8 9 12
8 10 13
7 9 12
7 9 12
7 9 12
7 9 12
6 8 11
8 10 13
7 9 13
7 9 12
8 10 13
7 9 12
8 10 13
8 10 13
7 9 12
9 11 14
9 11 15
8 10 14
7 9 13
7 9 12
9 11 15
7 10 13
9 11 15
9 11 15
7 10 13
7 9 12
7 9 12
8 10 13
7 9 13
8 10 13
9 11 15
7 9 12
7 9 12
9 11 15
7 9 12
9 11 15
9 11 15
9 12 16
8 10 14
8 10 14
9 12 16
8 11 14
9 11 14
8 10 14
9 12 16
9 11 15
9 12 16
9 11 15
9 11 15
9 11 15
8 10 14
8 11 15
9 12 16
9 12 16
9 12 16
8 11 15
10 13 17
8 11 15
9 12 16
9 11 15
9 12 16
11 14 19
10 13 17
9 12 16
10 13 18
10 13 18
10 13 17
9 12 16
11 14 19
11 15 20
10 13 18
10 13 17
9 12 16
10 12 17
11 14 18
12 15 20
10 13 17
10 13 17
10 13 18
11 14 19
10 12 16
10 14 18
10 13 17
10 14 18
10 13 18
11 14 18
10 13 18
9 12 16
11 14 18
10 13 17
12 16 21
10 14 18
10 14 18
12 15 21
12 15 20
11 14 19
12 16 21
11 15 20
10 13 18
11 14 19
11 15 20
12 15 20
12 15 21
12 16 21
13 17 22
12 15 21
12 16 21
11 14 19
11 15 20
11 14 19
12 15 20
11 15 20
11 15 20
11 15 20
12 16 21
12 15 20
12 16 21
13 16 22
13 17 23
12 16 21
12 15 20
13 16 22
11 14 19
11 15 20
12 16 21
12 16 21
13 17 23
13 17 23
12 16 21
13 16 22
12 16 21
12 16 22
12 15 20
13 17 22
13 17 23
12 16 21
13 16 22
12 16 22
12 16 21
13 17 23
12 16 21
12 16 22
13 16 22
14 18 24
13 16 22
13 18 24
13 17 22
13 17 23
14 18 24
13 17 23
13 16 22
13 17 22
13 16 22
13 17 23
12 15 21
12 16 21
13 17 23
13 16 22
13 17 23
13 16 22
13 17 22
13 17 23
13 17 23
13 17 23
13 17 23
13 17 24
13 17 23
13 17 23
13 17 23
14 17 23
13 17 23
13 17 23
13 17 22
13 17 23
13 17 23
14 18 24
13 16 22
13 17 23
14 18 24
13 17 23
13 17 23
14 18 24
14 18 24
13 18 24
13 17 23
13 17 23
14 18 24
13 17 23
14 18 25
13 17 23
14 17 23
14 18 24
13 17 22
13 17 23
13 17 22
14 18 24
14 18 24
13 17 23
14 18 24
13 17 23
14 17 23
14 18 24
13 17 23
13 17 23
13 17 22
13 17 23
14 18 24
13 18 24
14 18 25
14 18 24
13 17 23
13 18 24
13 17 23
14 18 24
13 17 22
13 17 23
14 18 24
14 18 24
13 17 23
12 16 22
13 17 22
13 17 23
14 18 24
13 17 23
14 18 24
14 18 24
13 17 23
13 16 22
13 17 23
13 18 24
13 17 23
13 17 23
13 17 23
13 17 23
12 16 22
13 17 23
12 16 22
13 17 23
12 16 21
12 16 21
13 17 23
13 17 23
12 16 22
13 17 22
12 16 22
13 16 22
13 17 23
13 17 23
14 18 24
13 16 22
13 17 23
12 16 21
13 17 22
13 17 22
12 16 21
13 17 23
13 17 23
13 17 23
13 16 22
12 16 21
13 16 22
13 17 23
12 16 22
13 17 23
12 15 21
12 16 22
12 15 21
13 16 22
12 16 21
13 16 22
13 16 22
12 16 21
13 17 23
12 16 22
11 15 20
14 17 23
13 16 22
12 15 20
12 15 20
14 18 24
13 16 22
13 16 22
12 16 21
13 17 22
12 15 21
12 16 21
12 16 21
12 16 22
12 16 21
13 16 22
11 15 20
12 16 22
11 14 19
12 16 21
11 15 20
13 17 22
11 14 19
11 14 19
11 15 20
11 15 20
11 14 19
11 14 19
11 15 20
12 15 21
11 15 20
12 15 21
11 14 20
11 14 19
10 13 18
11 15 20
11 14 19
12 15 21
11 14 19
10 13 18
12 15 20
11 14 19
11 13 18
11 15 20
10 14 18
11 14 19
11 15 20
11 14 19
11 14 19
11 14 19
11 14 19
11 14 19
11 14 19
11 14 19
10 13 18
10 13 18
10 13 18
10 13 17
10 13 17
11 14 19
10 13 18
10 13 17
10 12 17
11 14 18
10 13 17
8 11 15
10 13 18
9 12 16
9 11 15
10 12 16
8 11 14
9 11 15
8 11 14
9 12 15
9 12 15
10 14 18
9 11 15
10 13 17
8 11 14
10 13 17
9 12 15
9 11 15
8 10 14
8 10 13
9 11 15
9 12 16
9 11 15
8 10 14
9 12 15
7 10 13
8 10 13
9 12 16
9 11 15
8 10 14
8 11 15
6 8 11
9 12 15
8 10 13
9 11 15
8 10 13
8 11 14
8 10 13
8 11 14
8 10 13
8 10 13
8 10 13
8 10 13
8 10 13
8 10 13
8 11 14
7 9 12
7 9 13
8 10 14
8 10 14
8 10 13
8 10 14
9 11 15
7 9 12
8 10 14
5 7 9
8 10 13
8 10 14
8 11 14
8 10 13
7 8 11
8 10 13
8 10 13
7 9 12
8 10 14
7 9 11
7 9 12
8 10 13
9 11 15
9 12 15
9 11 15
8 10 13
9 11 15
8 10 13
8 10 13
7 9 12
7 10 13
6 8 11
7 9 12
7 9 12
8 10 14
9 11 15
8 11 14
7 8 11
8 10 13
7 9 12
6 8 11
8 10 14
8 10 13
9 11 15
9 12 16
8 10 13
8 10 13
9 12 16
9 12 15
8 10 13
7 9 12
8 11 14
9 11 15
8 10 13
8 11 14
9 11 15
8 10 14
8 10 14
9 11 15
9 12 15
8 11 15
9 11 15
9 11 15
9 11 15
9 11 15
10 12 17
8 10 14
8 11 15
10 13 18
10 13 17
10 13 18
10 13 17
8 11 14
9 12 16
10 13 18
10 13 18
9 12 16
9 11 15
10 13 17
8 11 14
11 15 19
10 12 16
10 13 18
9 12 16
10 12 17
9 12 16
11 15 20
9 12 16
10 13 17
10 12 17
11 14 19
11 15 20
10 12 17
12 16 21
11 15 19
12 16 21
10 13 18
11 14 18
10 12 17
11 14 19
11 14 18
12 15 21
10 13 17
11 15 20
10 13 18
11 14 19
11 15 20
11 14 19
12 15 21
11 14 19
11 14 19
12 15 21
12 16 21
10 13 18
11 15 20
12 16 21
11 14 19
11 14 19
12 15 20
12 16 21
11 14 19
11 14 19
12 15 20
11 15 20
12 15 20
12 16 21
13 16 22
12 16 21
12 16 21
11 15 20
11 14 20
11 14 19
12 16 21
12 16 22
12 15 21
12 16 21
12 16 22
13 16 22
13 16 22
11 15 20
12 15 20
11 14 19
12 16 21
12 16 21
12 16 22
13 17 23
12 16 21
12 15 21
12 15 21
13 16 22
12 16 22
13 17 23
12 16 21
13 16 22
13 16 22
13 16 22
13 17 23
13 17 23
13 16 22
12 16 21
12 16 21
12 16 22
13 17 23
13 17 23
13 17 23
13 17 23
13 16 22
13 17 23
13 17 23
12 16 22
13 17 23
13 17 23
12 16 22
13 17 23
13 17 22
13 17 23
13 17 22
13 17 22
13 17 23
13 17 22
13 17 23
13 16 22
13 17 23
13 17 23
14 18 24
14 18 24
13 17 24
13 17 22
13 18 24
13 17 23
13 17 23
14 18 24
13 17 24
13 18 24
14 18 24
14 18 24
13 17 22
13 18 24
13 17 23
13 17 23
13 17 23
13 17 23
14 18 24
14 18 24
13 17 23
13 17 23
13 17 22
14 18 24
14 18 24
14 18 24
14 18 25
14 18 24
14 18 24
13 17 23
14 18 24
14 18 24
14 18 24
13 17 23
14 18 24
14 18 24
13 17 23
13 17 23
14 18 24
14 18 24
14 18 24
13 17 23
14 17 23
14 18 24
14 18 24
13 17 23
14 18 24
14 18 24
13 17 22
14 18 24
13 17 23
13 17 23
14 18 24
13 17 23
13 17 23
13 17 23
14 18 24
14 18 24
14 18 24
13 17 23
12 16 21
13 18 24
13 17 24
13 17 23
13 17 22
13 17 22
12 16 22
13 17 23
13 17 22
14 18 24
13 17 24
13 17 23
13 17 22
13 17 23
13 17 23
12 16 22
13 16 21
14 18 24
13 17 23
13 17 23
13 17 22
13 16 22
13 17 23
12 16 21
13 17 23
13 17 23
13 17 23
13 17 22
14 18 24
13 17 22
13 16 22
12 16 22
12 16 21
12 16 22
13 16 22
13 17 23
11 15 20
13 18 24
13 16 22
12 15 20
12 16 21
13 17 23
13 17 22
12 16 21
13 17 22
12 16 21
12 15 21
12 16 21
13 16 22
12 16 21
13 17 22
12 15 21
13 17 23
11 14 19
13 16 22
12 16 21
11 14 20
13 17 22
11 15 20
12 15 20
11 15 20
12 15 21
12 15 21
13 17 22
12 16 21
12 16 21
11 14 19
11 14 19
12 15 20
11 15 20
12 16 21
12 16 21
12 15 20
10 13 17
12 16 21
11 15 20
12 16 21
10 13 17
11 14 19
11 14 19
12 15 21
11 14 19
11 14 19
12 15 20
11 14 19
11 14 19
11 14 19
11 14 19
10 13 18
11 14 19
11 15 20
10 13 17
10 13 18
11 14 19
11 14 19
10 13 18
10 13 18
11 14 19
10 13 18
9 12 16
11 14 19
10 13 17
9 12 16
9 12 16
10 13 17
11 14 18
9 12 16
10 13 17
9 12 16
10 13 17
10 12 16
9 12 15
10 13 18
10 13 17
10 13 17
9 12 16
10 13 17
9 11 15
9 12 16
9 11 15
9 11 15
9 12 16
10 13 17
10 12 17
9 11 15
9 11 15
10 13 18
7 10 13
8 11 15
9 11 15
9 11 15
8 10 13
8 11 14
11 14 19
9 12 16
8 11 15
8 10 14
8 11 14
8 10 14
9 12 16
8 11 14
7 9 12
7 9 11
9 11 15
7 10 13
9 11 15
8 11 15
7 9 12
8 10 13
8 10 14
7 10 13
8 11 14
8 11 14
9 11 15
8 10 13
8 10 13
8 10 13
8 10 14
7 9 12
8 10 13
6 7 10
8 11 14
8 10 13
8 11 14
8 11 14
8 11 14
7 9 12
7 9 12
8 11 14
8 10 13
9 11 14
8 10 13
8 10 14
9 11 15
9 11 15
7 8 11
7 9 12
8 10 13
9 12 16
8 10 14
7 9 12
6 8 11
9 11 15
7 9 12
6 8 11
9 11 15
6 7 10
9 11 15
6 8 11
8 10 13
8 10 14
7 9 12
8 11 14
7 9 13
7 9 12
8 11 14
7 9 12
8 10 13
8 10 13
7 9 13
7 9 12
8 10 13
8 10 13
8 11 14
8 11 14
8 11 15
7 9 13
8 11 14
9 12 16
9 11 15
9 12 16
9 12 16
7 10 13
10 13 17
9 12 15
8 11 14
9 12 16
9 11 15
9 12 16
9 11 15
9 12 16
9 11 15
9 12 16
8 11 14
8 11 14
9 12 16
9 12 16
8 11 14
9 12 16
9 11 15
9 12 16
9 12 16
9 12 15
10 13 17
9 12 16
9 12 16
9 12 16
10 12 16
9 12 17
11 14 19
9 12 16
9 12 16
9 12 16
10 13 18
11 14 19
10 13 17
11 14 19
9 12 16
11 14 19
12 15 21
10 13 18
11 14 19
10 13 18
11 14 18
10 13 18
9 12 16
11 15 20
11 14 18
11 14 19
11 14 19
10 13 18
11 15 20
11 14 19
11 14 19
11 15 19
11 14 19
11 14 19
12 16 21
10 13 18
12 15 21
10 13 18
11 15 20
12 15 20
12 15 20
11 15 20
12 16 22
12 15 20
12 16 21
12 15 21
12 16 21
12 15 20
11 14 19
12 15 20
11 15 20
12 16 22
12 16 21
12 16 21
12 16 21
12 16 21
13 16 22
13 16 22
12 15 21
13 17 22
12 15 21
11 15 20
12 15 21
12 16 22
12 16 21
12 15 20
11 14 19
13 17 22
13 16 22
12 15 21
12 15 21
13 17 23
13 17 23
13 17 23
13 17 22
13 17 22
13 16 22
11 15 20
12 16 21
13 16 22
12 16 21
12 16 22
13 16 22
13 17 23
13 16 22
13 17 22
13 17 23
13 17 23
12 16 22
12 16 21
13 17 23
12 16 22
13 16 22
13 17 23
13 16 22
13 17 22
13 17 23
13 17 22
12 16 22
13 17 23
13 17 22
12 16 22
13 17 23
13 17 22
13 17 23
13 16 22
13 17 23
12 16 21
13 17 22
13 17 23
13 17 23
13 17 23
13 17 23
13 17 23
13 17 23
13 17 23
13 17 23
13 17 23
13 17 23
13 17 23
13 17 23
13 17 23
13 17 23
13 17 23
13 17 23
13 17 23
13 17 22
14 18 24
13 17 23
12 16 21
14 18 25
13 17 23
13 17 23
14 18 24
14 18 24
14 18 24
14 18 24
14 18 24
13 17 23
14 18 24
13 17 23
14 18 24
13 17 23
14 18 24
13 18 24
14 18 24
14 18 24
13 17 23
14 18 23
13 17 23
14 18 24
14 18 24
13 17 23
13 17 23
13 17 23
14 18 24
13 17 22
13 17 23
14 18 24
13 17 23
13 17 23
13 17 22
14 18 24
13 17 23
13 17 23
13 17 23
13 17 23
13 17 23
13 18 24
13 17 22
14 18 24
13 18 24
13 17 23
13 17 23
14 18 24
12 16 21
13 17 23
13 17 23
13 17 23
13 17 23
13 18 24
13 17 23
13 17 23
13 17 23
13 17 23
13 17 22
13 16 22
13 17 23
13 16 22
13 17 23
12 16 21
13 16 22
13 17 23
12 16 22
12 16 21
13 17 22
14 18 24
13 17 23
13 16 22
12 15 21
12 15 21
13 17 23
12 16 21
12 16 21
13 17 23
12 15 20
12 15 21
12 16 22
12 15 20
11 14 19
12 16 21
13 17 23
12 16 21
12 15 21
11 15 20
12 16 21
12 16 22
12 15 21
13 17 22
12 15 20
13 17 22
12 16 21
12 15 21
12 16 21
13 17 23
12 15 20
12 15 20
12 15 20
12 15 21
13 16 22
12 15 20
12 15 20
13 16 22
12 15 20
11 15 20
11 15 20
12 15 21
12 16 21
12 16 21
11 15 20
13 16 22
12 16 21
11 14 19
11 15 20
11 14 19
11 15 20
12 15 20
11 14 19
11 14 19
11 14 19
11 14 19
10 13 17
10 14 18
11 14 19
11 14 19
9 11 16
11 15 20
11 14 18
10 14 18
11 14 19
10 13 18
10 13 18
11 14 19
11 15 20
10 13 17
10 13 17
11 14 19
11 14 19
10 13 18
10 13 17
10 13 18
10 13 17
11 14 19
10 13 17
10 13 17
10 13 17
10 14 18
11 14 19
10 13 18
10 13 17
10 13 18
9 12 16
9 12 16
8 11 14
9 12 16
10 12 16
9 12 16
10 12 16
10 13 17
9 12 16
8 10 14
9 11 15
10 13 18
11 14 18
9 11 15
10 12 16
8 11 14
8 11 15
8 11 14
8 10 14
8 11 15
7 9 11
9 12 15
9 12 16
8 11 14
9 11 15
9 12 16
10 13 18
7 9 13
8 10 14
9 12 16
10 12 16
8 10 14
7 8 11
9 12 16
8 10 14
8 11 14
7 9 12
8 10 13
7 10 13
10 12 16
7 9 12
8 10 13
7 9 12
7 9 12
8 10 13
8 11 14
8 10 14
8 10 13
9 11 15
8 10 13
7 8 11
8 10 14
7 8 11
8 11 14
9 11 15
8 10 13
8 10 13
8 11 14
8 10 13
7 9 12
8 10 14
8 11 15
9 11 15
9 11 15
8 10 14
8 10 13
7 10 13
8 10 14
7 9 12
8 11 14
8 10 13
8 10 13
8 10 13
7 9 13
8 10 13
8 10 14
9 11 14
8 11 14
8 10 13
9 12 16
10 13 17
9 11 14
7 9 13
9 11 15
7 10 13
8 10 14
7 10 13
8 10 13
7 9 12
8 10 13
9 11 15
10 12 17
7 9 13
8 11 14
8 10 13
8 10 13
9 12 16
8 10 14
10 13 17
9 12 16
9 11 15
10 13 18
9 12 16
8 11 15
10 13 17
9 11 15
8 10 14
8 10 14
9 11 15
9 12 16
10 12 17
9 11 15
9 12 16
9 12 16
9 12 16
9 12 16
9 12 16
10 13 17
9 12 16
9 12 16
9 12 16
10 13 18
10 13 18
10 13 18
10 13 17
10 13 18
10 13 17
11 14 18
10 13 17
10 13 18
10 12 17
9 12 16
10 12 17
10 13 18
11 15 19
10 13 18
9 12 16
11 14 19
10 13 18
11 14 19
11 14 19
11 14 19
10 13 18
12 15 20
11 14 18
11 14 19
12 15 21
12 15 20
11 15 19
11 14 19
11 14 19
11 14 19
11 14 19
12 15 20
11 14 19
11 15 20
11 15 20
11 14 19
12 15 21
11 14 19
12 15 20
12 15 21
12 15 20
11 15 20
11 14 19
11 14 19
11 15 20
12 15 20
12 16 21
11 15 20
12 15 20
13 17 22
11 14 19
12 16 21
12 16 22
12 16 21
11 15 20
12 16 21
12 16 21
12 15 20
11 14 19
12 16 21
12 16 22
13 16 22
11 15 20
12 16 21
12 16 21
12 15 20
13 17 23
12 16 22
12 15 20
13 17 23
13 16 22
13 17 22
13 17 22
13 16 22
13 17 22
13 17 23
12 16 22
14 18 24
13 17 23
13 17 22
12 16 21
13 16 22
12 16 21
12 15 20
13 17 23
13 16 22
13 16 22
13 17 22
13 17 22
13 17 23
12 16 22
13 17 23
12 16 22
13 17 22
12 16 22
13 16 22
12 16 22
13 17 23
13 17 23
14 18 24
13 17 23
13 17 23
13 17 22
13 17 23
13 17 22
13 17 23
14 18 24
13 17 23
13 17 23
13 17 23
13 17 23
13 17 23
14 18 24
13 17 23
13 17 23
14 18 24
13 17 23
13 17 23
13 17 23
12 16 22
14 18 24
14 18 24
13 17 23
13 17 23
14 18 25
14 18 24
13 17 22
13 17 23
13 18 24
13 18 24
13 18 24
14 18 24
14 18 24
14 18 24
14 18 25
13 17 23
13 17 23
14 18 24
14 18 24
13 18 24
13 17 23
13 17 23
13 18 24
14 18 24
14 18 24
14 18 24
14 18 24
13 17 23
13 17 23
13 17 23
13 17 23
14 18 24
13 17 23
13 17 22
14 18 24
13 17 23
13 17 23
13 16 22
14 18 24
14 18 24
13 17 23
13 17 23
13 16 22
13 17 23
13 17 23
14 18 24
13 17 23
13 16 22
14 18 24
13 17 23
13 17 23
12 16 22
13 17 23
13 17 23
13 17 22
13 17 23
13 17 23
13 17 23
13 17 23
12 16 22
14 18 24
12 15 21
13 17 23
13 17 23
13 16 22
13 16 22
12 16 22
13 17 23
13 16 21
13 17 23
12 16 21
12 16 21
13 17 23
13 17 22
13 17 22
13 16 22
12 16 22
13 17 23
13 17 23
13 17 23
12 16 21
14 17 23
12 15 20
12 15 20
12 16 21
12 16 22
13 17 22
12 16 21
13 16 22
12 16 22
12 16 22
12 16 21
12 15 20
11 15 20
12 15 21
12 15 20
11 15 20
11 15 20
13 16 22
13 17 22
12 15 20
12 15 21
12 16 22
12 15 20
12 16 22
12 15 20
11 15 20
11 15 20
12 16 21
12 15 21
11 15 20
13 16 22
13 17 23
11 14 19
11 14 19
10 13 17
10 14 18
13 16 22
12 15 21
11 14 19
11 15 20
11 14 19
11 14 18
9 12 16
11 14 18
12 15 20
11 14 19
11 15 19
11 14 19
11 14 19
11 14 19
12 15 21
11 15 19
11 15 20
11 14 19
9 12 16
11 14 19
11 14 19
10 13 17
11 14 19
11 15 19
11 14 18
11 14 19
11 14 19
10 13 18
11 14 19
10 13 17
10 13 18
11 14 18
10 13 17
10 14 18
10 14 18
8 11 15
10 13 18
10 12 17
10 13 18
9 11 15
10 13 17
10 13 17
10 13 18
10 13 17
10 13 17
9 12 16
9 12 17
9 12 16
9 11 15
8 11 14
9 11 15
10 13 17
10 12 16
9 12 16
9 11 15
9 11 15
9 11 15
9 11 15
8 10 14
9 11 15
9 12 16
9 11 15
9 12 16
8 10 14
9 11 15
8 11 15
10 12 16
8 10 13
8 10 14
9 11 15
7 9 12
8 10 14
8 10 14
8 10 13
9 11 15
8 10 14
9 12 16
7 9 13
8 10 13
9 11 15
8 11 14
7 9 12
8 11 14
9 11 15
9 11 15
8 11 14
7 9 12
6 8 11
7 8 11
8 10 14
8 10 14
9 11 15
8 10 14
6 8 10
8 10 13
9 11 15
8 10 14
8 10 13
7 9 12
7 10 13
8 10 13
8 11 14
8 10 13
9 11 15
8 10 14
8 10 14
8 10 13
8 10 14
8 10 14
8 10 13
8 11 14
8 11 14
8 11 14
7 9 12
9 11 15
8 10 14
7 9 12
9 11 14
8 11 15
6 7 10
7 9 12
7 9 12
9 11 14
9 11 15
9 12 16
8 11 14
7 9 12
7 9 13
7 9 12
7 9 12
8 10 14
9 12 16
8 10 13
8 10 14
9 12 16
9 12 16
8 11 14
8 11 15
9 11 15
10 12 16
7 9 12
8 11 14
8 11 14
9 11 15
8 11 14
8 11 15
10 13 17
8 11 14
10 13 18
11 14 18
10 13 17
9 12 16
11 14 19
8 11 15
10 13 17
9 11 15
10 13 18
10 13 17
10 12 16
9 12 16
9 11 15
10 13 17
9 12 16
9 12 16
9 12 16
9 12 16
10 13 17
9 12 16
9 12 16
9 11 15
10 13 18
9 12 16
11 15 20
11 14 18
9 12 16
10 13 18
11 14 19
11 14 19
11 14 19
10 13 17
10 14 19
11 14 19
12 15 20
12 15 20
11 14 19
10 14 18
11 14 18
12 16 22
11 14 19
11 14 18
11 14 19
12 16 21
11 14 20
10 13 17
13 16 22
11 14 19
11 15 20
11 14 19
11 15 20
12 15 20
10 14 18
11 15 20
12 15 20
12 16 21
12 16 22
12 15 21
12 15 20
11 14 19
12 15 21
13 17 22
11 14 19
11 14 19
12 15 20
12 16 21
11 15 20
12 16 21
11 14 19
12 16 21
12 15 20
12 15 21
12 15 20
12 15 21
12 16 22
12 16 22
11 14 19
13 16 22
12 16 21
13 16 22
12 15 21
12 15 20
13 16 22
12 15 21
12 15 20
13 17 22
12 15 20
11 15 20
12 16 21
13 16 22
13 16 22
13 17 23
12 16 21
13 16 22
14 18 23
12 16 21
12 15 20
13 17 23
12 16 21
13 16 22
13 17 23
13 17 23
13 17 23
13 16 22
13 17 22
12 16 21
13 17 23
12 16 22
13 17 22
13 16 22
13 16 22
13 17 23
13 17 23
14 18 24
13 17 22
14 18 24
13 16 22
13 17 23
14 18 24
12 16 21
13 17 23
12 16 21
13 17 23
13 17 23
13 17 23
13 17 23
14 18 24
13 17 23
13 17 23
14 18 24
13 17 23
13 17 22
13 17 23
13 17 23
13 18 24
14 18 24
14 18 24
14 18 24
14 18 24
13 17 23
12 16 22
14 18 25
14 18 24
13 17 23
14 18 24
14 18 24
14 18 24
13 17 23
14 18 25
14 18 24
13 17 24
13 16 22
13 18 24
14 18 23
14 18 24
13 17 23
14 18 23
14 18 24
13 18 24
14 18 24
14 18 23
13 17 23
13 17 23
14 17 23
13 17 23
13 17 22
13 17 23
13 17 23
14 18 24
14 18 24
13 17 23
14 18 25
14 18 24
13 17 23
13 17 22
13 16 22
13 17 23
13 17 23
13 17 23
14 18 23
14 18 24
12 16 21
12 16 22
13 17 23
13 17 23
13 17 22
14 18 24
12 16 21
12 16 22
12 16 21
11 14 19
13 17 24
13 17 23
13 17 22
13 17 23
13 17 23
13 17 23
13 17 23
12 15 21
13 17 23
12 16 22
13 17 23
13 17 23
12 15 21
13 17 22
12 16 22
12 16 21
12 16 21
13 17 24
11 15 20
12 16 21
12 16 22
12 16 21
13 16 22
14 17 23
12 15 21
13 17 22
12 16 21
12 15 21
13 16 22
12 16 21
12 16 22
12 16 21
12 15 20
12 16 22
11 15 20
12 16 21
12 15 20
12 16 21
12 16 21
12 15 21
12 16 21
11 15 20
13 16 22
13 17 23
11 14 19
12 15 20
12 16 21
12 15 21
12 15 20
12 15 20
12 16 22
11 15 20
12 15 20
12 16 21
11 15 20
12 15 20
12 16 21
12 15 20
11 15 20
12 15 21
12 15 21
12 16 21
11 15 20
10 13 18
11 15 20
11 15 20
10 14 18
12 15 20
11 15 20
11 14 18
11 14 19
11 14 19
12 15 20
9 11 15
10 13 17
10 14 18
10 14 18
10 14 18
11 14 18
11 14 19
10 13 18
10 13 17
11 14 19
10 13 17
11 14 19
9 12 16
11 15 20
10 13 17
10 14 18
11 14 19
10 13 18
10 13 17
10 13 17
10 13 17
11 14 19
10 13 17
11 14 18
11 15 20
9 12 16
11 13 18
11 14 19
9 12 16
8 11 14
9 12 17
9 11 15
10 12 16
9 12 15
8 10 14
10 13 18
9 12 16
10 12 16
9 11 15
10 12 16
10 13 17
9 12 16
9 12 15
10 13 18
9 12 16
10 12 17
8 11 15
8 11 14
9 12 16
9 12 16
9 11 15
9 12 16
8 11 14
9 12 16
8 10 13
8 10 13
9 12 16
9 11 15
8 10 14
9 12 16
9 12 16
8 10 14
9 11 15
8 11 14
7 9 12
9 11 15
7 10 13
8 11 14
8 10 14
9 11 15
7 10 13
9 12 15
8 10 14
9 12 16
8 10 13
9 12 16
8 10 13
8 10 13
8 10 14
8 10 13
8 10 14
8 10 14
8 10 14
8 10 13
7 9 12
7 9 11
8 10 13
8 10 13
9 11 15
7 9 13
8 10 14
8 11 14
6 8 11
8 10 14
7 9 12
8 11 14
8 10 13
7 9 12
8 10 14
8 10 13
9 11 15
7 9 12
9 11 15
7 9 12
7 10 13
9 11 15
9 11 15
8 11 14
7 9 12
8 11 14
8 10 14
6 8 11
9 12 16
8 10 14
8 10 13
9 12 16
9 11 15
7 9 13
9 11 15
10 13 17
7 10 13
7 9 13
9 11 15
8 10 14
9 12 16
9 11 15
8 11 15
8 10 13
7 10 13
9 11 15
10 13 17
10 13 17
9 12 16
9 12 16
9 12 16
11 14 18
9 12 16
9 12 16
10 13 17
9 11 15
10 13 17
10 13 17
9 11 15
9 12 15
10 12 16
10 13 17
10 13 18
10 13 17
10 13 17
9 12 17
10 13 17
10 13 17
10 13 17
9 12 16
10 13 17
10 14 18
9 12 16
11 14 19
11 14 18
10 13 17
9 12 16
10 13 17
11 14 19
10 13 18
11 14 19
11 14 19
11 15 19
10 14 18
11 14 19
10 13 18
10 13 18
11 14 18
10 13 18
11 14 18
11 14 19
11 14 18
10 12 17
12 15 20
13 16 21
10 13 18
11 14 19
11 15 20
11 14 18
11 15 20
12 15 20
12 16 21
11 15 20
11 14 19
11 15 20
12 15 20
11 14 19
11 15 20
11 15 20
12 15 20
10 14 18
12 15 21
11 15 20
12 16 21
11 14 19
12 15 21
11 15 20
12 15 20
11 14 19
11 15 20
12 15 20
11 14 19
11 14 19
12 15 20
11 15 20
13 17 22
13 16 22
12 16 22
13 17 22
12 15 21
12 16 21
13 17 23
13 17 22
12 16 21
11 15 20
12 16 21
13 17 23
13 17 23
12 15 21
13 17 23
13 17 23
13 16 22
11 15 20
12 16 21
13 16 22
13 17 22
12 16 22
12 15 20
12 15 21
13 17 22
12 16 22
13 17 23
13 17 23
13 17 22
13 17 23
13 17 23
13 16 22
12 16 21
13 17 22
13 17 23
13 17 23
13 17 23
13 17 22
13 17 23
12 16 21
13 17 23
13 17 23
13 17 22
12 16 22
13 17 23
14 18 23
13 18 24
13 17 22
13 17 23
14 18 24
13 16 22
13 17 22
13 17 22
13 17 23
13 16 22
13 17 23
12 16 21
13 17 23
13 17 23
13 17 23
13 17 24
14 18 24
14 18 24
13 16 22
13 17 23
14 18 24
13 18 24
13 17 23
14 17 23
13 17 24
13 17 23
13 17 23
13 17 23
14 18 24
13 17 23
13 18 24
13 17 23
14 18 24
14 18 24
14 18 24
13 17 23
13 17 23
14 18 24
13 17 23
13 17 23
14 18 24
14 18 24
13 17 24
13 17 23
13 17 23
13 17 23
13 16 22
13 17 23
13 17 23
13 17 23
13 17 23
12 16 22
14 18 24
14 18 24
13 17 23
13 17 23
12 16 22
13 17 22
13 17 23
13 17 23
13 17 22
13 17 23
13 17 23
13 17 22
13 17 23
13 17 23
13 17 23
14 18 24
13 17 23
13 17 23
13 17 23
13 16 22
14 18 24
14 18 24
13 17 23
13 17 23
13 17 23
13 17 23
13 17 23
12 16 22
13 17 23
13 17 23
13 17 23
13 17 23
13 17 22
13 17 22
13 17 23
12 16 22
13 17 23
11 15 21
12 16 21
13 17 23
12 16 22
12 16 21
12 16 21
13 17 22
13 17 22
13 17 22
12 16 21
13 17 22
13 17 22
12 16 22
12 16 21
12 15 20
11 15 20
12 15 21
13 17 23
13 17 23
12 15 21
12 15 21
13 16 21
12 16 22
12 15 20
12 15 21
11 14 19
11 15 19
12 15 21
12 15 20
12 16 21
11 14 19
12 16 21
12 16 21
12 16 21
12 16 21
11 15 20
12 16 21
12 16 22
11 14 18
12 15 20
11 13 18
12 15 21
11 15 20
10 13 18
11 14 19
11 15 20
12 16 21
12 15 20
12 15 21
11 15 20
12 15 20
12 15 20
11 14 19
12 15 21
12 15 21
12 15 20
12 15 20
10 13 18
11 14 19
11 14 19
10 12 17
12 15 20
10 13 18
12 16 21
12 15 20
10 13 18
10 13 17
10 13 18
10 13 17
11 14 19
11 15 19
10 13 18
10 13 18
10 13 17
10 13 17
10 13 17
10 13 17
10 13 17
10 13 17
9 12 16
10 13 17
9 12 16
9 12 17
10 12 16
11 14 19
10 13 17
9 11 15
10 13 17
9 11 15
9 11 15
9 12 16
8 11 14
10 13 17
9 12 16
9 11 15
10 13 17
10 12 17
10 13 17
8 11 14
10 13 17
9 12 16
9 12 16
8 11 14
9 11 15
9 12 16
8 10 14
8 11 14
9 11 15
8 10 14
10 13 17
10 12 16
9 11 15
9 12 16
10 12 17
8 10 14
8 10 14
8 11 14
8 11 14
9 11 15
8 11 14
7 9 13
8 10 13
8 9 12
8 10 13
8 10 14
9 11 15
8 10 13
9 12 15
7 9 13
8 10 14
8 10 14
8 10 14
8 10 14
9 12 16
9 12 15
8 10 14
9 11 14
8 11 14
8 10 14
9 12 16
9 11 14
7 9 13
8 10 14
7 9 12
7 9 12
8 10 14
8 10 14
9 11 15
7 9 12
8 10 13
8 10 14
7 8 11
7 9 12
7 10 13
8 10 14
10 12 16
8 10 14
10 12 16
9 12 16
8 11 14
9 11 15
9 11 14
9 12 16
8 10 13
8 10 13
8 10 13
8 10 14
9 11 15
8 11 14
9 12 15
7 9 12
7 10 13
9 11 15
8 10 14
9 12 16
9 12 16
10 13 17
8 11 14
7 9 13
9 11 15
9 11 15
10 13 17
9 11 15
8 11 14
9 12 16
9 12 16
9 12 16
9 11 15
9 11 15
9 11 15
10 13 17
8 10 14
10 13 16
10 13 17
9 12 16
10 13 17
9 12 16
10 13 17
10 12 17
11 14 18
11 14 18
9 11 15
9 11 15
10 13 18
9 12 16
10 14 18
9 12 16
10 13 18
10 13 18
10 13 18
10 13 17
10 14 18
10 12 16
9 12 16
11 14 19
10 13 17
11 14 18
10 13 18
11 14 19
11 13 18
10 13 17
11 14 19
11 14 19
11 15 19
12 15 20
10 13 17
10 13 17
11 14 19
11 15 20
10 13 18
12 15 20
12 15 20
11 14 19
11 14 19
11 14 19
11 15 20
10 13 17
11 15 20
11 14 19
12 16 21
11 15 20
11 14 19
12 15 20
11 14 19
10 13 18
12 15 21
10 13 18
12 15 20
11 14 19
11 14 19
12 16 21
12 15 21
12 16 22
12 16 21
12 16 22
11 15 20
12 16 22
12 15 20
12 15 20
12 16 21
12 16 21
12 16 22
12 15 21
12 16 21
11 15 20
12 16 21
12 16 21
13 17 22
12 15 21
12 16 21
11 15 20
12 16 21
12 16 22
12 16 22
13 16 22
13 16 22
13 16 22
13 17 23
12 16 21
12 16 21
13 16 22
13 17 22
12 15 20
13 16 22
12 16 21
12 16 21
13 17 22
13 16 21
13 16 22
13 17 23
12 16 21
12 16 21
12 16 21
13 17 23
13 17 23
12 16 21
12 16 22
13 16 22
13 17 23
13 17 23
13 17 23
11 15 20
13 17 23
12 16 21
13 17 24
13 17 22
14 18 24
12 16 22
13 17 22
13 17 23
13 17 23
12 16 21
12 16 22
13 16 22
13 17 23
12 16 21
13 16 22
13 17 23
13 17 23
13 17 24
13 16 22
13 17 23
13 16 22
13 17 23
13 18 24
13 17 23
13 17 23
14 18 24
13 17 24
13 17 23
13 17 23
13 17 23
13 17 23
14 18 24
14 18 24
13 17 24
13 17 24
13 17 23
14 18 24
14 18 24
14 18 24
13 17 23
13 17 23
13 17 23
13 17 24
14 18 24
14 18 24
14 18 24
13 17 23
14 18 24
14 18 24
13 17 23
13 17 23
13 18 24
13 17 22
13 17 22
13 17 23
13 17 23
13 17 23
13 17 23
13 18 24
13 17 23
13 17 23
13 17 23
13 16 22
13 17 23
13 17 23
13 17 23
13 18 24
13 17 23
13 17 23
13 18 24
13 17 23
13 17 23
13 17 22
12 16 21
13 17 23
12 16 22
12 16 22
14 18 24
13 17 23
13 17 23
12 16 22
13 17 22
13 17 22
12 16 22
13 17 22
13 17 23
13 17 22
13 17 23
13 17 22
13 17 23
13 17 23
12 16 22
13 16 22
12 16 22
12 16 21
13 17 23
12 16 21
12 16 21
13 17 23
13 16 22
12 16 21
13 18 24
12 16 22
13 16 22
13 17 22
12 16 21
13 16 22
12 16 21
12 16 22
12 16 21
13 17 22
12 15 21
12 16 22
12 16 22
12 15 21
12 15 20
12 16 21
12 16 21
12 15 21
12 15 21
13 16 22
12 16 21
12 15 21
12 16 22
12 16 22
12 16 21
11 14 19
12 15 20
11 14 19
12 15 20
12 15 21
11 14 19
11 14 19
12 16 22
12 16 21
10 14 18
10 13 17
12 16 21
11 15 19
11 14 19
12 16 21
13 17 23
12 16 21
10 13 18
11 15 20
11 15 20
12 15 21
12 15 20
12 15 20
11 14 19
11 14 19
11 14 19
11 14 19
11 14 19
12 15 20
11 14 19
11 14 19
12 15 20
10 13 18
10 13 18
11 14 18
11 14 19
11 14 18
12 15 20
11 14 19
12 15 21
11 14 18
10 13 17
11 14 19
11 14 19
11 14 19
10 13 18
11 15 20
11 14 18
9 12 16
9 12 16
11 14 19
10 13 17
10 13 17
9 11 15
10 13 18
10 13 18
9 12 15
11 14 19
9 12 16
9 12 16
10 13 18
10 13 17
9 12 16
10 13 17
8 11 14
10 13 17
10 12 17
9 12 16
9 11 14
8 11 14
9 12 16
8 10 14
10 12 16
8 11 14
9 12 16
10 13 17
8 11 14
8 10 14
9 12 16
9 12 16
8 10 14
9 12 16
10 12 16
9 12 15
8 10 13
9 12 16
9 11 15
9 12 16
9 11 15
7 9 12
9 11 15
8 10 14
7 9 12
9 12 16
8 11 14
9 11 15
8 10 13
7 9 12
8 10 13
8 10 13
9 12 16
7 10 13
8 10 13
10 12 16
8 10 14
8 10 13
7 9 12
9 11 15
8 10 14
9 11 15
7 9 12
8 10 13
8 11 14
11 13 18
8 10 13
10 13 17
7 9 12
8 10 14
8 10 13
7 9 13
9 11 15
7 8 11
8 11 14
7 10 13
8 10 14
8 10 13
8 11 14
8 10 14
8 10 13
9 11 14
8 10 14
8 10 14
8 10 13
8 11 14
7 9 12
8 11 14
7 9 12
8 10 14
8 10 14
8 11 15
8 11 14
8 10 14
7 9 12
8 11 14
8 11 14
10 13 17
9 11 15
9 12 16
10 13 17
9 11 15
10 12 16
9 12 16
9 11 15
9 12 15
8 11 14
9 11 15
9 11 15
8 10 14
9 12 16
8 10 14
9 11 15
9 12 16
9 12 15
10 13 18
10 12 17
9 12 16
9 11 15
9 12 16
8 11 14
10 12 17
9 12 16
9 11 15
10 13 18
9 11 15
10 13 17
10 13 17
9 12 15
10 12 17
11 14 19
9 12 17
10 13 18
10 12 17
11 14 18
9 12 16
11 14 19
10 12 17
11 14 19
9 12 15
10 13 18
11 14 18
10 13 17
10 13 17
10 13 17
10 13 18
11 14 19
11 14 18
10 13 17
11 14 19
11 14 18
10 12 16
11 14 19
10 13 18
11 14 19
12 15 20
10 13 17
11 14 18
10 13 17
11 14 19
11 14 18
11 14 18
11 14 19
11 14 18
11 15 20
11 14 19
13 16 22
12 16 21
11 15 20
11 15 20
12 16 22
11 15 20
12 15 20
11 14 19
11 14 19
12 15 20
12 16 21
11 15 20
11 14 19
12 15 20
13 16 22
11 15 20
12 15 20
11 14 19
12 15 21
12 16 21
11 15 20
11 15 19
12 15 20
12 15 20
12 15 21
12 16 21
12 15 21
12 16 21
12 16 21
13 17 23
12 15 20
13 17 22
12 16 21
13 16 22
13 17 22
13 16 22
13 16 22
12 16 22
13 17 23
12 15 21
12 16 21
12 15 21
12 16 22
13 17 22
13 17 22
13 17 23
12 15 21
13 16 22
13 16 22
13 17 23
13 17 23
12 16 21
13 17 23
13 16 22
12 16 22
14 18 24
12 16 21
13 17 22
13 17 22
12 15 21
13 17 22
11 14 19
13 17 23
12 16 21
12 16 22
14 18 24
12 16 22
13 17 23
13 17 23
13 17 22
13 17 23
13 17 23
13 17 23
12 16 22
12 16 22
13 17 23
14 18 24
13 17 23
13 17 22
13 17 22
14 17 23
14 18 24
12 17 23
13 17 22
13 17 22
13 17 23
13 17 23
13 17 22
14 18 24
13 17 22
13 16 22
13 17 23
13 17 23
13 17 23
13 18 24
13 17 23
14 18 24
14 18 24
12 16 22
14 18 24
14 18 24
14 18 25
13 17 22
14 18 23
14 18 24
13 17 24
13 17 23
13 17 23
13 17 24
13 16 22
13 17 23
13 17 23
14 18 24
13 16 22
12 16 22
14 17 23
13 17 23
13 17 23
13 17 23
13 17 24
13 17 23
14 18 24
13 17 23
13 17 23
13 17 23
14 18 24
13 17 23
12 16 22
14 18 24
13 17 23
14 18 24
12 16 22
13 17 23
12 16 21
14 18 24
13 17 22
12 16 22
13 17 23
13 17 23
13 17 23
13 17 23
13 17 23
12 16 22
12 15 21
12 16 22
12 16 21
13 17 23
12 16 21
13 16 22
13 17 23
13 17 23
13 16 22
13 17 23
12 16 22
13 16 22
13 17 23
12 16 21
13 17 22
12 15 20
13 17 23
12 15 21
13 17 22
12 16 22
12 16 21
12 16 21
12 16 21
12 16 21
13 17 22
12 16 21
12 16 21
12 16 22
12 16 21
11 15 20
13 17 23
13 17 23
12 15 20
12 16 22
12 15 20
12 15 20
12 15 21
12 16 21
13 16 22
12 16 21
13 17 23
12 16 22
11 15 20
11 15 20
12 15 20
11 14 19
12 16 21
13 17 22
11 14 20
12 16 21
12 15 20
11 14 19
12 16 22
12 16 21
12 16 21
11 14 19
12 15 21
12 16 21
12 16 21
13 16 22
12 15 21
12 16 22
13 17 23
10 14 19
11 14 19
11 14 19
11 14 19
11 15 20
11 14 19
11 15 20
10 13 17
11 15 20
11 14 19
11 15 20
11 14 19
10 14 18
11 14 18
10 13 18
11 14 18
10 13 17
12 16 21
10 13 17
11 14 19
11 14 18
11 15 20
10 13 17
12 15 20
10 13 18
11 14 19
10 13 18
10 13 18
9 12 17
11 14 18
10 13 18
11 14 19
9 12 16
11 14 19
9 11 15
10 14 18
10 13 18
10 13 17
11 14 18
11 14 19
10 12 17
10 13 17
11 14 19
11 14 19
8 11 15
9 12 17
9 12 16
10 12 16
10 13 17
10 12 17
10 12 16
9 12 15
9 12 16
10 13 17
8 11 15
9 12 16
9 11 15
8 10 13
10 13 17
10 13 17
9 11 15
8 10 14
9 11 15
10 12 17
9 12 16
9 12 16
10 13 17
8 10 13
8 11 14
8 11 14
9 12 16
8 10 14
7 9 13
9 11 15
8 10 14
10 13 17
9 12 16
10 13 17
8 10 13
8 11 14
9 11 14
8 10 14
10 12 16
9 11 15
8 10 14
7 10 13
7 9 12
8 11 14
8 10 14
8 10 13
8 10 14
8 10 14
8 11 14
8 10 14
8 11 15
8 11 14
9 12 15
8 10 13
8 10 14
9 12 16
8 10 14
9 12 16
8 10 14
7 10 13
9 11 15
8 11 14
9 11 15
8 11 15
8 10 13
8 10 14
10 12 16
9 12 16
8 10 13
9 12 16
10 13 17
8 10 14
9 11 15
9 12 15
9 12 16
9 11 15
9 11 15
8 10 13
7 9 13
10 12 16
9 11 15
7 9 11
9 11 15
9 12 16
9 11 15
9 11 15
8 10 13
8 10 13
8 10 14
9 12 16
10 13 17
10 13 17
9 12 16
9 12 16
9 12 16
10 12 16
9 12 15
9 11 15
9 11 15
8 10 14
11 14 18
9 12 16
10 13 17
9 12 16
9 12 16
10 14 18
10 13 17
10 14 18
11 14 18
10 13 17
9 12 16
8 10 14
10 13 17
9 12 16
10 12 17
9 12 16
10 13 17
11 15 20
10 13 17
10 13 18
11 14 18
10 13 18
10 13 17
10 13 18
8 11 14
10 12 16
10 12 16
10 14 18
10 13 18
10 14 18
11 14 19
10 13 18
11 15 20
11 14 19
11 14 19
11 14 19
9 12 15
12 15 21
12 15 20
11 15 20
11 14 19
10 13 17
11 15 20
12 15 20
11 15 20
11 14 19
11 14 19
12 15 21
12 16 21
12 16 21
12 15 20
11 14 19
12 15 21
11 15 20
12 15 21
11 15 20
11 15 20
12 16 21
11 14 19
12 15 21
12 15 21
11 14 19
11 14 19
13 17 23
11 15 20
12 15 20
12 16 21
11 14 19
12 15 20
12 16 22
11 15 19
12 16 21
13 16 22
12 15 20
11 15 20
11 14 20
12 16 21
13 16 22
12 15 21
11 15 20
12 16 21
13 17 22
12 16 22
12 15 20
12 16 21
13 17 22
12 16 21
12 16 21
12 15 21
13 17 22
13 16 22
12 16 21
12 16 22
13 16 22
12 16 21
12 16 22
12 16 21
12 17 23
12 16 21
12 15 21
13 17 23
12 16 21
13 17 23
12 16 22
13 16 22
13 17 22
12 16 22
13 17 22
12 16 21
13 17 22
13 17 22
12 16 22
12 16 22
13 17 23
12 16 22
13 17 23
13 17 23
13 17 23
14 18 24
13 17 23
13 17 23
13 17 22
13 18 24
13 17 22
12 16 22
13 17 22
13 17 23
13 17 23
13 17 23
14 18 23
13 17 23
12 16 21
13 17 23
14 18 24
13 17 22
14 18 23
14 18 24
13 17 23
14 18 25
13 17 23
14 18 24
14 18 24
14 18 24
13 17 23
14 18 24
13 18 24
14 18 24
13 17 23
13 17 23
14 18 24
13 17 23
14 18 24
14 18 24
13 17 23
13 17 23
13 17 23
14 18 24
13 17 22
13 17 22
13 17 23
13 17 23
14 18 24
14 18 24
13 17 22
14 18 24
13 16 22
13 17 22
13 17 22
13 18 24
14 18 24
13 16 22
13 17 24
13 17 23
13 17 23
12 16 22
13 17 22
13 16 22
13 17 23
13 17 23
13 17 22
14 18 24
13 16 22
13 17 23
13 17 24
13 17 23
13 17 23
12 16 22
13 17 23
14 18 24
13 16 22
13 17 22
12 16 22
13 17 23
14 18 24
13 17 23
13 17 23
12 16 21
12 16 21
13 17 23
13 17 23
12 16 22
12 16 21
13 17 23
13 17 23
13 17 23
13 17 22
13 16 22
13 16 22
13 17 23
13 17 23
13 17 22
13 17 22
13 17 23
13 17 22
13 17 22
14 18 24
13 16 22
12 15 21
12 16 22
12 16 22
12 16 22
12 16 21
13 16 22
12 15 20
12 15 21
13 17 22
12 16 21
12 15 20
12 15 20
12 16 21
12 16 22
12 16 21
11 14 19
12 16 22
12 16 21
12 16 21
12 16 22
12 16 22
12 15 20
11 15 20
12 16 21
11 14 19
11 15 20
12 16 21
11 15 20
12 15 21
12 15 20
12 16 21
12 15 21
11 15 20
12 15 21
11 15 20
11 15 20
11 14 18
12 15 20
11 14 19
11 14 19
12 16 22
11 15 19
12 16 21
13 16 22
11 14 19
11 14 18
11 15 20
11 15 19
11 14 19
11 15 20
10 12 17
11 14 18
11 14 19
11 14 19
11 15 20
12 15 20
11 14 19
10 13 18
11 14 18
11 14 18
10 13 18
10 13 17
10 13 17
10 12 16
10 13 17
11 14 19
9 12 16
9 11 15
9 12 16
10 13 18
10 13 17
11 14 18
9 12 16
10 12 17
9 12 16
10 13 17
10 12 16
10 13 18
8 10 14
10 12 16
10 13 17
10 12 17
9 12 16
11 14 19
10 12 16
10 12 17
10 13 17
10 13 18
8 10 13
9 12 16
11 14 18
9 11 15
9 11 15
11 14 18
9 11 15
9 12 16
10 12 16
10 13 17
9 12 16
9 12 16
9 12 16
9 12 16
9 11 15
9 11 15
9 12 16
9 12 16
7 9 12
9 11 15
8 11 14
9 12 16
9 12 16
8 11 14
9 11 15
9 12 15
9 11 15
9 12 15
9 11 15
7 10 13
9 12 16
9 12 16
8 11 14
8 11 14
9 11 15
9 11 15
9 11 15
9 11 14
9 11 15
7 10 13
9 11 15
9 11 15
8 11 14
8 11 14
9 11 15
8 10 13
8 10 13
8 11 14
8 10 13
9 11 15
9 12 16
8 10 13
8 11 14
8 10 14
9 12 16
9 11 15
8 10 14
8 10 13
8 10 14
9 12 16
8 10 14
8 10 13
7 10 13
9 12 15
7 9 12
8 10 14
9 11 15
9 11 15
8 10 13
8 10 14
7 9 11
9 12 16
9 11 15
8 10 13
8 10 14
8 10 13
9 12 16
9 12 16
8 11 15
8 10 14
10 13 17
9 12 16
9 12 16
9 11 15
10 13 17
9 12 16
8 11 15
9 12 16
9 12 16
9 12 15
10 12 17
10 12 17
9 12 16
9 12 16
8 11 14
9 12 15
10 13 17
10 13 17
10 13 17
9 12 16
11 14 19
10 13 17
9 12 16
10 12 16
11 13 18
10 12 17
10 13 17
11 15 19
11 14 19
9 12 16
10 13 17
10 14 19
10 13 18
9 12 16
10 13 18
10 13 18
11 14 19
10 13 17
10 13 17
11 14 19
10 13 17
10 13 17
10 13 18
10 12 16
11 14 19
11 15 19
11 14 19
12 15 21
11 14 19
11 14 19
11 15 20
10 14 18
11 14 19
10 13 17
11 14 19
12 15 20
12 15 20
9 12 16
11 14 18
11 14 19
11 14 19
10 13 18
10 13 17
11 15 20
12 15 20
11 15 20
12 15 20
10 14 18
12 16 21
12 15 20
11 14 19
11 14 19
11 15 20
11 14 18
11 14 19
12 15 21
12 16 21
11 15 20
12 16 21
13 17 23
13 16 22
12 16 21
12 15 21
11 15 20
12 15 20
12 16 21
12 15 21
12 15 21
12 16 22
12 15 20
11 14 19
11 15 20
13 17 22
12 15 21
12 16 21
13 17 23
13 17 23
13 17 23
13 17 23
13 17 23
12 16 21
12 16 22
13 17 23
13 16 22
12 16 21
13 17 22
13 16 22
13 17 23
12 16 22
12 16 21
13 17 23
13 16 22
12 16 22
13 17 23
12 16 22
12 16 22
13 17 23
12 16 21
13 17 22
12 16 21
13 17 23
13 17 22
13 17 22
12 16 22
12 16 21
13 17 23
12 15 20
12 16 22
12 16 22
14 18 24
12 16 21
13 17 23
13 16 22
14 18 25
14 18 23
13 17 22
14 18 24
13 17 23
12 16 21
14 18 24
12 16 22
13 18 24
13 17 22
13 17 23
13 17 23
13 17 23
13 17 22
13 17 23
13 18 24
13 17 23
13 17 22
13 17 23
14 18 24
13 17 23
13 16 22
13 17 23
13 17 23
13 17 23
13 17 23
14 18 24
13 17 23
13 17 22
13 17 23
13 17 23
13 17 23
13 17 24
14 18 24
13 17 23
14 18 25
13 17 23
14 18 24
13 17 23
13 17 23
13 17 23
12 16 22
14 18 24
13 17 23
14 18 24
14 18 23
13 17 23
14 18 24
14 18 25
12 16 22
13 17 23
13 17 23
14 18 23
13 17 22
13 17 23
13 17 23
13 17 23
13 17 22
12 16 22
13 17 23
13 17 22
13 17 23
12 16 21
13 17 23
13 17 22
13 17 23
13 17 23
13 17 22
12 16 21
13 16 22
13 17 24
13 17 23
13 17 22
12 16 22
13 16 22
12 15 21
13 17 22
12 16 22
13 17 22
13 17 22
12 16 21
12 16 21
13 17 22
12 16 21
13 17 23
12 16 21
12 15 21
13 16 22
13 17 23
12 16 22
13 16 22
13 17 23
13 17 23
12 15 21
12 15 21
13 17 23
12 16 22
13 16 22
12 16 22
11 15 20
13 16 22
12 15 20
12 16 22
12 16 21
12 16 21
12 16 22
13 16 22
12 16 21
12 16 22
13 17 22
12 15 20
12 15 20
12 16 21
12 15 21
12 15 21
13 17 23
12 16 21
12 16 22
12 16 22
10 14 19
13 16 22
11 14 19
11 14 19
12 15 20
12 15 21
12 15 21
12 15 20
12 16 21
11 14 19
13 16 22
11 15 20
11 15 20
12 16 21
12 15 21
12 15 20
11 15 20
11 15 20
12 15 20
12 15 20
12 16 21
11 14 18
11 15 20
10 14 19
11 14 19
11 15 20
10 14 18
12 16 22
11 15 20
10 13 18
10 13 18
9 12 16
10 14 18
11 15 20
10 13 18
11 15 20
9 12 16
11 15 20
9 12 16
11 15 20
10 14 18
11 14 19
10 13 18
10 13 18
10 13 17
10 14 18
11 15 19
11 15 19
11 14 19
10 13 17
10 13 18
10 12 17
10 13 17
11 14 19
9 12 16
9 12 16
10 13 17
10 13 17
11 14 19
11 14 18
11 14 19
9 12 16
10 12 16
9 12 16
9 12 16
10 12 17
9 12 16
10 13 17
9 12 16
10 13 18
9 11 15
8 11 14
10 12 17
9 11 15
9 11 15
9 12 16
10 12 17
8 10 13
9 11 15
9 12 16
9 11 15
10 13 18
8 10 14
9 12 16
8 11 14
9 12 16
8 11 15
9 12 16
9 11 15
9 12 15
9 12 16
7 10 13
9 11 15
9 12 15
9 11 15
8 11 15
8 11 15
9 12 15
9 11 15
8 10 13
9 11 15
8 10 14
9 11 15
8 10 14
9 11 15
9 12 16
9 12 16
9 11 15
9 11 15
8 10 14
9 12 15
9 12 16
8 10 14
9 11 15
10 12 16
9 11 15
8 10 13
8 10 13
8 10 13
9 11 15
8 10 14
9 12 16
8 10 13
9 11 15
11 14 18
9 12 16
9 11 15
8 10 14
9 12 16
9 12 16
8 10 14
9 12 16
8 11 14
9 11 15
9 12 16
9 12 16
9 12 15
9 11 15
8 10 14
8 10 13
9 12 16
9 12 16
9 11 15
9 12 16
8 11 14
9 12 15
9 11 15
10 12 16
9 12 16
10 12 16
8 11 14
8 11 14
10 12 16
9 12 16
9 11 15
8 11 15
9 11 15
8 10 14
8 11 15
9 12 16
9 12 16
8 11 14
9 12 15
9 12 16
10 13 18
10 12 17
9 12 16
9 11 15
10 13 18
10 13 18
11 14 19
10 12 17
7 10 13
10 13 17
9 12 16
8 10 14
9 12 17
10 12 16
10 12 17
10 13 18
10 13 18
10 13 17
9 12 16
11 14 18
10 12 17
10 13 18
11 14 18
11 14 19
10 12 17
10 13 18
9 11 15
11 15 20
12 16 21
10 13 17
11 14 19
11 14 19
10 13 18
10 13 17
10 13 18
11 14 19
12 15 20
10 13 17
11 15 20
11 15 20
11 14 18
11 14 19
12 15 20
11 15 20
10 13 17
11 14 19
12 15 20
12 16 21
11 14 19
12 16 21
12 16 21
12 15 20
13 16 22
11 14 19
12 16 21
11 14 19
12 15 21
12 16 21
12 15 21
12 16 21
12 15 21
12 15 21
11 15 20
11 14 19
11 15 20
11 14 19
11 15 20
11 15 20
12 16 22
12 16 21
13 16 22
12 16 21
12 16 22
12 16 21
11 15 19
11 14 19
11 14 19
11 15 20
12 16 21
12 15 21
13 16 22
12 16 21
13 17 22
13 17 22
13 16 22
13 16 22
12 16 21
13 17 23
12 16 21
12 16 22
12 16 21
13 17 23
11 15 20
11 15 20
12 16 21
13 17 23
12 16 21
12 16 22
13 16 22
13 17 22
13 17 23
13 17 23
13 17 23
13 17 23
13 18 24
12 16 21
13 17 22
13 17 23
13 16 22
12 16 22
12 16 22
13 17 23
12 16 21
12 16 22
13 17 23
13 16 22
13 17 22
12 16 21
13 17 22
13 17 23
13 17 23
13 17 23
13 17 23
13 16 22
13 16 22
12 16 21
13 17 23
13 17 23
13 17 23
13 18 24
13 17 22
14 18 24
13 17 23
13 16 22
12 16 22
13 17 23
13 17 23
14 18 24
14 18 24
13 17 23
13 17 23
13 17 23
14 18 24
13 17 23
14 18 23
13 17 23
14 17 23
13 17 23
13 17 23
13 17 23
13 17 23
13 17 23
13 18 24
13 18 24
14 18 24
13 17 23
13 17 23
14 18 24
13 17 23
14 17 23
14 18 25
14 18 24
13 17 22
13 17 23
13 17 23
13 18 24
13 17 23
13 17 23
13 17 23
14 18 24
13 17 23
13 17 23
13 17 23
13 17 22
13 17 23
13 17 23
13 17 22
12 16 22
13 17 23
13 16 22
13 17 23
13 17 23
13 17 24
14 18 24
14 18 24
13 17 23
13 17 23
13 17 23
13 17 23
13 17 22
13 17 22
13 17 23
13 16 22
13 17 23
13 17 23
14 18 24
13 17 23
13 17 23
12 16 22
12 16 21
13 17 22
12 16 22
13 17 23
13 16 22
13 17 23
13 16 22
13 16 22
12 16 22
13 16 22
12 16 22
12 15 21
13 16 22
12 16 22
12 16 21
12 16 21
12 16 22
12 16 21
12 16 21
12 15 20
12 15 20
12 16 22
12 16 21
12 15 21
12 15 20
11 15 20
13 16 22
12 16 21
13 16 22
12 16 21
12 15 20
12 16 22
11 15 20
12 16 22
13 16 21
11 15 20
11 14 19
12 16 21
12 15 21
12 15 20
12 16 21
11 15 20
11 15 20
11 15 20
13 16 22
12 15 21
11 15 20
12 15 20
12 15 20
11 15 20
10 13 18
12 15 20
12 16 21
10 13 18
12 16 21
12 15 20
12 16 21
11 14 19
10 13 17
12 16 21
11 14 19
11 14 19
10 13 18
11 14 19
10 13 17
11 14 19
11 14 19
11 14 19
11 15 20
11 14 19
10 13 18
10 13 18
11 14 19
11 15 20
11 14 19
10 13 17
11 14 19
11 15 19
11 14 18
9 12 17
10 13 18
11 14 19
11 14 18
10 13 18
11 14 19
11 14 18
10 13 17
10 13 18
10 13 17
10 12 17
10 13 18
10 13 18
11 14 18
10 12 16
10 14 18
10 12 16
10 13 18
10 13 18
10 13 18
9 12 16
10 13 17
11 14 18
10 13 17
10 12 17
11 14 18
10 13 18
8 10 14
9 12 16
9 12 16
8 10 14
9 11 15
10 12 16
9 11 15
9 12 16
8 11 14
8 11 14
8 10 14
9 11 15
9 12 16
9 11 15
9 11 15
8 11 14
8 10 13
10 12 17
8 11 14
8 10 13
8 11 14
9 11 15
9 12 16
9 12 16
9 12 16
8 11 14
10 13 17
9 12 16
8 10 14
8 11 14
9 12 16
9 11 15
9 11 15
9 11 15
9 11 15
7 9 12
9 12 15
9 11 14
8 11 14
9 12 16
9 11 15
9 11 15
9 11 15
7 10 13
9 11 15
9 11 14
9 12 16
9 11 15
9 12 16
9 12 16
8 11 15
8 11 14
9 12 16
8 11 14
9 11 15
10 12 17
8 10 13
9 12 16
10 12 16
8 11 15
8 11 15
9 11 15
9 11 15
9 11 15
8 10 14
8 11 14
7 9 13
9 11 15
8 10 14
8 11 15
9 11 15
8 10 14
9 11 15
10 12 17
10 12 17
9 12 16
8 10 14
9 12 16
8 11 14
10 12 16
9 12 16
9 11 15
9 11 15
10 13 17
10 12 16
9 12 16
10 13 17
7 10 13
9 11 15
10 13 17
9 11 15
11 14 18
9 12 16
10 12 16
9 12 16
10 13 17
10 12 16
10 14 18
10 12 16
9 12 16
10 12 16
9 11 15
9 12 16
10 13 17
9 12 16
9 12 16
10 13 17
11 14 18
10 13 17
10 13 17
9 12 16
9 12 16
9 12 16
10 13 18
10 13 17
11 14 19
11 14 19
9 12 16
10 13 17
10 13 17
9 12 16
10 13 18
9 12 17
10 13 17
11 14 19
11 14 19
10 13 18
11 14 18
12 16 21
11 15 19
11 15 20
10 13 18
11 15 20
11 14 19
11 14 18
12 15 20
11 14 19
12 16 21
10 13 18
10 14 18
12 15 20
12 16 22
11 14 19
11 14 19
12 15 20
13 16 22
11 14 19
12 16 21
11 14 19
11 14 19
12 16 21
12 16 21
12 15 20
12 16 21
11 14 19
11 15 20
13 16 22
11 15 20
11 15 20
11 15 20
12 16 21
12 15 21
11 14 19
11 14 19
12 16 21
12 16 22
11 14 19
12 16 21
13 16 22
12 15 21
11 15 20
12 15 20
12 15 21
12 16 22
13 17 22
12 16 21
12 15 20
11 14 19
13 17 23
11 14 19
12 16 21
13 16 22
13 16 22
12 15 20
12 16 21
12 16 21
12 16 22
13 17 23
12 16 21
12 16 21
13 17 22
12 16 21
12 16 21
12 16 22
13 17 22
12 16 22
13 17 23
13 17 22
13 17 22
13 17 23
12 16 22
12 16 22
12 16 21
12 16 22
13 17 23
13 16 22
12 16 21
12 16 21
13 17 23
13 16 22
12 16 22
13 17 23
13 17 22
13 17 22
13 17 23
13 17 23
14 18 24
13 17 24
13 17 23
13 16 22
13 17 23
13 16 22
13 17 23
13 17 23
13 17 23
12 16 22
14 18 24
13 16 22
13 17 23
13 17 24
13 17 23
13 17 23
14 18 24
14 18 24
13 17 23
13 17 23
13 17 24
14 18 24
14 18 23
13 17 22
13 17 22
13 17 23
13 17 23
13 18 24
14 17 23
14 18 24
13 17 22
13 17 23
13 18 24
13 17 23
13 17 23
13 17 23
13 17 22
13 17 23
13 17 24
13 17 23
14 18 24
13 17 23
13 17 23
13 17 22
13 17 23
13 17 23
14 18 24
13 17 23
13 17 23
13 17 23
13 17 22
14 18 24
13 17 22
13 17 23
12 16 22
13 17 23
14 18 24
12 16 22
13 17 23
13 17 23
13 17 23
12 16 22
13 17 23
12 16 22
13 17 23
14 18 24
13 17 22
12 15 21
13 17 23
12 16 21
13 16 22
12 15 21
13 16 22
13 17 23
13 17 23
13 16 22
13 16 22
13 16 22
13 17 22
13 17 23
12 16 21
12 16 21
12 16 22
13 18 24
12 16 22
13 16 22
12 16 21
12 16 22
13 17 23
12 15 21
13 17 23
12 16 21
13 17 23
13 17 23
12 16 21
13 16 22
13 17 22
12 16 22
12 15 21
12 15 21
13 17 23
12 16 21
13 17 23
12 16 22
12 15 20
13 16 22
12 16 21
11 15 20
11 15 20
12 16 21
13 17 23
11 14 19
12 16 21
12 15 20
12 15 21
12 15 21
12 15 20
12 15 21
12 15 21
11 15 20
11 14 19
12 16 21
11 15 20
11 14 19
12 15 21
11 15 20
11 15 19
12 15 21
12 15 20
12 16 21
11 14 19
12 15 20
12 16 21
12 15 20
11 14 19
11 15 20
12 16 21
11 15 20
12 15 20
12 16 21
11 14 18
12 16 22
11 15 20
11 14 19
11 15 20
9 12 17
11 14 18
10 14 18
11 14 19
10 14 18
11 14 19
11 14 19
10 13 18
9 12 16
12 15 20
11 14 19
11 14 19
11 15 19
11 14 19
11 14 18
11 14 19
10 12 16
10 13 17
11 15 20
10 13 17
10 13 17
10 13 17
11 14 18
9 12 16
11 14 18
10 12 16
9 12 16
9 12 16
11 14 19
9 12 16
10 13 18
11 14 18
9 12 16
9 12 16
9 12 16
10 13 17
11 14 19
9 12 15
9 11 15
10 13 18
10 13 17
10 13 18
11 14 18
9 12 16
9 12 16
10 13 17
11 14 19
10 13 17
8 11 15
9 12 16
10 13 18
8 11 14
9 12 16
9 11 15
8 10 13
9 12 16
8 10 14
9 12 16
9 11 15
10 13 18
8 11 14
9 11 15
9 12 15
9 11 15
9 12 16
9 12 16
10 12 16
8 11 14
9 12 15
8 11 15
8 10 14
9 12 15
10 12 16
7 9 12
8 10 14
8 11 14
8 10 14
8 11 14
10 13 17
9 12 16
10 12 16
10 12 16
8 11 14
8 11 14
9 11 15
9 12 16
8 11 14
9 11 14
7 10 13
9 12 16
10 12 16
8 10 13
9 12 16
7 9 12
9 11 15
9 12 16
7 9 12
8 11 14
10 12 17
7 9 12
9 12 16
10 12 16
8 11 15
10 13 17
9 12 16
10 12 16
9 12 16
7 10 13
9 12 16
10 12 16
8 10 13
8 11 14
8 10 13
7 10 13
10 12 17
9 11 15
9 12 16
8 11 14
9 12 16
9 12 16
9 12 16
10 12 16
9 12 16
8 11 14
10 14 18
8 11 14
9 11 15
10 12 17
9 12 16
9 12 16
9 11 15
9 12 16
11 14 19
10 13 17
9 12 16
9 11 15
9 12 16
9 12 16
10 13 17
9 12 16
10 13 17
9 12 16
10 14 18
9 12 16
10 13 17
11 14 18
11 14 19
10 13 18
11 14 18
10 13 17
10 13 17
10 13 18
11 14 18
10 14 18
10 12 16
10 13 18
10 13 17
11 15 19
12 16 21
11 14 18
10 13 18
11 15 19
10 13 18
12 15 20
11 15 19
11 15 19
10 13 17
10 13 18
11 14 19
11 14 19
11 14 19
10 13 17
11 15 20
12 16 21
10 12 16
11 14 20
11 14 18
12 15 20
11 14 19
11 15 20
11 15 19
12 15 20
12 15 21
12 16 22
12 15 20
11 14 19
12 15 21
11 15 20
11 14 19
12 15 20
12 16 21
12 15 21
11 14 19
11 14 19
11 14 19
11 14 19
12 16 22
12 16 22
13 16 22
13 16 22
11 15 20
12 16 21
11 15 20
12 15 21
12 15 21
12 16 21
11 15 20
11 15 20
12 15 21
13 17 23
13 16 22
13 17 22
12 16 22
12 16 21
12 15 21
12 15 21
13 16 22
12 16 22
12 15 20
12 16 21
13 16 22
13 17 23
12 16 21
12 16 21
13 16 22
12 15 20
13 16 22
12 16 22
12 16 22
13 16 22
12 16 22
13 17 22
12 16 22
12 15 21
13 17 22
13 17 23
12 16 22
13 17 22
12 16 22
13 17 22
12 16 22
13 17 23
13 17 23
13 17 23
12 15 21
13 16 22
13 17 23
13 16 22
13 16 22
13 17 23
14 18 24
12 16 22
12 16 21
13 17 23
13 17 23
13 17 23
14 18 24
13 17 23
13 17 23
13 17 23
14 18 24
13 17 23
13 17 23
13 16 22
13 17 23
14 18 24
13 17 22
14 18 23
14 18 23
12 16 22
13 18 24
14 18 24
13 17 23
14 18 24
13 17 23
13 17 23
13 17 23
12 16 22
13 17 23
13 17 23
13 17 23
14 18 24
13 17 23
14 18 24
13 17 23
13 17 22
14 18 24
13 17 23
13 16 22
14 18 24
13 17 22
13 17 23
14 18 24
13 17 23
13 17 23
13 17 22
13 17 23
13 17 23
13 17 23
14 18 23
13 16 22
13 17 23
14 18 24
13 17 23
13 17 23
13 17 22
13 17 23
13 17 23
13 17 23
13 17 23
13 17 23
14 17 23
12 16 22
13 17 23
13 17 23
13 17 23
12 16 22
14 18 24
13 17 22
12 15 21
12 16 22
12 16 22
13 18 24
13 17 23
13 17 23
14 18 24
12 16 22
13 17 23
13 16 22
12 15 21
13 17 23
13 17 23
13 17 23
14 18 24
13 17 23
12 16 22
13 17 22
13 17 22
12 16 22
14 17 23
13 17 22
13 17 23
12 16 22
12 16 22
13 16 22
12 16 21
13 17 22
11 15 20
11 15 20
13 16 22
11 14 19
11 15 20
12 15 21
13 17 22
12 16 21
12 16 22
11 14 19
12 15 21
12 15 21
12 16 21
11 14 19
12 15 21
12 15 21
12 15 21
12 15 20
12 15 21
12 15 21
12 15 20
12 16 22
13 17 22
12 15 20
12 15 20
12 15 20
11 14 19
12 16 21
11 15 20
11 15 20
12 15 20
11 15 20
12 16 21
12 16 21
11 15 20
12 15 20
12 16 21
12 16 21
12 15 20
11 14 19
12 15 21
12 15 20
12 15 20
11 14 19
12 15 20
12 15 20
11 14 19
12 15 20
12 15 20
10 13 18
10 13 18
12 15 20
12 15 21
10 13 17
11 14 19
11 14 19
12 16 21
10 13 17
11 15 19
9 12 16
11 14 18
9 12 16
11 14 18
10 13 18
10 13 17
11 15 20
12 15 20
10 13 17
10 13 17
11 14 19
9 12 16
10 13 18
10 12 17
10 13 17
11 14 19
10 13 18
10 13 17
9 12 16
9 12 16
9 12 17
10 13 18
11 14 19
10 13 18
10 13 17
10 13 18
10 13 17
11 14 19
9 12 16
9 12 16
9 11 15
8 11 15
11 14 18
9 12 16
9 12 16
11 14 19
10 12 16
9 11 15
8 11 15
10 13 17
9 11 15
9 12 15
9 11 15
9 12 16
9 11 15
9 12 16
10 12 16
10 13 17
10 13 17
9 11 15
9 12 16
8 11 14
11 14 19
9 12 16
9 11 15
9 12 16
10 12 17
9 12 15
8 11 14
9 11 15
9 11 15
8 11 14
9 11 15
10 12 16
9 11 16
8 11 14
8 10 13
9 12 16
9 12 15
8 10 13
9 11 15
7 10 13
9 11 14
9 12 16
9 11 15
9 12 16
9 12 16
8 10 14
10 12 17
7 9 12
9 11 15
9 12 16
9 11 15
9 12 16
11 14 19
9 12 15
9 11 15
9 12 16
9 12 16
8 11 15
9 12 16
9 11 15
8 11 14
8 10 14
10 13 17
8 11 14
8 10 13
10 13 18
8 10 13
9 12 16
9 11 15
8 11 14
9 11 15
10 13 17
9 12 16
8 11 15
8 10 14
9 12 17
8 11 14
9 11 15
9 12 16
9 12 16
10 12 16
9 11 15
10 13 18
9 12 16
10 13 17
8 10 14
9 12 16
10 13 17
9 11 14
9 12 16
10 13 17
9 12 16
9 11 15
9 11 15
10 12 16
10 13 17
10 12 16
10 13 17
10 13 17
11 14 18
9 12 16
10 13 18
11 14 19
10 12 17
9 12 17
9 12 16
10 13 17
11 14 18
11 14 18
10 13 17
9 12 16
10 13 17
10 13 18
10 13 17
10 13 17
10 13 18
10 13 17
11 14 18
10 13 17
10 13 17
10 13 17
11 14 18
10 13 18
11 14 19
10 13 18
10 14 18
9 12 16
10 13 17
11 14 19
11 15 20
9 12 16
11 14 19
11 14 19
11 14 18
10 13 17
10 13 17
10 13 18
12 15 20
11 14 19
12 16 21
12 15 20
11 14 19
11 15 20
11 14 18
10 13 18
12 15 21
12 15 21
12 15 21
11 15 19
11 14 19
10 14 18
11 15 20
11 14 20
12 15 20
11 14 19
12 16 21
11 15 20
12 16 21
13 17 22
11 15 20
12 15 21
11 14 19
12 16 22
12 15 20
12 15 20
12 15 20
12 16 21
12 16 21
12 16 22
11 15 20
11 15 20
12 16 21
12 16 21
12 15 21
12 15 21
12 16 21
12 16 21
12 15 20
11 15 20
12 16 22
12 16 22
12 16 21
12 16 22
12 16 21
12 15 21
13 16 22
11 15 19
13 17 22
11 15 20
12 16 21
12 16 22
12 16 21
13 17 23
13 17 23
13 17 22
12 16 22
12 16 21
13 17 22
13 16 21
12 16 21
12 16 22
13 17 22
13 16 22
13 17 22
13 16 22
13 17 23
13 17 23
13 16 22
13 17 23
14 18 24
12 16 22
13 17 22
13 17 22
12 16 21
13 17 24
13 17 23
14 17 23
13 17 23
14 18 24
13 17 23
13 17 22
14 18 24
13 17 23
13 17 22
13 17 23
13 17 23
14 18 24
13 18 24
13 17 23
13 17 23
12 16 21
12 16 22
14 18 24
13 17 23
13 17 22
13 17 23
13 16 22
13 17 22
13 17 23
13 17 23
13 17 23
13 17 23
13 17 23
13 18 24
13 17 23
12 16 22
13 17 23
14 18 24
13 17 23
13 17 23
13 17 23
13 17 23
13 17 23
13 17 23
13 17 23
13 17 23
13 17 23
13 17 24
13 17 23
13 17 23
12 16 22
13 16 22
13 16 22
13 17 23
13 17 23
13 17 23
13 17 23
13 16 22
13 17 23
13 17 23
12 16 22
13 17 23
13 17 23
13 16 22
13 17 23
12 16 22
13 17 22
14 18 24
12 16 21
13 17 23
13 16 22
13 17 23
13 17 23
12 16 22
13 17 23
13 17 22
14 18 24
13 17 22
12 16 21
14 18 24
13 17 23
13 16 22
13 17 23
13 17 23
13 16 21
11 15 20
12 15 21
12 15 21
12 16 22
13 17 23
13 16 22
13 17 23
13 17 23
11 15 20
13 16 22
13 17 23
13 16 22
12 16 22
13 17 22
12 16 21
12 16 21
12 16 21
13 17 23
13 16 22
13 17 22
12 16 21
12 16 21
12 16 21
12 16 21
12 16 22
12 15 21
12 16 21
10 14 18
13 17 22
12 16 21
13 16 22
12 16 21
13 16 22
12 15 21
12 16 21
12 15 20
12 16 22
12 15 20
12 15 21
12 15 20
12 15 20
11 14 19
10 13 18
11 14 19
13 16 22
11 14 19
12 16 21
11 14 18
11 15 20
11 14 19
12 15 20
11 14 19
11 15 20
12 16 21
12 16 21
12 15 20
12 15 21
11 14 19
11 15 20
11 14 19
11 14 19
11 15 20
11 15 20
11 14 19
11 14 19
12 15 20
11 15 20
11 14 19
12 15 21
11 14 19
11 14 19
11 14 18
11 14 19
10 13 17
10 13 17
10 14 18
11 15 19
10 13 18
11 14 20
11 14 19
10 13 17
11 14 18
10 13 17
10 13 17
10 13 17
11 14 18
11 14 19
11 14 19
10 13 17
10 12 17
10 13 17
11 14 18
10 12 17
10 13 18
10 12 17
10 13 17
11 14 19
8 11 14
9 12 16
10 13 17
11 15 20
11 14 18
9 12 16
9 12 16
10 13 18
11 14 19
9 12 16
9 12 16
10 13 17
9 12 16
11 14 18
10 12 16
10 13 17
8 11 15
8 10 14
10 12 17
9 12 16
9 12 16
10 13 17
9 12 16
9 12 16
10 13 17
10 12 16
10 12 17
10 13 18
9 11 15
10 13 17
10 13 17
10 12 17
8 11 14
7 9 12
9 12 16
9 11 15
9 11 15
10 12 16
9 11 15
8 10 14
10 12 17
9 11 15
8 10 14
9 12 16
8 11 15
10 12 17
9 11 15
9 11 15
8 10 14
7 10 13
9 12 16
9 11 15
9 11 15
8 10 14
8 11 15
9 11 15
9 11 15
8 11 15
9 12 16
9 11 15
9 11 15
10 13 17
8 10 14
9 11 15
9 12 15
7 10 13
8 11 14
10 13 17
9 11 15
8 10 13
9 11 15
10 12 17
10 13 18
9 11 15
11 14 18
9 12 16
9 11 15
9 12 16
10 13 17
10 13 17
8 11 14
8 10 14
8 10 14
8 11 14
9 11 15
10 13 17
11 14 18
10 13 17
9 12 16
10 13 17
9 11 15
9 12 16
10 13 17
10 13 17
10 12 16
9 12 16
10 13 17
9 12 16
8 11 14
10 13 18
10 13 17
10 13 18
9 11 15
9 11 15
10 12 16
9 11 15
10 13 18
10 13 18
11 14 18
9 12 16
10 12 17
9 12 16
11 14 19
11 14 18
12 15 20
11 15 20
9 12 16
10 13 17
9 12 16
10 13 17
10 12 16
11 14 19
10 13 18
11 14 18
11 15 20
10 12 17
10 13 17
11 15 19
11 14 19
11 14 19
11 15 20
11 14 18
10 13 18
10 13 18
9 12 16
10 13 17
10 13 17
12 16 21
11 15 20
11 14 19
11 14 19
10 13 18
10 14 18
11 15 19
11 14 19
12 15 20
11 14 19
12 16 21
11 14 19
11 14 19
12 16 21
11 15 19
12 16 21
10 13 17
11 14 18
12 16 21
12 15 21
11 14 19
11 15 20
11 14 19
12 16 21
12 16 21
13 16 22
12 16 21
12 15 20
11 14 19
11 15 20
11 15 20
11 14 19
11 14 19
12 15 20
12 15 20
12 16 22
12 16 21
12 16 21
12 15 20
12 15 21
12 16 21
13 16 21
12 16 22
12 16 21
12 15 20
12 16 21
11 15 20
11 15 20
13 17 23
12 16 21
12 16 22
12 16 21
12 16 21
12 15 21
12 16 21
12 16 21
12 16 21
12 16 21
12 16 22
12 16 21
12 16 22
11 15 20
13 17 23
12 16 22
12 16 21
13 16 22
13 17 22
13 17 23
13 17 22
13 17 23
13 17 23
13 17 23
12 16 21
13 17 22
12 16 21
13 17 23
13 17 22
13 16 22
13 17 23
13 17 22
12 16 21
13 17 23
12 16 22
12 16 22
12 16 22
12 16 22
13 17 23
13 17 23
13 17 22
13 17 22
12 16 21
14 17 23
12 16 22
13 17 23
13 17 23
13 17 23
12 16 21
13 17 22
14 18 24
14 18 24
13 17 22
13 17 23
13 17 22
13 17 23
13 17 22
13 17 23
13 17 23
12 16 22
13 17 23
13 17 23
13 16 22
14 18 24
14 18 24
13 17 23
13 17 23
13 17 23
13 17 23
14 18 24
12 16 22
13 17 23
13 17 22
14 18 24
13 17 23
14 18 24
13 17 23
13 17 23
12 16 22
14 18 24
14 18 24
13 18 24
13 18 24
13 17 22
13 16 22
14 18 24
13 17 23
13 17 23
13 17 23
13 17 22
13 17 23
13 17 23
13 16 22
12 16 22
13 16 22
14 18 24
12 16 22
13 17 23
13 17 22
14 17 23
14 18 24
12 16 21
13 17 22
13 17 23
13 17 23
12 16 21
13 17 22
13 17 24
13 17 23
13 17 23
13 17 22
12 15 20
13 16 22
12 16 21
13 17 23
13 16 22
13 17 23
13 17 22
13 17 23
13 17 23
12 16 22
14 18 24
13 16 22
13 17 23
12 16 22
12 16 21
13 17 23
12 16 22
13 17 22
13 17 22
12 16 22
12 16 21
11 15 20
12 16 22
12 16 22
12 16 21
12 16 22
12 15 21
12 16 22
12 16 22
12 16 21
12 16 21
12 16 21
12 16 22
13 16 22
12 15 21
13 17 22
12 15 20
13 16 22
12 15 21
13 17 23
12 16 21
12 15 20
13 16 22
11 14 19
12 15 21
12 15 20
12 16 21
12 15 21
12 16 21
12 15 21
12 16 21
12 15 20
12 16 22
11 15 20
12 15 20
11 15 20
12 15 20
12 16 21
11 15 20
12 15 20
12 16 21
11 15 20
11 14 19
10 14 18
11 15 20
10 13 18
11 15 20
11 14 19
12 15 20
12 16 21
12 15 20
11 14 18
9 12 16
10 14 19
12 15 20
12 15 20
10 13 18
12 15 20
12 15 21
11 14 19
10 13 17
11 14 18
10 13 18
11 14 18
11 14 19
11 14 19
11 14 19
10 13 18
10 13 17
9 12 17
11 15 20
11 14 19
11 14 18
11 14 19
10 13 17
9 12 16
11 14 18
11 14 18
10 12 17
11 14 18
9 12 16
10 13 18
10 12 17
10 13 18
10 13 18
9 12 16
9 12 16
10 13 18
9 12 16
10 14 18
10 13 18
10 13 17
10 13 17
9 11 15
10 13 17
10 13 17
10 13 17
9 12 16
11 14 18
9 12 16
9 12 16
10 13 18
10 13 17
9 12 16
9 12 16
9 12 16
10 13 18
10 13 17
10 12 16
10 13 18
8 11 15
9 11 15
10 12 17
9 12 16
9 12 16
9 12 16
10 13 18
10 12 16
9 11 15
9 12 16
9 12 16
9 11 14
9 11 15
9 12 16
9 11 15
10 13 17
9 11 15
10 13 17
9 11 15
8 11 15
9 11 15
8 11 14
9 11 15
9 12 16
9 11 15
8 10 13
9 11 15
9 12 16
10 12 17
9 12 16
9 11 15
9 11 15
8 10 13
9 11 15
9 11 15
9 11 15
9 11 15
9 11 15
9 11 15
9 11 15
10 13 17
9 12 16
10 12 16
8 11 14
9 12 16
8 11 14
8 11 14
10 12 17
9 11 15
9 12 16
7 9 12
10 13 17
8 11 14
9 11 15
8 10 14
9 12 16
9 12 15
9 12 15
10 13 17
10 13 17
10 13 18
9 12 16
9 11 14
11 14 18
9 12 16
10 13 17
9 11 15
10 12 17
9 12 16
9 11 15
10 12 17
10 13 17
10 13 17
11 14 18
9 12 16
7 9 13
9 12 16
9 12 16
8 10 13
10 13 17
11 14 18
10 13 17
9 12 16
9 12 16
9 12 16
10 13 17
10 13 17
9 12 16
10 13 18
10 13 18
10 13 18
10 13 17
10 13 17
12 15 20
9 12 16
11 15 20
10 13 17
10 13 17
10 13 17
10 13 17
10 13 18
10 13 18
12 15 20
12 15 20
10 13 18
11 14 19
10 13 18
10 13 18
11 14 19
11 14 19
11 14 18
12 15 20
10 13 17
11 15 20
10 13 17
10 13 18
12 15 21
10 13 17
12 15 20
11 14 19
11 14 19
11 14 19
11 15 20
11 14 19
11 14 19
11 15 20
11 15 20
11 14 19
10 14 18
12 15 21
11 14 19
12 15 20
11 15 20
12 16 21
11 15 20
11 14 19
12 15 21
11 14 19
11 14 19
12 16 21
11 14 19
12 15 21
11 15 19
12 15 20
12 16 22
11 15 20
13 16 22
12 16 21
12 16 21
12 15 20
12 16 21
12 16 21
12 16 21
11 14 19
12 16 22
13 17 22
12 15 21
12 16 21
12 16 21
12 16 21
12 15 20
12 16 21
12 16 21
13 16 22
12 16 22
13 16 22
12 16 21
12 16 22
12 16 21
13 16 22
13 17 23
12 16 22
13 17 22
12 16 22
12 16 21
13 16 22
13 17 22
12 15 21
12 16 22
13 17 23
13 17 23
13 16 22
12 15 21
12 15 20
13 17 22
13 17 23
12 16 22
12 16 21
13 17 23
13 16 22
12 16 22
12 16 21
13 17 22
13 17 23
13 17 23
13 17 23
14 18 24
13 16 22
13 16 22
13 17 23
13 18 24
13 17 23
13 17 23
13 17 23
12 16 21
12 16 22
14 18 24
13 17 23
12 16 21
12 16 21
13 17 22
13 17 23
13 17 23
13 17 23
14 18 24
13 17 22
13 18 24
13 17 22
13 16 22
13 17 23
13 17 23
13 17 23
14 18 24
13 17 23
13 17 23
13 17 23
13 17 22
13 17 23
13 17 22
13 17 22
14 18 24
13 17 23
13 17 23
13 17 22
13 17 23
14 18 24
13 17 23
14 18 24
13 17 23
13 17 23
13 17 23
13 17 24
13 17 23
12 16 21
13 17 23
13 16 22
13 17 23
13 17 23
13 17 23
14 17 23
12 16 22
14 18 24
13 17 23
13 17 23
13 17 22
13 17 23
13 17 23
13 17 23
13 17 22
13 17 23
13 17 23
13 17 22
13 17 22
13 16 22
13 16 22
13 17 22
13 17 22
13 17 23
13 17 23
13 17 23
13 17 23
12 16 21
12 16 22
13 17 22
12 16 22
13 16 22
13 16 22
13 17 23
13 16 22
13 16 22
13 17 23
12 16 21
12 15 21
12 16 21
12 16 21
11 14 19
12 16 21
12 16 22
12 15 20
12 16 21
13 16 22
12 16 21
12 16 21
12 16 21
12 16 22
13 16 22
12 16 21
12 15 20
12 15 21
11 14 19
12 16 21
12 16 21
11 15 20
13 16 22
12 15 21
12 16 21
12 15 20
11 15 20
12 16 21
12 16 21
12 16 21
11 14 19
11 15 20
12 15 21
12 15 21
12 16 22
12 16 21
12 15 20
13 16 22
12 15 21
12 16 22
11 14 19
12 16 21
12 16 21
12 16 21
11 15 20
11 14 19
11 14 19
12 15 21
10 13 18
11 14 19
12 16 21
12 16 22
11 14 19
10 14 18
10 13 18
11 14 19
10 14 19
11 15 20
12 15 21
11 14 19
11 14 19
12 16 21
11 14 19
11 14 19
11 15 19
11 14 19
13 17 22
10 13 18
10 12 16
11 14 19
12 15 20
11 14 19
10 13 18
11 14 19
10 13 18
11 14 18
10 13 18
11 15 20
10 13 18
10 14 18
11 14 19
11 14 19
11 14 18
11 15 19
12 15 20
10 13 18
9 11 15
11 14 19
10 13 18
9 12 16
10 13 17
10 13 17
11 15 20
11 15 20
10 13 17
9 12 15
9 11 15
9 11 15
10 13 18
9 12 16
11 14 19
10 13 17
9 12 16
9 11 15
10 13 17
9 12 16
9 11 15
10 13 17
9 12 16
10 13 17
11 14 19
9 12 15
9 11 15
11 14 19
10 13 17
11 13 18
9 11 15
10 13 17
9 12 16
10 13 17
9 12 16
8 11 15
10 12 17
10 13 17
9 12 16
10 13 17
9 12 16
9 11 14
9 11 15
9 11 15
10 12 16
9 11 15
10 13 17
8 10 14
8 11 14
10 13 17
8 10 14
9 11 15
9 11 15
9 11 15
9 11 14
9 11 15
10 13 18
9 12 16
9 12 16
10 12 17
9 11 15
10 13 17
9 11 15
10 13 18
9 12 16
8 11 15
9 11 15
8 11 15
10 12 16
9 12 16
8 11 14
9 11 15
7 10 13
10 13 17
9 12 16
9 12 16
9 12 16
9 12 16
11 14 18
9 12 15
9 11 15
9 12 15
10 13 17
8 11 15
8 10 13
10 13 17
10 12 17
9 11 15
10 13 17
8 10 14
11 14 18
9 12 16
10 14 18
9 12 16
9 12 16
9 12 16
9 12 16
10 12 17
9 11 15
9 11 15
9 12 16
9 12 15
9 11 15
9 12 15
11 14 18
11 14 19
9 11 15
9 11 15
9 12 16
9 12 16
10 13 17
10 13 17
10 13 17
9 12 16
11 14 19
10 13 17
12 15 20
9 12 16
11 15 20
10 12 16
11 14 19
11 14 19
10 13 17
11 14 19
10 13 18
10 13 17
9 12 16
10 13 18
11 14 19
11 14 19
9 12 16
11 14 19
11 15 19
10 13 17
9 12 16
11 14 19
11 14 18
10 13 17
11 15 20
11 14 19
11 14 19
11 14 19
10 13 18
11 14 18
12 15 20
10 14 18
11 15 20
11 15 20
10 13 18
12 16 21
11 14 19
11 14 19
11 14 19
10 14 18
12 15 21
10 13 18
11 15 20
13 17 22
11 15 20
11 14 19
10 13 17
11 14 19
10 13 18
12 15 20
12 15 21
11 14 19
11 14 19
11 15 20
12 15 20
12 16 21
11 14 19
11 15 20
12 16 21
11 15 20
12 16 21
12 16 21
12 16 22
12 16 21
13 17 22
11 15 20
11 14 19
13 17 22
12 15 20
12 16 21
12 15 20
11 15 20
13 16 22
12 16 21
10 14 19
13 17 22
12 16 21
13 16 22
12 16 21
12 16 21
12 16 21
11 15 20
12 16 21
12 15 21
13 16 22
12 16 22
12 16 21
12 16 21
13 17 22
12 16 22
12 15 20
13 17 23
13 17 23
12 16 22
12 16 21
13 17 23
12 15 20
12 16 22
12 16 21
13 17 23
12 16 22
12 16 21
12 15 20
13 16 22
13 17 23
13 17 22
12 16 21
13 16 22
13 16 22
12 16 22
13 17 22
13 17 23
12 16 22
12 16 21
13 17 23
13 16 22
12 15 21
13 17 22
14 18 24
13 17 23
13 16 22
13 17 23
13 16 22
12 16 22
13 16 22
12 16 22
14 18 24
13 17 23
12 16 21
12 16 22
13 17 22
13 17 22
13 17 23
13 17 22
12 16 21
13 16 22
13 17 22
13 17 22
13 16 22
13 17 23
14 17 23
13 17 23
13 16 22
13 17 23
14 18 24
13 17 22
13 17 23
14 18 23
14 18 24
13 18 24
13 17 23
13 17 23
13 17 23
13 17 23
14 18 24
13 17 23
14 18 24
13 17 22
13 17 23
13 17 22
13 17 23
13 17 24
13 16 22
13 17 23
13 16 22
13 17 22
13 17 23
13 17 22
13 18 24
12 16 22
13 17 23
12 16 21
13 17 23
13 16 22
13 17 23
13 17 23
14 17 23
13 16 22
12 16 22
13 17 22
13 16 22
13 17 23
12 16 21
13 17 22
13 17 24
11 15 20
13 17 23
13 17 22
13 17 22
12 16 21
13 17 23
12 16 21
11 15 20
12 16 21
13 17 23
12 15 20
12 16 22
13 16 22
13 17 22
12 16 22
12 15 21
12 16 21
13 17 23
13 17 23
12 16 21
13 17 23
12 16 22
13 17 23
12 16 21
12 16 22
13 16 22
12 15 20
13 17 22
12 16 22
12 15 21
14 18 24
13 17 23
13 17 23
12 16 21
11 15 20
11 14 19
12 16 21
12 15 20
12 15 20
11 15 20
12 16 21
12 16 21
12 15 21
12 15 20
12 16 22
12 16 21
11 15 20
12 16 21
13 17 22
12 16 21
12 15 20
11 15 20
12 16 22
11 15 20
12 15 20
11 15 20
12 15 21
12 15 20
11 14 19
11 14 19
11 14 19
12 15 20
12 15 21
12 15 20
13 17 23
11 15 20
12 16 21
12 15 21
11 14 19
11 14 18
12 16 21
11 14 19
11 14 19
10 13 18
11 15 20
11 14 19
11 14 18
11 14 19
12 15 20
12 15 20
11 15 19
11 15 20
12 15 21
11 14 18
10 14 18
10 13 17
11 15 20
11 14 19
10 13 18
10 13 17
10 13 17
11 14 18
10 13 17
11 14 19
10 13 18
11 14 19
10 13 17
10 14 18
11 14 19
11 14 18
9 12 16
11 14 18
9 12 16
11 15 20
10 13 17
9 12 16
11 14 18
11 14 19
10 13 17
10 12 17
8 11 15
9 12 16
9 12 16
9 12 15
10 13 17
9 12 15
10 13 17
9 12 16
10 13 17
10 13 17
10 13 18
10 13 17
9 12 16
10 13 18
10 13 17
9 11 15
10 13 18
9 11 15
9 11 15
8 11 14
10 13 17
9 12 16
8 11 14
10 13 17
8 11 15
10 12 16
10 12 16
10 12 17
10 12 16
10 12 16
8 10 14
8 10 14
9 11 15
11 14 19
8 10 13
7 9 13
9 11 15
8 11 14
10 12 16
10 12 17
9 11 15
9 12 16
10 13 17
9 12 16
9 12 15
9 12 16
9 12 16
9 12 16
10 13 17
9 11 15
10 13 17
11 13 18
9 11 15
9 12 16
9 11 15
10 12 16
10 13 18
9 12 16
9 12 16
9 11 15
8 11 14
8 11 14
9 12 16
11 13 18
10 13 17
10 13 18
10 13 17
9 11 15
9 12 16
8 11 15
10 13 17
8 11 15
9 11 15
7 9 13
8 10 14
8 11 14
10 13 17
9 12 16
9 11 15
9 11 15
11 14 18
9 12 16
8 10 14
9 12 16
9 12 15
8 11 15
9 11 15
10 12 16
9 11 15
9 12 17
10 13 17
9 12 16
9 12 16
9 12 16
11 14 19
10 13 17
10 13 18
11 15 20
9 12 16
10 13 17
11 14 18
9 12 16
9 12 16
10 13 17
10 13 18
10 12 16
10 14 18
10 14 18
9 12 17
11 14 18
9 12 16
10 13 17
10 12 17
10 14 18
10 13 18
10 13 18
10 13 17
10 12 17
10 13 18
9 12 16
11 15 20
11 14 19
10 13 17
11 14 18
10 13 18
11 15 19
10 13 17
11 14 19
10 13 17
10 13 18
11 14 19
10 13 18
11 14 19
9 12 16
12 15 20
10 13 17
11 14 19
11 14 19
11 14 19
12 15 20
11 14 19
12 15 21
11 15 20
11 14 19
11 14 19
11 14 18
10 13 18
12 15 20
11 14 19
11 14 19
11 15 20
11 14 18
11 14 20
11 15 20
11 14 19
12 15 20
11 14 19
11 14 19
11 15 20
11 14 19
12 15 21
11 15 19
13 16 22
11 14 19
11 14 19
10 14 18
11 14 19
11 14 19
12 16 21
11 15 20
11 15 20
11 14 19
12 16 21
12 15 21
12 16 21
13 16 22
13 17 22
12 16 21
12 16 21
12 15 21
13 16 22
12 16 22
12 16 21
12 16 22
12 15 20
12 16 21
12 16 22
12 15 20
12 16 22
12 16 21
12 16 22
12 16 21
13 17 22
12 16 21
13 17 23
13 17 22
12 16 21
13 16 22
14 18 24
12 16 21
12 16 22
13 16 22
12 16 22
12 16 22
13 16 22
13 16 22
13 16 22
13 17 23
13 16 22
12 15 21
13 17 23
13 17 23
12 16 22
13 16 22
13 17 24
13 16 22
13 17 23
13 17 23
12 16 22
13 17 23
13 17 23
13 17 23
12 16 22
12 16 21
13 17 23
12 16 21
13 17 23
12 16 21
13 17 23
13 17 23
13 17 23
13 17 24
14 18 24
13 17 22
13 17 23
13 17 23
14 18 25
14 18 24
13 17 22
13 17 23
13 17 23
13 17 23
12 16 22
14 18 24
13 17 24
13 16 22
13 17 23
12 16 22
13 17 23
13 17 22
14 18 24
12 16 22
14 18 24
12 16 22
14 18 24
13 17 23
13 17 22
14 18 24
14 18 24
14 18 24
13 17 22
13 17 23
12 16 22
13 17 23
14 18 24
13 16 22
13 17 22
12 16 22
14 18 24
13 17 23
13 17 23
13 17 23
13 17 24
13 17 23
13 17 22
13 17 23
13 17 23
13 17 23
13 17 23
12 16 22
12 16 22
13 17 23
12 16 21
13 17 23
12 16 22
13 17 23
13 16 22
13 17 22
12 16 22
13 17 22
13 17 22
12 16 22
12 16 21
14 18 23
13 17 22
12 16 21
12 16 22
12 15 20
12 16 21
13 16 22
12 16 21
12 16 21
13 17 22
12 15 20
13 17 23
12 15 21
12 15 21
13 16 22
12 15 20
13 16 22
12 16 21
13 17 23
13 17 23
13 16 22
12 16 21
11 15 20
13 16 22
13 17 23
12 16 22
12 16 21
12 16 21
13 16 22
12 16 21
11 15 20
13 17 22
12 15 21
12 15 20
13 17 22
13 16 22
12 16 21
11 15 20
12 16 21
12 15 20
12 15 21
12 15 21
13 17 23
11 14 19
11 14 19
12 16 21
12 16 21
13 16 22
12 16 22
10 13 18
12 15 21
12 16 21
12 16 21
12 15 20
11 15 20
12 15 20
12 16 22
11 14 19
12 16 21
12 15 20
12 15 21
11 15 20
12 16 22
11 14 19
11 14 19
12 16 21
10 13 18
11 14 19
12 15 20
12 15 21
12 15 21
10 13 17
11 14 19
10 14 18
11 14 19
11 14 19
11 15 19
11 14 19
11 14 19
12 15 20
11 15 20
11 14 19
10 13 17
10 14 19
11 14 19
10 13 18
11 14 19
9 12 16
10 13 17
11 14 19
10 13 18
11 14 18
10 13 17
10 13 17
10 14 18
11 15 20
11 14 19
11 14 19
11 14 19
9 12 16
10 12 16
11 14 19
9 12 17
11 14 19
11 14 18
11 14 18
11 14 19
9 12 16
10 12 17
10 13 18
8 11 14
10 13 18
10 14 18
10 12 17
10 13 18
9 11 15
10 13 18
10 13 17
10 13 18
9 12 17
10 13 17
10 14 18
9 11 15
9 12 16
9 11 15
9 12 16
9 12 16
9 12 16
9 12 17
10 12 17
10 13 17
10 13 18
9 12 16
8 11 14
9 11 15
11 14 18
9 12 16
10 12 17
10 13 18
10 13 17
10 13 17
9 11 15
10 12 16
9 12 16
10 13 17
8 11 14
10 13 17
9 11 15
9 12 16
9 12 15
8 10 14
9 12 16
9 11 15
9 11 15
9 11 15
8 10 14
8 11 14
9 11 15
10 13 17
9 12 16
10 12 17
10 13 17
10 13 18
10 12 17
9 12 16
9 12 16
10 12 16
8 10 14
9 12 15
10 12 16
8 11 14
9 12 16
9 12 16
9 11 15
10 12 16
9 11 15
10 13 18
10 13 17
10 13 17
8 11 14
8 11 14
9 12 16
9 12 16
9 12 16
10 12 16
9 12 15
9 12 16
10 13 17
7 10 13
8 11 14
9 11 15
9 12 16
8 11 15
9 12 16
10 13 17
9 11 15
9 11 15
9 12 16
10 13 18
10 12 17
9 12 16
8 10 14
10 13 17
10 13 17
8 10 14
10 13 17
10 13 17
9 12 16
9 12 16
9 12 16
11 14 19
10 13 18
10 13 17
9 12 16
11 14 18
9 12 16
9 12 16
10 12 17
11 14 19
10 13 17
10 13 18
10 13 18
10 13 17
10 13 18
11 14 18
11 13 18
9 12 16
11 14 19
11 14 19
11 14 19
10 13 18
10 12 17
10 13 18
10 13 17
11 15 20
10 13 18
10 13 18
9 12 16
10 13 17
11 14 18
9 12 16
11 15 20
10 13 17
11 14 18
11 14 19
12 15 20
11 14 19
11 14 19
11 15 20
11 15 20
11 14 19
11 14 19
10 13 18
11 14 18
12 15 20
12 15 20
12 16 21
12 15 20
11 14 19
9 12 16
11 14 19
13 16 22
12 16 21
12 15 21
11 15 20
11 14 19
12 15 21
10 13 18
12 16 21
13 16 22
12 16 21
11 14 19
12 16 22
11 15 20
12 16 22
12 15 21
12 15 20
12 16 21
12 16 21
12 16 21
12 15 21
12 16 21
11 15 19
11 15 20
13 17 23
12 16 22
13 16 22
12 16 21
13 17 22
12 16 21
11 15 20
12 16 21
13 17 23
13 17 23
12 16 21
11 15 20
12 16 21
13 17 23
12 16 22
13 17 23
13 17 23
11 14 19
12 15 20
12 16 21
12 16 21
12 16 22
13 17 23
13 16 22
12 16 21
12 15 21
12 16 22
13 17 23
13 16 22
12 16 22
13 17 23
13 17 22
13 16 22
13 17 23
12 16 21
12 16 22
12 16 22
13 17 22
14 18 24
13 17 23
13 17 23
13 17 23
12 16 22
13 16 22
12 16 22
13 17 23
13 16 22
13 16 22
13 17 22
13 17 23
13 16 22
13 16 22
13 17 22
13 17 23
13 16 22
13 17 23
13 18 24
13 17 23
13 17 23
12 16 22
13 17 23
13 17 23
14 17 23
13 17 23
13 17 23
13 18 24
13 17 22
13 17 23
14 18 24
13 17 22
13 17 23
13 17 23
13 18 24
14 18 24
12 16 22
13 17 23
13 17 22
13 17 23
12 16 22
13 17 23
13 17 23
13 17 24
14 18 24
13 17 23
13 17 23
14 18 24
13 17 23
13 16 22
13 17 23
13 17 22
12 16 21
13 16 22
13 17 23
13 17 23
13 17 22
13 17 23
14 18 23
13 17 24
13 17 23
13 17 23
14 18 24
13 17 22
12 16 21
13 18 24
13 17 23
13 17 22
13 16 22
12 16 22
13 17 22
13 17 22
12 16 22
12 16 22
12 16 22
13 17 22
12 16 22
13 16 22
13 17 23
13 17 23
12 16 21
12 16 21
12 16 21
13 16 22
12 16 22
12 16 22
13 16 22
13 17 23
12 16 21
12 16 22
12 16 21
13 17 22
12 16 22
12 16 21
13 17 23
12 16 22
13 16 22
12 16 21
13 16 22
12 15 20
13 17 22
12 16 21
12 16 21
11 15 20
12 15 21
12 15 21
12 16 22
12 16 21
12 15 20
12 16 21
13 16 22
12 16 21
11 15 20
12 15 21
12 16 21
13 16 22
12 16 22
12 15 21
12 16 22
11 15 20
11 14 19
12 16 21
11 15 20
12 15 20
13 16 22
12 15 20
12 15 21
11 14 19
11 15 20
11 14 19
11 15 19
11 14 19
13 16 22
10 14 18
12 16 21
12 16 21
11 14 19
12 15 20
12 16 21
11 14 20
11 14 18
11 15 20
12 15 20
11 14 19
11 14 19
11 15 20
10 13 18
12 15 21
10 14 19
11 14 18
11 14 19
11 14 19
12 16 21
12 15 20
11 15 20
11 15 20
11 14 19
10 13 18
11 14 19
12 16 21
12 15 21
11 14 19
10 13 17
10 13 18
11 14 18
10 13 18
9 12 16
10 13 17
10 13 18
10 13 17
11 14 19
10 13 18
10 13 18
11 14 19
9 11 15
12 15 21
11 14 19
11 14 19
10 13 18
11 14 18
10 12 16
10 13 17
9 12 16
11 14 19
10 13 17
11 14 18
9 12 15
9 12 16
9 12 16
9 12 16
11 14 19
11 14 19
10 13 17
10 12 17
12 16 21
10 13 18
9 12 16
9 12 16
10 12 17
9 12 17
10 13 17
9 12 16
10 13 16
10 12 17
10 13 17
9 12 16
9 11 15
10 12 16
9 12 16
8 11 15
8 10 14
10 12 16
10 13 17
9 11 15
10 13 18
9 12 16
10 13 18
9 12 16
10 13 18
9 12 16
9 12 16
10 13 18
10 13 17
10 13 17
9 12 16
10 12 16
8 11 15
10 13 18
9 12 16
9 12 16
9 12 16
8 10 14
9 12 17
9 11 15
10 13 17
9 12 16
10 12 16
10 12 16
10 13 17
9 12 16
9 11 15
10 13 17
9 11 15
10 13 17
10 12 17
10 12 17
10 13 17
10 13 17
10 12 16
10 12 17
9 11 15
10 12 16
11 15 20
9 12 16
9 12 16
9 12 16
9 12 16
10 13 17
10 13 17
10 12 17
10 13 18
10 14 18
8 11 14
8 11 15
10 12 16
10 12 17
10 13 17
8 10 14
11 14 19
11 14 18
10 12 17
9 12 16
10 13 17
9 11 15
10 14 18
9 11 15
9 11 15
9 12 16
10 13 18
11 14 18
10 13 17
10 13 18
9 12 16
9 12 16
9 12 17
11 14 19
10 13 17
11 13 18
10 13 18
10 13 17
10 13 17
10 13 18
10 13 17
10 12 17
10 12 17
10 12 17
10 13 18
10 13 17
10 13 17
10 13 17
11 14 19
11 15 19
10 13 17
10 13 18
11 15 20
10 14 18
11 14 18
10 14 18
10 13 17
11 14 18
10 12 17
11 14 19
10 13 18
10 13 17
11 15 20
11 14 19
11 14 19
10 13 18
11 14 19
12 16 21
10 13 17
12 15 21
10 13 18
11 14 19
11 14 19
11 14 19
11 15 20
11 14 19
11 14 18
10 13 18
11 14 19
11 14 19
11 14 19
13 16 22
10 13 17
12 15 20
11 15 20
11 15 19
11 14 19
11 15 20
11 14 19
12 16 21
11 14 19
11 14 19
12 15 20
11 15 20
13 17 22
12 16 21
12 15 20
12 15 20
12 15 20
12 15 21
12 15 20
11 14 19
12 15 21
12 15 21
11 15 20
11 15 20
12 15 21
11 14 19
13 16 22
12 16 21
11 14 19
10 13 18
12 15 21
12 16 22
11 14 19
12 15 20
12 15 20
12 16 21
13 17 22
12 15 21
11 15 20
13 17 23
13 17 22
12 16 21
12 16 21
13 16 22
13 17 22
12 16 22
11 15 20
12 16 22
12 16 21
13 17 22
13 16 22
13 16 22
13 17 23
13 16 22
13 17 22
12 16 22
13 16 22
13 17 22
12 16 21
13 17 22
11 15 20
12 16 22
12 16 21
12 16 21
12 16 22
13 17 22
13 17 23
12 16 21
12 16 21
13 17 23
13 17 22
13 17 23
13 17 23
13 16 22
13 17 22
13 17 22
12 16 22
12 15 20
13 17 23
13 17 22
14 18 24
13 16 22
13 17 22
13 17 23
13 17 23
13 17 23
13 17 23
13 17 23
14 17 23
14 18 24
13 18 24
13 17 22
13 17 23
13 17 23
13 17 23
13 17 22
13 17 23
13 17 23
13 16 22
13 18 24
13 17 23
13 17 23
13 18 24
14 18 24
13 17 23
14 18 24
13 17 23
13 17 23
13 17 23
12 16 22
13 17 23
13 17 23
13 17 24
13 18 24
13 17 24
13 17 23
13 17 22
14 18 24
13 16 22
14 18 24
13 17 23
13 17 23
13 17 23
13 17 22
13 17 23
13 17 23
13 16 22
13 17 23
13 17 23
13 17 23
13 17 23
12 16 22
13 17 22
13 17 22
13 17 23
13 16 22
13 17 22
13 16 22
13 17 22
14 18 24
12 16 22
13 17 23
13 17 23
13 17 23
13 17 23
13 17 22
13 17 22
13 17 23
13 16 22
12 16 22
14 18 24
12 15 21
12 16 22
13 16 22
13 17 22
12 16 22
13 17 23
12 16 21
13 17 23
12 15 21
13 17 23
13 16 22
13 17 22
12 15 21
12 16 21
12 16 22
13 16 22
12 16 21
13 17 22
12 15 21
12 16 21
12 16 21
12 16 21
12 15 21
12 16 21
11 15 20
11 15 20
12 16 21
12 16 21
12 16 21
12 15 20
13 16 22
12 15 20
12 16 21
12 16 21
12 15 21
11 15 20
12 16 21
12 15 20
11 15 20
12 16 21
11 14 18
12 16 21
12 15 21
11 14 19
13 16 22
12 15 21
11 14 19
12 15 20
11 14 19
12 15 20
11 14 19
12 15 20
11 15 20
11 14 19
11 15 20
11 14 19
11 15 20
12 15 21
12 16 21
11 14 19
11 15 20
11 15 20
10 14 18
11 14 19
11 15 20
10 13 18
10 13 18
11 14 19
11 14 19
11 15 20
11 14 19
11 14 19
11 14 19
12 16 21
11 14 19
11 15 20
11 15 20
11 14 18
10 12 17
11 14 19
11 15 20
10 12 17
10 13 17
11 14 18
10 13 17
12 15 20
11 15 20
11 15 20
10 13 18
10 13 17
10 12 17
10 13 17
9 12 15
10 13 17
10 13 17
10 12 16
10 13 17
10 13 18
9 12 16
9 12 17
10 13 18
10 13 17
10 13 17
10 13 17
9 11 15
10 13 17
10 13 18
9 12 15
10 13 17
11 14 19
11 14 19
10 13 18
10 13 17
10 12 17
9 12 16
9 11 15
11 14 18
10 13 17
10 13 18
9 11 15
10 13 17
9 11 15
11 14 18
10 12 17
10 14 18
10 12 16
8 11 14
10 13 17
9 11 15
9 12 16
9 12 16
10 13 17
10 13 17
9 12 16
10 13 18
8 11 15
8 11 14
9 12 16
9 12 16
9 12 16
9 12 16
10 13 17
9 12 16
11 15 20
10 13 17
9 12 16
10 13 17
9 12 16
9 12 16
10 13 17
8 10 14
9 12 16
9 12 16
8 10 13
10 13 18
10 12 16
9 11 15
9 11 15
10 13 18
8 11 14
9 11 15
10 13 18
9 11 14
10 13 18
8 10 14
10 12 16
10 13 17
10 13 17
10 12 16
9 12 16
11 14 18
9 11 15
10 12 16
10 13 18
10 13 17
10 13 17
9 12 15
9 12 16
10 13 17
8 11 15
9 12 16
9 11 15
10 13 17
9 12 16
11 13 18
9 12 17
10 12 17
8 11 15
9 11 15
10 13 18
10 12 16
11 14 18
9 12 16
10 12 17
11 14 18
9 12 16
10 12 16
8 10 14
11 14 18
9 12 16
9 11 15
9 12 16
10 13 18
9 11 15
11 14 19
10 13 17
10 12 17
10 13 18
10 13 17
11 14 19
10 13 17
9 12 17
11 14 18
11 14 18
11 14 19
9 12 16
9 11 15
10 13 17
11 14 19
11 14 19
11 14 19
9 11 15
11 14 19
10 13 17
11 15 20
9 12 16
10 13 17
10 14 18
10 13 18
10 13 18
12 15 20
9 12 16
11 14 18
11 14 19
9 12 16
10 14 18
11 14 19
11 14 19
10 13 17
10 14 18
10 13 18
11 14 19
11 14 19
11 14 19
12 15 20
13 16 22
11 14 19
11 15 19
11 15 20
11 15 20
11 14 19
9 12 16
11 14 19
11 14 19
12 15 20
12 15 20
11 15 20
12 16 21
13 16 22
12 15 20
12 15 20
11 14 20
12 16 21
12 16 21
11 14 19
12 16 21
12 16 21
12 15 21
13 17 22
12 15 20
13 16 22
12 15 21
12 15 20
12 16 22
13 17 22
13 16 22
12 16 22
12 16 21
11 15 20
12 16 22
11 15 20
13 16 22
12 15 20
11 15 20
12 16 21
13 16 22
12 15 20
12 16 21
12 16 22
13 17 23
12 16 22
12 16 21
13 16 22
13 16 22
12 16 22
13 17 23
13 17 23
12 16 21
12 15 21
12 15 21
13 16 22
12 15 21
12 16 21
13 17 23
12 16 22
12 16 22
13 16 22
12 16 21
13 17 23
13 17 22
12 16 21
13 17 22
12 16 21
12 16 21
12 16 21
13 17 23
13 18 24
13 17 22
13 17 22
12 16 22
14 18 24
13 16 22
14 18 24
13 17 23
13 16 22
13 17 22
13 17 23
13 16 22
12 16 21
13 16 22
14 18 24
13 17 23
13 17 23
12 16 22
14 17 23
13 17 23
12 16 22
13 16 22
13 17 23
13 18 24
13 17 23
12 16 21
13 17 23
14 18 24
13 17 23
13 16 22
13 17 22
13 17 23
13 17 23
13 17 23
13 17 23
13 17 23
14 18 24
13 17 23
13 17 22
13 17 23
15 19 25
13 17 23
13 17 23
13 16 22
13 17 23
14 18 23
14 18 24
13 17 22
13 17 23
14 18 24
13 17 23
13 16 22
13 17 22
13 17 23
13 17 23
13 17 23
12 16 22
14 18 24
14 18 24
12 16 21
13 17 22
13 17 22
13 16 22
13 16 22
13 17 23
13 17 22
13 16 22
12 16 22
13 17 23
12 16 21
12 16 21
13 17 23
13 17 23
13 17 22
14 18 24
12 16 21
13 17 23
12 16 21
13 17 23
12 16 22
12 16 21
13 16 22
12 16 22
13 17 22
13 17 23
13 17 23
12 16 22
13 17 23
13 17 22
13 16 22
12 16 22
12 16 22
13 16 22
12 16 22
13 16 22
13 17 23
12 16 22
12 16 22
12 15 20
12 16 22
12 16 22
12 16 21
12 16 21
12 16 21
12 16 21
11 15 20
12 16 21
12 16 22
12 15 20
12 15 21
12 15 20
12 16 21
11 14 19
12 15 21
12 15 21
12 16 21
12 16 21
12 15 21
13 17 22
12 16 21
11 15 20
12 16 22
11 14 19
13 16 22
12 16 21
12 16 21
12 15 20
12 16 21
12 16 21
12 16 21
12 15 20
12 15 20
12 16 21
11 15 20
11 14 19
11 14 19
11 14 19
12 16 21
11 15 19
12 16 21
11 14 19
12 15 20
11 14 19
11 14 19
11 15 20
11 14 18
12 16 21
11 14 19
11 14 19
11 14 18
11 14 19
11 15 20
11 14 19
11 14 19
11 14 19
11 14 19
11 15 19
10 13 17
10 13 18
11 14 18
11 14 19
10 13 18
11 14 18
10 13 17
10 13 17
11 15 19
10 13 17
11 14 18
9 12 16
10 14 18
12 15 20
10 13 17
10 13 18
10 13 18
11 14 19
10 13 17
10 13 18
11 14 19
8 11 15
10 13 18
12 15 19
10 13 17
9 11 15
10 12 17
11 14 18
11 14 19
10 14 18
10 12 17
9 12 16
10 12 17
10 13 18
11 14 18
10 13 18
9 12 16
10 12 17
11 14 18
10 13 17
10 13 17
9 12 15
11 13 18
10 13 17
10 13 18
9 11 15
10 13 17
10 13 17
9 12 16
10 13 18
10 13 17
9 12 16
9 12 16
9 12 16
9 12 16
9 11 15
9 12 16
10 13 17
8 11 15
10 14 18
11 14 18
9 12 15
10 13 17
9 12 16
10 13 17
10 13 18
10 13 18
9 12 16
10 12 17
10 12 17
9 12 16
9 12 16
8 11 14
10 13 18
10 13 18
10 13 17
10 13 17
11 15 20
8 11 14
10 13 17
8 11 14
9 12 16
10 14 18
9 12 16
9 12 16
9 12 16
10 13 17
9 11 15
10 13 17
10 13 17
10 13 17
9 11 15
10 13 17
9 12 16
10 13 17
12 15 20
9 12 16
9 12 16
10 13 17
9 12 15
9 12 15
9 11 15
10 13 17
10 13 17
9 12 16
9 12 15
9 12 16
10 12 17
10 12 16
11 14 18
10 13 18
10 13 17
10 13 18
9 12 16
11 14 19
8 10 13
11 14 18
9 11 15
10 13 18
9 12 16
9 12 17
9 12 15
10 13 17
11 14 19
10 13 17
10 13 18
9 12 16
10 12 17
10 13 18
10 13 18
9 12 15
11 14 18
10 13 17
9 12 16
11 14 18
10 13 17
10 13 18
11 15 20
10 12 17
11 15 20
10 13 17
11 14 19
10 13 17
10 12 17
10 13 17
9 12 16
10 13 18
10 13 18
11 14 19
10 13 18
12 16 21
11 14 19
10 13 17
10 13 18
11 14 19
10 13 17
11 14 19
10 13 18
11 14 19
11 15 20
11 14 18
10 13 18
10 14 18
11 14 19
10 14 18
12 15 20
10 13 17
11 14 19
12 15 20
12 16 22
11 14 19
11 14 20
11 14 19
10 14 18
12 15 21
11 14 19
12 16 21
12 15 20
11 14 18
11 14 19
11 15 20
12 15 21
13 16 22
10 13 17
12 16 21
12 15 21
12 16 21
11 15 20
12 16 21
12 15 20
11 14 19
12 15 20
12 15 20
12 16 22
12 16 22
12 16 21
12 16 22
11 15 20
12 15 21
11 14 19
12 16 21
12 15 20
12 15 20
13 17 22
12 16 22
12 16 22
12 15 20
12 15 20
12 16 22
12 15 21
12 16 21
13 16 22
13 16 22
12 16 21
13 16 22
12 16 21
12 16 22
13 17 22
12 15 21
12 16 22
12 15 21
12 16 21
12 16 22
13 16 22
12 16 22
12 16 21
12 16 21
12 16 22
12 16 21
11 15 20
12 16 21
13 17 23
13 17 23
12 16 21
13 16 22
13 17 22
13 16 22
13 17 22
13 17 22
12 16 22
13 17 23
12 16 22
13 17 23
13 17 23
13 17 23
13 16 22
13 17 22
13 17 22
13 17 23
13 16 22
14 18 24
12 16 21
13 17 23
13 17 22
12 16 22
13 16 22
13 17 22
13 17 23
12 16 22
13 16 22
13 17 23
13 17 23
13 17 22
13 17 22
13 17 23
13 17 23
13 17 22
13 18 24
13 17 22
13 17 22
14 18 24
13 16 22
13 17 22
13 17 23
13 17 23
14 18 23
13 17 22
13 17 23
13 17 23
13 18 24
14 18 24
12 16 21
13 17 23
14 18 23
13 17 23
13 17 23
13 17 23
13 17 23
14 18 24
13 17 23
13 18 24
13 17 23
12 16 22
13 17 22
14 18 24
13 17 23
13 18 24
13 16 22
13 17 23
13 17 23
13 17 23
12 16 22
12 16 22
13 17 23
14 18 24
12 16 22
13 17 23
13 17 23
12 16 22
14 18 23
13 17 23
13 18 24
13 17 23
13 17 23
12 16 22
12 16 21
13 16 22
12 16 22
13 17 23
13 17 22
13 17 22
13 17 23
13 17 22
13 16 22
13 16 22
13 17 22
13 16 22
13 16 22
13 16 22
13 17 23
12 16 22
12 16 22
11 15 20
13 17 23
13 17 22
13 16 22
13 17 23
12 16 21
12 16 21
13 17 23
12 15 21
13 16 22
13 17 22
12 15 21
12 16 21
12 16 21
11 15 20
12 16 21
13 16 22
13 16 22
11 14 19
13 16 22
12 16 21
11 14 19
12 16 21
11 15 20
12 16 21
12 15 20
12 15 21
12 16 21
13 17 22
11 15 20
12 15 20
12 15 20
13 16 22
11 15 20
12 16 21
12 15 21
11 15 20
12 15 21
11 15 20
12 15 20
12 15 21
10 14 18
11 15 20
12 16 21
11 14 19
12 16 21
11 14 19
11 14 19
11 15 20
12 15 21
11 14 19
12 15 20
11 14 19
11 15 20
12 16 21
11 14 19
11 14 19
10 13 17
10 13 17
11 14 19
11 14 18
12 15 20
11 14 19
12 15 20
11 14 19
11 14 18
11 15 20
11 14 19
11 14 19
11 15 20
11 14 18
12 15 20
10 14 18
10 13 18
12 16 21
11 13 18
10 13 17
11 14 18
11 15 20
11 14 18
9 11 15
11 15 20
11 14 19
10 14 18
11 14 18
10 13 17
11 15 20
10 13 17
12 15 20
10 13 18
10 13 17
10 12 17
11 14 19
11 14 19
10 13 18
10 13 17
10 13 18
11 14 18
10 13 17
11 14 18
10 13 17
10 12 17
10 14 18
12 16 21
11 14 19
10 13 18
10 13 17
11 14 19
10 14 18
10 13 17
10 13 17
10 12 16
8 11 14
10 13 17
9 12 16
9 11 15
10 13 17
10 13 18
9 12 16
10 12 17
10 13 18
10 13 17
9 11 15
10 13 17
10 13 18
8 10 14
10 12 16
9 12 16
8 11 14
9 12 16
9 12 16
9 12 16
9 12 16
9 12 16
9 12 16
10 13 17
10 13 17
9 12 16
10 13 18
9 12 16
9 12 17
8 11 14
10 13 18
9 12 15
9 11 15
10 12 16
9 12 16
10 13 17
11 14 19
9 12 16
10 14 18
10 13 17
9 11 15
11 14 18
10 13 17
10 13 18
11 14 19
9 12 16
9 11 15
11 14 19
10 12 16
10 12 16
10 13 18
10 13 17
9 12 16
10 13 18
9 12 15
10 12 17
9 12 16
11 15 19
9 12 16
10 13 17
10 12 16
11 14 19
11 14 19
9 12 16
10 12 17
11 14 19
10 13 17
10 13 17
10 13 17
10 13 17
10 13 17
11 14 18
11 14 18
10 14 18
10 13 17
9 12 16
11 14 19
10 12 17
9 11 15
9 12 16
9 12 16
11 14 19
10 13 17
10 13 18
11 14 18
10 13 18
9 12 16
11 14 18
10 13 17
9 12 16
11 14 19
11 14 18
10 13 17
11 14 19
11 14 19
10 12 16
9 12 16
11 14 19
12 15 20
11 14 19
9 12 16
10 13 17
10 13 17
10 13 17
11 14 19
10 13 18
11 14 18
10 13 18
11 14 19
10 13 18
10 13 17
10 13 18
10 14 18
11 14 19
11 14 19
12 15 21
11 14 18
12 15 21
11 14 19
12 15 20
11 14 19
11 14 18
12 15 20
10 13 17
11 15 20
11 15 20
11 15 20
11 14 19
11 15 20
10 13 18
11 14 19
12 16 21
12 16 21
11 14 19
12 15 21
12 15 21
12 15 21
10 14 18
11 14 19
12 15 20
11 15 20
13 16 21
10 14 18
13 16 22
11 14 19
12 15 21
13 16 22
12 15 20
12 15 21
11 14 19
11 15 20
12 16 21
11 14 19
12 15 20
11 15 20
12 16 21
12 16 21
12 15 20
12 16 21
12 16 21
12 16 21
11 14 19
12 15 20
12 16 22
12 15 21
12 16 21
12 16 21
13 17 22
12 15 20
13 17 23
13 16 22
12 16 22
12 15 21
12 15 20
12 16 21
12 16 21
13 17 23
12 16 21
13 16 22
13 16 22
12 16 21
13 16 22
13 16 22
12 16 22
12 16 21
13 17 23
12 16 21
12 16 21
13 17 22
13 17 22
13 17 22
13 16 22
13 17 22
12 16 22
12 16 22
13 16 22
13 17 22
13 16 22
13 17 23
12 15 21
12 15 21
13 17 23
13 16 22
13 17 22
13 17 23
12 16 21
13 17 23
12 16 21
13 17 23
12 16 21
13 17 23
11 15 20
13 16 22
13 16 22
13 17 23
13 17 23
13 17 22
13 16 22
13 16 22
12 16 21
13 16 22
12 16 21
13 17 23
13 17 22
14 18 24
12 16 21
14 18 24
13 17 22
13 17 22
13 17 23
13 17 22
13 18 24
13 17 23
13 17 22
14 18 24
14 19 25
13 17 23
