P3
400 225
255
204 226 255
204 226 255
204 226 255
204 226 255
204 226 255
204 226 255
204 226 255
204 226 255
204 226 255
204 226 255
204 226 255
204 226 255
204 226 255
204 226 255
204 226 255
203 226 255
203 226 255
203 226 255
203 226 255
203 226 255
203 226 255
203 226 255
203 226 255
203 225 255
203 225 255
203 225 255
203 225 255
203 225 255
203 225 255
203 225 255
203 225 255
203 225 255
202 225 255
202 225 255
202 225 255
202 225 255
202 225 255
202 225 255
202 225 255
202 225 255
202 225 255
202 225 255
202 225 255
202 225 255
202 225 255
202 225 255
202 225 255
202 225 255
201 225 255
201 225 255
201 225 255
201 225 255
201 224 255
201 224 255
201 224 255
201 224 255
201 224 255
201 224 255
201 224 255
201 224 255
201 224 255
201 224 255
201 224 255
200 224 255
200 224 255
200 224 255
200 224 255
200 224 255
200 224 255
200 224 255
200 224 255
200 224 255
200 224 255
200 224 255
200 224 255
200 224 255
200 224 255
199 224 255
199 224 255
199 224 255
199 223 255
199 223 255
199 223 255
199 223 255
199 223 255
199 223 255
199 223 255
199 223 255
199 223 255
199 223 255
199 223 255
199 223 255
198 223 255
198 223 255
198 223 255
198 223 255
198 223 255
198 223 255
198 223 255
198 223 255
198 223 255
198 223 255
198 223 255
198 223 255
198 223 255
198 223 255
197 222 255
197 222 255
197 222 255
197 222 255
197 222 255
197 222 255
197 222 255
197 222 255
197 222 255
197 222 255
197 222 255
197 222 255
197 222 255
197 222 255
197 222 255
196 222 255
196 222 255
196 222 255
196 222 255
196 222 255
196 222 255
196 222 255
196 222 255
196 222 255
196 222 255
196 222 255
196 222 255
196 222 255
196 222 255
196 221 255
196 221 255
195 221 255
195 221 255
195 221 255
195 221 255
195 221 255
195 221 255
195 221 255
195 221 255
195 221 255
195 221 255
195 221 255
195 221 255
195 221 255
195 221 255
195 221 255
195 221 255
195 221 255
195 221 255
194 221 255
194 221 255
194 221 255
194 221 255
194 221 255
194 221 255
194 221 255
194 221 255
194 221 255
194 221 255
194 221 255
194 221 255
194 221 255
194 221 255
194 221 255
194 221 255
194 221 255
194 221 255
194 221 255
194 221 255
194 221 255
194 221 255
194 220 255
194 220 255
194 220 255
194 220 255
194 220 255
194 220 255
194 220 255
194 220 255
194 220 255
193 220 255
193 220 255
193 220 255
193 220 255
193 220 255
193 220 255
193 220 255
193 220 255
193 220 255
193 220 255
193 220 255
193 220 255
193 220 255
193 220 255
193 220 255
193 220 255
193 220 255
193 220 255
193 220 255
193 220 255
193 220 255
193 220 255
193 220 255
193 220 255
193 220 255
193 220 255
193 220 255
194 220 255
194 220 255
194 220 255
194 220 255
194 220 255
194 220 255
194 220 255
194 220 255
194 220 255
194 220 255
194 221 255
194 221 255
194 221 255
194 221 255
194 221 255
194 221 255
194 221 255
194 221 255
194 221 255
194 221 255
194 221 255
194 221 255
194 221 255
194 221 255
194 221 255
194 221 255
194 221 255
194 221 255
194 221 255
194 221 255
194 221 255
194 221 255
195 221 255
195 221 255
195 221 255
195 221 255
195 221 255
195 221 255
195 221 255
195 221 255
195 221 255
195 221 255
195 221 255
195 221 255
195 221 255
195 221 255
195 221 255
195 221 255
195 221 255
195 221 255
196 221 255
196 221 255
196 222 255
196 222 255
196 222 255
196 222 255
196 222 255
196 222 255
196 222 255
196 222 255
196 222 255
196 222 255
196 222 255
196 222 255
196 222 255
196 222 255
197 222 255
197 222 255
197 222 255
197 222 255
197 222 255
197 222 255
197 222 255
197 222 255
197 222 255
197 222 255
197 222 255
197 222 255
197 222 255
197 222 255
197 223 255
198 223 255
198 223 255
198 223 255
198 223 255
198 223 255
198 223 255
198 223 255
198 223 255
198 223 255
198 223 255
198 223 255
198 223 255
198 223 255
198 223 255
199 223 255
199 223 255
199 223 255
199 223 255
199 223 255
199 223 255
199 223 255
199 223 255
199 223 255
199 223 255
199 223 255
199 223 255
199 224 255
199 224 255
200 224 255
200 224 255
200 224 255
200 224 255
200 224 255
200 224 255
200 224 255
200 224 255
200 224 255
200 224 255
200 224 255
200 224 255
200 224 255
200 224 255
200 224 255
201 224 255
201 224 255
201 224 255
201 224 255
201 224 255
201 224 255
201 224 255
201 224 255
201 224 255
201 224 255
201 225 255
201 225 255
201 225 255
201 225 255
201 225 255
202 225 255
202 225 255
202 225 255
202 225 255
202 225 255
202 225 255
202 225 255
202 225 255
202 225 255
202 225 255
202 225 255
202 225 255
202 225 255
202 225 255
202 225 255
202 225 255
203 225 255
203 225 255
203 225 255
203 225 255
203 225 255
203 225 255
203 225 255
203 225 255
203 225 255
203 226 255
203 226 255
203 226 255
203 226 255
203 226 255
203 226 255
203 226 255
203 226 255
204 226 255
204 226 255
204 226 255
204 226 255
204 226 255
204 226 255
204 226 255
204 226 255
204 226 255
204 226 255
204 226 255
204 226 255
204 226 255
204 226 255
204 226 255
204 226 255
204 226 255
204 226 255
204 226 255
204 226 255
204 226 255
204 226 255
204 226 255
204 226 255
204 226 255
204 226 255
204 226 255
204 226 255
204 226 255
204 226 255
204 226 255
204 226 255
204 226 255
203 226 255
203 226 255
203 226 255
203 226 255
203 226 255
203 226 255
203 226 255
203 225 255
203 225 255
203 225 255
203 225 255
203 225 255
203 225 255
203 225 255
203 225 255
203 225 255
202 225 255
202 225 255
202 225 255
202 225 255
202 225 255
202 225 255
202 225 255
202 225 255
202 225 255
202 225 255
202 225 255
202 225 255
202 225 255
202 225 255
202 225 255
202 225 255
201 225 255
201 225 255
201 225 255
201 225 255
201 225 255
201 224 255
201 224 255
201 224 255
201 224 255
201 224 255
201 224 255
201 224 255
201 224 255
201 224 255
201 224 255
200 224 255
200 224 255
200 224 255
200 224 255
200 224 255
200 224 255
200 224 255
200 224 255
200 224 255
200 224 255
200 224 255
200 224 255
200 224 255
200 224 255
200 224 255
199 224 255
199 224 255
199 223 255
199 223 255
199 223 255
199 223 255
199 223 255
199 223 255
199 223 255
199 223 255
199 223 255
199 223 255
199 223 255
199 223 255
198 223 255
198 223 255
198 223 255
198 223 255
198 223 255
198 223 255
198 223 255
198 223 255
198 223 255
198 223 255
198 223 255
198 223 255
198 223 255
198 223 255
197 223 255
197 222 255
197 222 255
197 222 255
197 222 255
197 222 255
197 222 255
197 222 255
197 222 255
197 222 255
197 222 255
197 222 255
197 222 255
197 222 255
197 222 255
196 222 255
196 222 255
196 222 255
196 222 255
196 222 255
196 222 255
196 222 255
196 222 255
196 222 255
196 222 255
196 222 255
196 222 255
196 222 255
196 222 255
196 221 255
196 221 255
195 221 255
195 221 255
195 221 255
195 221 255
195 221 255
195 221 255
195 221 255
195 221 255
195 221 255
195 221 255
195 221 255
195 221 255
195 221 255
195 221 255
195 221 255
195 221 255
195 221 255
195 221 255
195 221 255
194 221 255
194 221 255
194 221 255
194 221 255
194 221 255
194 221 255
194 221 255
194 221 255
194 221 255
194 221 255
194 221 255
194 221 255
194 221 255
194 221 255
194 221 255
194 221 255
194 221 255
194 221 255
194 221 255
194 221 255
194 221 255
194 221 255
194 221 255
194 221 255
194 221 255
194 220 255
194 220 255
194 220 255
194 220 255
194 220 255
194 220 255
194 220 255
194 220 255
194 220 255
194 220 255
194 220 255
194 220 255
194 220 255
194 220 255
194 220 255
194 220 255
194 220 255
194 220 255
194 220 255
194 220 255
194 220 255
194 220 255
194 220 255
194 220 255
194 220 255
194 220 255
194 220 255
194 220 255
194 220 255
194 220 255
194 220 255
194 220 255
194 220 255
194 220 255
194 221 255
194 221 255
194 221 255
194 221 255
194 221 255
194 221 255
194 221 255
194 221 255
194 221 255
194 221 255
194 221 255
194 221 255
194 221 255
194 221 255
194 221 255
194 221 255
194 221 255
194 221 255
194 221 255
194 221 255
194 221 255
194 221 255
194 221 255
194 221 255
194 221 255
195 221 255
195 221 255
195 221 255
195 221 255
195 221 255
195 221 255
195 221 255
195 221 255
195 221 255
195 221 255
195 221 255
195 221 255
195 221 255
195 221 255
195 221 255
195 221 255
195 221 255
195 221 255
195 221 255
196 221 255
196 222 255
196 222 255
196 222 255
196 222 255
196 222 255
196 222 255
196 222 255
196 222 255
196 222 255
196 222 255
196 222 255
196 222 255
196 222 255
196 222 255
196 222 255
197 222 255
197 222 255
197 222 255
197 222 255
197 222 255
197 222 255
197 222 255
197 222 255
197 222 255
197 222 255
197 222 255
197 222 255
197 222 255
197 222 255
197 223 255
198 223 255
198 223 255
198 223 255
198 223 255
198 223 255
198 223 255
198 223 255
198 223 255
198 223 255
198 223 255
198 223 255
198 223 255
198 223 255
198 223 255
199 223 255
199 223 255
199 223 255
199 223 255
199 223 255
199 223 255
199 223 255
199 223 255
199 223 255
199 223 255
199 223 255
199 223 255
199 224 255
199 224 255
200 224 255
200 224 255
200 224 255
200 224 255
200 224 255
200 224 255
200 224 255
200 224 255
200 224 255
200 224 255
200 224 255
200 224 255
200 224 255
200 224 255
200 224 255
201 224 255
201 224 255
201 224 255
201 224 255
201 224 255
201 224 255
201 224 255
201 224 255
201 224 255
201 224 255
201 225 255
201 225 255
201 225 255
201 225 255
201 225 255
202 225 255
202 225 255
202 225 255
202 225 255
202 225 255
202 225 255
202 225 255
202 225 255
202 225 255
202 225 255
202 225 255
202 225 255
202 225 255
202 225 255
202 225 255
202 225 255
203 225 255
203 225 255
203 225 255
203 225 255
203 225 255
203 225 255
203 225 255
203 225 255
203 225 255
203 226 255
203 226 255
203 226 255
203 226 255
203 226 255
203 226 255
203 226 255
204 226 255
204 226 255
204 226 255
204 226 255
204 226 255
204 226 255
204 226 255
204 226 255
204 226 255
204 226 255
204 226 255
204 226 255
204 226 255
204 226 255
204 226 255
204 226 255
204 226 255
204 226 255
205 226 255
205 226 255
204 226 255
204 226 255
204 226 255
204 226 255
204 226 255
204 226 255
204 226 255
204 226 255
204 226 255
204 226 255
204 226 255
204 226 255
204 226 255
204 226 255
204 226 255
204 226 255
204 226 255
204 226 255
203 226 255
203 226 255
203 226 255
203 226 255
203 226 255
203 226 255
203 226 255
203 225 255
203 225 255
203 225 255
203 225 255
203 225 255
203 225 255
203 225 255
203 225 255
203 225 255
203 225 255
202 225 255
202 225 255
202 225 255
202 225 255
202 225 255
202 225 255
202 225 255
202 225 255
202 225 255
202 225 255
202 225 255
202 225 255
202 225 255
202 225 255
202 225 255
201 225 255
201 225 255
201 225 255
201 225 255
201 225 255
201 224 255
201 224 255
201 224 255
201 224 255
201 224 255
201 224 255
201 224 255
201 224 255
201 224 255
201 224 255
200 224 255
200 224 255
200 224 255
200 224 255
200 224 255
200 224 255
200 224 255
200 224 255
200 224 255
200 224 255
200 224 255
200 224 255
200 224 255
200 224 255
200 224 255
199 224 255
199 224 255
199 223 255
199 223 255
199 223 255
199 223 255
199 223 255
199 223 255
199 223 255
199 223 255
199 223 255
199 223 255
199 223 255
199 223 255
198 223 255
198 223 255
198 223 255
198 223 255
198 223 255
198 223 255
198 223 255
198 223 255
198 223 255
198 223 255
198 223 255
198 223 255
198 223 255
198 223 255
197 223 255
197 222 255
197 222 255
197 222 255
197 222 255
197 222 255
197 222 255
197 222 255
197 222 255
197 222 255
197 222 255
197 222 255
197 222 255
197 222 255
197 222 255
196 222 255
196 222 255
196 222 255
196 222 255
196 222 255
196 222 255
196 222 255
196 222 255
196 222 255
196 222 255
196 222 255
196 222 255
196 222 255
196 222 255
196 222 255
196 221 255
196 221 255
195 221 255
195 221 255
195 221 255
195 221 255
195 221 255
195 221 255
195 221 255
195 221 255
195 221 255
195 221 255
195 221 255
195 221 255
195 221 255
195 221 255
195 221 255
195 221 255
195 221 255
195 221 255
195 221 255
194 221 255
194 221 255
194 221 255
194 221 255
194 221 255
194 221 255
194 221 255
194 221 255
194 221 255
194 221 255
194 221 255
194 221 255
194 221 255
194 221 255
194 221 255
194 221 255
194 221 255
194 221 255
194 221 255
194 221 255
194 221 255
194 221 255
194 221 255
194 221 255
194 221 255
194 221 255
194 221 255
194 221 255
194 221 255
194 221 255
194 221 255
194 220 255
194 220 255
194 220 255
194 220 255
194 220 255
194 220 255
194 220 255
194 220 255
194 220 255
194 220 255
194 220 255
194 220 255
194 220 255
194 220 255
194 220 255
194 220 255
194 221 255
194 221 255
194 221 255
194 221 255
194 221 255
194 221 255
194 221 255
194 221 255
194 221 255
194 221 255
194 221 255
194 221 255
194 221 255
194 221 255
194 221 255
194 221 255
194 221 255
194 221 255
194 221 255
194 221 255
194 221 255
194 221 255
194 221 255
194 221 255
194 221 255
194 221 255
194 221 255
194 221 255
194 221 255
194 221 255
195 221 255
195 221 255
195 221 255
195 221 255
195 221 255
195 221 255
195 221 255
195 221 255
195 221 255
195 221 255
195 221 255
195 221 255
195 221 255
195 221 255
195 221 255
195 221 255
195 221 255
195 221 255
195 221 255
195 221 255
195 221 255
196 221 255
196 222 255
196 222 255
196 222 255
196 222 255
196 222 255
196 222 255
196 222 255
196 222 255
196 222 255
196 222 255
196 222 255
196 222 255
196 222 255
196 222 255
196 222 255
197 222 255
197 222 255
197 222 255
197 222 255
197 222 255
197 222 255
197 222 255
197 222 255
197 222 255
197 222 255
197 222 255
197 222 255
197 222 255
197 222 255
197 223 255
198 223 255
198 223 255
198 223 255
198 223 255
198 223 255
198 223 255
198 223 255
198 223 255
198 223 255
198 223 255
198 223 255
198 223 255
198 223 255
198 223 255
199 223 255
199 223 255
199 223 255
199 223 255
199 223 255
199 223 255
199 223 255
199 223 255
199 223 255
199 223 255
199 223 255
199 223 255
199 224 255
199 224 255
200 224 255
200 224 255
200 224 255
200 224 255
200 224 255
200 224 255
200 224 255
200 224 255
200 224 255
200 224 255
200 224 255
200 224 255
200 224 255
200 224 255
200 224 255
201 224 255
201 224 255
201 224 255
201 224 255
201 224 255
201 224 255
201 224 255
201 224 255
201 224 255
201 224 255
201 225 255
201 225 255
201 225 255
201 225 255
201 225 255
202 225 255
202 225 255
202 225 255
202 225 255
202 225 255
202 225 255
202 225 255
202 225 255
202 225 255
202 225 255
202 225 255
202 225 255
202 225 255
202 225 255
202 225 255
203 225 255
203 225 255
203 225 255
203 225 255
203 225 255
203 225 255
203 225 255
203 225 255
203 225 255
203 225 255
203 226 255
203 226 255
203 226 255
203 226 255
203 226 255
203 226 255
203 226 255
204 226 255
204 226 255
204 226 255
204 226 255
204 226 255
204 226 255
204 226 255
204 226 255
204 226 255
204 226 255
204 226 255
204 226 255
204 226 255
204 226 255
204 226 255
204 226 255
204 226 255
204 226 255
205 226 255
205 226 255
205 226 255
205 226 255
205 226 255
205 226 255
204 226 255
204 226 255
204 226 255
204 226 255
204 226 255
204 226 255
204 226 255
204 226 255
204 226 255
204 226 255
204 226 255
204 226 255
204 226 255
204 226 255
204 226 255
204 226 255
204 226 255
204 226 255
203 226 255
203 226 255
203 226 255
203 226 255
203 226 255
203 226 255
203 226 255
203 226 255
203 225 255
203 225 255
203 225 255
203 225 255
203 225 255
203 225 255
203 225 255
203 225 255
203 225 255
202 225 255
202 225 255
202 225 255
202 225 255
202 225 255
202 225 255
202 225 255
202 225 255
202 225 255
202 225 255
202 225 255
202 225 255
202 225 255
202 225 255
202 225 255
201 225 255
201 225 255
201 225 255
201 225 255
201 225 255
201 224 255
201 224 255
201 224 255
201 224 255
201 224 255
201 224 255
201 224 255
201 224 255
201 224 255
201 224 255
200 224 255
200 224 255
200 224 255
200 224 255
200 224 255
200 224 255
200 224 255
200 224 255
200 224 255
200 224 255
200 224 255
200 224 255
200 224 255
200 224 255
200 224 255
199 224 255
199 224 255
199 223 255
199 223 255
199 223 255
199 223 255
199 223 255
199 223 255
199 223 255
199 223 255
199 223 255
199 223 255
199 223 255
199 223 255
198 223 255
198 223 255
198 223 255
198 223 255
198 223 255
198 223 255
198 223 255
198 223 255
198 223 255
198 223 255
198 223 255
198 223 255
198 223 255
198 223 255
197 223 255
197 222 255
197 222 255
197 222 255
197 222 255
197 222 255
197 222 255
197 222 255
197 222 255
197 222 255
197 222 255
197 222 255
197 222 255
197 222 255
197 222 255
196 222 255
196 222 255
196 222 255
196 222 255
196 222 255
196 222 255
196 222 255
196 222 255
196 222 255
196 222 255
196 222 255
196 222 255
196 222 255
196 222 255
196 222 255
196 222 255
196 221 255
195 221 255
195 221 255
195 221 255
195 221 255
195 221 255
195 221 255
195 221 255
195 221 255
195 221 255
195 221 255
195 221 255
195 221 255
195 221 255
195 221 255
195 221 255
195 221 255
195 221 255
195 221 255
195 221 255
195 221 255
195 221 255
194 221 255
194 221 255
194 221 255
194 221 255
194 221 255
194 221 255
194 221 255
194 221 255
194 221 255
194 221 255
194 221 255
194 221 255
194 221 255
194 221 255
194 221 255
194 221 255
194 221 255
194 221 255
194 221 255
194 221 255
194 221 255
194 221 255
194 221 255
194 221 255
194 221 255
194 221 255
194 221 255
194 221 255
194 221 255
194 221 255
194 221 255
194 221 255
194 221 255
194 221 255
194 221 255
194 221 255
194 221 255
194 221 255
194 221 255
194 221 255
194 221 255
194 221 255
194 221 255
194 221 255
194 221 255
194 221 255
194 221 255
194 221 255
194 221 255
194 221 255
194 221 255
194 221 255
194 221 255
194 221 255
194 221 255
194 221 255
194 221 255
194 221 255
194 221 255
194 221 255
194 221 255
194 221 255
194 221 255
194 221 255
194 221 255
194 221 255
194 221 255
194 221 255
194 221 255
194 221 255
195 221 255
195 221 255
195 221 255
195 221 255
195 221 255
195 221 255
195 221 255
195 221 255
195 221 255
195 221 255
195 221 255
195 221 255
195 221 255
195 221 255
195 221 255
195 221 255
195 221 255
195 221 255
195 221 255
195 221 255
195 221 255
196 221 255
196 222 255
196 222 255
196 222 255
196 222 255
196 222 255
196 222 255
196 222 255
196 222 255
196 222 255
196 222 255
196 222 255
196 222 255
196 222 255
196 222 255
196 222 255
197 222 255
197 222 255
197 222 255
197 222 255
197 222 255
197 222 255
197 222 255
197 222 255
197 222 255
197 222 255
197 222 255
197 222 255
197 222 255
197 222 255
197 222 255
197 223 255
198 223 255
198 223 255
198 223 255
198 223 255
198 223 255
198 223 255
198 223 255
198 223 255
198 223 255
198 223 255
198 223 255
198 223 255
198 223 255
198 223 255
199 223 255
199 223 255
199 223 255
199 223 255
199 223 255
199 223 255
199 223 255
199 223 255
199 223 255
199 223 255
199 223 255
199 223 255
199 224 255
199 224 255
200 224 255
200 224 255
200 224 255
200 224 255
200 224 255
200 224 255
200 224 255
200 224 255
200 224 255
200 224 255
200 224 255
200 224 255
200 224 255
200 224 255
200 224 255
201 224 255
201 224 255
201 224 255
201 224 255
201 224 255
201 224 255
201 224 255
201 224 255
201 224 255
201 224 255
201 225 255
201 225 255
201 225 255
201 225 255
201 225 255
202 225 255
202 225 255
202 225 255
202 225 255
202 225 255
202 225 255
202 225 255
202 225 255
202 225 255
202 225 255
202 225 255
202 225 255
202 225 255
202 225 255
202 225 255
203 225 255
203 225 255
203 225 255
203 225 255
203 225 255
203 225 255
203 225 255
203 225 255
203 225 255
203 226 255
203 226 255
203 226 255
203 226 255
203 226 255
203 226 255
203 226 255
203 226 255
204 226 255
204 226 255
204 226 255
204 226 255
204 226 255
204 226 255
204 226 255
204 226 255
204 226 255
204 226 255
204 226 255
204 226 255
204 226 255
204 226 255
204 226 255
204 226 255
204 226 255
204 226 255
205 226 255
205 226 255
205 226 255
205 226 255
205 226 255
205 226 255
205 226 255
205 226 255
205 226 255
205 226 255
205 226 255
204 226 255
204 226 255
204 226 255
204 226 255
204 226 255
204 226 255
204 226 255
204 226 255
204 226 255
204 226 255
204 226 255
204 226 255
204 226 255
204 226 255
204 226 255
204 226 255
204 226 255
203 226 255
203 226 255
203 226 255
203 226 255
203 226 255
203 226 255
203 226 255
203 226 255
203 225 255
203 225 255
203 225 255
203 225 255
203 225 255
203 225 255
203 225 255
203 225 255
203 225 255
202 225 255
202 225 255
202 225 255
202 225 255
202 225 255
202 225 255
202 225 255
202 225 255
202 225 255
202 225 255
202 225 255
202 225 255
202 225 255
202 225 255
202 225 255
201 225 255
201 225 255
201 225 255
201 225 255
201 225 255
201 224 255
201 224 255
201 224 255
201 224 255
201 224 255
201 224 255
201 224 255
201 224 255
201 224 255
201 224 255
200 224 255
200 224 255
200 224 255
200 224 255
200 224 255
200 224 255
200 224 255
200 224 255
200 224 255
200 224 255
200 224 255
200 224 255
200 224 255
200 224 255
200 224 255
199 224 255
199 224 255
199 223 255
199 223 255
199 223 255
199 223 255
199 223 255
199 223 255
199 223 255
199 223 255
199 223 255
199 223 255
199 223 255
199 223 255
198 223 255
198 223 255
198 223 255
198 223 255
198 223 255
198 223 255
198 223 255
198 223 255
198 223 255
198 223 255
198 223 255
198 223 255
198 223 255
198 223 255
197 223 255
197 222 255
197 222 255
197 222 255
197 222 255
197 222 255
197 222 255
197 222 255
197 222 255
197 222 255
197 222 255
197 222 255
197 222 255
197 222 255
197 222 255
197 222 255
196 222 255
196 222 255
196 222 255
196 222 255
196 222 255
196 222 255
196 222 255
196 222 255
196 222 255
196 222 255
196 222 255
196 222 255
196 222 255
196 222 255
196 222 255
196 221 255
196 221 255
195 221 255
195 221 255
195 221 255
195 221 255
195 221 255
195 221 255
195 221 255
195 221 255
195 221 255
195 221 255
195 221 255
195 221 255
195 221 255
195 221 255
195 221 255
195 221 255
195 221 255
195 221 255
195 221 255
195 221 255
195 221 255
195 221 255
194 221 255
194 221 255
194 221 255
194 221 255
194 221 255
194 221 255
194 221 255
194 221 255
194 221 255
194 221 255
194 221 255
194 221 255
194 221 255
194 221 255
194 221 255
194 221 255
194 221 255
194 221 255
194 221 255
194 221 255
194 221 255
194 221 255
194 221 255
194 221 255
194 221 255
194 221 255
194 221 255
194 221 255
194 221 255
194 221 255
194 221 255
194 221 255
194 221 255
194 221 255
194 221 255
194 221 255
194 221 255
194 221 255
194 221 255
194 221 255
194 221 255
194 221 255
194 221 255
194 221 255
194 221 255
194 221 255
194 221 255
194 221 255
194 221 255
194 221 255
194 221 255
194 221 255
194 221 255
194 221 255
194 221 255
194 221 255
194 221 255
194 221 255
194 221 255
194 221 255
194 221 255
194 221 255
195 221 255
195 221 255
195 221 255
195 221 255
195 221 255
195 221 255
195 221 255
195 221 255
195 221 255
195 221 255
195 221 255
195 221 255
195 221 255
195 221 255
195 221 255
195 221 255
195 221 255
195 221 255
195 221 255
195 221 255
195 221 255
195 221 255
196 221 255
196 221 255
196 222 255
196 222 255
196 222 255
196 222 255
196 222 255
196 222 255
196 222 255
196 222 255
196 222 255
196 222 255
196 222 255
196 222 255
196 222 255
196 222 255
196 222 255
197 222 255
197 222 255
197 222 255
197 222 255
197 222 255
197 222 255
197 222 255
197 222 255
197 222 255
197 222 255
197 222 255
197 222 255
197 222 255
197 222 255
197 222 255
197 223 255
198 223 255
198 223 255
198 223 255
198 223 255
198 223 255
198 223 255
198 223 255
198 223 255
198 223 255
198 223 255
198 223 255
198 223 255
198 223 255
198 223 255
199 223 255
199 223 255
199 223 255
199 223 255
199 223 255
199 223 255
199 223 255
199 223 255
199 223 255
199 223 255
199 223 255
199 223 255
199 224 255
199 224 255
200 224 255
200 224 255
200 224 255
200 224 255
200 224 255
200 224 255
200 224 255
200 224 255
200 224 255
200 224 255
200 224 255
200 224 255
200 224 255
200 224 255
200 224 255
201 224 255
201 224 255
201 224 255
201 224 255
201 224 255
201 224 255
201 224 255
201 224 255
201 224 255
201 224 255
201 225 255
201 225 255
201 225 255
201 225 255
201 225 255
202 225 255
202 225 255
202 225 255
202 225 255
202 225 255
202 225 255
202 225 255
202 225 255
202 225 255
202 225 255
202 225 255
202 225 255
202 225 255
202 225 255
202 225 255
203 225 255
203 225 255
203 225 255
203 225 255
203 225 255
203 225 255
203 225 255
203 225 255
203 225 255
203 226 255
203 226 255
203 226 255
203 226 255
203 226 255
203 226 255
203 226 255
203 226 255
204 226 255
204 226 255
204 226 255
204 226 255
204 226 255
204 226 255
204 226 255
204 226 255
204 226 255
204 226 255
204 226 255
204 226 255
204 226 255
204 226 255
204 226 255
204 226 255
204 226 255
205 226 255
205 226 255
205 226 255
205 226 255
205 226 255
205 226 255
205 226 255
205 227 255
205 227 255
205 226 255
205 226 255
205 226 255
205 226 255
205 226 255
205 226 255
205 226 255
204 226 255
204 226 255
204 226 255
204 226 255
204 226 255
204 226 255
204 226 255
204 226 255
204 226 255
204 226 255
204 226 255
204 226 255
204 226 255
204 226 255
204 226 255
204 226 255
204 226 255
204 226 255
203 226 255
203 226 255
203 226 255
203 226 255
203 226 255
203 226 255
203 226 255
203 225 255
203 225 255
203 225 255
203 225 255
203 225 255
203 225 255
203 225 255
203 225 255
203 225 255
202 225 255
202 225 255
202 225 255
202 225 255
202 225 255
202 225 255
202 225 255
202 225 255
202 225 255
202 225 255
202 225 255
202 225 255
202 225 255
202 225 255
202 225 255
202 225 255
201 225 255
201 225 255
201 225 255
201 225 255
201 224 255
201 224 255
201 224 255
201 224 255
201 224 255
201 224 255
201 224 255
201 224 255
201 224 255
201 224 255
200 224 255
200 224 255
200 224 255
200 224 255
200 224 255
200 224 255
200 224 255
200 224 255
200 224 255
200 224 255
200 224 255
200 224 255
200 224 255
200 224 255
200 224 255
199 224 255
199 224 255
199 223 255
199 223 255
199 223 255
199 223 255
199 223 255
199 223 255
199 223 255
199 223 255
199 223 255
199 223 255
199 223 255
199 223 255
198 223 255
198 223 255
198 223 255
198 223 255
198 223 255
198 223 255
198 223 255
198 223 255
198 223 255
198 223 255
198 223 255
198 223 255
198 223 255
198 223 255
198 223 255
197 222 255
197 222 255
197 222 255
197 222 255
197 222 255
197 222 255
197 222 255
197 222 255
197 222 255
197 222 255
197 222 255
197 222 255
197 222 255
197 222 255
197 222 255
196 222 255
196 222 255
196 222 255
196 222 255
196 222 255
196 222 255
196 222 255
196 222 255
196 222 255
196 222 255
196 222 255
196 222 255
196 222 255
196 222 255
196 222 255
196 222 255
196 221 255
196 221 255
195 221 255
195 221 255
195 221 255
195 221 255
195 221 255
195 221 255
195 221 255
195 221 255
195 221 255
195 221 255
195 221 255
195 221 255
195 221 255
195 221 255
195 221 255
195 221 255
195 221 255
195 221 255
195 221 255
195 221 255
195 221 255
195 221 255
195 221 255
194 221 255
194 221 255
194 221 255
194 221 255
194 221 255
194 221 255
194 221 255
194 221 255
194 221 255
194 221 255
194 221 255
194 221 255
194 221 255
194 221 255
194 221 255
194 221 255
194 221 255
194 221 255
194 221 255
194 221 255
194 221 255
194 221 255
194 221 255
194 221 255
194 221 255
194 221 255
194 221 255
194 221 255
194 221 255
194 221 255
194 221 255
194 221 255
194 221 255
194 221 255
194 221 255
194 221 255
194 221 255
194 221 255
194 221 255
194 221 255
194 221 255
194 221 255
194 221 255
194 221 255
194 221 255
194 221 255
194 221 255
194 221 255
194 221 255
194 221 255
194 221 255
194 221 255
194 221 255
194 221 255
195 221 255
195 221 255
195 221 255
195 221 255
195 221 255
195 221 255
195 221 255
195 221 255
195 221 255
195 221 255
195 221 255
195 221 255
195 221 255
195 221 255
195 221 255
195 221 255
195 221 255
195 221 255
195 221 255
195 221 255
195 221 255
195 221 255
195 221 255
195 221 255
196 221 255
196 222 255
196 222 255
196 222 255
196 222 255
196 222 255
196 222 255
196 222 255
196 222 255
196 222 255
196 222 255
196 222 255
196 222 255
196 222 255
196 222 255
196 222 255
196 222 255
197 222 255
197 222 255
197 222 255
197 222 255
197 222 255
197 222 255
197 222 255
197 222 255
197 222 255
197 222 255
197 222 255
197 222 255
197 222 255
197 222 255
197 222 255
197 223 255
198 223 255
198 223 255
198 223 255
198 223 255
198 223 255
198 223 255
198 223 255
198 223 255
198 223 255
198 223 255
198 223 255
198 223 255
198 223 255
198 223 255
199 223 255
199 223 255
199 223 255
199 223 255
199 223 255
199 223 255
199 223 255
199 223 255
199 223 255
199 223 255
199 223 255
199 223 255
199 224 255
199 224 255
200 224 255
200 224 255
200 224 255
200 224 255
200 224 255
200 224 255
200 224 255
200 224 255
200 224 255
200 224 255
200 224 255
200 224 255
200 224 255
200 224 255
200 224 255
201 224 255
201 224 255
201 224 255
201 224 255
201 224 255
201 224 255
201 224 255
201 224 255
201 224 255
201 224 255
201 225 255
201 225 255
201 225 255
201 225 255
202 225 255
202 225 255
202 225 255
202 225 255
202 225 255
202 225 255
202 225 255
202 225 255
202 225 255
202 225 255
202 225 255
202 225 255
202 225 255
202 225 255
202 225 255
202 225 255
203 225 255
203 225 255
203 225 255
203 225 255
203 225 255
203 225 255
203 225 255
203 225 255
203 225 255
203 226 255
203 226 255
203 226 255
203 226 255
203 226 255
203 226 255
203 226 255
204 226 255
204 226 255
204 226 255
204 226 255
204 226 255
204 226 255
204 226 255
204 226 255
204 226 255
204 226 255
204 226 255
204 226 255
204 226 255
204 226 255
204 226 255
204 226 255
204 226 255
204 226 255
205 226 255
205 226 255
205 226 255
205 226 255
205 226 255
205 226 255
205 226 255
205 227 255
205 227 255
205 227 255
205 227 255
205 227 255
205 227 255
205 226 255
205 226 255
205 226 255
205 226 255
205 226 255
205 226 255
205 226 255
205 226 255
204 226 255
204 226 255
204 226 255
204 226 255
204 226 255
204 226 255
204 226 255
204 226 255
204 226 255
204 226 255
204 226 255
204 226 255
204 226 255
204 226 255
204 226 255
204 226 255
204 226 255
203 226 255
203 226 255
203 226 255
203 226 255
203 226 255
203 226 255
203 226 255
203 225 255
203 225 255
203 225 255
203 225 255
203 225 255
203 225 255
203 225 255
203 225 255
203 225 255
202 225 255
202 225 255
202 225 255
202 225 255
202 225 255
202 225 255
202 225 255
202 225 255
202 225 255
202 225 255
202 225 255
202 225 255
202 225 255
202 225 255
202 225 255
202 225 255
201 225 255
201 225 255
201 225 255
201 225 255
201 224 255
201 224 255
201 224 255
201 224 255
201 224 255
201 224 255
201 224 255
201 224 255
201 224 255
201 224 255
201 224 255
200 224 255
200 224 255
200 224 255
200 224 255
200 224 255
200 224 255
200 224 255
200 224 255
200 224 255
200 224 255
200 224 255
200 224 255
200 224 255
200 224 255
199 224 255
199 224 255
199 223 255
199 223 255
199 223 255
199 223 255
199 223 255
199 223 255
199 223 255
199 223 255
199 223 255
199 223 255
199 223 255
199 223 255
198 223 255
198 223 255
198 223 255
198 223 255
198 223 255
198 223 255
198 223 255
198 223 255
198 223 255
198 223 255
198 223 255
198 223 255
198 223 255
198 223 255
198 223 255
197 222 255
197 222 255
197 222 255
197 222 255
197 222 255
197 222 255
197 222 255
197 222 255
197 222 255
197 222 255
197 222 255
197 222 255
197 222 255
197 222 255
197 222 255
196 222 255
196 222 255
196 222 255
196 222 255
196 222 255
196 222 255
196 222 255
196 222 255
196 222 255
196 222 255
196 222 255
196 222 255
196 222 255
196 222 255
196 222 255
196 222 255
196 222 255
196 221 255
195 221 255
195 221 255
195 221 255
195 221 255
195 221 255
195 221 255
195 221 255
195 221 255
195 221 255
195 221 255
195 221 255
195 221 255
195 221 255
195 221 255
195 221 255
195 221 255
195 221 255
195 221 255
195 221 255
195 221 255
195 221 255
195 221 255
195 221 255
195 221 255
195 221 255
195 221 255
194 221 255
194 221 255
194 221 255
194 221 255
194 221 255
194 221 255
194 221 255
194 221 255
194 221 255
194 221 255
194 221 255
194 221 255
194 221 255
194 221 255
194 221 255
194 221 255
194 221 255
194 221 255
194 221 255
194 221 255
194 221 255
194 221 255
194 221 255
194 221 255
194 221 255
194 221 255
194 221 255
194 221 255
194 221 255
194 221 255
194 221 255
194 221 255
194 221 255
194 221 255
194 221 255
194 221 255
194 221 255
194 221 255
194 221 255
194 221 255
194 221 255
194 221 255
194 221 255
194 221 255
195 221 255
195 221 255
195 221 255
195 221 255
195 221 255
195 221 255
195 221 255
195 221 255
195 221 255
195 221 255
195 221 255
195 221 255
195 221 255
195 221 255
195 221 255
195 221 255
195 221 255
195 221 255
195 221 255
195 221 255
195 221 255
195 221 255
195 221 255
195 221 255
195 221 255
195 221 255
196 221 255
196 221 255
196 222 255
196 222 255
196 222 255
196 222 255
196 222 255
196 222 255
196 222 255
196 222 255
196 222 255
196 222 255
196 222 255
196 222 255
196 222 255
196 222 255
196 222 255
196 222 255
197 222 255
197 222 255
197 222 255
197 222 255
197 222 255
197 222 255
197 222 255
197 222 255
197 222 255
197 222 255
197 222 255
197 222 255
197 222 255
197 222 255
197 222 255
198 223 255
198 223 255
198 223 255
198 223 255
198 223 255
198 223 255
198 223 255
198 223 255
198 223 255
198 223 255
198 223 255
198 223 255
198 223 255
198 223 255
198 223 255
199 223 255
199 223 255
199 223 255
199 223 255
199 223 255
199 223 255
199 223 255
199 223 255
199 223 255
199 223 255
199 223 255
199 223 255
199 224 255
199 224 255
200 224 255
200 224 255
200 224 255
200 224 255
200 224 255
200 224 255
200 224 255
200 224 255
200 224 255
200 224 255
200 224 255
200 224 255
200 224 255
200 224 255
201 224 255
201 224 255
201 224 255
201 224 255
201 224 255
201 224 255
201 224 255
201 224 255
201 224 255
201 224 255
201 224 255
201 225 255
201 225 255
201 225 255
201 225 255
202 225 255
202 225 255
202 225 255
202 225 255
202 225 255
202 225 255
202 225 255
202 225 255
202 225 255
202 225 255
202 225 255
202 225 255
202 225 255
202 225 255
202 225 255
202 225 255
203 225 255
203 225 255
203 225 255
203 225 255
203 225 255
203 225 255
203 225 255
203 225 255
203 225 255
203 226 255
203 226 255
203 226 255
203 226 255
203 226 255
203 226 255
203 226 255
204 226 255
204 226 255
204 226 255
204 226 255
204 226 255
204 226 255
204 226 255
204 226 255
204 226 255
204 226 255
204 226 255
204 226 255
204 226 255
204 226 255
204 226 255
204 226 255
204 226 255
205 226 255
205 226 255
205 226 255
205 226 255
205 226 255
205 226 255
205 226 255
205 226 255
205 227 255
205 227 255
205 227 255
205 227 255
205 227 255
205 227 255
205 227 255
205 227 255
205 227 255
205 227 255
205 227 255
205 226 255
205 226 255
205 226 255
205 226 255
205 226 255
205 226 255
205 226 255
204 226 255
204 226 255
204 226 255
204 226 255
204 226 255
204 226 255
204 226 255
204 226 255
204 226 255
204 226 255
204 226 255
204 226 255
204 226 255
204 226 255
204 226 255
204 226 255
204 226 255
203 226 255
203 226 255
203 226 255
203 226 255
203 226 255
203 226 255
203 226 255
203 226 255
203 225 255
203 225 255
203 225 255
203 225 255
203 225 255
203 225 255
203 225 255
203 225 255
203 225 255
202 225 255
202 225 255
202 225 255
202 225 255
202 225 255
202 225 255
202 225 255
202 225 255
202 225 255
202 225 255
202 225 255
202 225 255
202 225 255
202 225 255
202 225 255
201 225 255
201 225 255
201 225 255
201 225 255
201 224 255
201 224 255
201 224 255
201 224 255
201 224 255
201 224 255
201 224 255
201 224 255
201 224 255
201 224 255
201 224 255
200 224 255
200 224 255
200 224 255
200 224 255
200 224 255
200 224 255
200 224 255
200 224 255
200 224 255
200 224 255
200 224 255
200 224 255
200 224 255
200 224 255
199 224 255
199 224 255
199 223 255
199 223 255
199 223 255
199 223 255
199 223 255
199 223 255
199 223 255
199 223 255
199 223 255
199 223 255
199 223 255
199 223 255
198 223 255
198 223 255
198 223 255
198 223 255
198 223 255
198 223 255
198 223 255
198 223 255
198 223 255
198 223 255
198 223 255
198 223 255
198 223 255
198 223 255
198 223 255
197 222 255
197 222 255
197 222 255
197 222 255
197 222 255
197 222 255
197 222 255
197 222 255
197 222 255
197 222 255
197 222 255
197 222 255
197 222 255
197 222 255
197 222 255
197 222 255
196 222 255
196 222 255
196 222 255
196 222 255
196 222 255
196 222 255
196 222 255
196 222 255
196 222 255
196 222 255
196 222 255
196 222 255
196 222 255
196 222 255
196 222 255
196 222 255
196 222 255
196 221 255
195 221 255
195 221 255
195 221 255
195 221 255
195 221 255
195 221 255
195 221 255
195 221 255
195 221 255
195 221 255
195 221 255
195 221 255
195 221 255
195 221 255
195 221 255
195 221 255
195 221 255
195 221 255
195 221 255
195 221 255
195 221 255
195 221 255
195 221 255
195 221 255
195 221 255
195 221 255
195 221 255
195 221 255
195 221 255
195 221 255
194 221 255
194 221 255
194 221 255
194 221 255
194 221 255
194 221 255
194 221 255
194 221 255
194 221 255
194 221 255
194 221 255
194 221 255
194 221 255
194 221 255
194 221 255
194 221 255
194 221 255
194 221 255
194 221 255
194 221 255
194 221 255
194 221 255
194 221 255
194 221 255
194 221 255
194 221 255
194 221 255
194 221 255
194 221 255
194 221 255
195 221 255
195 221 255
195 221 255
195 221 255
195 221 255
195 221 255
195 221 255
195 221 255
195 221 255
195 221 255
195 221 255
195 221 255
195 221 255
195 221 255
195 221 255
195 221 255
195 221 255
195 221 255
195 221 255
195 221 255
195 221 255
195 221 255
195 221 255
195 221 255
195 221 255
195 221 255
195 221 255
195 221 255
195 221 255
195 221 255
196 221 255
196 222 255
196 222 255
196 222 255
196 222 255
196 222 255
196 222 255
196 222 255
196 222 255
196 222 255
196 222 255
196 222 255
196 222 255
196 222 255
196 222 255
196 222 255
196 222 255
196 222 255
197 222 255
197 222 255
197 222 255
197 222 255
197 222 255
197 222 255
197 222 255
197 222 255
197 222 255
197 222 255
197 222 255
197 222 255
197 222 255
197 222 255
197 222 255
197 223 255
198 223 255
198 223 255
198 223 255
198 223 255
198 223 255
198 223 255
198 223 255
198 223 255
198 223 255
198 223 255
198 223 255
198 223 255
198 223 255
198 223 255
199 223 255
199 223 255
199 223 255
199 223 255
199 223 255
199 223 255
199 223 255
199 223 255
199 223 255
199 223 255
199 223 255
199 223 255
199 223 255
199 224 255
199 224 255
200 224 255
200 224 255
200 224 255
200 224 255
200 224 255
200 224 255
200 224 255
200 224 255
200 224 255
200 224 255
200 224 255
200 224 255
200 224 255
200 224 255
201 224 255
201 224 255
201 224 255
201 224 255
201 224 255
201 224 255
201 224 255
201 224 255
201 224 255
201 224 255
201 224 255
201 225 255
201 225 255
201 225 255
201 225 255
202 225 255
202 225 255
202 225 255
202 225 255
202 225 255
202 225 255
202 225 255
202 225 255
202 225 255
202 225 255
202 225 255
202 225 255
202 225 255
202 225 255
202 225 255
203 225 255
203 225 255
203 225 255
203 225 255
203 225 255
203 225 255
203 225 255
203 225 255
203 225 255
203 226 255
203 226 255
203 226 255
203 226 255
203 226 255
203 226 255
203 226 255
203 226 255
204 226 255
204 226 255
204 226 255
204 226 255
204 226 255
204 226 255
204 226 255
204 226 255
204 226 255
204 226 255
204 226 255
204 226 255
204 226 255
204 226 255
204 226 255
204 226 255
204 226 255
205 226 255
205 226 255
205 226 255
205 226 255
205 226 255
205 226 255
205 226 255
205 227 255
205 227 255
205 227 255
205 227 255
205 227 255
205 227 255
205 227 255
205 227 255
205 227 255
205 227 255
205 227 255
205 227 255
205 227 255
205 227 255
205 227 255
205 227 255
205 226 255
205 226 255
205 226 255
205 226 255
205 226 255
205 226 255
205 226 255
205 226 255
204 226 255
204 226 255
204 226 255
204 226 255
204 226 255
204 226 255
204 226 255
204 226 255
204 226 255
204 226 255
204 226 255
204 226 255
204 226 255
204 226 255
204 226 255
204 226 255
204 226 255
203 226 255
203 226 255
203 226 255
203 226 255
203 226 255
203 226 255
203 226 255
203 225 255
203 225 255
203 225 255
203 225 255
203 225 255
203 225 255
203 225 255
203 225 255
203 225 255
202 225 255
202 225 255
202 225 255
202 225 255
202 225 255
202 225 255
202 225 255
202 225 255
202 225 255
202 225 255
202 225 255
202 225 255
202 225 255
202 225 255
202 225 255
201 225 255
201 225 255
201 225 255
201 225 255
201 224 255
201 224 255
201 224 255
201 224 255
201 224 255
201 224 255
201 224 255
201 224 255
201 224 255
201 224 255
201 224 255
200 224 255
200 224 255
200 224 255
200 224 255
200 224 255
200 224 255
200 224 255
200 224 255
200 224 255
200 224 255
200 224 255
200 224 255
200 224 255
200 224 255
199 224 255
199 224 255
199 223 255
199 223 255
199 223 255
199 223 255
199 223 255
199 223 255
199 223 255
199 223 255
199 223 255
199 223 255
199 223 255
199 223 255
199 223 255
198 223 255
198 223 255
198 223 255
198 223 255
198 223 255
198 223 255
198 223 255
198 223 255
198 223 255
198 223 255
198 223 255
198 223 255
198 223 255
198 223 255
197 223 255
197 222 255
197 222 255
197 222 255
197 222 255
197 222 255
197 222 255
197 222 255
197 222 255
197 222 255
197 222 255
197 222 255
197 222 255
197 222 255
197 222 255
197 222 255
196 222 255
196 222 255
196 222 255
196 222 255
196 222 255
196 222 255
196 222 255
196 222 255
196 222 255
196 222 255
196 222 255
196 222 255
196 222 255
196 222 255
196 222 255
196 222 255
196 222 255
196 222 255
196 221 255
196 221 255
195 221 255
195 221 255
195 221 255
195 221 255
195 221 255
195 221 255
195 221 255
195 221 255
195 221 255
195 221 255
195 221 255
195 221 255
195 221 255
195 221 255
195 221 255
195 221 255
195 221 255
195 221 255
195 221 255
195 221 255
195 221 255
195 221 255
195 221 255
195 221 255
195 221 255
195 221 255
195 221 255
195 221 255
195 221 255
195 221 255
195 221 255
195 221 255
195 221 255
195 221 255
195 221 255
195 221 255
195 221 255
195 221 255
195 221 255
195 221 255
195 221 255
195 221 255
195 221 255
195 221 255
195 221 255
195 221 255
195 221 255
195 221 255
195 221 255
195 221 255
195 221 255
195 221 255
195 221 255
195 221 255
195 221 255
195 221 255
195 221 255
195 221 255
195 221 255
195 221 255
195 221 255
195 221 255
195 221 255
195 221 255
195 221 255
195 221 255
195 221 255
195 221 255
195 221 255
195 221 255
195 221 255
195 221 255
195 221 255
195 221 255
195 221 255
195 221 255
195 221 255
195 221 255
195 221 255
195 221 255
195 221 255
195 221 255
196 221 255
196 221 255
196 221 255
196 222 255
196 222 255
196 222 255
196 222 255
196 222 255
196 222 255
196 222 255
196 222 255
196 222 255
196 222 255
196 222 255
196 222 255
196 222 255
196 222 255
196 222 255
196 222 255
197 222 255
197 222 255
197 222 255
197 222 255
197 222 255
197 222 255
197 222 255
197 222 255
197 222 255
197 222 255
197 222 255
197 222 255
197 222 255
197 222 255
197 222 255
197 222 255
198 223 255
198 223 255
198 223 255
198 223 255
198 223 255
198 223 255
198 223 255
198 223 255
198 223 255
198 223 255
198 223 255
198 223 255
198 223 255
198 223 255
198 223 255
199 223 255
199 223 255
199 223 255
199 223 255
199 223 255
199 223 255
199 223 255
199 223 255
199 223 255
199 223 255
199 223 255
199 223 255
199 223 255
199 224 255
199 224 255
200 224 255
200 224 255
200 224 255
200 224 255
200 224 255
200 224 255
200 224 255
200 224 255
200 224 255
200 224 255
200 224 255
200 224 255
200 224 255
200 224 255
201 224 255
201 224 255
201 224 255
201 224 255
201 224 255
201 224 255
201 224 255
201 224 255
201 224 255
201 224 255
201 225 255
201 225 255
201 225 255
201 225 255
201 225 255
202 225 255
202 225 255
202 225 255
202 225 255
202 225 255
202 225 255
202 225 255
202 225 255
202 225 255
202 225 255
202 225 255
202 225 255
202 225 255
202 225 255
202 225 255
203 225 255
203 225 255
203 225 255
203 225 255
203 225 255
203 225 255
203 225 255
203 225 255
203 225 255
203 226 255
203 226 255
203 226 255
203 226 255
203 226 255
203 226 255
203 226 255
204 226 255
204 226 255
204 226 255
204 226 255
204 226 255
204 226 255
204 226 255
204 226 255
204 226 255
204 226 255
204 226 255
204 226 255
204 226 255
204 226 255
204 226 255
204 226 255
204 226 255
204 226 255
205 226 255
205 226 255
205 226 255
205 226 255
205 226 255
205 226 255
205 226 255
205 227 255
205 227 255
205 227 255
205 227 255
205 227 255
205 227 255
205 227 255
205 227 255
205 227 255
205 227 255
205 227 255
205 227 255
205 227 255
205 227 255
205 227 255
205 227 255
205 227 255
205 227 255
205 227 255
205 227 255
205 226 255
205 226 255
205 226 255
205 226 255
205 226 255
205 226 255
205 226 255
205 226 255
204 226 255
204 226 255
204 226 255
204 226 255
204 226 255
204 226 255
204 226 255
204 226 255
204 226 255
204 226 255
204 226 255
204 226 255
204 226 255
204 226 255
204 226 255
204 226 255
204 226 255
203 226 255
203 226 255
203 226 255
203 226 255
203 226 255
203 226 255
203 226 255
203 225 255
203 225 255
203 225 255
203 225 255
203 225 255
203 225 255
203 225 255
203 225 255
203 225 255
202 225 255
202 225 255
202 225 255
202 225 255
202 225 255
202 225 255
202 225 255
202 225 255
202 225 255
202 225 255
202 225 255
202 225 255
202 225 255
202 225 255
202 225 255
201 225 255
201 225 255
201 225 255
201 225 255
201 225 255
201 224 255
201 224 255
201 224 255
201 224 255
201 224 255
201 224 255
201 224 255
201 224 255
201 224 255
201 224 255
200 224 255
200 224 255
200 224 255
200 224 255
200 224 255
200 224 255
200 224 255
200 224 255
200 224 255
200 224 255
200 224 255
200 224 255
200 224 255
200 224 255
199 224 255
199 224 255
199 224 255
199 223 255
199 223 255
199 223 255
199 223 255
199 223 255
199 223 255
199 223 255
199 223 255
199 223 255
199 223 255
199 223 255
199 223 255
198 223 255
198 223 255
198 223 255
198 223 255
198 223 255
198 223 255
198 223 255
198 223 255
198 223 255
198 223 255
198 223 255
198 223 255
198 223 255
198 223 255
198 223 255
197 222 255
197 222 255
197 222 255
197 222 255
197 222 255
197 222 255
197 222 255
197 222 255
197 222 255
197 222 255
197 222 255
197 222 255
197 222 255
197 222 255
197 222 255
197 222 255
196 222 255
196 222 255
196 222 255
196 222 255
196 222 255
196 222 255
196 222 255
196 222 255
196 222 255
196 222 255
196 222 255
196 222 255
196 222 255
196 222 255
196 222 255
196 222 255
196 222 255
196 222 255
196 221 255
196 221 255
195 221 255
195 221 255
195 221 255
195 221 255
195 221 255
195 221 255
195 221 255
195 221 255
195 221 255
195 221 255
195 221 255
195 221 255
195 221 255
195 221 255
195 221 255
195 221 255
195 221 255
195 221 255
195 221 255
195 221 255
195 221 255
195 221 255
195 221 255
195 221 255
195 221 255
195 221 255
195 221 255
195 221 255
195 221 255
195 221 255
195 221 255
195 221 255
195 221 255
195 221 255
195 221 255
195 221 255
195 221 255
195 221 255
195 221 255
195 221 255
195 221 255
195 221 255
195 221 255
195 221 255
195 221 255
195 221 255
195 221 255
195 221 255
195 221 255
195 221 255
195 221 255
195 221 255
195 221 255
195 221 255
195 221 255
195 221 255
195 221 255
195 221 255
195 221 255
195 221 255
195 221 255
195 221 255
195 221 255
195 221 255
195 221 255
195 221 255
195 221 255
195 221 255
195 221 255
195 221 255
195 221 255
195 221 255
195 221 255
195 221 255
195 221 255
195 221 255
196 221 255
196 221 255
196 222 255
196 222 255
196 222 255
196 222 255
196 222 255
196 222 255
196 222 255
196 222 255
196 222 255
196 222 255
196 222 255
196 222 255
196 222 255
196 222 255
196 222 255
196 222 255
196 222 255
196 222 255
197 222 255
197 222 255
197 222 255
197 222 255
197 222 255
197 222 255
197 222 255
197 222 255
197 222 255
197 222 255
197 222 255
197 222 255
197 222 255
197 222 255
197 222 255
197 222 255
198 223 255
198 223 255
198 223 255
198 223 255
198 223 255
198 223 255
198 223 255
198 223 255
198 223 255
198 223 255
198 223 255
198 223 255
198 223 255
198 223 255
198 223 255
199 223 255
199 223 255
199 223 255
199 223 255
199 223 255
199 223 255
199 223 255
199 223 255
199 223 255
199 223 255
199 223 255
199 223 255
199 224 255
199 224 255
199 224 255
200 224 255
200 224 255
200 224 255
200 224 255
200 224 255
200 224 255
200 224 255
200 224 255
200 224 255
200 224 255
200 224 255
200 224 255
200 224 255
200 224 255
201 224 255
201 224 255
201 224 255
201 224 255
201 224 255
201 224 255
201 224 255
201 224 255
201 224 255
201 224 255
201 225 255
201 225 255
201 225 255
201 225 255
201 225 255
202 225 255
202 225 255
202 225 255
202 225 255
202 225 255
202 225 255
202 225 255
202 225 255
202 225 255
202 225 255
202 225 255
202 225 255
202 225 255
202 225 255
202 225 255
203 225 255
203 225 255
203 225 255
203 225 255
203 225 255
203 225 255
203 225 255
203 225 255
203 225 255
203 226 255
203 226 255
203 226 255
203 226 255
203 226 255
203 226 255
203 226 255
204 226 255
204 226 255
204 226 255
204 226 255
204 226 255
204 226 255
204 226 255
204 226 255
204 226 255
204 226 255
204 226 255
204 226 255
204 226 255
204 226 255
204 226 255
204 226 255
204 226 255
205 226 255
205 226 255
205 226 255
205 226 255
205 226 255
205 226 255
205 226 255
205 226 255
205 227 255
205 227 255
205 227 255
205 227 255
205 227 255
205 227 255
205 227 255
205 227 255
205 227 255
205 227 255
205 227 255
206 227 255
206 227 255
206 227 255
205 227 255
205 227 255
205 227 255
205 227 255
205 227 255
205 227 255
205 227 255
205 227 255
205 227 255
205 227 255
205 227 255
205 226 255
205 226 255
205 226 255
205 226 255
205 226 255
205 226 255
205 226 255
204 226 255
204 226 255
204 226 255
204 226 255
204 226 255
204 226 255
204 226 255
204 226 255
204 226 255
204 226 255
204 226 255
204 226 255
204 226 255
204 226 255
204 226 255
204 226 255
204 226 255
203 226 255
203 226 255
203 226 255
203 226 255
203 226 255
203 226 255
203 226 255
203 226 255
203 225 255
203 225 255
203 225 255
203 225 255
203 225 255
203 225 255
203 225 255
203 225 255
202 225 255
202 225 255
202 225 255
202 225 255
202 225 255
202 225 255
202 225 255
202 225 255
202 225 255
202 225 255
202 225 255
202 225 255
202 225 255
202 225 255
202 225 255
202 225 255
201 225 255
201 225 255
201 225 255
201 225 255
201 224 255
201 224 255
201 224 255
201 224 255
201 224 255
201 224 255
201 224 255
201 224 255
201 224 255
201 224 255
200 224 255
200 224 255
200 224 255
200 224 255
200 224 255
200 224 255
200 224 255
200 224 255
200 224 255
200 224 255
200 224 255
200 224 255
200 224 255
200 224 255
200 224 255
199 224 255
199 224 255
199 223 255
199 223 255
199 223 255
199 223 255
199 223 255
199 223 255
199 223 255
199 223 255
199 223 255
199 223 255
199 223 255
199 223 255
198 223 255
198 223 255
198 223 255
198 223 255
198 223 255
198 223 255
198 223 255
198 223 255
198 223 255
198 223 255
198 223 255
198 223 255
198 223 255
198 223 255
198 223 255
197 223 255
197 222 255
197 222 255
197 222 255
197 222 255
197 222 255
197 222 255
197 222 255
197 222 255
197 222 255
197 222 255
197 222 255
197 222 255
197 222 255
197 222 255
197 222 255
197 222 255
196 222 255
196 222 255
196 222 255
196 222 255
196 222 255
196 222 255
196 222 255
196 222 255
196 222 255
196 222 255
196 222 255
196 222 255
196 222 255
196 222 255
196 222 255
196 222 255
196 222 255
196 222 255
196 222 255
196 221 255
196 221 255
195 221 255
195 221 255
195 221 255
195 221 255
195 221 255
195 221 255
195 221 255
195 221 255
195 221 255
195 221 255
195 221 255
195 221 255
195 221 255
195 221 255
195 221 255
195 221 255
195 221 255
195 221 255
195 221 255
195 221 255
195 221 255
195 221 255
195 221 255
195 221 255
195 221 255
195 221 255
195 221 255
195 221 255
195 221 255
195 221 255
195 221 255
195 221 255
195 221 255
195 221 255
195 221 255
195 221 255
195 221 255
195 221 255
195 221 255
195 221 255
195 221 255
195 221 255
195 221 255
195 221 255
195 221 255
195 221 255
195 221 255
195 221 255
195 221 255
195 221 255
195 221 255
195 221 255
195 221 255
195 221 255
195 221 255
195 221 255
195 221 255
195 221 255
195 221 255
195 221 255
195 221 255
195 221 255
195 221 255
195 221 255
195 221 255
195 221 255
195 221 255
195 221 255
196 221 255
196 221 255
196 222 255
196 222 255
196 222 255
196 222 255
196 222 255
196 222 255
196 222 255
196 222 255
196 222 255
196 222 255
196 222 255
196 222 255
196 222 255
196 222 255
196 222 255
196 222 255
196 222 255
196 222 255
196 222 255
197 222 255
197 222 255
197 222 255
197 222 255
197 222 255
197 222 255
197 222 255
197 222 255
197 222 255
197 222 255
197 222 255
197 222 255
197 222 255
197 222 255
197 222 255
197 222 255
197 223 255
198 223 255
198 223 255
198 223 255
198 223 255
198 223 255
198 223 255
198 223 255
198 223 255
198 223 255
198 223 255
198 223 255
198 223 255
198 223 255
198 223 255
198 223 255
199 223 255
199 223 255
199 223 255
199 223 255
199 223 255
199 223 255
199 223 255
199 223 255
199 223 255
199 223 255
199 223 255
199 223 255
199 224 255
199 224 255
200 224 255
200 224 255
200 224 255
200 224 255
200 224 255
200 224 255
200 224 255
200 224 255
200 224 255
200 224 255
200 224 255
200 224 255
200 224 255
200 224 255
200 224 255
201 224 255
201 224 255
201 224 255
201 224 255
201 224 255
201 224 255
201 224 255
201 224 255
201 224 255
201 224 255
201 225 255
201 225 255
201 225 255
201 225 255
202 225 255
202 225 255
202 225 255
202 225 255
202 225 255
202 225 255
202 225 255
202 225 255
202 225 255
202 225 255
202 225 255
202 225 255
202 225 255
202 225 255
202 225 255
202 225 255
203 225 255
203 225 255
203 225 255
203 225 255
203 225 255
203 225 255
203 225 255
203 225 255
203 226 255
203 226 255
203 226 255
203 226 255
203 226 255
203 226 255
203 226 255
203 226 255
204 226 255
204 226 255
204 226 255
204 226 255
204 226 255
204 226 255
204 226 255
204 226 255
204 226 255
204 226 255
204 226 255
204 226 255
204 226 255
204 226 255
204 226 255
204 226 255
204 226 255
205 226 255
205 226 255
205 226 255
205 226 255
205 226 255
205 226 255
205 226 255
205 227 255
205 227 255
205 227 255
205 227 255
205 227 255
205 227 255
205 227 255
205 227 255
205 227 255
205 227 255
205 227 255
206 227 255
206 227 255
206 227 255
206 227 255
206 227 255
206 227 255
206 227 255
206 227 255
206 227 255
205 227 255
205 227 255
205 227 255
205 227 255
205 227 255
205 227 255
205 227 255
205 227 255
205 227 255
205 227 255
205 227 255
205 226 255
205 226 255
205 226 255
205 226 255
205 226 255
205 226 255
205 226 255
204 226 255
204 226 255
204 226 255
204 226 255
204 226 255
204 226 255
204 226 255
204 226 255
204 226 255
204 226 255
204 226 255
204 226 255
204 226 255
204 226 255
204 226 255
204 226 255
204 226 255
203 226 255
203 226 255
203 226 255
203 226 255
203 226 255
203 226 255
203 226 255
203 225 255
203 225 255
203 225 255
203 225 255
203 225 255
203 225 255
203 225 255
203 225 255
203 225 255
202 225 255
202 225 255
202 225 255
202 225 255
202 225 255
202 225 255
202 225 255
202 225 255
202 225 255
202 225 255
202 225 255
202 225 255
202 225 255
202 225 255
202 225 255
201 225 255
201 225 255
201 225 255
201 225 255
201 224 255
201 224 255
201 224 255
201 224 255
201 224 255
201 224 255
201 224 255
201 224 255
201 224 255
201 224 255
201 224 255
200 224 255
200 224 255
200 224 255
200 224 255
200 224 255
200 224 255
200 224 255
200 224 255
200 224 255
200 224 255
200 224 255
200 224 255
200 224 255
200 224 255
199 224 255
199 224 255
199 223 255
199 223 255
199 223 255
199 223 255
199 223 255
199 223 255
199 223 255
199 223 255
199 223 255
199 223 255
199 223 255
199 223 255
198 223 255
198 223 255
198 223 255
198 223 255
198 223 255
198 223 255
198 223 255
198 223 255
198 223 255
198 223 255
198 223 255
198 223 255
198 223 255
198 223 255
198 223 255
198 223 255
197 222 255
197 222 255
197 222 255
197 222 255
197 222 255
197 222 255
197 222 255
197 222 255
197 222 255
197 222 255
197 222 255
197 222 255
197 222 255
197 222 255
197 222 255
197 222 255
196 222 255
196 222 255
196 222 255
196 222 255
196 222 255
196 222 255
196 222 255
196 222 255
196 222 255
196 222 255
196 222 255
196 222 255
196 222 255
196 222 255
196 222 255
196 222 255
196 222 255
196 222 255
196 222 255
196 222 255
196 222 255
196 221 255
196 221 255
195 221 255
195 221 255
195 221 255
195 221 255
195 221 255
195 221 255
195 221 255
195 221 255
195 221 255
195 221 255
195 221 255
195 221 255
195 221 255
195 221 255
195 221 255
195 221 255
195 221 255
195 221 255
195 221 255
195 221 255
195 221 255
195 221 255
195 221 255
195 221 255
195 221 255
195 221 255
195 221 255
195 221 255
195 221 255
195 221 255
195 221 255
195 221 255
195 221 255
195 221 255
195 221 255
195 221 255
195 221 255
195 221 255
195 221 255
195 221 255
195 221 255
195 221 255
195 221 255
195 221 255
195 221 255
195 221 255
195 221 255
195 221 255
195 221 255
195 221 255
195 221 255
195 221 255
195 221 255
195 221 255
195 221 255
195 221 255
195 221 255
195 221 255
195 221 255
195 221 255
196 221 255
196 221 255
196 222 255
196 222 255
196 222 255
196 222 255
196 222 255
196 222 255
196 222 255
196 222 255
196 222 255
196 222 255
196 222 255
196 222 255
196 222 255
196 222 255
196 222 255
196 222 255
196 222 255
196 222 255
196 222 255
196 222 255
197 222 255
197 222 255
197 222 255
197 222 255
197 222 255
197 222 255
197 222 255
197 222 255
197 222 255
197 222 255
197 222 255
197 222 255
197 222 255
197 222 255
197 222 255
197 222 255
197 222 255
198 223 255
198 223 255
198 223 255
198 223 255
198 223 255
198 223 255
198 223 255
198 223 255
198 223 255
198 223 255
198 223 255
198 223 255
198 223 255
198 223 255
198 223 255
198 223 255
199 223 255
199 223 255
199 223 255
199 223 255
199 223 255
199 223 255
199 223 255
199 223 255
199 223 255
199 223 255
199 223 255
199 223 255
199 224 255
199 224 255
200 224 255
200 224 255
200 224 255
200 224 255
200 224 255
200 224 255
200 224 255
200 224 255
200 224 255
200 224 255
200 224 255
200 224 255
200 224 255
200 224 255
200 224 255
201 224 255
201 224 255
201 224 255
201 224 255
201 224 255
201 224 255
201 224 255
201 224 255
201 224 255
201 224 255
201 225 255
201 225 255
201 225 255
201 225 255
202 225 255
202 225 255
202 225 255
202 225 255
202 225 255
202 225 255
202 225 255
202 225 255
202 225 255
202 225 255
202 225 255
202 225 255
202 225 255
202 225 255
202 225 255
203 225 255
203 225 255
203 225 255
203 225 255
203 225 255
203 225 255
203 225 255
203 225 255
203 225 255
203 226 255
203 226 255
203 226 255
203 226 255
203 226 255
203 226 255
203 226 255
204 226 255
204 226 255
204 226 255
204 226 255
204 226 255
204 226 255
204 226 255
204 226 255
204 226 255
204 226 255
204 226 255
204 226 255
204 226 255
204 226 255
204 226 255
204 226 255
204 226 255
205 226 255
205 226 255
205 226 255
205 226 255
205 226 255
205 226 255
205 226 255
205 226 255
205 227 255
205 227 255
205 227 255
205 227 255
205 227 255
205 227 255
205 227 255
205 227 255
205 227 255
205 227 255
205 227 255
206 227 255
206 227 255
206 227 255
206 227 255
206 227 255
206 227 255
206 227 255
206 227 255
206 227 255
206 227 255
206 227 255
206 227 255
206 227 255
205 227 255
205 227 255
205 227 255
205 227 255
205 227 255
205 227 255
205 227 255
205 227 255
205 227 255
205 227 255
205 227 255
205 226 255
205 226 255
205 226 255
205 226 255
205 226 255
205 226 255
205 226 255
204 226 255
204 226 255
204 226 255
204 226 255
204 226 255
204 226 255
204 226 255
204 226 255
204 226 255
204 226 255
204 226 255
204 226 255
204 226 255
204 226 255
204 226 255
204 226 255
204 226 255
203 226 255
203 226 255
203 226 255
203 226 255
203 226 255
203 226 255
203 226 255
203 225 255
203 225 255
203 225 255
203 225 255
203 225 255
203 225 255
203 225 255
203 225 255
203 225 255
202 225 255
202 225 255
202 225 255
202 225 255
202 225 255
202 225 255
202 225 255
202 225 255
202 225 255
202 225 255
202 225 255
202 225 255
202 225 255
202 225 255
202 225 255
201 225 255
201 225 255
201 225 255
201 225 255
201 224 255
201 224 255
201 224 255
201 224 255
201 224 255
201 224 255
201 224 255
201 224 255
201 224 255
201 224 255
201 224 255
200 224 255
200 224 255
200 224 255
200 224 255
200 224 255
200 224 255
200 224 255
200 224 255
200 224 255
200 224 255
200 224 255
200 224 255
200 224 255
200 224 255
199 224 255
199 224 255
199 223 255
199 223 255
199 223 255
199 223 255
199 223 255
199 223 255
199 223 255
199 223 255
199 223 255
199 223 255
199 223 255
199 223 255
199 223 255
198 223 255
198 223 255
198 223 255
198 223 255
198 223 255
198 223 255
198 223 255
198 223 255
198 223 255
198 223 255
198 223 255
198 223 255
198 223 255
198 223 255
198 223 255
197 223 255
197 222 255
197 222 255
197 222 255
197 222 255
197 222 255
197 222 255
197 222 255
197 222 255
197 222 255
197 222 255
197 222 255
197 222 255
197 222 255
197 222 255
197 222 255
197 222 255
197 222 255
196 222 255
196 222 255
196 222 255
196 222 255
196 222 255
196 222 255
196 222 255
196 222 255
196 222 255
196 222 255
196 222 255
196 222 255
196 222 255
196 222 255
196 222 255
196 222 255
196 222 255
196 222 255
196 222 255
196 222 255
196 222 255
196 221 255
196 221 255
196 221 255
195 221 255
195 221 255
195 221 255
195 221 255
195 221 255
195 221 255
195 221 255
195 221 255
195 221 255
195 221 255
195 221 255
195 221 255
195 221 255
195 221 255
195 221 255
195 221 255
195 221 255
195 221 255
195 221 255
195 221 255
195 221 255
195 221 255
195 221 255
195 221 255
195 221 255
195 221 255
195 221 255
195 221 255
195 221 255
195 221 255
195 221 255
195 221 255
195 221 255
195 221 255
195 221 255
195 221 255
195 221 255
195 221 255
195 221 255
195 221 255
195 221 255
195 221 255
195 221 255
195 221 255
195 221 255
195 221 255
195 221 255
195 221 255
195 221 255
195 221 255
196 221 255
196 221 255
196 221 255
196 222 255
196 222 255
196 222 255
196 222 255
196 222 255
196 222 255
196 222 255
196 222 255
196 222 255
196 222 255
196 222 255
196 222 255
196 222 255
196 222 255
196 222 255
196 222 255
196 222 255
196 222 255
196 222 255
196 222 255
196 222 255
197 222 255
197 222 255
197 222 255
197 222 255
197 222 255
197 222 255
197 222 255
197 222 255
197 222 255
197 222 255
197 222 255
197 222 255
197 222 255
197 222 255
197 222 255
197 222 255
197 222 255
197 223 255
198 223 255
198 223 255
198 223 255
198 223 255
198 223 255
198 223 255
198 223 255
198 223 255
198 223 255
198 223 255
198 223 255
198 223 255
198 223 255
198 223 255
198 223 255
199 223 255
199 223 255
199 223 255
199 223 255
199 223 255
199 223 255
199 223 255
199 223 255
199 223 255
199 223 255
199 223 255
199 223 255
199 223 255
199 224 255
199 224 255
200 224 255
200 224 255
200 224 255
200 224 255
200 224 255
200 224 255
200 224 255
200 224 255
200 224 255
200 224 255
200 224 255
200 224 255
200 224 255
200 224 255
201 224 255
201 224 255
201 224 255
201 224 255
201 224 255
201 224 255
201 224 255
201 224 255
201 224 255
201 224 255
201 224 255
201 225 255
201 225 255
201 225 255
201 225 255
202 225 255
202 225 255
202 225 255
202 225 255
202 225 255
202 225 255
202 225 255
202 225 255
202 225 255
202 225 255
202 225 255
202 225 255
202 225 255
202 225 255
202 225 255
203 225 255
203 225 255
203 225 255
203 225 255
203 225 255
203 225 255
203 225 255
203 225 255
203 225 255
203 226 255
203 226 255
203 226 255
203 226 255
203 226 255
203 226 255
203 226 255
204 226 255
204 226 255
204 226 255
204 226 255
204 226 255
204 226 255
204 226 255
204 226 255
204 226 255
204 226 255
204 226 255
204 226 255
204 226 255
204 226 255
204 226 255
204 226 255
204 226 255
205 226 255
205 226 255
205 226 255
205 226 255
205 226 255
205 226 255
205 226 255
205 227 255
205 227 255
205 227 255
205 227 255
205 227 255
205 227 255
205 227 255
205 227 255
205 227 255
205 227 255
205 227 255
206 227 255
206 227 255
206 227 255
206 227 255
206 227 255
206 227 255
206 227 255
206 227 255
206 227 255
206 227 255
206 227 255
206 227 255
206 227 255
206 227 255
206 227 255
206 227 255
206 227 255
206 227 255
206 227 255
205 227 255
205 227 255
205 227 255
205 227 255
205 227 255
205 227 255
205 227 255
205 227 255
205 227 255
205 227 255
205 227 255
205 226 255
205 226 255
205 226 255
205 226 255
205 226 255
205 226 255
205 226 255
204 226 255
204 226 255
204 226 255
204 226 255
204 226 255
204 226 255
204 226 255
204 226 255
204 226 255
204 226 255
204 226 255
204 226 255
204 226 255
204 226 255
204 226 255
204 226 255
204 226 255
203 226 255
203 226 255
203 226 255
203 226 255
203 226 255
203 226 255
203 226 255
203 225 255
203 225 255
203 225 255
203 225 255
203 225 255
203 225 255
203 225 255
203 225 255
202 225 255
202 225 255
202 225 255
202 225 255
202 225 255
202 225 255
202 225 255
202 225 255
202 225 255
202 225 255
202 225 255
202 225 255
202 225 255
202 225 255
202 225 255
201 225 255
201 225 255
201 225 255
201 225 255
201 225 255
201 224 255
201 224 255
201 224 255
201 224 255
201 224 255
201 224 255
201 224 255
201 224 255
201 224 255
201 224 255
200 224 255
200 224 255
200 224 255
200 224 255
200 224 255
200 224 255
200 224 255
200 224 255
200 224 255
200 224 255
200 224 255
200 224 255
200 224 255
200 224 255
199 224 255
199 224 255
199 224 255
199 223 255
199 223 255
199 223 255
199 223 255
199 223 255
199 223 255
199 223 255
199 223 255
199 223 255
199 223 255
199 223 255
199 223 255
198 223 255
198 223 255
198 223 255
198 223 255
198 223 255
198 223 255
198 223 255
198 223 255
198 223 255
198 223 255
198 223 255
198 223 255
198 223 255
198 223 255
198 223 255
198 223 255
197 222 255
197 222 255
197 222 255
197 222 255
197 222 255
197 222 255
197 222 255
197 222 255
197 222 255
197 222 255
197 222 255
197 222 255
197 222 255
197 222 255
197 222 255
197 222 255
197 222 255
197 222 255
196 222 255
196 222 255
196 222 255
196 222 255
196 222 255
196 222 255
196 222 255
196 222 255
196 222 255
196 222 255
196 222 255
196 222 255
196 222 255
196 222 255
196 222 255
196 222 255
196 222 255
196 222 255
196 222 255
196 222 255
196 222 255
196 222 255
196 222 255
196 222 255
196 221 255
196 221 255
196 221 255
195 221 255
195 221 255
195 221 255
195 221 255
195 221 255
195 221 255
195 221 255
195 221 255
195 221 255
195 221 255
195 221 255
195 221 255
195 221 255
195 221 255
195 221 255
195 221 255
195 221 255
195 221 255
195 221 255
195 221 255
195 221 255
195 221 255
195 221 255
195 221 255
195 221 255
195 221 255
195 221 255
195 221 255
195 221 255
195 221 255
195 221 255
195 221 255
195 221 255
195 221 255
195 221 255
195 221 255
195 221 255
195 221 255
196 221 255
196 221 255
196 221 255
196 222 255
196 222 255
196 222 255
196 222 255
196 222 255
196 222 255
196 222 255
196 222 255
196 222 255
196 222 255
196 222 255
196 222 255
196 222 255
196 222 255
196 222 255
196 222 255
196 222 255
196 222 255
196 222 255
196 222 255
196 222 255
196 222 255
196 222 255
196 222 255
197 222 255
197 222 255
197 222 255
197 222 255
197 222 255
197 222 255
197 222 255
197 222 255
197 222 255
197 222 255
197 222 255
197 222 255
197 222 255
197 222 255
197 222 255
197 222 255
197 222 255
197 222 255
198 223 255
198 223 255
198 223 255
198 223 255
198 223 255
198 223 255
198 223 255
198 223 255
198 223 255
198 223 255
198 223 255
198 223 255
198 223 255
198 223 255
198 223 255
198 223 255
199 223 255
199 223 255
199 223 255
199 223 255
199 223 255
199 223 255
199 223 255
199 223 255
199 223 255
199 223 255
199 223 255
199 223 255
199 224 255
199 224 255
199 224 255
200 224 255
200 224 255
200 224 255
200 224 255
200 224 255
200 224 255
200 224 255
200 224 255
200 224 255
200 224 255
200 224 255
200 224 255
200 224 255
200 224 255
201 224 255
201 224 255
201 224 255
201 224 255
201 224 255
201 224 255
201 224 255
201 224 255
201 224 255
201 224 255
201 225 255
201 225 255
201 225 255
201 225 255
201 225 255
202 225 255
202 225 255
202 225 255
202 225 255
202 225 255
202 225 255
202 225 255
202 225 255
202 225 255
202 225 255
202 225 255
202 225 255
202 225 255
202 225 255
202 225 255
203 225 255
203 225 255
203 225 255
203 225 255
203 225 255
203 225 255
203 225 255
203 225 255
203 226 255
203 226 255
203 226 255
203 226 255
203 226 255
203 226 255
203 226 255
203 226 255
204 226 255
204 226 255
204 226 255
204 226 255
204 226 255
204 226 255
204 226 255
204 226 255
204 226 255
204 226 255
204 226 255
204 226 255
204 226 255
204 226 255
204 226 255
204 226 255
205 226 255
205 226 255
205 226 255
205 226 255
205 226 255
205 226 255
205 226 255
205 227 255
205 227 255
205 227 255
205 227 255
205 227 255
205 227 255
205 227 255
205 227 255
205 227 255
205 227 255
205 227 255
206 227 255
206 227 255
206 227 255
206 227 255
206 227 255
206 227 255
206 227 255
206 227 255
206 227 255
206 227 255
206 227 255
206 227 255
206 227 255
206 227 255
206 227 255
206 227 255
206 227 255
206 227 255
206 227 255
206 227 255
206 227 255
206 227 255
206 227 255
206 227 255
205 227 255
205 227 255
205 227 255
205 227 255
205 227 255
205 227 255
205 227 255
205 227 255
205 227 255
205 227 255
205 227 255
205 226 255
205 226 255
205 226 255
205 226 255
205 226 255
205 226 255
205 226 255
204 226 255
204 226 255
204 226 255
204 226 255
204 226 255
204 226 255
204 226 255
204 226 255
204 226 255
204 226 255
204 226 255
204 226 255
204 226 255
204 226 255
204 226 255
204 226 255
204 226 255
203 226 255
203 226 255
203 226 255
203 226 255
203 226 255
203 226 255
203 226 255
203 225 255
203 225 255
203 225 255
203 225 255
203 225 255
203 225 255
203 225 255
203 225 255
203 225 255
202 225 255
202 225 255
202 225 255
202 225 255
202 225 255
202 225 255
202 225 255
202 225 255
202 225 255
202 225 255
202 225 255
202 225 255
202 225 255
202 225 255
202 225 255
201 225 255
201 225 255
201 225 255
201 225 255
201 224 255
201 224 255
201 224 255
201 224 255
201 224 255
201 224 255
201 224 255
201 224 255
201 224 255
201 224 255
200 224 255
200 224 255
200 224 255
200 224 255
200 224 255
200 224 255
200 224 255
200 224 255
200 224 255
200 224 255
200 224 255
200 224 255
200 224 255
200 224 255
200 224 255
199 224 255
199 224 255
199 223 255
199 223 255
199 223 255
199 223 255
199 223 255
199 223 255
199 223 255
199 223 255
199 223 255
199 223 255
199 223 255
199 223 255
198 223 255
198 223 255
198 223 255
198 223 255
198 223 255
198 223 255
198 223 255
198 223 255
198 223 255
198 223 255
198 223 255
198 223 255
198 223 255
198 223 255
198 223 255
198 223 255
198 223 255
197 222 255
197 222 255
197 222 255
197 222 255
197 222 255
197 222 255
197 222 255
197 222 255
197 222 255
197 222 255
197 222 255
197 222 255
197 222 255
197 222 255
197 222 255
197 222 255
197 222 255
197 222 255
196 222 255
196 222 255
196 222 255
196 222 255
196 222 255
196 222 255
196 222 255
196 222 255
196 222 255
196 222 255
196 222 255
196 222 255
196 222 255
196 222 255
196 222 255
196 222 255
196 222 255
196 222 255
196 222 255
196 222 255
196 222 255
196 222 255
196 222 255
196 222 255
196 222 255
196 222 255
196 222 255
196 221 255
196 221 255
196 221 255
196 221 255
196 221 255
195 221 255
195 221 255
195 221 255
195 221 255
195 221 255
195 221 255
195 221 255
195 221 255
195 221 255
195 221 255
195 221 255
195 221 255
195 221 255
195 221 255
195 221 255
195 221 255
195 221 255
195 221 255
195 221 255
195 221 255
195 221 255
195 221 255
196 221 255
196 221 255
196 221 255
196 221 255
196 221 255
196 222 255
196 222 255
196 222 255
196 222 255
196 222 255
196 222 255
196 222 255
196 222 255
196 222 255
196 222 255
196 222 255
196 222 255
196 222 255
196 222 255
196 222 255
196 222 255
196 222 255
196 222 255
196 222 255
196 222 255
196 222 255
196 222 255
196 222 255
196 222 255
196 222 255
196 222 255
196 222 255
197 222 255
197 222 255
197 222 255
197 222 255
197 222 255
197 222 255
197 222 255
197 222 255
197 222 255
197 222 255
197 222 255
197 222 255
197 222 255
197 222 255
197 222 255
197 222 255
197 222 255
197 222 255
198 223 255
198 223 255
198 223 255
198 223 255
198 223 255
198 223 255
198 223 255
198 223 255
198 223 255
198 223 255
198 223 255
198 223 255
198 223 255
198 223 255
198 223 255
198 223 255
199 223 255
199 223 255
199 223 255
199 223 255
199 223 255
199 223 255
199 223 255
199 223 255
199 223 255
199 223 255
199 223 255
199 223 255
199 223 255
199 224 255
199 224 255
200 224 255
200 224 255
200 224 255
200 224 255
200 224 255
200 224 255
200 224 255
200 224 255
200 224 255
200 224 255
200 224 255
200 224 255
200 224 255
200 224 255
200 224 255
201 224 255
201 224 255
201 224 255
201 224 255
201 224 255
201 224 255
201 224 255
201 224 255
201 224 255
201 224 255
201 225 255
201 225 255
201 225 255
201 225 255
202 225 255
202 225 255
202 225 255
202 225 255
202 225 255
202 225 255
202 225 255
202 225 255
202 225 255
202 225 255
202 225 255
202 225 255
202 225 255
202 225 255
202 225 255
203 225 255
203 225 255
203 225 255
203 225 255
203 225 255
203 225 255
203 225 255
203 225 255
203 225 255
203 226 255
203 226 255
203 226 255
203 226 255
203 226 255
203 226 255
203 226 255
204 226 255
204 226 255
204 226 255
204 226 255
204 226 255
204 226 255
204 226 255
204 226 255
204 226 255
204 226 255
204 226 255
204 226 255
204 226 255
204 226 255
204 226 255
204 226 255
204 226 255
205 226 255
205 226 255
205 226 255
205 226 255
205 226 255
205 226 255
205 226 255
205 227 255
205 227 255
205 227 255
205 227 255
205 227 255
205 227 255
205 227 255
205 227 255
205 227 255
205 227 255
205 227 255
206 227 255
206 227 255
206 227 255
206 227 255
206 227 255
206 227 255
206 227 255
206 227 255
206 227 255
206 227 255
206 227 255
206 227 255
206 227 255
206 227 255
206 227 255
206 227 255
206 227 255
206 227 255
206 227 255
206 227 255
206 227 255
206 227 255
206 227 255
206 227 255
206 227 255
206 227 255
206 227 255
206 227 255
206 227 255
205 227 255
205 227 255
205 227 255
205 227 255
205 227 255
205 227 255
205 227 255
205 227 255
205 227 255
205 227 255
205 227 255
205 226 255
205 226 255
205 226 255
205 226 255
205 226 255
205 226 255
205 226 255
204 226 255
204 226 255
204 226 255
204 226 255
204 226 255
204 226 255
204 226 255
204 226 255
204 226 255
204 226 255
204 226 255
204 226 255
204 226 255
204 226 255
204 226 255
204 226 255
203 226 255
203 226 255
203 226 255
203 226 255
203 226 255
203 226 255
203 226 255
203 225 255
203 225 255
203 225 255
203 225 255
203 225 255
203 225 255
203 225 255
203 225 255
203 225 255
202 225 255
202 225 255
202 225 255
202 225 255
202 225 255
202 225 255
202 225 255
202 225 255
202 225 255
202 225 255
202 225 255
202 225 255
202 225 255
202 225 255
202 225 255
201 225 255
201 225 255
201 225 255
201 225 255
201 224 255
201 224 255
201 224 255
201 224 255
201 224 255
201 224 255
201 224 255
201 224 255
201 224 255
201 224 255
201 224 255
200 224 255
200 224 255
200 224 255
200 224 255
200 224 255
200 224 255
200 224 255
200 224 255
200 224 255
200 224 255
200 224 255
200 224 255
200 224 255
200 224 255
199 224 255
199 224 255
199 223 255
199 223 255
199 223 255
199 223 255
199 223 255
199 223 255
199 223 255
199 223 255
199 223 255
199 223 255
199 223 255
199 223 255
199 223 255
198 223 255
198 223 255
198 223 255
198 223 255
198 223 255
198 223 255
198 223 255
198 223 255
198 223 255
198 223 255
198 223 255
198 223 255
198 223 255
198 223 255
198 223 255
198 223 255
197 223 255
197 222 255
197 222 255
197 222 255
197 222 255
197 222 255
197 222 255
197 222 255
197 222 255
197 222 255
197 222 255
197 222 255
197 222 255
197 222 255
197 222 255
197 222 255
197 222 255
197 222 255
197 222 255
197 222 255
196 222 255
196 222 255
196 222 255
196 222 255
196 222 255
196 222 255
196 222 255
196 222 255
196 222 255
196 222 255
196 222 255
196 222 255
196 222 255
196 222 255
196 222 255
196 222 255
196 222 255
196 222 255
196 222 255
196 222 255
196 222 255
196 222 255
196 222 255
196 222 255
196 222 255
196 222 255
196 222 255
196 222 255
196 222 255
196 222 255
196 222 255
196 222 255
196 222 255
196 222 255
196 222 255
196 222 255
196 222 255
196 222 255
196 222 255
196 222 255
196 222 255
196 222 255
196 222 255
196 222 255
196 222 255
196 222 255
196 222 255
196 222 255
196 222 255
196 222 255
196 222 255
196 222 255
196 222 255
196 222 255
196 222 255
196 222 255
196 222 255
196 222 255
196 222 255
196 222 255
196 222 255
196 222 255
196 222 255
196 222 255
196 222 255
196 222 255
196 222 255
196 222 255
196 222 255
196 222 255
196 222 255
196 222 255
196 222 255
196 222 255
196 222 255
196 222 255
196 222 255
196 222 255
197 222 255
197 222 255
197 222 255
197 222 255
197 222 255
197 222 255
197 222 255
197 222 255
197 222 255
197 222 255
197 222 255
197 222 255
197 222 255
197 222 255
197 222 255
197 222 255
197 222 255
197 222 255
197 222 255
197 223 255
198 223 255
198 223 255
198 223 255
198 223 255
198 223 255
198 223 255
198 223 255
198 223 255
198 223 255
198 223 255
198 223 255
198 223 255
198 223 255
198 223 255
198 223 255
198 223 255
199 223 255
199 223 255
199 223 255
199 223 255
199 223 255
199 223 255
199 223 255
199 223 255
199 223 255
199 223 255
199 223 255
199 223 255
199 223 255
199 224 255
199 224 255
200 224 255
200 224 255
200 224 255
200 224 255
200 224 255
200 224 255
200 224 255
200 224 255
200 224 255
200 224 255
200 224 255
200 224 255
200 224 255
200 224 255
201 224 255
201 224 255
201 224 255
201 224 255
201 224 255
201 224 255
201 224 255
201 224 255
201 224 255
201 224 255
201 224 255
201 225 255
201 225 255
201 225 255
201 225 255
202 225 255
202 225 255
202 225 255
202 225 255
202 225 255
202 225 255
202 225 255
202 225 255
202 225 255
202 225 255
202 225 255
202 225 255
202 225 255
202 225 255
202 225 255
203 225 255
203 225 255
203 225 255
203 225 255
203 225 255
203 225 255
203 225 255
203 225 255
203 225 255
203 226 255
203 226 255
203 226 255
203 226 255
203 226 255
203 226 255
203 226 255
204 226 255
204 226 255
204 226 255
204 226 255
204 226 255
204 226 255
204 226 255
204 226 255
204 226 255
204 226 255
204 226 255
204 226 255
204 226 255
204 226 255
204 226 255
204 226 255
205 226 255
205 226 255
205 226 255
205 226 255
205 226 255
205 226 255
205 226 255
205 227 255
205 227 255
205 227 255
205 227 255
205 227 255
205 227 255
205 227 255
205 227 255
205 227 255
205 227 255
205 227 255
206 227 255
206 227 255
206 227 255
206 227 255
206 227 255
206 227 255
206 227 255
206 227 255
206 227 255
206 227 255
206 227 255
206 227 255
206 227 255
206 227 255
206 227 255
206 227 255
206 227 255
206 227 255
206 227 255
206 227 255
206 227 255
206 227 255
206 227 255
206 227 255
206 227 255
206 227 255
206 227 255
206 227 255
206 227 255
206 227 255
206 227 255
206 227 255
206 227 255
206 227 255
205 227 255
205 227 255
205 227 255
205 227 255
205 227 255
205 227 255
205 227 255
205 227 255
205 227 255
205 227 255
205 227 255
205 226 255
205 226 255
205 226 255
205 226 255
205 226 255
205 226 255
205 226 255
204 226 255
204 226 255
204 226 255
204 226 255
204 226 255
204 226 255
204 226 255
204 226 255
204 226 255
204 226 255
204 226 255
204 226 255
204 226 255
204 226 255
204 226 255
204 226 255
204 226 255
203 226 255
203 226 255
203 226 255
203 226 255
203 226 255
203 226 255
203 226 255
203 225 255
203 225 255
203 225 255
203 225 255
203 225 255
203 225 255
203 225 255
203 225 255
202 225 255
202 225 255
202 225 255
202 225 255
202 225 255
202 225 255
202 225 255
202 225 255
202 225 255
202 225 255
202 225 255
202 225 255
202 225 255
202 225 255
202 225 255
201 225 255
201 225 255
201 225 255
201 225 255
201 225 255
201 224 255
201 224 255
201 224 255
201 224 255
201 224 255
201 224 255
201 224 255
201 224 255
201 224 255
201 224 255
200 224 255
200 224 255
200 224 255
200 224 255
200 224 255
200 224 255
200 224 255
200 224 255
200 224 255
200 224 255
200 224 255
200 224 255
200 224 255
200 224 255
199 224 255
199 224 255
199 224 255
199 223 255
199 223 255
199 223 255
199 223 255
199 223 255
199 223 255
199 223 255
199 223 255
199 223 255
199 223 255
199 223 255
199 223 255
199 223 255
198 223 255
198 223 255
198 223 255
198 223 255
198 223 255
198 223 255
198 223 255
198 223 255
198 223 255
198 223 255
198 223 255
198 223 255
198 223 255
198 223 255
198 223 255
198 223 255
197 223 255
197 222 255
197 222 255
197 222 255
197 222 255
197 222 255
197 222 255
197 222 255
197 222 255
197 222 255
197 222 255
197 222 255
197 222 255
197 222 255
197 222 255
197 222 255
197 222 255
197 222 255
197 222 255
197 222 255
197 222 255
196 222 255
196 222 255
196 222 255
196 222 255
196 222 255
196 222 255
196 222 255
196 222 255
196 222 255
196 222 255
196 222 255
196 222 255
196 222 255
196 222 255
196 222 255
196 222 255
196 222 255
196 222 255
196 222 255
196 222 255
196 222 255
196 222 255
196 222 255
196 222 255
196 222 255
196 222 255
196 222 255
196 222 255
196 222 255
196 222 255
196 222 255
196 222 255
196 222 255
196 222 255
196 222 255
196 222 255
196 222 255
196 222 255
196 222 255
196 222 255
196 222 255
196 222 255
196 222 255
196 222 255
196 222 255
196 222 255
196 222 255
196 222 255
196 222 255
196 222 255
196 222 255
196 222 255
196 222 255
196 222 255
196 222 255
196 222 255
196 222 255
196 222 255
196 222 255
196 222 255
196 222 255
196 222 255
196 222 255
196 222 255
196 222 255
196 222 255
196 222 255
196 222 255
196 222 255
196 222 255
197 222 255
197 222 255
197 222 255
197 222 255
197 222 255
197 222 255
197 222 255
197 222 255
197 222 255
197 222 255
197 222 255
197 222 255
197 222 255
197 222 255
197 222 255
197 222 255
197 222 255
197 222 255
197 222 255
197 222 255
197 223 255
198 223 255
198 223 255
198 223 255
198 223 255
198 223 255
198 223 255
198 223 255
198 223 255
198 223 255
198 223 255
198 223 255
198 223 255
198 223 255
198 223 255
198 223 255
198 223 255
199 223 255
199 223 255
199 223 255
199 223 255
199 223 255
199 223 255
199 223 255
199 223 255
199 223 255
199 223 255
199 223 255
199 223 255
199 223 255
199 224 255
199 224 255
199 224 255
200 224 255
200 224 255
200 224 255
200 224 255
200 224 255
200 224 255
200 224 255
200 224 255
200 224 255
200 224 255
200 224 255
200 224 255
200 224 255
200 224 255
201 224 255
201 224 255
201 224 255
201 224 255
201 224 255
201 224 255
201 224 255
201 224 255
201 224 255
201 224 255
201 225 255
201 225 255
201 225 255
201 225 255
201 225 255
202 225 255
202 225 255
202 225 255
202 225 255
202 225 255
202 225 255
202 225 255
202 225 255
202 225 255
202 225 255
202 225 255
202 225 255
202 225 255
202 225 255
202 225 255
203 225 255
203 225 255
203 225 255
203 225 255
203 225 255
203 225 255
203 225 255
203 225 255
203 226 255
203 226 255
203 226 255
203 226 255
203 226 255
203 226 255
203 226 255
204 226 255
204 226 255
204 226 255
204 226 255
204 226 255
204 226 255
204 226 255
204 226 255
204 226 255
204 226 255
204 226 255
204 226 255
204 226 255
204 226 255
204 226 255
204 226 255
204 226 255
205 226 255
205 226 255
205 226 255
205 226 255
205 226 255
205 226 255
205 226 255
205 227 255
205 227 255
205 227 255
205 227 255
205 227 255
205 227 255
205 227 255
205 227 255
205 227 255
205 227 255
205 227 255
206 227 255
206 227 255
206 227 255
206 227 255
206 227 255
206 227 255
206 227 255
206 227 255
206 227 255
206 227 255
206 227 255
206 227 255
206 227 255
206 227 255
206 227 255
206 227 255
206 227 255
206 227 255
207 227 255
207 227 255
206 227 255
206 227 255
206 227 255
206 227 255
206 227 255
206 227 255
206 227 255
206 227 255
206 227 255
206 227 255
206 227 255
206 227 255
206 227 255
206 227 255
206 227 255
206 227 255
206 227 255
206 227 255
206 227 255
205 227 255
205 227 255
205 227 255
205 227 255
205 227 255
205 227 255
205 227 255
205 227 255
205 227 255
205 227 255
205 227 255
205 226 255
205 226 255
205 226 255
205 226 255
205 226 255
205 226 255
205 226 255
204 226 255
204 226 255
204 226 255
204 226 255
204 226 255
204 226 255
204 226 255
204 226 255
204 226 255
204 226 255
204 226 255
204 226 255
204 226 255
204 226 255
204 226 255
204 226 255
203 226 255
203 226 255
203 226 255
203 226 255
203 226 255
203 226 255
203 226 255
203 225 255
203 225 255
203 225 255
203 225 255
203 225 255
203 225 255
203 225 255
203 225 255
203 225 255
202 225 255
202 225 255
202 225 255
202 225 255
202 225 255
202 225 255
202 225 255
202 225 255
202 225 255
202 225 255
202 225 255
202 225 255
202 225 255
202 225 255
202 225 255
201 225 255
201 225 255
201 225 255
201 225 255
201 224 255
201 224 255
201 224 255
201 224 255
201 224 255
201 224 255
201 224 255
201 224 255
201 224 255
201 224 255
200 224 255
200 224 255
200 224 255
200 224 255
200 224 255
200 224 255
200 224 255
200 224 255
200 224 255
200 224 255
200 224 255
200 224 255
200 224 255
200 224 255
200 224 255
199 224 255
199 224 255
199 223 255
199 223 255
199 223 255
199 223 255
199 223 255
199 223 255
199 223 255
199 223 255
199 223 255
199 223 255
199 223 255
199 223 255
199 223 255
198 223 255
198 223 255
198 223 255
198 223 255
198 223 255
198 223 255
198 223 255
198 223 255
198 223 255
198 223 255
198 223 255
198 223 255
198 223 255
198 223 255
198 223 255
198 223 255
198 223 255
197 223 255
197 222 255
197 222 255
197 222 255
197 222 255
197 222 255
197 222 255
197 222 255
197 222 255
197 222 255
197 222 255
197 222 255
197 222 255
197 222 255
197 222 255
197 222 255
197 222 255
197 222 255
197 222 255
197 222 255
197 222 255
197 222 255
196 222 255
196 222 255
196 222 255
196 222 255
196 222 255
196 222 255
196 222 255
196 222 255
196 222 255
196 222 255
196 222 255
196 222 255
196 222 255
196 222 255
196 222 255
196 222 255
196 222 255
196 222 255
196 222 255
196 222 255
196 222 255
196 222 255
196 222 255
196 222 255
196 222 255
196 222 255
196 222 255
196 222 255
196 222 255
196 222 255
196 222 255
196 222 255
196 222 255
196 222 255
196 222 255
196 222 255
196 222 255
196 222 255
196 222 255
196 222 255
196 222 255
196 222 255
196 222 255
196 222 255
196 222 255
196 222 255
196 222 255
196 222 255
196 222 255
196 222 255
196 222 255
196 222 255
196 222 255
196 222 255
196 222 255
196 222 255
196 222 255
196 222 255
196 222 255
196 222 255
196 222 255
196 222 255
197 222 255
197 222 255
197 222 255
197 222 255
197 222 255
197 222 255
197 222 255
197 222 255
197 222 255
197 222 255
197 222 255
197 222 255
197 222 255
197 222 255
197 222 255
197 222 255
197 222 255
197 222 255
197 222 255
197 222 255
197 222 255
197 223 255
198 223 255
198 223 255
198 223 255
198 223 255
198 223 255
198 223 255
198 223 255
198 223 255
198 223 255
198 223 255
198 223 255
198 223 255
198 223 255
198 223 255
198 223 255
198 223 255
198 223 255
199 223 255
199 223 255
199 223 255
199 223 255
199 223 255
199 223 255
199 223 255
199 223 255
199 223 255
199 223 255
199 223 255
199 223 255
199 223 255
199 224 255
199 224 255
200 224 255
200 224 255
200 224 255
200 224 255
200 224 255
200 224 255
200 224 255
200 224 255
200 224 255
200 224 255
200 224 255
200 224 255
200 224 255
200 224 255
200 224 255
201 224 255
201 224 255
201 224 255
201 224 255
201 224 255
201 224 255
201 224 255
201 224 255
201 224 255
201 224 255
201 225 255
201 225 255
201 225 255
201 225 255
202 225 255
202 225 255
202 225 255
202 225 255
202 225 255
202 225 255
202 225 255
202 225 255
202 225 255
202 225 255
202 225 255
202 225 255
202 225 255
202 225 255
202 225 255
203 225 255
203 225 255
203 225 255
203 225 255
203 225 255
203 225 255
203 225 255
203 225 255
203 225 255
203 226 255
203 226 255
203 226 255
203 226 255
203 226 255
203 226 255
203 226 255
204 226 255
204 226 255
204 226 255
204 226 255
204 226 255
204 226 255
204 226 255
204 226 255
204 226 255
204 226 255
204 226 255
204 226 255
204 226 255
204 226 255
204 226 255
204 226 255
205 226 255
205 226 255
205 226 255
205 226 255
205 226 255
205 226 255
205 226 255
205 227 255
205 227 255
205 227 255
205 227 255
205 227 255
205 227 255
205 227 255
205 227 255
205 227 255
205 227 255
205 227 255
206 227 255
206 227 255
206 227 255
206 227 255
206 227 255
206 227 255
206 227 255
206 227 255
206 227 255
206 227 255
206 227 255
206 227 255
206 227 255
206 227 255
206 227 255
206 227 255
206 227 255
206 227 255
206 227 255
207 227 255
207 227 255
207 227 255
207 227 255
207 227 255
207 227 255
207 227 255
206 227 255
206 227 255
206 227 255
206 227 255
206 227 255
206 227 255
206 227 255
206 227 255
206 227 255
206 227 255
206 227 255
206 227 255
206 227 255
206 227 255
206 227 255
206 227 255
206 227 255
206 227 255
206 227 255
205 227 255
205 227 255
205 227 255
205 227 255
205 227 255
205 227 255
205 227 255
205 227 255
205 227 255
205 227 255
205 226 255
205 226 255
205 226 255
205 226 255
205 226 255
205 226 255
205 226 255
204 226 255
204 226 255
204 226 255
204 226 255
204 226 255
204 226 255
204 226 255
204 226 255
204 226 255
204 226 255
204 226 255
204 226 255
204 226 255
204 226 255
204 226 255
204 226 255
204 226 255
203 226 255
203 226 255
203 226 255
203 226 255
203 226 255
203 226 255
203 226 255
203 225 255
203 225 255
203 225 255
203 225 255
203 225 255
203 225 255
203 225 255
203 225 255
202 225 255
202 225 255
202 225 255
202 225 255
202 225 255
202 225 255
202 225 255
202 225 255
202 225 255
202 225 255
202 225 255
202 225 255
202 225 255
202 225 255
202 225 255
201 225 255
201 225 255
201 225 255
201 225 255
201 224 255
201 224 255
201 224 255
201 224 255
201 224 255
201 224 255
201 224 255
201 224 255
201 224 255
201 224 255
201 224 255
200 224 255
200 224 255
200 224 255
200 224 255
200 224 255
200 224 255
200 224 255
200 224 255
200 224 255
200 224 255
200 224 255
200 224 255
200 224 255
200 224 255
199 224 255
199 224 255
199 224 255
199 223 255
199 223 255
199 223 255
199 223 255
199 223 255
199 223 255
199 223 255
199 223 255
199 223 255
199 223 255
199 223 255
199 223 255
199 223 255
198 223 255
198 223 255
198 223 255
198 223 255
198 223 255
198 223 255
198 223 255
198 223 255
198 223 255
198 223 255
198 223 255
198 223 255
198 223 255
198 223 255
198 223 255
198 223 255
198 223 255
197 223 255
197 222 255
197 222 255
197 222 255
197 222 255
197 222 255
197 222 255
197 222 255
197 222 255
197 222 255
197 222 255
197 222 255
197 222 255
197 222 255
197 222 255
197 222 255
197 222 255
197 222 255
197 222 255
197 222 255
197 222 255
197 222 255
197 222 255
197 222 255
196 222 255
196 222 255
196 222 255
196 222 255
196 222 255
196 222 255
196 222 255
196 222 255
196 222 255
196 222 255
196 222 255
196 222 255
196 222 255
196 222 255
196 222 255
196 222 255
196 222 255
196 222 255
196 222 255
196 222 255
196 222 255
196 222 255
196 222 255
196 222 255
196 222 255
196 222 255
196 222 255
196 222 255
196 222 255
196 222 255
196 222 255
196 222 255
196 222 255
196 222 255
196 222 255
196 222 255
196 222 255
196 222 255
196 222 255
196 222 255
196 222 255
196 222 255
196 222 255
196 222 255
196 222 255
196 222 255
196 222 255
196 222 255
196 222 255
196 222 255
196 222 255
196 222 255
197 222 255
197 222 255
197 222 255
197 222 255
197 222 255
197 222 255
197 222 255
197 222 255
197 222 255
197 222 255
197 222 255
197 222 255
197 222 255
197 222 255
197 222 255
197 222 255
197 222 255
197 222 255
197 222 255
197 222 255
197 222 255
197 222 255
197 222 255
197 223 255
198 223 255
198 223 255
198 223 255
198 223 255
198 223 255
198 223 255
198 223 255
198 223 255
198 223 255
198 223 255
198 223 255
198 223 255
198 223 255
198 223 255
198 223 255
198 223 255
198 223 255
199 223 255
199 223 255
199 223 255
199 223 255
199 223 255
199 223 255
199 223 255
199 223 255
199 223 255
199 223 255
199 223 255
199 223 255
199 223 255
199 224 255
199 224 255
199 224 255
200 224 255
200 224 255
200 224 255
200 224 255
200 224 255
200 224 255
200 224 255
200 224 255
200 224 255
200 224 255
200 224 255
200 224 255
200 224 255
200 224 255
201 224 255
201 224 255
201 224 255
201 224 255
201 224 255
201 224 255
201 224 255
201 224 255
201 224 255
201 224 255
201 224 255
201 225 255
201 225 255
201 225 255
201 225 255
202 225 255
202 225 255
202 225 255
202 225 255
202 225 255
202 225 255
202 225 255
202 225 255
202 225 255
202 225 255
202 225 255
202 225 255
202 225 255
202 225 255
202 225 255
203 225 255
203 225 255
203 225 255
203 225 255
203 225 255
203 225 255
203 225 255
203 225 255
203 226 255
203 226 255
203 226 255
203 226 255
203 226 255
203 226 255
203 226 255
204 226 255
204 226 255
204 226 255
204 226 255
204 226 255
204 226 255
204 226 255
204 226 255
204 226 255
204 226 255
204 226 255
204 226 255
204 226 255
204 226 255
204 226 255
204 226 255
204 226 255
205 226 255
205 226 255
205 226 255
205 226 255
205 226 255
205 226 255
205 226 255
205 227 255
205 227 255
205 227 255
205 227 255
205 227 255
205 227 255
205 227 255
205 227 255
205 227 255
205 227 255
206 227 255
206 227 255
206 227 255
206 227 255
206 227 255
206 227 255
206 227 255
206 227 255
206 227 255
206 227 255
206 227 255
206 227 255
206 227 255
206 227 255
206 227 255
206 227 255
206 227 255
206 227 255
206 227 255
206 227 255
207 227 255
207 227 255
207 227 255
207 227 255
207 228 255
207 228 255
207 228 255
207 227 255
207 227 255
207 227 255
207 227 255
206 227 255
206 227 255
206 227 255
206 227 255
206 227 255
206 227 255
206 227 255
206 227 255
206 227 255
206 227 255
206 227 255
206 227 255
206 227 255
206 227 255
206 227 255
206 227 255
206 227 255
206 227 255
206 227 255
205 227 255
205 227 255
205 227 255
205 227 255
205 227 255
205 227 255
205 227 255
205 227 255
205 227 255
205 227 255
205 227 255
205 226 255
205 226 255
205 226 255
205 226 255
205 226 255
205 226 255
205 226 255
204 226 255
204 226 255
204 226 255
204 226 255
204 226 255
204 226 255
204 226 255
204 226 255
204 226 255
204 226 255
204 226 255
204 226 255
204 226 255
204 226 255
204 226 255
204 226 255
203 226 255
203 226 255
203 226 255
203 226 255
203 226 255
203 226 255
203 226 255
203 225 255
203 225 255
203 225 255
203 225 255
203 225 255
203 225 255
203 225 255
203 225 255
203 225 255
202 225 255
202 225 255
202 225 255
202 225 255
202 225 255
202 225 255
202 225 255
202 225 255
202 225 255
202 225 255
202 225 255
202 225 255
202 225 255
202 225 255
201 225 255
201 225 255
201 225 255
201 225 255
201 225 255
201 224 255
201 224 255
201 224 255
201 224 255
201 224 255
201 224 255
201 224 255
201 224 255
201 224 255
201 224 255
200 224 255
200 224 255
200 224 255
200 224 255
200 224 255
200 224 255
200 224 255
200 224 255
200 224 255
200 224 255
200 224 255
200 224 255
200 224 255
200 224 255
200 224 255
199 224 255
199 224 255
199 223 255
199 223 255
199 223 255
199 223 255
199 223 255
199 223 255
199 223 255
199 223 255
199 223 255
199 223 255
199 223 255
199 223 255
199 223 255
199 223 255
198 223 255
198 223 255
198 223 255
198 223 255
198 223 255
198 223 255
198 223 255
198 223 255
198 223 255
198 223 255
198 223 255
198 223 255
198 223 255
198 223 255
198 223 255
198 223 255
198 223 255
198 223 255
197 222 255
197 222 255
197 222 255
197 222 255
197 222 255
197 222 255
197 222 255
197 222 255
197 222 255
197 222 255
197 222 255
197 222 255
197 222 255
197 222 255
197 222 255
197 222 255
197 222 255
197 222 255
197 222 255
197 222 255
197 222 255
197 222 255
197 222 255
197 222 255
197 222 255
197 222 255
196 222 255
196 222 255
196 222 255
196 222 255
196 222 255
196 222 255
196 222 255
196 222 255
196 222 255
196 222 255
196 222 255
196 222 255
196 222 255
196 222 255
196 222 255
196 222 255
196 222 255
196 222 255
196 222 255
196 222 255
196 222 255
196 222 255
196 222 255
196 222 255
196 222 255
196 222 255
196 222 255
196 222 255
196 222 255
196 222 255
196 222 255
196 222 255
196 222 255
196 222 255
196 222 255
196 222 255
196 222 255
196 222 255
196 222 255
196 222 255
197 222 255
197 222 255
197 222 255
197 222 255
197 222 255
197 222 255
197 222 255
197 222 255
197 222 255
197 222 255
197 222 255
197 222 255
197 222 255
197 222 255
197 222 255
197 222 255
197 222 255
197 222 255
197 222 255
197 222 255
197 222 255
197 222 255
197 222 255
197 222 255
197 222 255
197 222 255
198 223 255
198 223 255
198 223 255
198 223 255
198 223 255
198 223 255
198 223 255
198 223 255
198 223 255
198 223 255
198 223 255
198 223 255
198 223 255
198 223 255
198 223 255
198 223 255
198 223 255
198 223 255
199 223 255
199 223 255
199 223 255
199 223 255
199 223 255
199 223 255
199 223 255
199 223 255
199 223 255
199 223 255
199 223 255
199 223 255
199 223 255
199 223 255
199 224 255
199 224 255
200 224 255
200 224 255
200 224 255
200 224 255
200 224 255
200 224 255
200 224 255
200 224 255
200 224 255
200 224 255
200 224 255
200 224 255
200 224 255
200 224 255
200 224 255
201 224 255
201 224 255
201 224 255
201 224 255
201 224 255
201 224 255
201 224 255
201 224 255
201 224 255
201 224 255
201 225 255
201 225 255
201 225 255
201 225 255
201 225 255
202 225 255
202 225 255
202 225 255
202 225 255
202 225 255
202 225 255
202 225 255
202 225 255
202 225 255
202 225 255
202 225 255
202 225 255
202 225 255
202 225 255
203 225 255
203 225 255
203 225 255
203 225 255
203 225 255
203 225 255
203 225 255
203 225 255
203 225 255
203 226 255
203 226 255
203 226 255
203 226 255
203 226 255
203 226 255
203 226 255
204 226 255
204 226 255
204 226 255
204 226 255
204 226 255
204 226 255
204 226 255
204 226 255
204 226 255
204 226 255
204 226 255
204 226 255
204 226 255
204 226 255
204 226 255
204 226 255
205 226 255
205 226 255
205 226 255
205 226 255
205 226 255
205 226 255
205 226 255
205 227 255
205 227 255
205 227 255
205 227 255
205 227 255
205 227 255
205 227 255
205 227 255
205 227 255
205 227 255
205 227 255
206 227 255
206 227 255
206 227 255
206 227 255
206 227 255
206 227 255
206 227 255
206 227 255
206 227 255
206 227 255
206 227 255
206 227 255
206 227 255
206 227 255
206 227 255
206 227 255
206 227 255
206 227 255
206 227 255
207 227 255
207 227 255
207 227 255
207 227 255
207 228 255
207 228 255
207 228 255
207 228 255
207 228 255
207 228 255
207 228 255
207 228 255
207 227 255
207 227 255
207 227 255
207 227 255
207 227 255
206 227 255
206 227 255
206 227 255
206 227 255
206 227 255
206 227 255
206 227 255
206 227 255
206 227 255
206 227 255
206 227 255
206 227 255
206 227 255
206 227 255
206 227 255
206 227 255
206 227 255
206 227 255
206 227 255
205 227 255
205 227 255
205 227 255
205 227 255
205 227 255
205 227 255
205 227 255
205 227 255
205 227 255
205 227 255
205 226 255
205 226 255
205 226 255
205 226 255
205 226 255
205 226 255
205 226 255
204 226 255
204 226 255
204 226 255
204 226 255
204 226 255
204 226 255
204 226 255
204 226 255
204 226 255
204 226 255
204 226 255
204 226 255
204 226 255
204 226 255
204 226 255
204 226 255
204 226 255
203 226 255
203 226 255
203 226 255
203 226 255
203 226 255
203 226 255
203 225 255
203 225 255
203 225 255
203 225 255
203 225 255
203 225 255
203 225 255
203 225 255
203 225 255
202 225 255
202 225 255
202 225 255
202 225 255
202 225 255
202 225 255
202 225 255
202 225 255
202 225 255
202 225 255
202 225 255
202 225 255
202 225 255
202 225 255
202 225 255
201 225 255
201 225 255
201 225 255
201 225 255
201 224 255
201 224 255
201 224 255
201 224 255
201 224 255
201 224 255
201 224 255
201 224 255
201 224 255
201 224 255
200 224 255
200 224 255
200 224 255
200 224 255
200 224 255
200 224 255
200 224 255
200 224 255
200 224 255
200 224 255
200 224 255
200 224 255
200 224 255
200 224 255
200 224 255
200 224 255
199 224 255
199 224 255
199 223 255
199 223 255
199 223 255
199 223 255
199 223 255
199 223 255
199 223 255
199 223 255
199 223 255
199 223 255
199 223 255
199 223 255
199 223 255
198 223 255
198 223 255
198 223 255
198 223 255
198 223 255
198 223 255
198 223 255
198 223 255
198 223 255
198 223 255
198 223 255
198 223 255
198 223 255
198 223 255
198 223 255
198 223 255
198 223 255
198 223 255
198 223 255
197 223 255
197 222 255
197 222 255
197 222 255
197 222 255
197 222 255
197 222 255
197 222 255
197 222 255
197 222 255
197 222 255
197 222 255
197 222 255
197 222 255
197 222 255
197 222 255
197 222 255
197 222 255
197 222 255
197 222 255
197 222 255
197 222 255
197 222 255
197 222 255
197 222 255
197 222 255
197 222 255
197 222 255
197 222 255
197 222 255
197 222 255
197 222 255
196 222 255
196 222 255
196 222 255
196 222 255
196 222 255
196 222 255
196 222 255
196 222 255
196 222 255
196 222 255
196 222 255
196 222 255
196 222 255
196 222 255
196 222 255
196 222 255
196 222 255
196 222 255
196 222 255
196 222 255
196 222 255
196 222 255
197 222 255
197 222 255
197 222 255
197 222 255
197 222 255
197 222 255
197 222 255
197 222 255
197 222 255
197 222 255
197 222 255
197 222 255
197 222 255
197 222 255
197 222 255
197 222 255
197 222 255
197 222 255
197 222 255
197 222 255
197 222 255
197 222 255
197 222 255
197 222 255
197 222 255
197 222 255
197 222 255
197 222 255
197 222 255
197 222 255
197 222 255
197 223 255
198 223 255
198 223 255
198 223 255
198 223 255
198 223 255
198 223 255
198 223 255
198 223 255
198 223 255
198 223 255
198 223 255
198 223 255
198 223 255
198 223 255
198 223 255
198 223 255
198 223 255
198 223 255
199 223 255
199 223 255
199 223 255
199 223 255
199 223 255
199 223 255
199 223 255
199 223 255
199 223 255
199 223 255
199 223 255
199 223 255
199 223 255
199 223 255
199 224 255
199 224 255
199 224 255
200 224 255
200 224 255
200 224 255
200 224 255
200 224 255
200 224 255
200 224 255
200 224 255
200 224 255
200 224 255
200 224 255
200 224 255
200 224 255
200 224 255
201 224 255
201 224 255
201 224 255
201 224 255
201 224 255
201 224 255
201 224 255
201 224 255
201 224 255
201 224 255
201 224 255
201 225 255
201 225 255
201 225 255
201 225 255
202 225 255
202 225 255
202 225 255
202 225 255
202 225 255
202 225 255
202 225 255
202 225 255
202 225 255
202 225 255
202 225 255
202 225 255
202 225 255
202 225 255
202 225 255
203 225 255
203 225 255
203 225 255
203 225 255
203 225 255
203 225 255
203 225 255
203 225 255
203 225 255
203 226 255
203 226 255
203 226 255
203 226 255
203 226 255
203 226 255
204 226 255
204 226 255
204 226 255
204 226 255
204 226 255
204 226 255
204 226 255
204 226 255
204 226 255
204 226 255
204 226 255
204 226 255
204 226 255
204 226 255
204 226 255
204 226 255
204 226 255
205 226 255
205 226 255
205 226 255
205 226 255
205 226 255
205 226 255
205 227 255
205 227 255
205 227 255
205 227 255
205 227 255
205 227 255
205 227 255
205 227 255
205 227 255
205 227 255
205 227 255
206 227 255
206 227 255
206 227 255
206 227 255
206 227 255
206 227 255
206 227 255
206 227 255
206 227 255
206 227 255
206 227 255
206 227 255
206 227 255
206 227 255
206 227 255
206 227 255
206 227 255
206 227 255
206 227 255
207 227 255
207 227 255
207 227 255
207 227 255
207 227 255
207 228 255
207 228 255
207 228 255
207 228 255
207 228 255
207 228 255
207 228 255
207 228 255
207 228 255
207 228 255
207 228 255
207 228 255
207 228 255
207 227 255
207 227 255
207 227 255
207 227 255
207 227 255
206 227 255
206 227 255
206 227 255
206 227 255
206 227 255
206 227 255
206 227 255
206 227 255
206 227 255
206 227 255
206 227 255
206 227 255
206 227 255
206 227 255
206 227 255
206 227 255
206 227 255
206 227 255
206 227 255
205 227 255
205 227 255
205 227 255
205 227 255
205 227 255
205 227 255
205 227 255
205 227 255
205 227 255
205 227 255
205 226 255
205 226 255
205 226 255
205 226 255
205 226 255
205 226 255
205 226 255
204 226 255
204 226 255
204 226 255
204 226 255
204 226 255
204 226 255
204 226 255
204 226 255
204 226 255
204 226 255
204 226 255
204 226 255
204 226 255
204 226 255
204 226 255
204 226 255
203 226 255
203 226 255
203 226 255
203 226 255
203 226 255
203 226 255
203 226 255
203 225 255
203 225 255
203 225 255
203 225 255
203 225 255
203 225 255
203 225 255
203 225 255
202 225 255
202 225 255
202 225 255
202 225 255
202 225 255
202 225 255
202 225 255
202 225 255
202 225 255
202 225 255
202 225 255
202 225 255
202 225 255
202 225 255
202 225 255
201 225 255
201 225 255
201 225 255
201 225 255
201 225 255
201 224 255
201 224 255
201 224 255
201 224 255
201 224 255
201 224 255
201 224 255
201 224 255
201 224 255
201 224 255
200 224 255
200 224 255
200 224 255
200 224 255
200 224 255
200 224 255
200 224 255
200 224 255
200 224 255
200 224 255
200 224 255
200 224 255
200 224 255
200 224 255
200 224 255
199 224 255
199 224 255
199 224 255
199 223 255
199 223 255
199 223 255
199 223 255
199 223 255
199 223 255
199 223 255
199 223 255
199 223 255
199 223 255
199 223 255
199 223 255
199 223 255
198 223 255
198 223 255
198 223 255
198 223 255
198 223 255
198 223 255
198 223 255
198 223 255
198 223 255
198 223 255
198 223 255
198 223 255
198 223 255
198 223 255
198 223 255
198 223 255
198 223 255
198 223 255
198 223 255
198 223 255
197 223 255
197 222 255
197 222 255
197 222 255
197 222 255
197 222 255
197 222 255
197 222 255
197 222 255
197 222 255
197 222 255
197 222 255
197 222 255
197 222 255
197 222 255
197 222 255
197 222 255
197 222 255
197 222 255
197 222 255
197 222 255
197 222 255
197 222 255
197 222 255
197 222 255
197 222 255
197 222 255
197 222 255
197 222 255
197 222 255
197 222 255
197 222 255
197 222 255
197 222 255
197 222 255
197 222 255
197 222 255
197 222 255
197 222 255
197 222 255
197 222 255
197 222 255
197 222 255
197 222 255
197 222 255
197 222 255
197 222 255
197 222 255
197 222 255
197 222 255
197 222 255
197 222 255
197 222 255
197 222 255
197 222 255
197 222 255
197 222 255
197 222 255
197 222 255
197 222 255
197 222 255
197 222 255
197 222 255
197 222 255
197 222 255
197 222 255
197 222 255
197 222 255
197 222 255
197 222 255
197 222 255
197 222 255
197 222 255
197 222 255
197 222 255
197 222 255
197 222 255
197 223 255
198 223 255
198 223 255
198 223 255
198 223 255
198 223 255
198 223 255
198 223 255
198 223 255
198 223 255
198 223 255
198 223 255
198 223 255
198 223 255
198 223 255
198 223 255
198 223 255
198 223 255
198 223 255
198 223 255
198 223 255
199 223 255
199 223 255
199 223 255
199 223 255
199 223 255
199 223 255
199 223 255
199 223 255
199 223 255
199 223 255
199 223 255
199 223 255
199 223 255
199 224 255
199 224 255
199 224 255
200 224 255
200 224 255
200 224 255
200 224 255
200 224 255
200 224 255
200 224 255
200 224 255
200 224 255
200 224 255
200 224 255
200 224 255
200 224 255
200 224 255
200 224 255
201 224 255
201 224 255
201 224 255
201 224 255
201 224 255
201 224 255
201 224 255
201 224 255
201 224 255
201 224 255
201 225 255
201 225 255
201 225 255
201 225 255
201 225 255
202 225 255
202 225 255
202 225 255
202 225 255
202 225 255
202 225 255
202 225 255
202 225 255
202 225 255
202 225 255
202 225 255
202 225 255
202 225 255
202 225 255
203 225 255
203 225 255
203 225 255
203 225 255
203 225 255
203 225 255
203 225 255
203 225 255
203 225 255
203 226 255
203 226 255
203 226 255
203 226 255
203 226 255
203 226 255
203 226 255
204 226 255
204 226 255
204 226 255
204 226 255
204 226 255
204 226 255
204 226 255
204 226 255
204 226 255
204 226 255
204 226 255
204 226 255
204 226 255
204 226 255
204 226 255
204 226 255
205 226 255
205 226 255
205 226 255
205 226 255
205 226 255
205 226 255
205 226 255
205 227 255
205 227 255
205 227 255
205 227 255
205 227 255
205 227 255
205 227 255
205 227 255
205 227 255
205 227 255
206 227 255
206 227 255
206 227 255
206 227 255
206 227 255
206 227 255
206 227 255
206 227 255
206 227 255
206 227 255
206 227 255
206 227 255
206 227 255
206 227 255
206 227 255
206 227 255
206 227 255
206 227 255
206 227 255
207 227 255
207 227 255
207 227 255
207 227 255
207 227 255
207 228 255
207 228 255
207 228 255
207 228 255
207 228 255
207 228 255
207 228 255
207 228 255
207 228 255
207 228 255
207 228 255
207 228 255
207 228 255
207 228 255
207 228 255
207 228 255
207 228 255
207 228 255
207 228 255
207 227 255
207 227 255
207 227 255
207 227 255
207 227 255
206 227 255
206 227 255
206 227 255
206 227 255
206 227 255
206 227 255
206 227 255
206 227 255
206 227 255
206 227 255
206 227 255
206 227 255
206 227 255
206 227 255
206 227 255
206 227 255
206 227 255
206 227 255
205 227 255
205 227 255
205 227 255
205 227 255
205 227 255
205 227 255
205 227 255
205 227 255
205 227 255
205 227 255
205 227 255
205 226 255
205 226 255
205 226 255
205 226 255
205 226 255
205 226 255
204 226 255
204 226 255
204 226 255
204 226 255
204 226 255
204 226 255
204 226 255
204 226 255
204 226 255
204 226 255
204 226 255
204 226 255
204 226 255
204 226 255
204 226 255
204 226 255
204 226 255
203 226 255
203 226 255
203 226 255
203 226 255
203 226 255
203 226 255
203 225 255
203 225 255
203 225 255
203 225 255
203 225 255
203 225 255
203 225 255
203 225 255
203 225 255
202 225 255
202 225 255
202 225 255
202 225 255
202 225 255
202 225 255
202 225 255
202 225 255
202 225 255
202 225 255
202 225 255
202 225 255
202 225 255
202 225 255
202 225 255
201 225 255
201 225 255
201 225 255
201 225 255
201 224 255
201 224 255
201 224 255
201 224 255
201 224 255
201 224 255
201 224 255
201 224 255
201 224 255
201 224 255
201 224 255
200 224 255
200 224 255
200 224 255
200 224 255
200 224 255
200 224 255
200 224 255
200 224 255
200 224 255
200 224 255
200 224 255
200 224 255
200 224 255
200 224 255
200 224 255
199 224 255
199 224 255
199 223 255
199 223 255
199 223 255
199 223 255
199 223 255
199 223 255
199 223 255
199 223 255
199 223 255
199 223 255
199 223 255
199 223 255
199 223 255
199 223 255
198 223 255
198 223 255
198 223 255
198 223 255
198 223 255
198 223 255
198 223 255
198 223 255
198 223 255
198 223 255
198 223 255
198 223 255
198 223 255
198 223 255
198 223 255
198 223 255
198 223 255
198 223 255
198 223 255
198 223 255
198 223 255
197 223 255
197 222 255
197 222 255
197 222 255
197 222 255
197 222 255
197 222 255
197 222 255
197 222 255
197 222 255
197 222 255
197 222 255
197 222 255
197 222 255
197 222 255
197 222 255
197 222 255
197 222 255
197 222 255
197 222 255
197 222 255
197 222 255
197 222 255
197 222 255
197 222 255
197 222 255
197 222 255
197 222 255
197 222 255
197 222 255
197 222 255
197 222 255
197 222 255
197 222 255
197 222 255
197 222 255
197 222 255
197 222 255
197 222 255
197 222 255
197 222 255
197 222 255
197 222 255
197 222 255
197 222 255
197 222 255
197 222 255
197 222 255
197 222 255
197 222 255
197 222 255
197 222 255
197 222 255
197 222 255
197 222 255
197 222 255
197 222 255
197 222 255
197 222 255
197 222 255
197 222 255
197 222 255
197 222 255
197 222 255
197 222 255
197 222 255
197 222 255
197 222 255
197 222 255
197 223 255
198 223 255
198 223 255
198 223 255
198 223 255
198 223 255
198 223 255
198 223 255
198 223 255
198 223 255
198 223 255
198 223 255
198 223 255
198 223 255
198 223 255
198 223 255
198 223 255
198 223 255
198 223 255
198 223 255
198 223 255
198 223 255
199 223 255
199 223 255
199 223 255
199 223 255
199 223 255
199 223 255
199 223 255
199 223 255
199 223 255
199 223 255
199 223 255
199 223 255
199 223 255
199 223 255
199 224 255
199 224 255
200 224 255
200 224 255
200 224 255
200 224 255
200 224 255
200 224 255
200 224 255
200 224 255
200 224 255
200 224 255
200 224 255
200 224 255
200 224 255
200 224 255
200 224 255
201 224 255
201 224 255
201 224 255
201 224 255
201 224 255
201 224 255
201 224 255
201 224 255
201 224 255
201 224 255
201 224 255
201 225 255
201 225 255
201 225 255
201 225 255
202 225 255
202 225 255
202 225 255
202 225 255
202 225 255
202 225 255
202 225 255
202 225 255
202 225 255
202 225 255
202 225 255
202 225 255
202 225 255
202 225 255
202 225 255
203 225 255
203 225 255
203 225 255
203 225 255
203 225 255
203 225 255
203 225 255
203 225 255
203 225 255
203 226 255
203 226 255
203 226 255
203 226 255
203 226 255
203 226 255
204 226 255
204 226 255
204 226 255
204 226 255
204 226 255
204 226 255
204 226 255
204 226 255
204 226 255
204 226 255
204 226 255
204 226 255
204 226 255
204 226 255
204 226 255
204 226 255
205 226 255
205 226 255
205 226 255
205 226 255
205 226 255
205 226 255
205 226 255
205 227 255
205 227 255
205 227 255
205 227 255
205 227 255
205 227 255
205 227 255
205 227 255
205 227 255
205 227 255
205 227 255
206 227 255
206 227 255
206 227 255
206 227 255
206 227 255
206 227 255
206 227 255
206 227 255
206 227 255
206 227 255
206 227 255
206 227 255
206 227 255
206 227 255
206 227 255
206 227 255
206 227 255
206 227 255
207 227 255
207 227 255
207 227 255
207 227 255
207 227 255
207 228 255
207 228 255
207 228 255
207 228 255
207 228 255
207 228 255
207 228 255
207 228 255
207 228 255
207 228 255
207 228 255
207 228 255
207 228 255
207 228 255
207 228 255
207 228 255
207 228 255
207 228 255
207 228 255
207 228 255
207 228 255
207 228 255
207 228 255
207 228 255
207 228 255
207 227 255
207 227 255
207 227 255
207 227 255
206 227 255
206 227 255
206 227 255
206 227 255
206 227 255
206 227 255
206 227 255
206 227 255
206 227 255
206 227 255
206 227 255
206 227 255
206 227 255
206 227 255
206 227 255
206 227 255
206 227 255
206 227 255
206 227 255
205 227 255
205 227 255
205 227 255
205 227 255
205 227 255
205 227 255
205 227 255
205 227 255
205 227 255
205 227 255
205 226 255
205 226 255
205 226 255
205 226 255
205 226 255
205 226 255
205 226 255
204 226 255
204 226 255
204 226 255
204 226 255
204 226 255
204 226 255
204 226 255
204 226 255
204 226 255
204 226 255
204 226 255
204 226 255
204 226 255
204 226 255
204 226 255
204 226 255
203 226 255
203 226 255
203 226 255
203 226 255
203 226 255
203 226 255
203 226 255
203 225 255
203 225 255
203 225 255
203 225 255
203 225 255
203 225 255
203 225 255
203 225 255
202 225 255
202 225 255
202 225 255
202 225 255
202 225 255
202 225 255
202 225 255
202 225 255
202 225 255
202 225 255
202 225 255
202 225 255
202 225 255
202 225 255
202 225 255
201 225 255
201 225 255
201 225 255
201 225 255
201 225 255
201 224 255
201 224 255
201 224 255
201 224 255
201 224 255
201 224 255
201 224 255
201 224 255
201 224 255
201 224 255
200 224 255
200 224 255
200 224 255
200 224 255
200 224 255
200 224 255
200 224 255
200 224 255
200 224 255
200 224 255
200 224 255
200 224 255
200 224 255
200 224 255
200 224 255
200 224 255
199 224 255
199 224 255
199 223 255
199 223 255
199 223 255
199 223 255
199 223 255
199 223 255
199 223 255
199 223 255
199 223 255
199 223 255
199 223 255
199 223 255
199 223 255
199 223 255
199 223 255
198 223 255
198 223 255
198 223 255
198 223 255
198 223 255
198 223 255
198 223 255
198 223 255
198 223 255
198 223 255
198 223 255
198 223 255
198 223 255
198 223 255
198 223 255
198 223 255
198 223 255
198 223 255
198 223 255
198 223 255
198 223 255
198 223 255
197 223 255
197 222 255
197 222 255
197 222 255
197 222 255
197 222 255
197 222 255
197 222 255
197 222 255
197 222 255
197 222 255
197 222 255
197 222 255
197 222 255
197 222 255
197 222 255
197 222 255
197 222 255
197 222 255
197 222 255
197 222 255
197 222 255
197 222 255
197 222 255
197 222 255
197 222 255
197 222 255
197 222 255
197 222 255
197 222 255
197 222 255
197 222 255
197 222 255
197 222 255
197 222 255
197 222 255
197 222 255
197 222 255
197 222 255
197 222 255
197 222 255
197 222 255
197 222 255
197 222 255
197 222 255
197 222 255
197 222 255
197 222 255
197 222 255
197 222 255
197 222 255
197 222 255
197 222 255
197 222 255
197 222 255
197 222 255
197 222 255
197 222 255
197 222 255
197 223 255
198 223 255
198 223 255
198 223 255
198 223 255
198 223 255
198 223 255
198 223 255
198 223 255
198 223 255
198 223 255
198 223 255
198 223 255
198 223 255
198 223 255
198 223 255
198 223 255
198 223 255
198 223 255
198 223 255
198 223 255
198 223 255
198 223 255
199 223 255
199 223 255
199 223 255
199 223 255
199 223 255
199 223 255
199 223 255
199 223 255
199 223 255
199 223 255
199 223 255
199 223 255
199 223 255
199 223 255
199 223 255
199 224 255
199 224 255
200 224 255
200 224 255
200 224 255
200 224 255
200 224 255
200 224 255
200 224 255
200 224 255
200 224 255
200 224 255
200 224 255
200 224 255
200 224 255
200 224 255
200 224 255
200 224 255
201 224 255
201 224 255
201 224 255
201 224 255
201 224 255
201 224 255
201 224 255
201 224 255
201 224 255
201 224 255
201 225 255
201 225 255
201 225 255
201 225 255
201 225 255
202 225 255
202 225 255
202 225 255
202 225 255
202 225 255
202 225 255
202 225 255
202 225 255
202 225 255
202 225 255
202 225 255
202 225 255
202 225 255
202 225 255
202 225 255
203 225 255
203 225 255
203 225 255
203 225 255
203 225 255
203 225 255
203 225 255
203 225 255
203 226 255
203 226 255
203 226 255
203 226 255
203 226 255
203 226 255
203 226 255
204 226 255
204 226 255
204 226 255
204 226 255
204 226 255
204 226 255
204 226 255
204 226 255
204 226 255
204 226 255
204 226 255
204 226 255
204 226 255
204 226 255
204 226 255
204 226 255
205 226 255
205 226 255
205 226 255
205 226 255
205 226 255
205 226 255
205 226 255
205 227 255
205 227 255
205 227 255
205 227 255
205 227 255
205 227 255
205 227 255
205 227 255
205 227 255
205 227 255
206 227 255
206 227 255
206 227 255
206 227 255
206 227 255
206 227 255
206 227 255
206 227 255
206 227 255
206 227 255
206 227 255
206 227 255
206 227 255
206 227 255
206 227 255
206 227 255
206 227 255
206 227 255
206 227 255
207 227 255
207 227 255
207 227 255
207 227 255
207 228 255
207 228 255
207 228 255
207 228 255
207 228 255
207 228 255
207 228 255
207 228 255
207 228 255
207 228 255
207 228 255
207 228 255
207 228 255
207 228 255
208 228 255
207 228 255
207 228 255
207 228 255
207 228 255
207 228 255
207 228 255
207 228 255
207 228 255
207 228 255
207 228 255
207 228 255
207 228 255
207 228 255
207 228 255
207 228 255
207 228 255
207 227 255
207 227 255
207 227 255
207 227 255
206 227 255
206 227 255
206 227 255
206 227 255
206 227 255
206 227 255
206 227 255
206 227 255
206 227 255
206 227 255
206 227 255
206 227 255
206 227 255
206 227 255
206 227 255
206 227 255
206 227 255
206 227 255
206 227 255
205 227 255
205 227 255
205 227 255
205 227 255
205 227 255
205 227 255
205 227 255
205 227 255
205 227 255
205 227 255
205 226 255
205 226 255
205 226 255
205 226 255
205 226 255
205 226 255
205 226 255
204 226 255
204 226 255
204 226 255
204 226 255
204 226 255
204 226 255
204 226 255
204 226 255
204 226 255
204 226 255
204 226 255
204 226 255
204 226 255
204 226 255
204 226 255
204 226 255
203 226 255
203 226 255
203 226 255
203 226 255
203 226 255
203 226 255
203 226 255
203 225 255
203 225 255
203 225 255
203 225 255
203 225 255
203 225 255
203 225 255
203 225 255
202 225 255
202 225 255
202 225 255
202 225 255
202 225 255
202 225 255
202 225 255
202 225 255
202 225 255
202 225 255
202 225 255
202 225 255
202 225 255
202 225 255
202 225 255
201 225 255
201 225 255
201 225 255
201 225 255
201 224 255
201 224 255
201 224 255
201 224 255
201 224 255
201 224 255
201 224 255
201 224 255
201 224 255
201 224 255
201 224 255
200 224 255
200 224 255
200 224 255
200 224 255
200 224 255
200 224 255
200 224 255
200 224 255
200 224 255
200 224 255
200 224 255
200 224 255
200 224 255
200 224 255
200 224 255
199 224 255
199 224 255
199 224 255
199 223 255
199 223 255
199 223 255
199 223 255
199 223 255
199 223 255
199 223 255
199 223 255
199 223 255
199 223 255
199 223 255
199 223 255
199 223 255
199 223 255
199 223 255
198 223 255
198 223 255
198 223 255
198 223 255
198 223 255
198 223 255
198 223 255
198 223 255
198 223 255
198 223 255
198 223 255
198 223 255
198 223 255
198 223 255
198 223 255
198 223 255
198 223 255
198 223 255
198 223 255
198 223 255
198 223 255
198 223 255
198 223 255
198 223 255
198 223 255
197 222 255
197 222 255
197 222 255
197 222 255
197 222 255
197 222 255
197 222 255
197 222 255
197 222 255
197 222 255
197 222 255
197 222 255
197 222 255
197 222 255
197 222 255
197 222 255
197 222 255
197 222 255
197 222 255
197 222 255
197 222 255
197 222 255
197 222 255
197 222 255
197 222 255
197 222 255
197 222 255
197 222 255
197 222 255
197 222 255
197 222 255
197 222 255
197 222 255
197 222 255
197 222 255
197 222 255
197 222 255
197 222 255
197 222 255
197 222 255
197 222 255
197 222 255
197 222 255
197 222 255
197 222 255
197 222 255
197 222 255
197 223 255
197 223 255
198 223 255
198 223 255
198 223 255
198 223 255
198 223 255
198 223 255
198 223 255
198 223 255
198 223 255
198 223 255
198 223 255
198 223 255
198 223 255
198 223 255
198 223 255
198 223 255
198 223 255
198 223 255
198 223 255
198 223 255
198 223 255
198 223 255
198 223 255
198 223 255
199 223 255
199 223 255
199 223 255
199 223 255
199 223 255
199 223 255
199 223 255
199 223 255
199 223 255
199 223 255
199 223 255
199 223 255
199 223 255
199 223 255
199 223 255
199 224 255
199 224 255
199 224 255
200 224 255
200 224 255
200 224 255
200 224 255
200 224 255
200 224 255
200 224 255
200 224 255
200 224 255
200 224 255
200 224 255
200 224 255
200 224 255
200 224 255
200 224 255
201 224 255
201 224 255
201 224 255
201 224 255
201 224 255
201 224 255
201 224 255
201 224 255
201 224 255
201 224 255
201 224 255
201 225 255
201 225 255
201 225 255
201 225 255
202 225 255
202 225 255
202 225 255
202 225 255
202 225 255
202 225 255
202 225 255
202 225 255
202 225 255
202 225 255
202 225 255
202 225 255
202 225 255
202 225 255
202 225 255
203 225 255
203 225 255
203 225 255
203 225 255
203 225 255
203 225 255
203 225 255
203 225 255
203 225 255
203 226 255
203 226 255
203 226 255
203 226 255
203 226 255
203 226 255
204 226 255
204 226 255
204 226 255
204 226 255
204 226 255
204 226 255
204 226 255
204 226 255
204 226 255
204 226 255
204 226 255
204 226 255
204 226 255
204 226 255
204 226 255
204 226 255
205 226 255
205 226 255
205 226 255
205 226 255
205 226 255
205 226 255
205 226 255
205 227 255
205 227 255
205 227 255
205 227 255
205 227 255
205 227 255
205 227 255
205 227 255
205 227 255
205 227 255
206 227 255
206 227 255
206 227 255
206 227 255
206 227 255
206 227 255
206 227 255
206 227 255
206 227 255
206 227 255
206 227 255
206 227 255
206 227 255
206 227 255
206 227 255
206 227 255
206 227 255
206 227 255
206 227 255
207 227 255
207 227 255
207 227 255
207 227 255
207 228 255
207 228 255
207 228 255
207 228 255
207 228 255
207 228 255
207 228 255
207 228 255
207 228 255
207 228 255
207 228 255
207 228 255
207 228 255
207 228 255
207 228 255
207 228 255
208 228 255
208 228 255
208 228 255
208 228 255
208 228 255
207 228 255
207 228 255
207 228 255
207 228 255
207 228 255
207 228 255
207 228 255
207 228 255
207 228 255
207 228 255
207 228 255
207 228 255
207 228 255
207 228 255
207 228 255
207 228 255
207 227 255
207 227 255
207 227 255
207 227 255
206 227 255
206 227 255
206 227 255
206 227 255
206 227 255
206 227 255
206 227 255
206 227 255
206 227 255
206 227 255
206 227 255
206 227 255
206 227 255
206 227 255
206 227 255
206 227 255
206 227 255
206 227 255
205 227 255
205 227 255
205 227 255
205 227 255
205 227 255
205 227 255
205 227 255
205 227 255
205 227 255
205 227 255
205 227 255
205 226 255
205 226 255
205 226 255
205 226 255
205 226 255
205 226 255
204 226 255
204 226 255
204 226 255
204 226 255
204 226 255
204 226 255
204 226 255
204 226 255
204 226 255
204 226 255
204 226 255
204 226 255
204 226 255
204 226 255
204 226 255
204 226 255
203 226 255
203 226 255
203 226 255
203 226 255
203 226 255
203 226 255
203 226 255
203 225 255
203 225 255
203 225 255
203 225 255
203 225 255
203 225 255
203 225 255
203 225 255
202 225 255
202 225 255
202 225 255
202 225 255
202 225 255
202 225 255
202 225 255
202 225 255
202 225 255
202 225 255
202 225 255
202 225 255
202 225 255
202 225 255
202 225 255
201 225 255
201 225 255
201 225 255
201 225 255
201 225 255
201 224 255
201 224 255
201 224 255
201 224 255
201 224 255
201 224 255
201 224 255
201 224 255
201 224 255
201 224 255
201 224 255
200 224 255
200 224 255
200 224 255
200 224 255
200 224 255
200 224 255
200 224 255
200 224 255
200 224 255
200 224 255
200 224 255
200 224 255
200 224 255
200 224 255
200 224 255
199 224 255
199 224 255
199 224 255
199 223 255
199 223 255
199 223 255
199 223 255
199 223 255
199 223 255
199 223 255
199 223 255
199 223 255
199 223 255
199 223 255
199 223 255
199 223 255
199 223 255
199 223 255
199 223 255
198 223 255
198 223 255
198 223 255
198 223 255
198 223 255
198 223 255
198 223 255
198 223 255
198 223 255
198 223 255
198 223 255
198 223 255
198 223 255
198 223 255
198 223 255
198 223 255
198 223 255
198 223 255
198 223 255
198 223 255
198 223 255
198 223 255
198 223 255
198 223 255
198 223 255
198 223 255
198 223 255
197 223 255
197 223 255
197 222 255
197 222 255
197 222 255
197 222 255
197 222 255
197 222 255
197 222 255
197 222 255
197 222 255
197 222 255
197 222 255
197 222 255
197 222 255
197 222 255
197 222 255
197 222 255
197 222 255
197 222 255
197 222 255
197 222 255
197 222 255
197 222 255
197 222 255
197 222 255
197 222 255
197 222 255
197 222 255
197 222 255
197 222 255
197 222 255
197 222 255
197 222 255
197 223 255
197 223 255
198 223 255
198 223 255
198 223 255
198 223 255
198 223 255
198 223 255
198 223 255
198 223 255
198 223 255
198 223 255
198 223 255
198 223 255
198 223 255
198 223 255
198 223 255
198 223 255
198 223 255
198 223 255
198 223 255
198 223 255
198 223 255
198 223 255
198 223 255
198 223 255
198 223 255
198 223 255
198 223 255
199 223 255
199 223 255
199 223 255
199 223 255
199 223 255
199 223 255
199 223 255
199 223 255
199 223 255
199 223 255
199 223 255
199 223 255
199 223 255
199 223 255
199 223 255
199 223 255
199 224 255
199 224 255
200 224 255
200 224 255
200 224 255
200 224 255
200 224 255
200 224 255
200 224 255
200 224 255
200 224 255
200 224 255
200 224 255
200 224 255
200 224 255
200 224 255
200 224 255
200 224 255
201 224 255
201 224 255
201 224 255
201 224 255
201 224 255
201 224 255
201 224 255
201 224 255
201 224 255
201 224 255
201 224 255
201 225 255
201 225 255
201 225 255
201 225 255
202 225 255
202 225 255
202 225 255
202 225 255
202 225 255
202 225 255
202 225 255
202 225 255
202 225 255
202 225 255
202 225 255
202 225 255
202 225 255
202 225 255
202 225 255
202 225 255
203 225 255
203 225 255
203 225 255
203 225 255
203 225 255
203 225 255
203 225 255
203 225 255
203 226 255
203 226 255
203 226 255
203 226 255
203 226 255
203 226 255
203 226 255
204 226 255
204 226 255
204 226 255
204 226 255
204 226 255
204 226 255
204 226 255
204 226 255
204 226 255
204 226 255
204 226 255
204 226 255
204 226 255
204 226 255
204 226 255
204 226 255
205 226 255
205 226 255
205 226 255
205 226 255
205 226 255
205 226 255
205 227 255
205 227 255
205 227 255
205 227 255
205 227 255
205 227 255
205 227 255
205 227 255
205 227 255
205 227 255
205 227 255
206 227 255
206 227 255
206 227 255
206 227 255
206 227 255
206 227 255
206 227 255
206 227 255
206 227 255
206 227 255
206 227 255
206 227 255
206 227 255
206 227 255
206 227 255
206 227 255
206 227 255
206 227 255
207 227 255
207 227 255
207 227 255
207 227 255
207 227 255
207 228 255
207 228 255
207 228 255
207 228 255
207 228 255
207 228 255
207 228 255
207 228 255
207 228 255
207 228 255
207 228 255
207 228 255
207 228 255
207 228 255
207 228 255
208 228 255
208 228 255
208 228 255
208 228 255
208 228 255
208 228 255
208 228 255
208 228 255
208 228 255
208 228 255
208 228 255
207 228 255
207 228 255
207 228 255
207 228 255
207 228 255
207 228 255
207 228 255
207 228 255
207 228 255
207 228 255
207 228 255
207 228 255
207 228 255
207 228 255
207 228 255
207 227 255
207 227 255
207 227 255
207 227 255
207 227 255
206 227 255
206 227 255
206 227 255
206 227 255
206 227 255
206 227 255
206 227 255
206 227 255
206 227 255
206 227 255
206 227 255
206 227 255
206 227 255
206 227 255
206 227 255
206 227 255
206 227 255
206 227 255
205 227 255
205 227 255
205 227 255
205 227 255
205 227 255
205 227 255
205 227 255
205 227 255
205 227 255
205 227 255
205 226 255
205 226 255
205 226 255
205 226 255
205 226 255
205 226 255
205 226 255
204 226 255
204 226 255
204 226 255
204 226 255
204 226 255
204 226 255
204 226 255
204 226 255
204 226 255
204 226 255
204 226 255
204 226 255
204 226 255
204 226 255
204 226 255
204 226 255
203 226 255
203 226 255
203 226 255
203 226 255
203 226 255
203 226 255
203 226 255
203 225 255
203 225 255
203 225 255
203 225 255
203 225 255
203 225 255
203 225 255
203 225 255
202 225 255
202 225 255
202 225 255
202 225 255
202 225 255
202 225 255
202 225 255
202 225 255
202 225 255
202 225 255
202 225 255
202 225 255
202 225 255
202 225 255
202 225 255
201 225 255
201 225 255
201 225 255
201 225 255
201 225 255
201 224 255
201 224 255
201 224 255
201 224 255
201 224 255
201 224 255
201 224 255
201 224 255
201 224 255
201 224 255
201 224 255
200 224 255
200 224 255
200 224 255
200 224 255
200 224 255
200 224 255
200 224 255
200 224 255
200 224 255
200 224 255
200 224 255
200 224 255
200 224 255
200 224 255
200 224 255
200 224 255
199 224 255
199 224 255
199 223 255
199 223 255
199 223 255
199 223 255
199 223 255
199 223 255
199 223 255
199 223 255
199 223 255
199 223 255
199 223 255
199 223 255
199 223 255
199 223 255
199 223 255
199 223 255
199 223 255
198 223 255
198 223 255
198 223 255
198 223 255
198 223 255
198 223 255
198 223 255
198 223 255
198 223 255
198 223 255
198 223 255
198 223 255
198 223 255
198 223 255
198 223 255
198 223 255
198 223 255
198 223 255
198 223 255
198 223 255
198 223 255
198 223 255
198 223 255
198 223 255
198 223 255
198 223 255
198 223 255
198 223 255
198 223 255
198 223 255
198 223 255
198 223 255
198 223 255
198 223 255
198 223 255
198 223 255
197 223 255
197 223 255
197 223 255
197 223 255
197 223 255
198 223 255
197 223 255
197 223 255
198 223 255
198 223 255
198 223 255
198 223 255
198 223 255
198 223 255
198 223 255
198 223 255
198 223 255
198 223 255
198 223 255
198 223 255
198 223 255
198 223 255
198 223 255
198 223 255
198 223 255
198 223 255
198 223 255
198 223 255
198 223 255
198 223 255
198 223 255
198 223 255
198 223 255
198 223 255
198 223 255
198 223 255
198 223 255
198 223 255
198 223 255
198 223 255
198 223 255
198 223 255
198 223 255
198 223 255
198 223 255
198 223 255
199 223 255
199 223 255
199 223 255
199 223 255
199 223 255
199 223 255
199 223 255
199 223 255
199 223 255
199 223 255
199 223 255
199 223 255
199 223 255
199 223 255
199 223 255
199 223 255
199 223 255
199 224 255
199 224 255
200 224 255
200 224 255
200 224 255
200 224 255
200 224 255
200 224 255
200 224 255
200 224 255
200 224 255
200 224 255
200 224 255
200 224 255
200 224 255
200 224 255
200 224 255
200 224 255
200 224 255
201 224 255
201 224 255
201 224 255
201 224 255
201 224 255
201 224 255
201 224 255
201 224 255
201 224 255
201 224 255
201 225 255
201 225 255
201 225 255
201 225 255
201 225 255
202 225 255
202 225 255
202 225 255
202 225 255
202 225 255
202 225 255
202 225 255
202 225 255
202 225 255
202 225 255
202 225 255
202 225 255
202 225 255
202 225 255
202 225 255
203 225 255
203 225 255
203 225 255
203 225 255
203 225 255
203 225 255
203 225 255
203 225 255
203 226 255
203 226 255
203 226 255
203 226 255
203 226 255
203 226 255
203 226 255
204 226 255
204 226 255
204 226 255
204 226 255
204 226 255
204 226 255
204 226 255
204 226 255
204 226 255
204 226 255
204 226 255
204 226 255
204 226 255
204 226 255
204 226 255
204 226 255
205 226 255
205 226 255
205 226 255
205 226 255
205 226 255
205 226 255
205 226 255
205 227 255
205 227 255
205 227 255
205 227 255
205 227 255
205 227 255
205 227 255
205 227 255
205 227 255
205 227 255
206 227 255
206 227 255
206 227 255
206 227 255
206 227 255
206 227 255
206 227 255
206 227 255
206 227 255
206 227 255
206 227 255
206 227 255
206 227 255
206 227 255
206 227 255
206 227 255
206 227 255
206 227 255
207 227 255
207 227 255
207 227 255
207 227 255
207 227 255
207 228 255
207 228 255
207 228 255
207 228 255
207 228 255
207 228 255
207 228 255
207 228 255
207 228 255
207 228 255
207 228 255
207 228 255
207 228 255
207 228 255
207 228 255
208 228 255
208 228 255
208 228 255
208 228 255
208 228 255
208 228 255
208 228 255
208 228 255
208 228 255
208 228 255
208 228 255
208 228 255
208 228 255
208 228 255
208 228 255
208 228 255
208 228 255
207 228 255
207 228 255
207 228 255
207 228 255
207 228 255
207 228 255
207 228 255
207 228 255
207 228 255
207 228 255
207 228 255
207 228 255
207 228 255
207 228 255
207 228 255
207 227 255
207 227 255
207 227 255
207 227 255
207 227 255
206 227 255
206 227 255
206 227 255
206 227 255
206 227 255
206 227 255
206 227 255
206 227 255
206 227 255
206 227 255
206 227 255
206 227 255
206 227 255
206 227 255
206 227 255
206 227 255
206 227 255
206 227 255
205 227 255
205 227 255
205 227 255
205 227 255
205 227 255
205 227 255
205 227 255
205 227 255
205 227 255
205 227 255
205 226 255
205 226 255
205 226 255
205 226 255
205 226 255
205 226 255
205 226 255
204 226 255
204 226 255
204 226 255
204 226 255
204 226 255
204 226 255
204 226 255
204 226 255
204 226 255
204 226 255
204 226 255
204 226 255
204 226 255
204 226 255
204 226 255
203 226 255
203 226 255
203 226 255
203 226 255
203 226 255
203 226 255
203 226 255
203 225 255
203 225 255
203 225 255
203 225 255
203 225 255
203 225 255
203 225 255
203 225 255
203 225 255
202 225 255
202 225 255
202 225 255
202 225 255
202 225 255
202 225 255
202 225 255
202 225 255
202 225 255
202 225 255
202 225 255
202 225 255
202 225 255
202 225 255
202 225 255
201 225 255
201 225 255
201 225 255
201 225 255
201 224 255
201 224 255
201 224 255
201 224 255
201 224 255
201 224 255
201 224 255
201 224 255
201 224 255
201 224 255
201 224 255
200 224 255
200 224 255
200 224 255
200 224 255
200 224 255
200 224 255
200 224 255
200 224 255
200 224 255
200 224 255
200 224 255
200 224 255
200 224 255
200 224 255
200 224 255
200 224 255
200 224 255
199 224 255
199 224 255
199 224 255
199 223 255
199 223 255
199 223 255
199 223 255
199 223 255
199 223 255
199 223 255
199 223 255
199 223 255
199 223 255
199 223 255
199 223 255
199 223 255
199 223 255
199 223 255
199 223 255
199 223 255
198 223 255
198 223 255
198 223 255
198 223 255
198 223 255
198 223 255
198 223 255
198 223 255
198 223 255
198 223 255
198 223 255
198 223 255
198 223 255
198 223 255
198 223 255
198 223 255
198 223 255
198 223 255
198 223 255
198 223 255
198 223 255
198 223 255
198 223 255
198 223 255
198 223 255
198 223 255
198 223 255
198 223 255
198 223 255
198 223 255
198 223 255
198 223 255
198 223 255
198 223 255
198 223 255
198 223 255
198 223 255
198 223 255
198 223 255
198 223 255
198 223 255
198 223 255
198 223 255
198 223 255
198 223 255
198 223 255
198 223 255
198 223 255
198 223 255
198 223 255
198 223 255
198 223 255
198 223 255
198 223 255
198 223 255
198 223 255
198 223 255
198 223 255
198 223 255
198 223 255
198 223 255
198 223 255
198 223 255
198 223 255
198 223 255
198 223 255
198 223 255
198 223 255
198 223 255
198 223 255
198 223 255
198 223 255
198 223 255
198 223 255
199 223 255
199 223 255
199 223 255
199 223 255
199 223 255
199 223 255
199 223 255
199 223 255
199 223 255
199 223 255
199 223 255
199 223 255
199 223 255
199 223 255
199 223 255
199 223 255
199 223 255
199 224 255
199 224 255
199 224 255
200 224 255
200 224 255
200 224 255
200 224 255
200 224 255
200 224 255
200 224 255
200 224 255
200 224 255
200 224 255
200 224 255
200 224 255
200 224 255
200 224 255
200 224 255
200 224 255
200 224 255
201 224 255
201 224 255
201 224 255
201 224 255
201 224 255
201 224 255
201 224 255
201 224 255
201 224 255
201 224 255
201 224 255
201 225 255
201 225 255
201 225 255
201 225 255
202 225 255
202 225 255
202 225 255
202 225 255
202 225 255
202 225 255
202 225 255
202 225 255
202 225 255
202 225 255
202 225 255
202 225 255
202 225 255
202 225 255
202 225 255
203 225 255
203 225 255
203 225 255
203 225 255
203 225 255
203 225 255
203 225 255
203 225 255
203 225 255
203 226 255
203 226 255
203 226 255
203 226 255
203 226 255
203 226 255
203 226 255
204 226 255
204 226 255
204 226 255
204 226 255
204 226 255
204 226 255
204 226 255
204 226 255
204 226 255
204 226 255
204 226 255
204 226 255
204 226 255
204 226 255
204 226 255
205 226 255
205 226 255
205 226 255
205 226 255
205 226 255
205 226 255
205 226 255
205 227 255
205 227 255
205 227 255
205 227 255
205 227 255
205 227 255
205 227 255
205 227 255
205 227 255
205 227 255
206 227 255
206 227 255
206 227 255
206 227 255
206 227 255
206 227 255
206 227 255
206 227 255
206 227 255
206 227 255
206 227 255
206 227 255
206 227 255
206 227 255
206 227 255
206 227 255
206 227 255
206 227 255
207 227 255
207 227 255
207 227 255
207 227 255
207 227 255
207 228 255
207 228 255
207 228 255
207 228 255
207 228 255
207 228 255
207 228 255
207 228 255
207 228 255
207 228 255
207 228 255
207 228 255
207 228 255
207 228 255
207 228 255
208 228 255
208 228 255
208 228 255
208 228 255
208 228 255
208 228 255
208 228 255
208 228 255
208 228 255
208 228 255
208 228 255
208 228 255
208 228 255
208 228 255
208 228 255
208 228 255
208 228 255
208 228 255
208 228 255
208 228 255
208 228 255
208 228 255
208 228 255
207 228 255
207 228 255
207 228 255
207 228 255
207 228 255
207 228 255
207 228 255
207 228 255
207 228 255
207 228 255
207 228 255
207 228 255
207 228 255
207 228 255
207 228 255
207 227 255
207 227 255
207 227 255
207 227 255
207 227 255
206 227 255
206 227 255
206 227 255
206 227 255
206 227 255
206 227 255
206 227 255
206 227 255
206 227 255
206 227 255
206 227 255
206 227 255
206 227 255
206 227 255
206 227 255
206 227 255
206 227 255
206 227 255
205 227 255
205 227 255
205 227 255
205 227 255
205 227 255
205 227 255
205 227 255
205 227 255
205 227 255
205 227 255
205 226 255
205 226 255
205 226 255
205 226 255
205 226 255
205 226 255
204 226 255
204 226 255
204 226 255
204 226 255
204 226 255
204 226 255
204 226 255
204 226 255
204 226 255
204 226 255
204 226 255
204 226 255
204 226 255
204 226 255
204 226 255
204 226 255
203 226 255
203 226 255
203 226 255
203 226 255
203 226 255
203 226 255
203 226 255
203 225 255
203 225 255
203 225 255
203 225 255
203 225 255
203 225 255
203 225 255
203 225 255
202 225 255
202 225 255
202 225 255
202 225 255
202 225 255
202 225 255
202 225 255
202 225 255
202 225 255
202 225 255
202 225 255
202 225 255
202 225 255
202 225 255
202 225 255
202 225 255
201 225 255
201 225 255
201 225 255
201 225 255
201 224 255
201 224 255
201 224 255
201 224 255
201 224 255
201 224 255
201 224 255
201 224 255
201 224 255
201 224 255
201 224 255
200 224 255
200 224 255
200 224 255
200 224 255
200 224 255
200 224 255
200 224 255
200 224 255
200 224 255
200 224 255
200 224 255
200 224 255
200 224 255
200 224 255
200 224 255
200 224 255
200 224 255
199 224 255
199 224 255
199 224 255
199 223 255
199 223 255
199 223 255
199 223 255
199 223 255
199 223 255
199 223 255
199 223 255
199 223 255
199 223 255
199 223 255
199 223 255
199 223 255
199 223 255
199 223 255
199 223 255
199 223 255
199 223 255
199 223 255
198 223 255
198 223 255
198 223 255
198 223 255
198 223 255
198 223 255
198 223 255
198 223 255
198 223 255
198 223 255
198 223 255
198 223 255
198 223 255
198 223 255
198 223 255
198 223 255
198 223 255
198 223 255
198 223 255
198 223 255
198 223 255
198 223 255
198 223 255
198 223 255
198 223 255
198 223 255
198 223 255
198 223 255
198 223 255
198 223 255
198 223 255
198 223 255
198 223 255
198 223 255
198 223 255
198 223 255
198 223 255
198 223 255
198 223 255
198 223 255
198 223 255
198 223 255
198 223 255
198 223 255
198 223 255
198 223 255
198 223 255
198 223 255
198 223 255
198 223 255
198 223 255
198 223 255
198 223 255
198 223 255
198 223 255
198 223 255
198 223 255
198 223 255
198 223 255
198 223 255
198 223 255
198 223 255
198 223 255
198 223 255
199 223 255
199 223 255
199 223 255
199 223 255
199 223 255
199 223 255
199 223 255
199 223 255
199 223 255
199 223 255
199 223 255
199 223 255
199 223 255
199 223 255
199 223 255
199 223 255
199 223 255
199 223 255
199 223 255
199 224 255
199 224 255
199 224 255
200 224 255
200 224 255
200 224 255
200 224 255
200 224 255
200 224 255
200 224 255
200 224 255
200 224 255
200 224 255
200 224 255
200 224 255
200 224 255
200 224 255
200 224 255
200 224 255
200 224 255
201 224 255
201 224 255
201 224 255
201 224 255
201 224 255
201 224 255
201 224 255
201 224 255
201 224 255
201 224 255
201 224 255
201 225 255
201 225 255
201 225 255
201 225 255
202 225 255
202 225 255
202 225 255
202 225 255
202 225 255
202 225 255
202 225 255
202 225 255
202 225 255
202 225 255
202 225 255
202 225 255
202 225 255
202 225 255
202 225 255
202 225 255
203 225 255
203 225 255
203 225 255
203 225 255
203 225 255
203 225 255
203 225 255
203 225 255
203 226 255
203 226 255
203 226 255
203 226 255
203 226 255
203 226 255
203 226 255
204 226 255
204 226 255
204 226 255
204 226 255
204 226 255
204 226 255
204 226 255
204 226 255
204 226 255
204 226 255
204 226 255
204 226 255
204 226 255
204 226 255
204 226 255
204 226 255
205 226 255
205 226 255
205 226 255
205 226 255
205 226 255
205 226 255
205 227 255
205 227 255
205 227 255
205 227 255
205 227 255
205 227 255
205 227 255
205 227 255
205 227 255
205 227 255
206 227 255
206 227 255
206 227 255
206 227 255
206 227 255
206 227 255
206 227 255
206 227 255
206 227 255
206 227 255
206 227 255
206 227 255
206 227 255
206 227 255
206 227 255
206 227 255
206 227 255
206 227 255
207 227 255
207 227 255
207 227 255
207 227 255
207 227 255
207 228 255
207 228 255
207 228 255
207 228 255
207 228 255
207 228 255
207 228 255
207 228 255
207 228 255
207 228 255
207 228 255
207 228 255
207 228 255
207 228 255
207 228 255
208 228 255
208 228 255
208 228 255
208 228 255
208 228 255
208 228 255
208 228 255
208 228 255
208 228 255
208 228 255
208 228 255
208 228 255
208 228 255
208 228 255
208 228 255
208 228 255
208 228 255
208 228 255
208 228 255
208 228 255
208 228 255
208 228 255
208 228 255
208 228 255
208 228 255
208 228 255
208 228 255
208 228 255
208 228 255
207 228 255
207 228 255
207 228 255
207 228 255
207 228 255
207 228 255
207 228 255
207 228 255
207 228 255
207 228 255
207 228 255
207 228 255
207 228 255
207 228 255
207 228 255
207 227 255
207 227 255
207 227 255
207 227 255
207 227 255
206 227 255
206 227 255
206 227 255
206 227 255
206 227 255
206 227 255
206 227 255
206 227 255
206 227 255
206 227 255
206 227 255
206 227 255
206 227 255
206 227 255
206 227 255
206 227 255
206 227 255
206 227 255
205 227 255
205 227 255
205 227 255
205 227 255
205 227 255
205 227 255
205 227 255
205 227 255
205 227 255
205 226 255
205 226 255
205 226 255
205 226 255
205 226 255
205 226 255
205 226 255
204 226 255
204 226 255
204 226 255
204 226 255
204 226 255
204 226 255
204 226 255
204 226 255
204 226 255
204 226 255
204 226 255
204 226 255
204 226 255
204 226 255
204 226 255
204 226 255
203 226 255
203 226 255
203 226 255
203 226 255
203 226 255
203 226 255
203 226 255
203 225 255
203 225 255
203 225 255
203 225 255
203 225 255
203 225 255
203 225 255
203 225 255
202 225 255
202 225 255
202 225 255
202 225 255
202 225 255
202 225 255
202 225 255
202 225 255
202 225 255
202 225 255
202 225 255
202 225 255
202 225 255
202 225 255
202 225 255
201 225 255
201 225 255
201 225 255
201 225 255
201 225 255
201 224 255
201 224 255
201 224 255
201 224 255
201 224 255
201 224 255
201 224 255
201 224 255
201 224 255
201 224 255
201 224 255
200 224 255
200 224 255
200 224 255
200 224 255
200 224 255
200 224 255
200 224 255
200 224 255
200 224 255
200 224 255
200 224 255
200 224 255
200 224 255
200 224 255
200 224 255
200 224 255
200 224 255
200 224 255
199 224 255
199 224 255
199 224 255
199 223 255
199 223 255
199 223 255
199 223 255
199 223 255
199 223 255
199 223 255
199 223 255
199 223 255
199 223 255
199 223 255
199 223 255
199 223 255
199 223 255
199 223 255
199 223 255
199 223 255
199 223 255
199 223 255
199 223 255
198 223 255
198 223 255
198 223 255
198 223 255
198 223 255
198 223 255
198 223 255
198 223 255
198 223 255
198 223 255
198 223 255
198 223 255
198 223 255
198 223 255
198 223 255
198 223 255
198 223 255
198 223 255
198 223 255
198 223 255
198 223 255
198 223 255
198 223 255
198 223 255
198 223 255
198 223 255
198 223 255
198 223 255
198 223 255
198 223 255
198 223 255
198 223 255
198 223 255
198 223 255
198 223 255
198 223 255
198 223 255
198 223 255
198 223 255
198 223 255
198 223 255
198 223 255
198 223 255
198 223 255
198 223 255
198 223 255
198 223 255
198 223 255
198 223 255
198 223 255
198 223 255
198 223 255
198 223 255
198 223 255
199 223 255
199 223 255
199 223 255
199 223 255
199 223 255
199 223 255
199 223 255
199 223 255
199 223 255
199 223 255
199 223 255
199 223 255
199 223 255
199 223 255
199 223 255
199 223 255
199 223 255
199 223 255
199 223 255
199 223 255
199 224 255
199 224 255
199 224 255
200 224 255
200 224 255
200 224 255
200 224 255
200 224 255
200 224 255
200 224 255
200 224 255
200 224 255
200 224 255
200 224 255
200 224 255
200 224 255
200 224 255
200 224 255
200 224 255
200 224 255
200 224 255
201 224 255
201 224 255
201 224 255
201 224 255
201 224 255
201 224 255
201 224 255
201 224 255
201 224 255
201 224 255
201 224 255
201 225 255
201 225 255
201 225 255
201 225 255
202 225 255
202 225 255
202 225 255
202 225 255
202 225 255
202 225 255
202 225 255
202 225 255
202 225 255
202 225 255
202 225 255
202 225 255
202 225 255
202 225 255
202 225 255
202 225 255
203 225 255
203 225 255
203 225 255
203 225 255
203 225 255
203 225 255
203 225 255
203 225 255
203 226 255
203 226 255
203 226 255
203 226 255
203 226 255
203 226 255
203 226 255
204 226 255
204 226 255
204 226 255
204 226 255
204 226 255
204 226 255
204 226 255
204 226 255
204 226 255
204 226 255
204 226 255
204 226 255
204 226 255
204 226 255
204 226 255
204 226 255
205 226 255
205 226 255
205 226 255
205 226 255
205 226 255
205 226 255
205 227 255
205 227 255
205 227 255
205 227 255
205 227 255
205 227 255
205 227 255
205 227 255
205 227 255
205 227 255
206 227 255
206 227 255
206 227 255
206 227 255
206 227 255
206 227 255
206 227 255
206 227 255
206 227 255
206 227 255
206 227 255
206 227 255
206 227 255
206 227 255
206 227 255
206 227 255
206 227 255
206 227 255
207 227 255
207 227 255
207 227 255
207 227 255
207 227 255
207 228 255
207 228 255
207 228 255
207 228 255
207 228 255
207 228 255
207 228 255
207 228 255
207 228 255
207 228 255
207 228 255
207 228 255
207 228 255
207 228 255
207 228 255
208 228 255
208 228 255
208 228 255
208 228 255
208 228 255
208 228 255
208 228 255
208 228 255
208 228 255
208 228 255
208 228 255
208 228 255
208 228 255
208 228 255
208 228 255
208 228 255
208 228 255
208 228 255
208 228 255
208 228 255
208 228 255
208 228 255
208 228 255
208 228 255
208 228 255
208 228 255
208 228 255
208 228 255
208 228 255
208 228 255
208 228 255
208 228 255
208 228 255
208 228 255
208 228 255
207 228 255
207 228 255
207 228 255
207 228 255
207 228 255
207 228 255
207 228 255
207 228 255
207 228 255
207 228 255
207 228 255
207 228 255
207 228 255
207 228 255
207 228 255
207 227 255
207 227 255
207 227 255
207 227 255
207 227 255
206 227 255
206 227 255
206 227 255
206 227 255
206 227 255
206 227 255
206 227 255
206 227 255
206 227 255
206 227 255
206 227 255
206 227 255
206 227 255
206 227 255
206 227 255
206 227 255
206 227 255
205 227 255
205 227 255
205 227 255
205 227 255
205 227 255
205 227 255
205 227 255
205 227 255
205 227 255
205 227 255
205 226 255
205 226 255
205 226 255
205 226 255
205 226 255
205 226 255
205 226 255
204 226 255
204 226 255
204 226 255
204 226 255
204 226 255
204 226 255
204 226 255
204 226 255
204 226 255
204 226 255
204 226 255
204 226 255
204 226 255
204 226 255
204 226 255
204 226 255
203 226 255
203 226 255
203 226 255
203 226 255
203 226 255
203 226 255
203 225 255
203 225 255
203 225 255
203 225 255
203 225 255
203 225 255
203 225 255
203 225 255
203 225 255
202 225 255
202 225 255
202 225 255
202 225 255
202 225 255
202 225 255
202 225 255
202 225 255
202 225 255
202 225 255
202 225 255
202 225 255
202 225 255
202 225 255
202 225 255
201 225 255
201 225 255
201 225 255
201 225 255
201 225 255
201 224 255
201 224 255
201 224 255
201 224 255
201 224 255
201 224 255
201 224 255
201 224 255
201 224 255
201 224 255
201 224 255
200 224 255
200 224 255
200 224 255
200 224 255
200 224 255
200 224 255
200 224 255
200 224 255
200 224 255
200 224 255
200 224 255
200 224 255
200 224 255
200 224 255
200 224 255
200 224 255
200 224 255
200 224 255
200 224 255
199 224 255
199 224 255
199 224 255
199 223 255
199 223 255
199 223 255
199 223 255
199 223 255
199 223 255
199 223 255
199 223 255
199 223 255
199 223 255
199 223 255
199 223 255
199 223 255
199 223 255
199 223 255
199 223 255
199 223 255
199 223 255
199 223 255
199 223 255
199 223 255
199 223 255
199 223 255
198 223 255
198 223 255
198 223 255
198 223 255
198 223 255
198 223 255
198 223 255
198 223 255
198 223 255
198 223 255
198 223 255
198 223 255
198 223 255
198 223 255
198 223 255
198 223 255
198 223 255
198 223 255
198 223 255
198 223 255
198 223 255
198 223 255
198 223 255
198 223 255
198 223 255
198 223 255
198 223 255
198 223 255
198 223 255
198 223 255
198 223 255
198 223 255
198 223 255
198 223 255
198 223 255
198 223 255
198 223 255
198 223 255
198 223 255
198 223 255
199 223 255
199 223 255
199 223 255
199 223 255
199 223 255
199 223 255
199 223 255
199 223 255
199 223 255
199 223 255
199 223 255
199 223 255
199 223 255
199 223 255
199 223 255
199 223 255
199 223 255
199 223 255
199 223 255
199 223 255
199 223 255
199 223 255
199 223 255
199 224 255
199 224 255
199 224 255
199 224 255
200 224 255
200 224 255
200 224 255
200 224 255
200 224 255
200 224 255
200 224 255
200 224 255
200 224 255
200 224 255
200 224 255
200 224 255
200 224 255
200 224 255
200 224 255
200 224 255
200 224 255
200 224 255
201 224 255
201 224 255
201 224 255
201 224 255
201 224 255
201 224 255
201 224 255
201 224 255
201 224 255
201 224 255
201 224 255
201 225 255
201 225 255
201 225 255
201 225 255
201 225 255
202 225 255
202 225 255
202 225 255
202 225 255
202 225 255
202 225 255
202 225 255
202 225 255
202 225 255
202 225 255
202 225 255
202 225 255
202 225 255
202 225 255
202 225 255
203 225 255
203 225 255
203 225 255
203 225 255
203 225 255
203 225 255
203 225 255
203 225 255
203 226 255
203 226 255
203 226 255
203 226 255
203 226 255
203 226 255
203 226 255
204 226 255
204 226 255
204 226 255
204 226 255
204 226 255
204 226 255
204 226 255
204 226 255
204 226 255
204 226 255
204 226 255
204 226 255
204 226 255
204 226 255
204 226 255
204 226 255
205 226 255
205 226 255
205 226 255
205 226 255
205 226 255
205 226 255
205 226 255
205 227 255
205 227 255
205 227 255
205 227 255
205 227 255
205 227 255
205 227 255
205 227 255
205 227 255
205 227 255
206 227 255
206 227 255
206 227 255
206 227 255
206 227 255
206 227 255
206 227 255
206 227 255
206 227 255
206 227 255
206 227 255
206 227 255
206 227 255
206 227 255
206 227 255
206 227 255
206 227 255
207 227 255
207 227 255
207 227 255
207 227 255
207 227 255
207 228 255
207 228 255
207 228 255
207 228 255
207 228 255
207 228 255
207 228 255
207 228 255
207 228 255
207 228 255
207 228 255
207 228 255
207 228 255
207 228 255
207 228 255
208 228 255
208 228 255
208 228 255
208 228 255
208 228 255
208 228 255
208 228 255
208 228 255
208 228 255
208 228 255
208 228 255
208 228 255
208 228 255
208 228 255
208 228 255
208 228 255
208 228 255
208 228 255
208 228 255
209 228 255
208 228 255
208 228 255
208 228 255
208 228 255
208 228 255
208 228 255
208 228 255
208 228 255
208 228 255
208 228 255
208 228 255
208 228 255
208 228 255
208 228 255
208 228 255
208 228 255
208 228 255
208 228 255
208 228 255
208 228 255
208 228 255
207 228 255
207 228 255
207 228 255
207 228 255
207 228 255
207 228 255
207 228 255
207 228 255
207 228 255
207 228 255
207 228 255
207 228 255
207 228 255
207 228 255
207 228 255
207 227 255
207 227 255
207 227 255
207 227 255
207 227 255
206 227 255
206 227 255
206 227 255
206 227 255
206 227 255
206 227 255
206 227 255
206 227 255
206 227 255
206 227 255
206 227 255
206 227 255
206 227 255
206 227 255
206 227 255
206 227 255
206 227 255
205 227 255
205 227 255
205 227 255
205 227 255
205 227 255
205 227 255
205 227 255
205 227 255
205 227 255
205 227 255
205 226 255
205 226 255
205 226 255
205 226 255
205 226 255
205 226 255
205 226 255
204 226 255
204 226 255
204 226 255
204 226 255
204 226 255
204 226 255
204 226 255
204 226 255
204 226 255
204 226 255
204 226 255
204 226 255
204 226 255
204 226 255
204 226 255
203 226 255
203 226 255
203 226 255
203 226 255
203 226 255
203 226 255
203 226 255
203 225 255
203 225 255
203 225 255
203 225 255
203 225 255
203 225 255
203 225 255
203 225 255
203 225 255
202 225 255
202 225 255
202 225 255
202 225 255
202 225 255
202 225 255
202 225 255
202 225 255
202 225 255
202 225 255
202 225 255
202 225 255
202 225 255
202 225 255
202 225 255
201 225 255
201 225 255
201 225 255
201 225 255
201 225 255
201 224 255
201 224 255
201 224 255
201 224 255
201 224 255
201 224 255
201 224 255
201 224 255
201 224 255
201 224 255
201 224 255
200 224 255
200 224 255
200 224 255
200 224 255
200 224 255
200 224 255
200 224 255
200 224 255
200 224 255
200 224 255
200 224 255
200 224 255
200 224 255
200 224 255
200 224 255
200 224 255
200 224 255
200 224 255
200 224 255
199 224 255
199 224 255
199 224 255
199 224 255
199 223 255
199 223 255
199 223 255
199 223 255
199 223 255
199 223 255
199 223 255
199 223 255
199 223 255
199 223 255
199 223 255
199 223 255
199 223 255
199 223 255
199 223 255
199 223 255
199 223 255
199 223 255
199 223 255
199 223 255
199 223 255
199 223 255
199 223 255
199 223 255
199 223 255
199 223 255
199 223 255
199 223 255
199 223 255
199 223 255
198 223 255
198 223 255
198 223 255
198 223 255
198 223 255
198 223 255
198 223 255
198 223 255
198 223 255
198 223 255
198 223 255
198 223 255
198 223 255
198 223 255
198 223 255
198 223 255
198 223 255
198 223 255
198 223 255
199 223 255
199 223 255
199 223 255
199 223 255
199 223 255
199 223 255
199 223 255
199 223 255
199 223 255
199 223 255
199 223 255
199 223 255
199 223 255
199 223 255
199 223 255
199 223 255
199 223 255
199 223 255
199 223 255
199 223 255
199 223 255
199 223 255
199 223 255
199 223 255
199 223 255
199 223 255
199 223 255
199 223 255
199 223 255
199 224 255
199 224 255
199 224 255
199 224 255
200 224 255
200 224 255
200 224 255
200 224 255
200 224 255
200 224 255
200 224 255
200 224 255
200 224 255
200 224 255
200 224 255
200 224 255
200 224 255
200 224 255
200 224 255
200 224 255
200 224 255
200 224 255
201 224 255
201 224 255
201 224 255
201 224 255
201 224 255
201 224 255
201 224 255
201 224 255
201 224 255
201 224 255
201 224 255
201 224 255
201 225 255
201 225 255
201 225 255
201 225 255
201 225 255
202 225 255
202 225 255
202 225 255
202 225 255
202 225 255
202 225 255
202 225 255
202 225 255
202 225 255
202 225 255
202 225 255
202 225 255
202 225 255
202 225 255
202 225 255
203 225 255
203 225 255
203 225 255
203 225 255
203 225 255
203 225 255
203 225 255
203 225 255
203 225 255
203 226 255
203 226 255
203 226 255
203 226 255
203 226 255
203 226 255
203 226 255
204 226 255
204 226 255
204 226 255
204 226 255
204 226 255
204 226 255
204 226 255
204 226 255
204 226 255
204 226 255
204 226 255
204 226 255
204 226 255
204 226 255
204 226 255
205 226 255
205 226 255
205 226 255
205 226 255
205 226 255
205 226 255
205 226 255
205 227 255
205 227 255
205 227 255
205 227 255
205 227 255
205 227 255
205 227 255
205 227 255
205 227 255
205 227 255
206 227 255
206 227 255
206 227 255
206 227 255
206 227 255
206 227 255
206 227 255
206 227 255
206 227 255
206 227 255
206 227 255
206 227 255
206 227 255
206 227 255
206 227 255
206 227 255
206 227 255
207 227 255
207 227 255
207 227 255
207 227 255
207 227 255
207 228 255
207 228 255
207 228 255
207 228 255
207 228 255
207 228 255
207 228 255
207 228 255
207 228 255
207 228 255
207 228 255
207 228 255
207 228 255
207 228 255
207 228 255
208 228 255
208 228 255
208 228 255
208 228 255
208 228 255
208 228 255
208 228 255
208 228 255
208 228 255
208 228 255
208 228 255
208 228 255
208 228 255
208 228 255
208 228 255
208 228 255
208 228 255
208 228 255
208 228 255
208 228 255
208 228 255
209 228 255
209 229 255
209 229 255
209 229 255
209 228 255
208 228 255
208 228 255
208 228 255
208 228 255
208 228 255
208 228 255
208 228 255
208 228 255
208 228 255
208 228 255
208 228 255
208 228 255
208 228 255
208 228 255
208 228 255
208 228 255
208 228 255
208 228 255
208 228 255
208 228 255
208 228 255
207 228 255
207 228 255
207 228 255
207 228 255
207 228 255
207 228 255
207 228 255
207 228 255
207 228 255
207 228 255
207 228 255
207 228 255
207 228 255
207 228 255
207 228 255
207 227 255
207 227 255
207 227 255
207 227 255
207 227 255
206 227 255
206 227 255
206 227 255
206 227 255
206 227 255
206 227 255
206 227 255
206 227 255
206 227 255
206 227 255
206 227 255
206 227 255
206 227 255
206 227 255
206 227 255
206 227 255
206 227 255
205 227 255
205 227 255
205 227 255
205 227 255
205 227 255
205 227 255
205 227 255
205 227 255
205 227 255
205 227 255
205 226 255
205 226 255
205 226 255
205 226 255
205 226 255
205 226 255
205 226 255
204 226 255
204 226 255
204 226 255
204 226 255
204 226 255
204 226 255
204 226 255
204 226 255
204 226 255
204 226 255
204 226 255
204 226 255
204 226 255
204 226 255
204 226 255
203 226 255
203 226 255
203 226 255
203 226 255
203 226 255
203 226 255
203 226 255
203 225 255
203 225 255
203 225 255
203 225 255
203 225 255
203 225 255
203 225 255
203 225 255
203 225 255
202 225 255
202 225 255
202 225 255
202 225 255
202 225 255
202 225 255
202 225 255
202 225 255
202 225 255
202 225 255
202 225 255
202 225 255
202 225 255
202 225 255
202 225 255
201 225 255
201 225 255
201 225 255
201 225 255
201 225 255
201 224 255
201 224 255
201 224 255
201 224 255
201 224 255
201 224 255
201 224 255
201 224 255
201 224 255
201 224 255
201 224 255
201 224 255
200 224 255
200 224 255
200 224 255
200 224 255
200 224 255
200 224 255
200 224 255
200 224 255
200 224 255
200 224 255
200 224 255
200 224 255
200 224 255
200 224 255
200 224 255
200 224 255
200 224 255
200 224 255
200 224 255
200 224 255
199 224 255
199 224 255
199 224 255
199 224 255
199 223 255
199 223 255
199 223 255
199 223 255
199 223 255
199 223 255
199 223 255
199 223 255
199 223 255
199 223 255
199 223 255
199 223 255
199 223 255
199 223 255
199 223 255
199 223 255
199 223 255
199 223 255
199 223 255
199 223 255
199 223 255
199 223 255
199 223 255
199 223 255
199 223 255
199 223 255
199 223 255
199 223 255
199 223 255
199 223 255
199 223 255
199 223 255
199 223 255
199 223 255
199 223 255
199 223 255
199 223 255
199 223 255
199 223 255
199 223 255
199 223 255
199 223 255
199 223 255
199 223 255
199 223 255
199 223 255
199 223 255
199 223 255
199 223 255
199 223 255
199 223 255
199 223 255
199 223 255
199 223 255
199 223 255
199 223 255
199 223 255
199 223 255
199 223 255
199 223 255
199 223 255
199 223 255
199 223 255
199 223 255
199 223 255
199 223 255
199 223 255
199 223 255
199 224 255
199 224 255
199 224 255
199 224 255
200 224 255
200 224 255
200 224 255
200 224 255
200 224 255
200 224 255
200 224 255
200 224 255
200 224 255
200 224 255
200 224 255
200 224 255
200 224 255
200 224 255
200 224 255
200 224 255
200 224 255
200 224 255
200 224 255
200 224 255
201 224 255
201 224 255
201 224 255
201 224 255
201 224 255
201 224 255
201 224 255
201 224 255
201 224 255
201 224 255
201 224 255
201 224 255
201 225 255
201 225 255
201 225 255
201 225 255
201 225 255
202 225 255
202 225 255
202 225 255
202 225 255
202 225 255
202 225 255
202 225 255
202 225 255
202 225 255
202 225 255
202 225 255
202 225 255
202 225 255
202 225 255
202 225 255
203 225 255
203 225 255
203 225 255
203 225 255
203 225 255
203 225 255
203 225 255
203 225 255
203 225 255
203 226 255
203 226 255
203 226 255
203 226 255
203 226 255
203 226 255
203 226 255
204 226 255
204 226 255
204 226 255
204 226 255
204 226 255
204 226 255
204 226 255
204 226 255
204 226 255
204 226 255
204 226 255
204 226 255
204 226 255
204 226 255
204 226 255
205 226 255
205 226 255
205 226 255
205 226 255
205 226 255
205 226 255
205 226 255
205 227 255
205 227 255
205 227 255
205 227 255
205 227 255
205 227 255
205 227 255
205 227 255
205 227 255
205 227 255
206 227 255
206 227 255
206 227 255
206 227 255
206 227 255
206 227 255
206 227 255
206 227 255
206 227 255
206 227 255
206 227 255
206 227 255
206 227 255
206 227 255
206 227 255
206 227 255
206 227 255
206 227 255
207 227 255
207 227 255
207 227 255
207 227 255
207 228 255
207 228 255
207 228 255
207 228 255
207 228 255
207 228 255
207 228 255
207 228 255
207 228 255
207 228 255
207 228 255
207 228 255
207 228 255
207 228 255
207 228 255
208 228 255
208 228 255
208 228 255
208 228 255
208 228 255
208 228 255
208 228 255
208 228 255
208 228 255
208 228 255
208 228 255
208 228 255
208 228 255
208 228 255
208 228 255
208 228 255
208 228 255
208 228 255
208 228 255
208 228 255
208 228 255
209 228 255
209 229 255
209 229 255
209 229 255
209 229 255
209 229 255
209 229 255
209 229 255
209 229 255
209 229 255
209 228 255
208 228 255
208 228 255
208 228 255
208 228 255
208 228 255
208 228 255
208 228 255
208 228 255
208 228 255
208 228 255
208 228 255
208 228 255
208 228 255
208 228 255
208 228 255
208 228 255
208 228 255
208 228 255
208 228 255
208 228 255
208 228 255
207 228 255
207 228 255
207 228 255
207 228 255
207 228 255
207 228 255
207 228 255
207 228 255
207 228 255
207 228 255
207 228 255
207 228 255
207 228 255
207 228 255
207 228 255
207 227 255
207 227 255
207 227 255
207 227 255
206 227 255
206 227 255
206 227 255
206 227 255
206 227 255
206 227 255
206 227 255
206 227 255
206 227 255
206 227 255
206 227 255
206 227 255
206 227 255
206 227 255
206 227 255
206 227 255
206 227 255
206 227 255
205 227 255
205 227 255
205 227 255
205 227 255
205 227 255
205 227 255
205 227 255
205 227 255
205 227 255
205 227 255
205 226 255
205 226 255
205 226 255
205 226 255
205 226 255
205 226 255
204 226 255
204 226 255
204 226 255
204 226 255
204 226 255
204 226 255
204 226 255
204 226 255
204 226 255
204 226 255
204 226 255
204 226 255
204 226 255
204 226 255
204 226 255
204 226 255
203 226 255
203 226 255
203 226 255
203 226 255
203 226 255
203 226 255
203 226 255
203 225 255
203 225 255
203 225 255
203 225 255
203 225 255
203 225 255
203 225 255
203 225 255
203 225 255
202 225 255
202 225 255
202 225 255
202 225 255
202 225 255
202 225 255
202 225 255
202 225 255
202 225 255
202 225 255
202 225 255
202 225 255
202 225 255
202 225 255
202 225 255
201 225 255
201 225 255
201 225 255
201 225 255
201 225 255
201 224 255
201 224 255
201 224 255
201 224 255
201 224 255
201 224 255
201 224 255
201 224 255
201 224 255
201 224 255
201 224 255
201 224 255
201 224 255
200 224 255
200 224 255
200 224 255
200 224 255
200 224 255
200 224 255
200 224 255
200 224 255
200 224 255
200 224 255
200 224 255
200 224 255
200 224 255
200 224 255
200 224 255
200 224 255
200 224 255
200 224 255
200 224 255
200 224 255
200 224 255
199 224 255
199 224 255
199 224 255
199 224 255
199 224 255
199 223 255
199 223 255
199 223 255
199 223 255
199 223 255
199 223 255
199 223 255
199 223 255
199 223 255
199 223 255
199 223 255
199 223 255
199 223 255
199 223 255
199 223 255
199 223 255
199 223 255
199 223 255
199 223 255
199 223 255
199 223 255
199 223 255
199 223 255
199 223 255
199 223 255
199 223 255
199 223 255
199 223 255
199 223 255
199 223 255
199 223 255
199 223 255
199 223 255
199 223 255
199 223 255
199 223 255
199 223 255
199 223 255
199 223 255
199 223 255
199 223 255
199 223 255
199 223 255
199 223 255
199 223 255
199 223 255
199 223 255
199 223 255
199 223 255
199 223 255
199 223 255
199 223 255
199 223 255
199 223 255
199 223 255
199 223 255
199 223 255
199 224 255
199 224 255
199 224 255
199 224 255
200 224 255
200 224 255
200 224 255
200 224 255
200 224 255
200 224 255
200 224 255
200 224 255
200 224 255
200 224 255
200 224 255
200 224 255
200 224 255
200 224 255
200 224 255
200 224 255
200 224 255
200 224 255
200 224 255
200 224 255
200 224 255
200 224 255
201 224 255
201 224 255
201 224 255
201 224 255
201 224 255
201 224 255
201 224 255
201 224 255
201 224 255
201 224 255
201 224 255
201 224 255
201 225 255
201 225 255
201 225 255
201 225 255
201 225 255
202 225 255
202 225 255
202 225 255
202 225 255
202 225 255
202 225 255
202 225 255
202 225 255
202 225 255
202 225 255
202 225 255
202 225 255
202 225 255
202 225 255
202 225 255
203 225 255
203 225 255
203 225 255
203 225 255
203 225 255
203 225 255
203 225 255
203 225 255
203 225 255
203 226 255
203 226 255
203 226 255
203 226 255
203 226 255
203 226 255
203 226 255
204 226 255
204 226 255
204 226 255
204 226 255
204 226 255
204 226 255
204 226 255
204 226 255
204 226 255
204 226 255
204 226 255
204 226 255
204 226 255
204 226 255
204 226 255
204 226 255
205 226 255
205 226 255
205 226 255
205 226 255
205 226 255
205 226 255
205 227 255
205 227 255
205 227 255
205 227 255
205 227 255
205 227 255
205 227 255
205 227 255
205 227 255
205 227 255
206 227 255
206 227 255
206 227 255
206 227 255
206 227 255
206 227 255
206 227 255
206 227 255
206 227 255
206 227 255
206 227 255
206 227 255
206 227 255
206 227 255
206 227 255
206 227 255
206 227 255
206 227 255
207 227 255
207 227 255
207 227 255
207 227 255
207 228 255
207 228 255
207 228 255
207 228 255
207 228 255
207 228 255
207 228 255
207 228 255
207 228 255
207 228 255
207 228 255
207 228 255
207 228 255
207 228 255
208 228 255
208 228 255
208 228 255
208 228 255
208 228 255
208 228 255
208 228 255
208 228 255
208 228 255
208 228 255
208 228 255
208 228 255
208 228 255
208 228 255
208 228 255
208 228 255
208 228 255
208 228 255
208 228 255
208 228 255
208 228 255
208 228 255
209 228 255
209 229 255
209 229 255
209 229 255
209 229 255
209 229 255
209 229 255
209 229 255
209 229 255
209 229 255
209 229 255
209 229 255
209 229 255
209 229 255
209 229 255
209 229 255
209 228 255
209 228 255
208 228 255
208 228 255
208 228 255
208 228 255
208 228 255
208 228 255
208 228 255
208 228 255
208 228 255
208 228 255
208 228 255
208 228 255
208 228 255
208 228 255
208 228 255
208 228 255
208 228 255
208 228 255
208 228 255
208 228 255
208 228 255
207 228 255
207 228 255
207 228 255
207 228 255
207 228 255
207 228 255
207 228 255
207 228 255
207 228 255
207 228 255
207 228 255
207 228 255
207 228 255
207 228 255
207 227 255
207 227 255
207 227 255
207 227 255
206 227 255
206 227 255
206 227 255
206 227 255
206 227 255
206 227 255
206 227 255
206 227 255
206 227 255
206 227 255
206 227 255
206 227 255
206 227 255
206 227 255
206 227 255
206 227 255
206 227 255
206 227 255
205 227 255
205 227 255
205 227 255
205 227 255
205 227 255
205 227 255
205 227 255
205 227 255
205 227 255
205 227 255
205 226 255
205 226 255
205 226 255
205 226 255
205 226 255
205 226 255
204 226 255
204 226 255
204 226 255
204 226 255
204 226 255
204 226 255
204 226 255
204 226 255
204 226 255
204 226 255
204 226 255
204 226 255
204 226 255
204 226 255
204 226 255
204 226 255
203 226 255
203 226 255
203 226 255
203 226 255
203 226 255
203 226 255
203 226 255
203 225 255
203 225 255
203 225 255
203 225 255
203 225 255
203 225 255
203 225 255
203 225 255
202 225 255
202 225 255
202 225 255
202 225 255
202 225 255
202 225 255
202 225 255
202 225 255
202 225 255
202 225 255
202 225 255
202 225 255
202 225 255
202 225 255
202 225 255
202 225 255
201 225 255
201 225 255
201 225 255
201 225 255
201 225 255
201 224 255
201 224 255
201 224 255
201 224 255
201 224 255
201 224 255
201 224 255
201 224 255
201 224 255
201 224 255
201 224 255
201 224 255
201 224 255
200 224 255
200 224 255
200 224 255
200 224 255
200 224 255
200 224 255
200 224 255
200 224 255
200 224 255
200 224 255
200 224 255
200 224 255
200 224 255
200 224 255
200 224 255
200 224 255
200 224 255
200 224 255
200 224 255
200 224 255
200 224 255
200 224 255
200 224 255
199 224 255
199 224 255
199 224 255
199 224 255
199 224 255
199 224 255
199 223 255
199 223 255
199 223 255
199 223 255
199 223 255
199 223 255
199 223 255
199 223 255
199 223 255
199 223 255
199 223 255
199 223 255
199 223 255
199 223 255
199 223 255
199 223 255
199 223 255
199 223 255
199 223 255
199 223 255
199 223 255
199 223 255
199 223 255
199 223 255
199 223 255
199 223 255
199 223 255
199 223 255
199 223 255
199 223 255
199 223 255
199 223 255
199 223 255
199 223 255
199 223 255
199 223 255
199 223 255
199 223 255
199 223 255
199 223 255
199 223 255
199 223 255
199 223 255
199 223 255
199 224 255
199 224 255
199 224 255
199 224 255
199 224 255
199 224 255
200 224 255
200 224 255
200 224 255
200 224 255
200 224 255
200 224 255
200 224 255
200 224 255
200 224 255
200 224 255
200 224 255
200 224 255
200 224 255
200 224 255
200 224 255
200 224 255
200 224 255
200 224 255
200 224 255
200 224 255
200 224 255
200 224 255
200 224 255
201 224 255
201 224 255
201 224 255
201 224 255
201 224 255
201 224 255
201 224 255
201 224 255
201 224 255
201 224 255
201 224 255
201 224 255
201 225 255
201 225 255
201 225 255
201 225 255
201 225 255
202 225 255
202 225 255
202 225 255
202 225 255
202 225 255
202 225 255
202 225 255
202 225 255
202 225 255
202 225 255
202 225 255
202 225 255
202 225 255
202 225 255
202 225 255
202 225 255
203 225 255
203 225 255
203 225 255
203 225 255
203 225 255
203 225 255
203 225 255
203 225 255
203 225 255
203 226 255
203 226 255
203 226 255
203 226 255
203 226 255
203 226 255
203 226 255
204 226 255
204 226 255
204 226 255
204 226 255
204 226 255
204 226 255
204 226 255
204 226 255
204 226 255
204 226 255
204 226 255
204 226 255
204 226 255
204 226 255
204 226 255
204 226 255
205 226 255
205 226 255
205 226 255
205 226 255
205 226 255
205 226 255
205 227 255
205 227 255
205 227 255
205 227 255
205 227 255
205 227 255
205 227 255
205 227 255
205 227 255
205 227 255
206 227 255
206 227 255
206 227 255
206 227 255
206 227 255
206 227 255
206 227 255
206 227 255
206 227 255
206 227 255
206 227 255
206 227 255
206 227 255
206 227 255
206 227 255
206 227 255
206 227 255
206 227 255
207 227 255
207 227 255
207 227 255
207 227 255
207 228 255
207 228 255
207 228 255
207 228 255
207 228 255
207 228 255
207 228 255
207 228 255
207 228 255
207 228 255
207 228 255
207 228 255
207 228 255
207 228 255
208 228 255
208 228 255
208 228 255
208 228 255
208 228 255
208 228 255
208 228 255
208 228 255
208 228 255
208 228 255
208 228 255
208 228 255
208 228 255
208 228 255
208 228 255
208 228 255
208 228 255
208 228 255
208 228 255
208 228 255
208 228 255
209 228 255
209 228 255
209 229 255
209 229 255
209 229 255
209 229 255
209 229 255
209 229 255
209 229 255
209 229 255
209 229 255
209 229 255
209 229 255
209 229 255
209 229 255
209 229 255
209 229 255
209 229 255
209 229 255
209 229 255
209 229 255
209 229 255
209 229 255
209 229 255
209 228 255
208 228 255
208 228 255
208 228 255
208 228 255
208 228 255
208 228 255
208 228 255
208 228 255
208 228 255
208 228 255
208 228 255
208 228 255
208 228 255
208 228 255
208 228 255
208 228 255
208 228 255
208 228 255
208 228 255
208 228 255
208 228 255
207 228 255
207 228 255
207 228 255
207 228 255
207 228 255
207 228 255
207 228 255
207 228 255
207 228 255
207 228 255
207 228 255
207 228 255
207 228 255
207 228 255
207 227 255
207 227 255
207 227 255
207 227 255
206 227 255
206 227 255
206 227 255
206 227 255
206 227 255
206 227 255
206 227 255
206 227 255
206 227 255
206 227 255
206 227 255
206 227 255
206 227 255
206 227 255
206 227 255
206 227 255
206 227 255
206 227 255
205 227 255
205 227 255
205 227 255
205 227 255
205 227 255
205 227 255
205 227 255
205 227 255
205 227 255
205 227 255
205 226 255
205 226 255
205 226 255
205 226 255
205 226 255
205 226 255
204 226 255
204 226 255
204 226 255
204 226 255
204 226 255
204 226 255
204 226 255
204 226 255
204 226 255
204 226 255
204 226 255
204 226 255
204 226 255
204 226 255
204 226 255
204 226 255
203 226 255
203 226 255
203 226 255
203 226 255
203 226 255
203 226 255
203 226 255
203 225 255
203 225 255
203 225 255
203 225 255
203 225 255
203 225 255
203 225 255
203 225 255
203 225 255
202 225 255
202 225 255
202 225 255
202 225 255
202 225 255
202 225 255
202 225 255
202 225 255
202 225 255
202 225 255
202 225 255
202 225 255
202 225 255
202 225 255
202 225 255
202 225 255
201 225 255
201 225 255
201 225 255
201 225 255
201 225 255
201 224 255
201 224 255
201 224 255
201 224 255
201 224 255
201 224 255
201 224 255
201 224 255
201 224 255
201 224 255
201 224 255
201 224 255
201 224 255
200 224 255
200 224 255
200 224 255
200 224 255
200 224 255
200 224 255
200 224 255
200 224 255
200 224 255
200 224 255
200 224 255
200 224 255
200 224 255
200 224 255
200 224 255
200 224 255
200 224 255
200 224 255
200 224 255
200 224 255
200 224 255
200 224 255
200 224 255
200 224 255
200 224 255
200 224 255
200 224 255
199 224 255
199 224 255
199 224 255
199 224 255
199 224 255
199 224 255
199 224 255
199 224 255
199 223 255
199 223 255
199 223 255
199 223 255
199 223 255
199 223 255
199 223 255
199 223 255
199 223 255
199 223 255
199 223 255
199 223 255
199 223 255
199 223 255
199 223 255
199 223 255
199 223 255
199 223 255
199 223 255
199 223 255
199 223 255
199 223 255
199 223 255
199 223 255
199 224 255
199 224 255
199 224 255
199 224 255
199 224 255
199 224 255
199 224 255
199 224 255
199 224 255
200 224 255
200 224 255
200 224 255
200 224 255
200 224 255
200 224 255
200 224 255
200 224 255
200 224 255
200 224 255
200 224 255
200 224 255
200 224 255
200 224 255
200 224 255
200 224 255
200 224 255
200 224 255
200 224 255
200 224 255
200 224 255
200 224 255
200 224 255
200 224 255
200 224 255
200 224 255
201 224 255
201 224 255
201 224 255
201 224 255
201 224 255
201 224 255
201 224 255
201 224 255
201 224 255
201 224 255
201 224 255
201 224 255
201 224 255
201 225 255
201 225 255
201 225 255
201 225 255
201 225 255
202 225 255
202 225 255
202 225 255
202 225 255
202 225 255
202 225 255
202 225 255
202 225 255
202 225 255
202 225 255
202 225 255
202 225 255
202 225 255
202 225 255
202 225 255
202 225 255
203 225 255
203 225 255
203 225 255
203 225 255
203 225 255
203 225 255
203 225 255
203 225 255
203 225 255
203 226 255
203 226 255
203 226 255
203 226 255
203 226 255
203 226 255
203 226 255
204 226 255
204 226 255
204 226 255
204 226 255
204 226 255
204 226 255
204 226 255
204 226 255
204 226 255
204 226 255
204 226 255
204 226 255
204 226 255
204 226 255
204 226 255
204 226 255
205 226 255
205 226 255
205 226 255
205 226 255
205 226 255
205 226 255
205 227 255
205 227 255
205 227 255
205 227 255
205 227 255
205 227 255
205 227 255
205 227 255
205 227 255
205 227 255
206 227 255
206 227 255
206 227 255
206 227 255
206 227 255
206 227 255
206 227 255
206 227 255
206 227 255
206 227 255
206 227 255
206 227 255
206 227 255
206 227 255
206 227 255
206 227 255
206 227 255
206 227 255
207 227 255
207 227 255
207 227 255
207 227 255
207 228 255
207 228 255
207 228 255
207 228 255
207 228 255
207 228 255
207 228 255
207 228 255
207 228 255
207 228 255
207 228 255
207 228 255
207 228 255
207 228 255
208 228 255
208 228 255
208 228 255
208 228 255
208 228 255
208 228 255
208 228 255
208 228 255
208 228 255
208 228 255
208 228 255
208 228 255
208 228 255
208 228 255
208 228 255
208 228 255
208 228 255
208 228 255
208 228 255
208 228 255
208 228 255
209 228 255
209 229 255
209 229 255
209 229 255
209 229 255
209 229 255
209 229 255
209 229 255
209 229 255
209 229 255
209 229 255
209 229 255
209 229 255
209 229 255
209 229 255
209 229 255
209 229 255
209 229 255
209 229 255
209 229 255
209 229 255
209 229 255
209 229 255
209 229 255
209 229 255
209 229 255
209 229 255
209 229 255
209 229 255
209 229 255
209 228 255
208 228 255
208 228 255
208 228 255
208 228 255
208 228 255
208 228 255
208 228 255
208 228 255
208 228 255
208 228 255
208 228 255
208 228 255
208 228 255
208 228 255
208 228 255
208 228 255
208 228 255
208 228 255
208 228 255
208 228 255
208 228 255
207 228 255
207 228 255
207 228 255
207 228 255
207 228 255
207 228 255
207 228 255
207 228 255
207 228 255
207 228 255
207 228 255
207 228 255
207 228 255
207 228 255
207 227 255
207 227 255
207 227 255
207 227 255
206 227 255
206 227 255
206 227 255
206 227 255
206 227 255
206 227 255
206 227 255
206 227 255
206 227 255
206 227 255
206 227 255
206 227 255
206 227 255
206 227 255
206 227 255
206 227 255
206 227 255
206 227 255
205 227 255
205 227 255
205 227 255
205 227 255
205 227 255
205 227 255
205 227 255
205 227 255
205 227 255
205 227 255
205 226 255
205 226 255
205 226 255
205 226 255
205 226 255
205 226 255
204 226 255
204 226 255
204 226 255
204 226 255
204 226 255
204 226 255
204 226 255
204 226 255
204 226 255
204 226 255
204 226 255
204 226 255
204 226 255
204 226 255
204 226 255
204 226 255
203 226 255
203 226 255
203 226 255
203 226 255
203 226 255
203 226 255
203 226 255
203 225 255
203 225 255
203 225 255
203 225 255
203 225 255
203 225 255
203 225 255
203 225 255
203 225 255
202 225 255
202 225 255
202 225 255
202 225 255
202 225 255
202 225 255
202 225 255
202 225 255
202 225 255
202 225 255
202 225 255
202 225 255
202 225 255
202 225 255
202 225 255
202 225 255
201 225 255
201 225 255
201 225 255
201 225 255
201 225 255
201 224 255
201 224 255
201 224 255
201 224 255
201 224 255
201 224 255
201 224 255
201 224 255
201 224 255
201 224 255
201 224 255
201 224 255
201 224 255
201 224 255
201 224 255
200 224 255
200 224 255
200 224 255
200 224 255
200 224 255
200 224 255
200 224 255
200 224 255
200 224 255
200 224 255
200 224 255
200 224 255
200 224 255
200 224 255
200 224 255
200 224 255
200 224 255
200 224 255
200 224 255
200 224 255
200 224 255
200 224 255
200 224 255
200 224 255
200 224 255
200 224 255
200 224 255
200 224 255
200 224 255
200 224 255
200 224 255
200 224 255
200 224 255
200 224 255
199 224 255
199 224 255
199 224 255
199 224 255
199 224 255
199 224 255
199 224 255
199 224 255
199 224 255
199 224 255
199 224 255
199 224 255
199 224 255
199 224 255
199 224 255
199 224 255
199 224 255
200 224 255
200 224 255
200 224 255
200 224 255
200 224 255
200 224 255
200 224 255
200 224 255
200 224 255
200 224 255
200 224 255
200 224 255
200 224 255
200 224 255
200 224 255
200 224 255
200 224 255
200 224 255
200 224 255
200 224 255
200 224 255
200 224 255
200 224 255
200 224 255
200 224 255
200 224 255
200 224 255
200 224 255
200 224 255
200 224 255
200 224 255
200 224 255
200 224 255
200 224 255
201 224 255
201 224 255
201 224 255
201 224 255
201 224 255
201 224 255
201 224 255
201 224 255
201 224 255
201 224 255
201 224 255
201 224 255
201 224 255
201 224 255
201 225 255
201 225 255
201 225 255
201 225 255
201 225 255
202 225 255
202 225 255
202 225 255
202 225 255
202 225 255
202 225 255
202 225 255
202 225 255
202 225 255
202 225 255
202 225 255
202 225 255
202 225 255
202 225 255
202 225 255
202 225 255
203 225 255
203 225 255
203 225 255
203 225 255
203 225 255
203 225 255
203 225 255
203 225 255
203 225 255
203 226 255
203 226 255
203 226 255
203 226 255
203 226 255
203 226 255
203 226 255
204 226 255
204 226 255
204 226 255
204 226 255
204 226 255
204 226 255
204 226 255
204 226 255
204 226 255
204 226 255
204 226 255
204 226 255
204 226 255
204 226 255
204 226 255
204 226 255
205 226 255
205 226 255
205 226 255
205 226 255
205 226 255
205 226 255
205 227 255
205 227 255
205 227 255
205 227 255
205 227 255
205 227 255
205 227 255
205 227 255
205 227 255
205 227 255
206 227 255
206 227 255
206 227 255
206 227 255
206 227 255
206 227 255
206 227 255
206 227 255
206 227 255
206 227 255
206 227 255
206 227 255
206 227 255
206 227 255
206 227 255
206 227 255
206 227 255
206 227 255
207 227 255
207 227 255
207 227 255
207 227 255
207 228 255
207 228 255
207 228 255
207 228 255
207 228 255
207 228 255
207 228 255
207 228 255
207 228 255
207 228 255
207 228 255
207 228 255
207 228 255
207 228 255
208 228 255
208 228 255
208 228 255
208 228 255
208 228 255
208 228 255
208 228 255
208 228 255
208 228 255
208 228 255
208 228 255
208 228 255
208 228 255
208 228 255
208 228 255
208 228 255
208 228 255
208 228 255
208 228 255
208 228 255
208 228 255
209 228 255
209 229 255
209 229 255
209 229 255
209 229 255
209 229 255
209 229 255
209 229 255
209 229 255
209 229 255
209 229 255
209 229 255
209 229 255
209 229 255
209 229 255
209 229 255
209 229 255
209 229 255
209 229 255
209 229 255
209 229 255
209 229 255
209 229 255
209 229 255
209 229 255
209 229 255
209 229 255
209 229 255
209 229 255
209 229 255
209 229 255
209 229 255
209 229 255
209 229 255
209 229 255
209 229 255
209 228 255
209 228 255
208 228 255
208 228 255
208 228 255
208 228 255
208 228 255
208 228 255
208 228 255
208 228 255
208 228 255
208 228 255
208 228 255
208 228 255
208 228 255
208 228 255
208 228 255
208 228 255
208 228 255
208 228 255
208 228 255
208 228 255
207 228 255
207 228 255
207 228 255
207 228 255
207 228 255
207 228 255
207 228 255
207 228 255
207 228 255
207 228 255
207 228 255
207 228 255
207 228 255
207 228 255
207 227 255
207 227 255
207 227 255
207 227 255
207 227 255
206 227 255
206 227 255
206 227 255
206 227 255
206 227 255
206 227 255
206 227 255
206 227 255
206 227 255
206 227 255
206 227 255
206 227 255
206 227 255
206 227 255
206 227 255
206 227 255
206 227 255
205 227 255
205 227 255
205 227 255
205 227 255
205 227 255
205 227 255
205 227 255
205 227 255
205 227 255
205 227 255
205 226 255
205 226 255
205 226 255
205 226 255
205 226 255
205 226 255
204 226 255
204 226 255
204 226 255
204 226 255
204 226 255
204 226 255
204 226 255
204 226 255
204 226 255
204 226 255
204 226 255
204 226 255
204 226 255
204 226 255
204 226 255
204 226 255
203 226 255
203 226 255
203 226 255
203 226 255
203 226 255
203 226 255
203 226 255
203 225 255
203 225 255
203 225 255
203 225 255
203 225 255
203 225 255
203 225 255
203 225 255
203 225 255
202 225 255
202 225 255
202 225 255
202 225 255
202 225 255
202 225 255
202 225 255
202 225 255
202 225 255
202 225 255
202 225 255
202 225 255
202 225 255
202 225 255
202 225 255
202 225 255
202 225 255
201 225 255
201 225 255
201 225 255
201 225 255
201 225 255
201 224 255
201 224 255
201 224 255
201 224 255
201 224 255
201 224 255
201 224 255
201 224 255
201 224 255
201 224 255
201 224 255
201 224 255
201 224 255
201 224 255
201 224 255
200 224 255
200 224 255
200 224 255
200 224 255
200 224 255
200 224 255
200 224 255
200 224 255
200 224 255
200 224 255
200 224 255
200 224 255
200 224 255
200 224 255
200 224 255
200 224 255
200 224 255
200 224 255
200 224 255
200 224 255
200 224 255
200 224 255
200 224 255
200 224 255
200 224 255
200 224 255
200 224 255
200 224 255
200 224 255
200 224 255
200 224 255
200 224 255
200 224 255
200 224 255
200 224 255
200 224 255
200 224 255
200 224 255
200 224 255
200 224 255
200 224 255
200 224 255
200 224 255
200 224 255
200 224 255
200 224 255
200 224 255
200 224 255
200 224 255
200 224 255
200 224 255
200 224 255
200 224 255
200 224 255
200 224 255
200 224 255
200 224 255
200 224 255
200 224 255
200 224 255
200 224 255
200 224 255
200 224 255
200 224 255
200 224 255
200 224 255
200 224 255
200 224 255
200 224 255
200 224 255
200 224 255
200 224 255
200 224 255
200 224 255
200 224 255
200 224 255
201 224 255
201 224 255
201 224 255
201 224 255
201 224 255
201 224 255
201 224 255
201 224 255
201 224 255
201 224 255
201 224 255
201 224 255
201 224 255
201 224 255
201 224 255
201 225 255
201 225 255
201 225 255
201 225 255
201 225 255
202 225 255
202 225 255
202 225 255
202 225 255
202 225 255
202 225 255
202 225 255
202 225 255
202 225 255
202 225 255
202 225 255
202 225 255
202 225 255
202 225 255
202 225 255
202 225 255
202 225 255
203 225 255
203 225 255
203 225 255
203 225 255
203 225 255
203 225 255
203 225 255
203 225 255
203 225 255
203 226 255
203 226 255
203 226 255
203 226 255
203 226 255
203 226 255
203 226 255
204 226 255
204 226 255
204 226 255
204 226 255
204 226 255
204 226 255
204 226 255
204 226 255
204 226 255
204 226 255
204 226 255
204 226 255
204 226 255
204 226 255
204 226 255
204 226 255
205 226 255
205 226 255
205 226 255
205 226 255
205 226 255
205 226 255
205 226 255
205 227 255
205 227 255
205 227 255
205 227 255
205 227 255
205 227 255
205 227 255
205 227 255
205 227 255
206 227 255
206 227 255
206 227 255
206 227 255
206 227 255
206 227 255
206 227 255
206 227 255
206 227 255
206 227 255
206 227 255
206 227 255
206 227 255
206 227 255
206 227 255
206 227 255
206 227 255
207 227 255
207 227 255
207 227 255
207 227 255
207 227 255
207 228 255
207 228 255
207 228 255
207 228 255
207 228 255
207 228 255
207 228 255
207 228 255
207 228 255
207 228 255
207 228 255
207 228 255
207 228 255
207 228 255
208 228 255
208 228 255
208 228 255
208 228 255
208 228 255
208 228 255
208 228 255
208 228 255
208 228 255
208 228 255
208 228 255
208 228 255
208 228 255
208 228 255
208 228 255
208 228 255
208 228 255
208 228 255
208 228 255
208 228 255
209 228 255
209 228 255
209 229 255
209 229 255
209 229 255
209 229 255
209 229 255
209 229 255
209 229 255
209 229 255
209 229 255
209 229 255
209 229 255
209 229 255
209 229 255
209 229 255
209 229 255
209 229 255
209 229 255
209 229 255
209 229 255
210 229 255
209 229 255
209 229 255
209 229 255
209 229 255
209 229 255
209 229 255
209 229 255
209 229 255
209 229 255
209 229 255
209 229 255
209 229 255
209 229 255
209 229 255
209 229 255
209 229 255
209 229 255
209 229 255
209 229 255
209 229 255
209 229 255
209 228 255
209 228 255
208 228 255
208 228 255
208 228 255
208 228 255
208 228 255
208 228 255
208 228 255
208 228 255
208 228 255
208 228 255
208 228 255
208 228 255
208 228 255
208 228 255
208 228 255
208 228 255
208 228 255
208 228 255
208 228 255
208 228 255
207 228 255
207 228 255
207 228 255
207 228 255
207 228 255
207 228 255
207 228 255
207 228 255
207 228 255
207 228 255
207 228 255
207 228 255
207 228 255
207 228 255
207 227 255
207 227 255
207 227 255
207 227 255
207 227 255
206 227 255
206 227 255
206 227 255
206 227 255
206 227 255
206 227 255
206 227 255
206 227 255
206 227 255
206 227 255
206 227 255
206 227 255
206 227 255
206 227 255
206 227 255
206 227 255
206 227 255
205 227 255
205 227 255
205 227 255
205 227 255
205 227 255
205 227 255
205 227 255
205 227 255
205 227 255
205 226 255
205 226 255
205 226 255
205 226 255
205 226 255
205 226 255
205 226 255
204 226 255
204 226 255
204 226 255
204 226 255
204 226 255
204 226 255
204 226 255
204 226 255
204 226 255
204 226 255
204 226 255
204 226 255
204 226 255
204 226 255
204 226 255
204 226 255
203 226 255
203 226 255
203 226 255
203 226 255
203 226 255
203 226 255
203 226 255
203 225 255
203 225 255
203 225 255
203 225 255
203 225 255
203 225 255
203 225 255
203 225 255
203 225 255
202 225 255
202 225 255
202 225 255
202 225 255
202 225 255
202 225 255
202 225 255
202 225 255
202 225 255
202 225 255
202 225 255
202 225 255
202 225 255
202 225 255
202 225 255
202 225 255
202 225 255
202 225 255
201 225 255
201 225 255
201 225 255
201 225 255
201 225 255
201 224 255
201 224 255
201 224 255
201 224 255
201 224 255
201 224 255
201 224 255
201 224 255
201 224 255
201 224 255
201 224 255
201 224 255
201 224 255
201 224 255
201 224 255
201 224 255
200 224 255
200 224 255
200 224 255
200 224 255
200 224 255
200 224 255
200 224 255
200 224 255
200 224 255
200 224 255
200 224 255
200 224 255
200 224 255
200 224 255
200 224 255
200 224 255
200 224 255
200 224 255
200 224 255
200 224 255
200 224 255
200 224 255
200 224 255
200 224 255
200 224 255
200 224 255
200 224 255
200 224 255
200 224 255
200 224 255
200 224 255
200 224 255
200 224 255
200 224 255
200 224 255
200 224 255
200 224 255
200 224 255
200 224 255
200 224 255
200 224 255
200 224 255
200 224 255
200 224 255
200 224 255
200 224 255
200 224 255
200 224 255
200 224 255
200 224 255
200 224 255
200 224 255
200 224 255
200 224 255
200 224 255
200 224 255
200 224 255
200 224 255
200 224 255
200 224 255
200 224 255
200 224 255
200 224 255
200 224 255
200 224 255
201 224 255
201 224 255
201 224 255
201 224 255
201 224 255
201 224 255
201 224 255
201 224 255
201 224 255
201 224 255
201 224 255
201 224 255
201 224 255
201 224 255
201 224 255
201 224 255
201 224 255
201 225 255
201 225 255
201 225 255
201 225 255
201 225 255
202 225 255
202 225 255
202 225 255
202 225 255
202 225 255
202 225 255
202 225 255
202 225 255
202 225 255
202 225 255
202 225 255
202 225 255
202 225 255
202 225 255
202 225 255
202 225 255
202 225 255
202 225 255
203 225 255
203 225 255
203 225 255
203 225 255
203 225 255
203 225 255
203 225 255
203 225 255
203 225 255
203 226 255
203 226 255
203 226 255
203 226 255
203 226 255
203 226 255
203 226 255
204 226 255
204 226 255
204 226 255
204 226 255
204 226 255
204 226 255
204 226 255
204 226 255
204 226 255
204 226 255
204 226 255
204 226 255
204 226 255
204 226 255
204 226 255
204 226 255
205 226 255
205 226 255
205 226 255
205 226 255
205 226 255
205 226 255
205 227 255
205 227 255
205 227 255
205 227 255
205 227 255
205 227 255
205 227 255
205 227 255
205 227 255
205 227 255
206 227 255
206 227 255
206 227 255
206 227 255
206 227 255
206 227 255
206 227 255
206 227 255
206 227 255
206 227 255
206 227 255
206 227 255
206 227 255
206 227 255
206 227 255
206 227 255
206 227 255
207 227 255
207 227 255
207 227 255
207 227 255
207 227 255
207 228 255
207 228 255
207 228 255
207 228 255
207 228 255
207 228 255
207 228 255
207 228 255
207 228 255
207 228 255
207 228 255
207 228 255
207 228 255
207 228 255
208 228 255
208 228 255
208 228 255
208 228 255
208 228 255
208 228 255
208 228 255
208 228 255
208 228 255
208 228 255
208 228 255
208 228 255
208 228 255
208 228 255
208 228 255
208 228 255
208 228 255
208 228 255
208 228 255
208 228 255
209 228 255
209 228 255
209 229 255
209 229 255
209 229 255
209 229 255
209 229 255
209 229 255
209 229 255
209 229 255
209 229 255
209 229 255
209 229 255
209 229 255
209 229 255
209 229 255
209 229 255
209 229 255
209 229 255
209 229 255
209 229 255
209 229 255
210 229 255
210 229 255
210 229 255
210 229 255
210 229 255
210 229 255
210 229 255
209 229 255
209 229 255
209 229 255
209 229 255
209 229 255
209 229 255
209 229 255
209 229 255
209 229 255
209 229 255
209 229 255
209 229 255
209 229 255
209 229 255
209 229 255
209 229 255
209 229 255
209 229 255
209 229 255
209 229 255
209 229 255
209 228 255
209 228 255
208 228 255
208 228 255
208 228 255
208 228 255
208 228 255
208 228 255
208 228 255
208 228 255
208 228 255
208 228 255
208 228 255
208 228 255
208 228 255
208 228 255
208 228 255
208 228 255
208 228 255
208 228 255
208 228 255
207 228 255
207 228 255
207 228 255
207 228 255
207 228 255
207 228 255
207 228 255
207 228 255
207 228 255
207 228 255
207 228 255
207 228 255
207 228 255
207 228 255
207 227 255
207 227 255
207 227 255
207 227 255
207 227 255
206 227 255
206 227 255
206 227 255
206 227 255
206 227 255
206 227 255
206 227 255
206 227 255
206 227 255
206 227 255
206 227 255
206 227 255
206 227 255
206 227 255
206 227 255
206 227 255
206 227 255
205 227 255
205 227 255
205 227 255
205 227 255
205 227 255
205 227 255
205 227 255
205 227 255
205 227 255
205 227 255
205 226 255
205 226 255
205 226 255
205 226 255
205 226 255
205 226 255
204 226 255
204 226 255
204 226 255
204 226 255
204 226 255
204 226 255
204 226 255
204 226 255
204 226 255
204 226 255
204 226 255
204 226 255
204 226 255
204 226 255
204 226 255
204 226 255
203 226 255
203 226 255
203 226 255
203 226 255
203 226 255
203 226 255
203 226 255
203 225 255
203 225 255
203 225 255
203 225 255
203 225 255
203 225 255
203 225 255
203 225 255
203 225 255
202 225 255
202 225 255
202 225 255
202 225 255
202 225 255
202 225 255
202 225 255
202 225 255
202 225 255
202 225 255
202 225 255
202 225 255
202 225 255
202 225 255
202 225 255
202 225 255
202 225 255
202 225 255
201 225 255
201 225 255
201 225 255
201 225 255
201 225 255
201 225 255
201 225 255
201 224 255
201 224 255
201 224 255
201 224 255
201 224 255
201 224 255
201 224 255
201 224 255
201 224 255
201 224 255
201 224 255
201 224 255
201 224 255
201 224 255
201 224 255
201 224 255
201 224 255
201 224 255
200 224 255
200 224 255
200 224 255
200 224 255
200 224 255
200 224 255
200 224 255
200 224 255
200 224 255
200 224 255
200 224 255
200 224 255
200 224 255
200 224 255
200 224 255
200 224 255
200 224 255
200 224 255
200 224 255
200 224 255
200 224 255
200 224 255
200 224 255
200 224 255
200 224 255
200 224 255
200 224 255
200 224 255
200 224 255
200 224 255
200 224 255
200 224 255
200 224 255
200 224 255
200 224 255
200 224 255
200 224 255
200 224 255
200 224 255
200 224 255
200 224 255
200 224 255
200 224 255
200 224 255
200 224 255
200 224 255
200 224 255
200 224 255
200 224 255
200 224 255
200 224 255
200 224 255
201 224 255
201 224 255
201 224 255
201 224 255
201 224 255
201 224 255
201 224 255
201 224 255
201 224 255
201 224 255
201 224 255
201 224 255
201 224 255
201 224 255
201 224 255
201 224 255
201 224 255
201 224 255
201 225 255
201 225 255
201 225 255
201 225 255
201 225 255
201 225 255
202 225 255
202 225 255
202 225 255
202 225 255
202 225 255
202 225 255
202 225 255
202 225 255
202 225 255
202 225 255
202 225 255
202 225 255
202 225 255
202 225 255
202 225 255
202 225 255
202 225 255
202 225 255
202 225 255
203 225 255
203 225 255
203 225 255
203 225 255
203 225 255
203 225 255
203 225 255
203 225 255
203 225 255
203 226 255
203 226 255
203 226 255
203 226 255
203 226 255
203 226 255
203 226 255
204 226 255
204 226 255
204 226 255
204 226 255
204 226 255
204 226 255
204 226 255
204 226 255
204 226 255
204 226 255
204 226 255
204 226 255
204 226 255
204 226 255
204 226 255
204 226 255
205 226 255
205 226 255
205 226 255
205 226 255
205 226 255
205 226 255
205 227 255
205 227 255
205 227 255
205 227 255
205 227 255
205 227 255
205 227 255
205 227 255
205 227 255
205 227 255
206 227 255
206 227 255
206 227 255
206 227 255
206 227 255
206 227 255
206 227 255
206 227 255
206 227 255
206 227 255
206 227 255
206 227 255
206 227 255
206 227 255
206 227 255
206 227 255
206 227 255
207 227 255
207 227 255
207 227 255
207 227 255
207 228 255
207 228 255
207 228 255
207 228 255
207 228 255
207 228 255
207 228 255
207 228 255
207 228 255
207 228 255
207 228 255
207 228 255
207 228 255
207 228 255
207 228 255
208 228 255
208 228 255
208 228 255
208 228 255
208 228 255
208 228 255
208 228 255
208 228 255
208 228 255
208 228 255
208 228 255
208 228 255
208 228 255
208 228 255
208 228 255
208 228 255
208 228 255
208 228 255
208 228 255
209 228 255
209 228 255
209 229 255
209 229 255
209 229 255
209 229 255
209 229 255
209 229 255
209 229 255
209 229 255
209 229 255
209 229 255
209 229 255
209 229 255
209 229 255
209 229 255
209 229 255
209 229 255
209 229 255
209 229 255
209 229 255
209 229 255
209 229 255
210 229 255
210 229 255
210 229 255
210 229 255
210 229 255
210 229 255
210 229 255
210 229 255
210 229 255
210 229 255
210 229 255
210 229 255
210 229 255
210 229 255
209 229 255
209 229 255
209 229 255
209 229 255
209 229 255
209 229 255
209 229 255
209 229 255
209 229 255
209 229 255
209 229 255
209 229 255
209 229 255
209 229 255
209 229 255
209 229 255
209 229 255
209 229 255
209 229 255
209 229 255
209 228 255
209 228 255
208 228 255
208 228 255
208 228 255
208 228 255
208 228 255
208 228 255
208 228 255
208 228 255
208 228 255
208 228 255
208 228 255
208 228 255
208 228 255
208 228 255
208 228 255
208 228 255
208 228 255
208 228 255
208 228 255
208 228 255
207 228 255
207 228 255
207 228 255
207 228 255
207 228 255
207 228 255
207 228 255
207 228 255
207 228 255
207 228 255
207 228 255
207 228 255
207 228 255
207 228 255
207 227 255
207 227 255
207 227 255
207 227 255
206 227 255
206 227 255
206 227 255
206 227 255
206 227 255
206 227 255
206 227 255
206 227 255
206 227 255
206 227 255
206 227 255
206 227 255
206 227 255
206 227 255
206 227 255
206 227 255
206 227 255
205 227 255
205 227 255
205 227 255
205 227 255
205 227 255
205 227 255
205 227 255
205 227 255
205 227 255
205 227 255
205 226 255
205 226 255
205 226 255
205 226 255
205 226 255
205 226 255
204 226 255
204 226 255
204 226 255
204 226 255
204 226 255
204 226 255
204 226 255
204 226 255
204 226 255
204 226 255
204 226 255
204 226 255
204 226 255
204 226 255
204 226 255
204 226 255
203 226 255
203 226 255
203 226 255
203 226 255
203 226 255
203 226 255
203 226 255
203 226 255
203 225 255
203 225 255
203 225 255
203 225 255
203 225 255
203 225 255
203 225 255
203 225 255
203 225 255
202 225 255
202 225 255
202 225 255
202 225 255
202 225 255
202 225 255
202 225 255
202 225 255
202 225 255
202 225 255
202 225 255
202 225 255
202 225 255
202 225 255
202 225 255
202 225 255
202 225 255
202 225 255
202 225 255
201 225 255
201 225 255
201 225 255
201 225 255
201 225 255
201 225 255
201 224 255
201 224 255
201 224 255
201 224 255
201 224 255
201 224 255
201 224 255
201 224 255
201 224 255
201 224 255
201 224 255
201 224 255
201 224 255
201 224 255
201 224 255
201 224 255
201 224 255
201 224 255
201 224 255
201 224 255
201 224 255
201 224 255
200 224 255
200 224 255
200 224 255
200 224 255
200 224 255
200 224 255
200 224 255
200 224 255
200 224 255
200 224 255
200 224 255
200 224 255
200 224 255
200 224 255
200 224 255
200 224 255
200 224 255
200 224 255
200 224 255
200 224 255
200 224 255
200 224 255
200 224 255
200 224 255
200 224 255
200 224 255
200 224 255
200 224 255
200 224 255
200 224 255
200 224 255
200 224 255
200 224 255
200 224 255
200 224 255
200 224 255
201 224 255
201 224 255
201 224 255
201 224 255
201 224 255
201 224 255
201 224 255
201 224 255
201 224 255
201 224 255
201 224 255
201 224 255
201 224 255
201 224 255
201 224 255
201 224 255
201 224 255
201 224 255
201 224 255
201 224 255
201 224 255
201 224 255
201 225 255
201 225 255
201 225 255
201 225 255
201 225 255
201 225 255
202 225 255
202 225 255
202 225 255
202 225 255
202 225 255
202 225 255
202 225 255
202 225 255
202 225 255
202 225 255
202 225 255
202 225 255
202 225 255
202 225 255
202 225 255
202 225 255
202 225 255
202 225 255
202 225 255
203 225 255
203 225 255
203 225 255
203 225 255
203 225 255
203 225 255
203 225 255
203 225 255
203 225 255
203 226 255
203 226 255
203 226 255
203 226 255
203 226 255
203 226 255
203 226 255
203 226 255
204 226 255
204 226 255
204 226 255
204 226 255
204 226 255
204 226 255
204 226 255
204 226 255
204 226 255
204 226 255
204 226 255
204 226 255
204 226 255
204 226 255
204 226 255
204 226 255
205 226 255
205 226 255
205 226 255
205 226 255
205 226 255
205 226 255
205 227 255
205 227 255
205 227 255
205 227 255
205 227 255
205 227 255
205 227 255
205 227 255
205 227 255
205 227 255
206 227 255
206 227 255
206 227 255
206 227 255
206 227 255
206 227 255
206 227 255
206 227 255
206 227 255
206 227 255
206 227 255
206 227 255
206 227 255
206 227 255
206 227 255
206 227 255
206 227 255
207 227 255
207 227 255
207 227 255
207 227 255
207 228 255
207 228 255
207 228 255
207 228 255
207 228 255
207 228 255
207 228 255
207 228 255
207 228 255
207 228 255
207 228 255
207 228 255
207 228 255
207 228 255
208 228 255
208 228 255
208 228 255
208 228 255
208 228 255
208 228 255
208 228 255
208 228 255
208 228 255
208 228 255
208 228 255
208 228 255
208 228 255
208 228 255
208 228 255
208 228 255
208 228 255
208 228 255
208 228 255
208 228 255
209 228 255
209 228 255
209 229 255
209 229 255
209 229 255
209 229 255
209 229 255
209 229 255
209 229 255
209 229 255
209 229 255
209 229 255
209 229 255
209 229 255
209 229 255
209 229 255
209 229 255
209 229 255
209 229 255
209 229 255
209 229 255
209 229 255
209 229 255
210 229 255
210 229 255
210 229 255
210 229 255
210 229 255
210 229 255
210 229 255
210 229 255
210 229 255
210 229 255
210 229 255
210 229 255
210 229 255
210 229 255
210 229 255
210 229 255
210 229 255
210 229 255
210 229 255
210 229 255
209 229 255
209 229 255
209 229 255
209 229 255
209 229 255
209 229 255
209 229 255
209 229 255
209 229 255
209 229 255
209 229 255
209 229 255
209 229 255
209 229 255
209 229 255
209 229 255
209 229 255
209 229 255
209 229 255
209 229 255
209 228 255
209 228 255
208 228 255
208 228 255
208 228 255
208 228 255
208 228 255
208 228 255
208 228 255
208 228 255
208 228 255
208 228 255
208 228 255
208 228 255
208 228 255
208 228 255
208 228 255
208 228 255
208 228 255
208 228 255
208 228 255
208 228 255
207 228 255
207 228 255
207 228 255
207 228 255
207 228 255
207 228 255
207 228 255
207 228 255
207 228 255
207 228 255
207 228 255
207 228 255
207 228 255
207 228 255
207 227 255
207 227 255
207 227 255
207 227 255
206 227 255
206 227 255
206 227 255
206 227 255
206 227 255
206 227 255
206 227 255
206 227 255
206 227 255
206 227 255
206 227 255
206 227 255
206 227 255
206 227 255
206 227 255
206 227 255
206 227 255
205 227 255
205 227 255
205 227 255
205 227 255
205 227 255
205 227 255
205 227 255
205 227 255
205 227 255
205 227 255
205 226 255
205 226 255
205 226 255
205 226 255
205 226 255
205 226 255
204 226 255
204 226 255
204 226 255
204 226 255
204 226 255
204 226 255
204 226 255
204 226 255
204 226 255
204 226 255
204 226 255
204 226 255
204 226 255
204 226 255
204 226 255
204 226 255
204 226 255
203 226 255
203 226 255
203 226 255
203 226 255
203 226 255
203 226 255
203 226 255
203 225 255
203 225 255
203 225 255
203 225 255
203 225 255
203 225 255
203 225 255
203 225 255
203 225 255
203 225 255
202 225 255
202 225 255
202 225 255
202 225 255
202 225 255
202 225 255
202 225 255
202 225 255
202 225 255
202 225 255
202 225 255
202 225 255
202 225 255
202 225 255
202 225 255
202 225 255
202 225 255
202 225 255
202 225 255
201 225 255
201 225 255
201 225 255
201 225 255
201 225 255
201 225 255
201 225 255
201 225 255
201 224 255
201 224 255
201 224 255
201 224 255
201 224 255
201 224 255
201 224 255
201 224 255
201 224 255
201 224 255
201 224 255
201 224 255
201 224 255
201 224 255
201 224 255
201 224 255
201 224 255
201 224 255
201 224 255
201 224 255
201 224 255
201 224 255
201 224 255
201 224 255
201 224 255
201 224 255
201 224 255
201 224 255
201 224 255
201 224 255
201 224 255
201 224 255
201 224 255
201 224 255
201 224 255
201 224 255
201 224 255
201 224 255
201 224 255
201 224 255
201 224 255
201 224 255
201 224 255
201 224 255
201 224 255
201 224 255
201 224 255
201 224 255
201 224 255
201 224 255
201 224 255
201 224 255
201 224 255
201 224 255
201 224 255
201 224 255
201 224 255
201 224 255
201 224 255
201 224 255
201 224 255
201 224 255
201 224 255
201 224 255
201 224 255
201 224 255
201 224 255
201 224 255
201 225 255
201 225 255
201 225 255
201 225 255
201 225 255
201 225 255
201 225 255
202 225 255
202 225 255
202 225 255
202 225 255
202 225 255
202 225 255
202 225 255
202 225 255
202 225 255
202 225 255
202 225 255
202 225 255
202 225 255
202 225 255
202 225 255
202 225 255
202 225 255
202 225 255
202 225 255
202 225 255
203 225 255
203 225 255
203 225 255
203 225 255
203 225 255
203 225 255
203 225 255
203 225 255
203 225 255
203 225 255
203 226 255
203 226 255
203 226 255
203 226 255
203 226 255
203 226 255
203 226 255
204 226 255
204 226 255
204 226 255
204 226 255
204 226 255
204 226 255
204 226 255
204 226 255
204 226 255
204 226 255
204 226 255
204 226 255
204 226 255
204 226 255
204 226 255
204 226 255
204 226 255
205 226 255
205 226 255
205 226 255
205 226 255
205 226 255
205 226 255
205 227 255
205 227 255
205 227 255
205 227 255
205 227 255
205 227 255
205 227 255
205 227 255
205 227 255
205 227 255
206 227 255
206 227 255
206 227 255
206 227 255
206 227 255
206 227 255
206 227 255
206 227 255
206 227 255
206 227 255
206 227 255
206 227 255
206 227 255
206 227 255
206 227 255
206 227 255
206 227 255
207 227 255
207 227 255
207 227 255
207 227 255
207 228 255
207 228 255
207 228 255
207 228 255
207 228 255
207 228 255
207 228 255
207 228 255
207 228 255
207 228 255
207 228 255
207 228 255
207 228 255
207 228 255
208 228 255
208 228 255
208 228 255
208 228 255
208 228 255
208 228 255
208 228 255
208 228 255
208 228 255
208 228 255
208 228 255
208 228 255
208 228 255
208 228 255
208 228 255
208 228 255
208 228 255
208 228 255
208 228 255
208 228 255
209 228 255
209 229 255
209 229 255
209 229 255
209 229 255
209 229 255
209 229 255
209 229 255
209 229 255
209 229 255
209 229 255
209 229 255
209 229 255
209 229 255
209 229 255
209 229 255
209 229 255
209 229 255
209 229 255
209 229 255
209 229 255
209 229 255
210 229 255
210 229 255
210 229 255
210 229 255
210 229 255
210 229 255
210 229 255
210 229 255
210 229 255
210 229 255
210 229 255
210 229 255
210 229 255
210 229 255
210 229 255
210 229 255
210 229 255
210 229 255
210 229 255
210 229 255
210 229 255
210 229 255
210 229 255
210 229 255
210 229 255
210 229 255
210 229 255
210 229 255
209 229 255
209 229 255
209 229 255
209 229 255
209 229 255
209 229 255
209 229 255
209 229 255
209 229 255
209 229 255
209 229 255
209 229 255
209 229 255
209 229 255
209 229 255
209 229 255
209 229 255
209 229 255
209 229 255
209 229 255
209 228 255
209 228 255
208 228 255
208 228 255
208 228 255
208 228 255
208 228 255
208 228 255
208 228 255
208 228 255
208 228 255
208 228 255
208 228 255
208 228 255
208 228 255
208 228 255
208 228 255
208 228 255
208 228 255
208 228 255
208 228 255
207 228 255
207 228 255
207 228 255
207 228 255
207 228 255
207 228 255
207 228 255
207 228 255
207 228 255
207 228 255
207 228 255
207 228 255
207 228 255
207 228 255
207 227 255
207 227 255
207 227 255
207 227 255
206 227 255
206 227 255
206 227 255
206 227 255
206 227 255
206 227 255
206 227 255
206 227 255
206 227 255
206 227 255
206 227 255
206 227 255
206 227 255
206 227 255
206 227 255
206 227 255
206 227 255
205 227 255
205 227 255
205 227 255
205 227 255
205 227 255
205 227 255
205 227 255
205 227 255
205 227 255
205 227 255
205 226 255
205 226 255
205 226 255
205 226 255
205 226 255
205 226 255
205 226 255
204 226 255
204 226 255
204 226 255
204 226 255
204 226 255
204 226 255
204 226 255
204 226 255
204 226 255
204 226 255
204 226 255
204 226 255
204 226 255
204 226 255
204 226 255
204 226 255
203 226 255
203 226 255
203 226 255
203 226 255
203 226 255
203 226 255
203 226 255
203 226 255
203 225 255
203 225 255
203 225 255
203 225 255
203 225 255
203 225 255
203 225 255
203 225 255
203 225 255
203 225 255
202 225 255
202 225 255
202 225 255
202 225 255
202 225 255
202 225 255
202 225 255
202 225 255
202 225 255
202 225 255
202 225 255
202 225 255
202 225 255
202 225 255
202 225 255
202 225 255
202 225 255
202 225 255
202 225 255
202 225 255
201 225 255
201 225 255
201 225 255
201 225 255
201 225 255
201 225 255
201 225 255
201 225 255
201 225 255
201 224 255
201 224 255
201 224 255
201 224 255
201 224 255
201 224 255
201 224 255
201 224 255
201 224 255
201 224 255
201 224 255
201 224 255
201 224 255
201 224 255
201 224 255
201 224 255
201 224 255
201 224 255
201 224 255
201 224 255
201 224 255
201 224 255
201 224 255
201 224 255
201 224 255
201 224 255
201 224 255
201 224 255
201 224 255
201 224 255
201 224 255
201 224 255
201 224 255
201 224 255
201 224 255
201 224 255
201 224 255
201 224 255
201 224 255
201 224 255
201 224 255
201 224 255
201 224 255
201 224 255
201 224 255
201 224 255
201 224 255
201 224 255
201 224 255
201 224 255
201 224 255
201 224 255
201 224 255
201 224 255
201 224 255
201 224 255
201 225 255
201 225 255
201 225 255
201 225 255
201 225 255
201 225 255
201 225 255
201 225 255
202 225 255
202 225 255
202 225 255
202 225 255
202 225 255
202 225 255
202 225 255
202 225 255
202 225 255
202 225 255
202 225 255
202 225 255
202 225 255
202 225 255
202 225 255
202 225 255
202 225 255
202 225 255
202 225 255
202 225 255
202 225 255
203 225 255
203 225 255
203 225 255
203 225 255
203 225 255
203 225 255
203 225 255
203 225 255
203 225 255
203 225 255
203 226 255
203 226 255
203 226 255
203 226 255
203 226 255
203 226 255
203 226 255
203 226 255
204 226 255
204 226 255
204 226 255
204 226 255
204 226 255
204 226 255
204 226 255
204 226 255
204 226 255
204 226 255
204 226 255
204 226 255
204 226 255
204 226 255
204 226 255
204 226 255
205 226 255
205 226 255
205 226 255
205 226 255
205 226 255
205 226 255
205 226 255
205 227 255
205 227 255
205 227 255
205 227 255
205 227 255
205 227 255
205 227 255
205 227 255
205 227 255
205 227 255
206 227 255
206 227 255
206 227 255
206 227 255
206 227 255
206 227 255
206 227 255
206 227 255
206 227 255
206 227 255
206 227 255
206 227 255
206 227 255
206 227 255
206 227 255
206 227 255
206 227 255
207 227 255
207 227 255
207 227 255
207 227 255
207 228 255
207 228 255
207 228 255
207 228 255
207 228 255
207 228 255
207 228 255
207 228 255
207 228 255
207 228 255
207 228 255
207 228 255
207 228 255
207 228 255
208 228 255
208 228 255
208 228 255
208 228 255
208 228 255
208 228 255
208 228 255
208 228 255
208 228 255
208 228 255
208 228 255
208 228 255
208 228 255
208 228 255
208 228 255
208 228 255
208 228 255
208 228 255
208 228 255
209 228 255
209 228 255
209 229 255
209 229 255
209 229 255
209 229 255
209 229 255
209 229 255
209 229 255
209 229 255
209 229 255
209 229 255
209 229 255
209 229 255
209 229 255
209 229 255
209 229 255
209 229 255
209 229 255
209 229 255
209 229 255
209 229 255
210 229 255
210 229 255
210 229 255
210 229 255
210 229 255
210 229 255
210 229 255
210 229 255
210 229 255
210 229 255
210 229 255
210 229 255
210 229 255
210 229 255
210 229 255
210 229 255
210 229 255
210 229 255
210 229 255
210 229 255
210 229 255
210 229 255
210 229 255
210 229 255
210 229 255
210 229 255
210 229 255
210 229 255
210 229 255
210 229 255
210 229 255
210 229 255
210 229 255
210 229 255
210 229 255
209 229 255
209 229 255
209 229 255
209 229 255
209 229 255
209 229 255
209 229 255
209 229 255
209 229 255
209 229 255
209 229 255
209 229 255
209 229 255
209 229 255
209 229 255
209 229 255
209 229 255
209 229 255
209 229 255
209 229 255
209 229 255
209 228 255
208 228 255
208 228 255
208 228 255
208 228 255
208 228 255
208 228 255
208 228 255
208 228 255
208 228 255
208 228 255
208 228 255
208 228 255
208 228 255
208 228 255
208 228 255
208 228 255
208 228 255
208 228 255
208 228 255
208 228 255
207 228 255
207 228 255
207 228 255
207 228 255
207 228 255
207 228 255
207 228 255
207 228 255
207 228 255
207 228 255
207 228 255
207 228 255
207 228 255
207 227 255
207 227 255
207 227 255
207 227 255
207 227 255
206 227 255
206 227 255
206 227 255
206 227 255
206 227 255
206 227 255
206 227 255
206 227 255
206 227 255
206 227 255
206 227 255
206 227 255
206 227 255
206 227 255
206 227 255
206 227 255
206 227 255
205 227 255
205 227 255
205 227 255
205 227 255
205 227 255
205 227 255
205 227 255
205 227 255
205 227 255
205 226 255
205 226 255
205 226 255
205 226 255
205 226 255
205 226 255
205 226 255
204 226 255
204 226 255
204 226 255
204 226 255
204 226 255
204 226 255
204 226 255
204 226 255
204 226 255
204 226 255
204 226 255
204 226 255
204 226 255
204 226 255
204 226 255
204 226 255
204 226 255
203 226 255
203 226 255
203 226 255
203 226 255
203 226 255
203 226 255
203 226 255
203 226 255
203 225 255
203 225 255
203 225 255
203 225 255
203 225 255
203 225 255
203 225 255
203 225 255
203 225 255
203 225 255
202 225 255
202 225 255
202 225 255
202 225 255
202 225 255
202 225 255
202 225 255
202 225 255
202 225 255
202 225 255
202 225 255
202 225 255
202 225 255
202 225 255
202 225 255
202 225 255
202 225 255
202 225 255
202 225 255
202 225 255
202 225 255
202 225 255
202 225 255
201 225 255
201 225 255
201 225 255
201 225 255
201 225 255
201 225 255
201 225 255
201 225 255
201 225 255
201 225 255
201 225 255
201 224 255
201 224 255
201 224 255
201 224 255
201 224 255
201 224 255
201 224 255
201 224 255
201 224 255
201 224 255
201 224 255
201 224 255
201 224 255
201 224 255
201 224 255
201 224 255
201 224 255
201 224 255
201 224 255
201 224 255
201 224 255
201 224 255
201 224 255
201 224 255
201 224 255
201 224 255
201 224 255
201 224 255
201 224 255
201 224 255
201 224 255
201 224 255
201 224 255
201 224 255
201 224 255
201 224 255
201 224 255
201 224 255
201 224 255
201 225 255
201 225 255
201 225 255
201 225 255
201 225 255
201 225 255
201 225 255
201 225 255
201 225 255
201 225 255
202 225 255
202 225 255
202 225 255
202 225 255
202 225 255
202 225 255
202 225 255
202 225 255
202 225 255
202 225 255
202 225 255
202 225 255
202 225 255
202 225 255
202 225 255
202 225 255
202 225 255
202 225 255
202 225 255
202 225 255
202 225 255
202 225 255
202 225 255
203 225 255
203 225 255
203 225 255
203 225 255
203 225 255
203 225 255
203 225 255
203 225 255
203 225 255
203 225 255
203 225 255
203 226 255
203 226 255
203 226 255
203 226 255
203 226 255
203 226 255
203 226 255
204 226 255
204 226 255
204 226 255
204 226 255
204 226 255
204 226 255
204 226 255
204 226 255
204 226 255
204 226 255
204 226 255
204 226 255
204 226 255
204 226 255
204 226 255
204 226 255
204 226 255
205 226 255
205 226 255
205 226 255
205 226 255
205 226 255
205 226 255
205 226 255
205 227 255
205 227 255
205 227 255
205 227 255
205 227 255
205 227 255
205 227 255
205 227 255
205 227 255
205 227 255
206 227 255
206 227 255
206 227 255
206 227 255
206 227 255
206 227 255
206 227 255
206 227 255
206 227 255
206 227 255
206 227 255
206 227 255
206 227 255
206 227 255
206 227 255
206 227 255
207 227 255
207 227 255
207 227 255
207 227 255
207 227 255
207 228 255
207 228 255
207 228 255
207 228 255
207 228 255
207 228 255
207 228 255
207 228 255
207 228 255
207 228 255
207 228 255
207 228 255
207 228 255
207 228 255
208 228 255
208 228 255
208 228 255
208 228 255
208 228 255
208 228 255
208 228 255
208 228 255
208 228 255
208 228 255
208 228 255
208 228 255
208 228 255
208 228 255
208 228 255
208 228 255
208 228 255
208 228 255
208 228 255
209 228 255
209 228 255
209 229 255
209 229 255
209 229 255
209 229 255
209 229 255
209 229 255
209 229 255
209 229 255
209 229 255
209 229 255
209 229 255
209 229 255
209 229 255
209 229 255
209 229 255
209 229 255
209 229 255
209 229 255
209 229 255
209 229 255
210 229 255
210 229 255
210 229 255
210 229 255
210 229 255
210 229 255
210 229 255
210 229 255
210 229 255
210 229 255
210 229 255
210 229 255
210 229 255
210 229 255
210 229 255
210 229 255
210 229 255
210 229 255
210 229 255
210 230 255
210 229 255
210 229 255
210 229 255
210 229 255
210 229 255
210 229 255
210 229 255
210 229 255
210 229 255
210 229 255
210 229 255
210 229 255
210 229 255
210 229 255
210 229 255
210 229 255
210 229 255
210 229 255
210 229 255
210 229 255
210 229 255
210 229 255
209 229 255
209 229 255
209 229 255
209 229 255
209 229 255
209 229 255
209 229 255
209 229 255
209 229 255
209 229 255
209 229 255
209 229 255
209 229 255
209 229 255
209 229 255
209 229 255
209 229 255
209 229 255
209 229 255
209 229 255
209 228 255
208 228 255
208 228 255
208 228 255
208 228 255
208 228 255
208 228 255
208 228 255
208 228 255
208 228 255
208 228 255
208 228 255
208 228 255
208 228 255
208 228 255
208 228 255
208 228 255
208 228 255
208 228 255
208 228 255
208 228 255
207 228 255
207 228 255
207 228 255
207 228 255
207 228 255
207 228 255
207 228 255
207 228 255
207 228 255
207 228 255
207 228 255
207 228 255
207 228 255
207 228 255
207 227 255
207 227 255
207 227 255
207 227 255
206 227 255
206 227 255
206 227 255
206 227 255
206 227 255
206 227 255
206 227 255
206 227 255
206 227 255
206 227 255
206 227 255
206 227 255
206 227 255
206 227 255
206 227 255
206 227 255
206 227 255
205 227 255
205 227 255
205 227 255
205 227 255
205 227 255
205 227 255
205 227 255
205 227 255
205 227 255
205 227 255
205 226 255
205 226 255
205 226 255
205 226 255
205 226 255
205 226 255
204 226 255
204 226 255
204 226 255
204 226 255
204 226 255
204 226 255
204 226 255
204 226 255
204 226 255
204 226 255
204 226 255
204 226 255
204 226 255
204 226 255
204 226 255
204 226 255
204 226 255
203 226 255
203 226 255
203 226 255
203 226 255
203 226 255
203 226 255
203 226 255
203 226 255
203 225 255
203 225 255
203 225 255
203 225 255
203 225 255
203 225 255
203 225 255
203 225 255
203 225 255
203 225 255
203 225 255
202 225 255
202 225 255
202 225 255
202 225 255
202 225 255
202 225 255
202 225 255
202 225 255
202 225 255
202 225 255
202 225 255
202 225 255
202 225 255
202 225 255
202 225 255
202 225 255
202 225 255
202 225 255
202 225 255
202 225 255
202 225 255
202 225 255
202 225 255
202 225 255
202 225 255
202 225 255
201 225 255
201 225 255
201 225 255
201 225 255
201 225 255
201 225 255
201 225 255
201 225 255
201 225 255
201 225 255
201 225 255
201 225 255
201 225 255
201 225 255
201 225 255
201 225 255
201 224 255
201 225 255
201 224 255
201 224 255
201 224 255
201 224 255
201 224 255
201 224 255
201 224 255
201 224 255
201 224 255
201 224 255
201 225 255
201 225 255
201 225 255
201 225 255
201 225 255
201 225 255
201 225 255
201 225 255
201 225 255
201 225 255
201 225 255
201 225 255
201 225 255
201 225 255
201 225 255
201 225 255
201 225 255
201 225 255
202 225 255
202 225 255
202 225 255
202 225 255
202 225 255
202 225 255
202 225 255
202 225 255
202 225 255
202 225 255
202 225 255
202 225 255
202 225 255
202 225 255
202 225 255
202 225 255
202 225 255
202 225 255
202 225 255
202 225 255
202 225 255
202 225 255
202 225 255
202 225 255
202 225 255
202 225 255
203 225 255
203 225 255
203 225 255
203 225 255
203 225 255
203 225 255
203 225 255
203 225 255
203 225 255
203 225 255
203 225 255
203 226 255
203 226 255
203 226 255
203 226 255
203 226 255
203 226 255
203 226 255
203 226 255
204 226 255
204 226 255
204 226 255
204 226 255
204 226 255
204 226 255
204 226 255
204 226 255
204 226 255
204 226 255
204 226 255
204 226 255
204 226 255
204 226 255
204 226 255
204 226 255
205 226 255
205 226 255
205 226 255
205 226 255
205 226 255
205 226 255
205 226 255
205 227 255
205 227 255
205 227 255
205 227 255
205 227 255
205 227 255
205 227 255
205 227 255
205 227 255
205 227 255
206 227 255
206 227 255
206 227 255
206 227 255
206 227 255
206 227 255
206 227 255
206 227 255
206 227 255
206 227 255
206 227 255
206 227 255
206 227 255
206 227 255
206 227 255
206 227 255
206 227 255
207 227 255
207 227 255
207 227 255
207 227 255
207 228 255
207 228 255
207 228 255
207 228 255
207 228 255
207 228 255
207 228 255
207 228 255
207 228 255
207 228 255
207 228 255
207 228 255
207 228 255
207 228 255
208 228 255
208 228 255
208 228 255
208 228 255
208 228 255
208 228 255
208 228 255
208 228 255
208 228 255
208 228 255
208 228 255
208 228 255
208 228 255
208 228 255
208 228 255
208 228 255
208 228 255
208 228 255
208 228 255
208 228 255
209 228 255
209 229 255
209 229 255
209 229 255
209 229 255
209 229 255
209 229 255
209 229 255
209 229 255
209 229 255
209 229 255
209 229 255
209 229 255
209 229 255
209 229 255
209 229 255
209 229 255
209 229 255
209 229 255
209 229 255
209 229 255
210 229 255
210 229 255
210 229 255
210 229 255
210 229 255
210 229 255
210 229 255
210 229 255
210 229 255
210 229 255
210 229 255
210 229 255
210 229 255
210 229 255
210 229 255
210 229 255
210 229 255
210 229 255
210 229 255
210 229 255
210 229 255
210 229 255
210 230 255
211 230 255
211 230 255
210 230 255
210 230 255
210 230 255
210 229 255
210 229 255
210 229 255
210 229 255
210 229 255
210 229 255
210 229 255
210 229 255
210 229 255
210 229 255
210 229 255
210 229 255
210 229 255
210 229 255
210 229 255
210 229 255
210 229 255
210 229 255
210 229 255
210 229 255
210 229 255
210 229 255
209 229 255
209 229 255
209 229 255
209 229 255
209 229 255
209 229 255
209 229 255
209 229 255
209 229 255
209 229 255
209 229 255
209 229 255
209 229 255
209 229 255
209 229 255
209 229 255
209 229 255
209 229 255
209 229 255
209 228 255
209 228 255
208 228 255
208 228 255
208 228 255
208 228 255
208 228 255
208 228 255
208 228 255
208 228 255
208 228 255
208 228 255
208 228 255
208 228 255
208 228 255
208 228 255
208 228 255
208 228 255
208 228 255
208 228 255
208 228 255
207 228 255
207 228 255
207 228 255
207 228 255
207 228 255
207 228 255
207 228 255
207 228 255
207 228 255
207 228 255
207 228 255
207 228 255
207 228 255
207 228 255
207 227 255
207 227 255
207 227 255
207 227 255
206 227 255
206 227 255
206 227 255
206 227 255
206 227 255
206 227 255
206 227 255
206 227 255
206 227 255
206 227 255
206 227 255
206 227 255
206 227 255
206 227 255
206 227 255
206 227 255
206 227 255
205 227 255
205 227 255
205 227 255
205 227 255
205 227 255
205 227 255
205 227 255
205 227 255
205 227 255
205 227 255
205 226 255
205 226 255
205 226 255
205 226 255
205 226 255
205 226 255
205 226 255
204 226 255
204 226 255
204 226 255
204 226 255
204 226 255
204 226 255
204 226 255
204 226 255
204 226 255
204 226 255
204 226 255
204 226 255
204 226 255
204 226 255
204 226 255
204 226 255
204 226 255
203 226 255
203 226 255
203 226 255
203 226 255
203 226 255
203 226 255
203 226 255
203 226 255
203 225 255
203 225 255
203 225 255
203 225 255
203 225 255
203 225 255
203 225 255
203 225 255
203 225 255
203 225 255
203 225 255
203 225 255
202 225 255
202 225 255
202 225 255
202 225 255
202 225 255
202 225 255
202 225 255
202 225 255
202 225 255
202 225 255
202 225 255
202 225 255
202 225 255
202 225 255
202 225 255
202 225 255
202 225 255
202 225 255
202 225 255
202 225 255
202 225 255
202 225 255
202 225 255
202 225 255
202 225 255
202 225 255
202 225 255
202 225 255
202 225 255
202 225 255
202 225 255
202 225 255
201 225 255
201 225 255
201 225 255
201 225 255
201 225 255
201 225 255
201 225 255
201 225 255
201 225 255
201 225 255
201 225 255
201 225 255
201 225 255
201 225 255
201 225 255
201 225 255
201 225 255
201 225 255
201 225 255
201 225 255
201 225 255
201 225 255
201 225 255
201 225 255
202 225 255
202 225 255
202 225 255
202 225 255
202 225 255
202 225 255
202 225 255
202 225 255
202 225 255
202 225 255
202 225 255
202 225 255
202 225 255
202 225 255
202 225 255
202 225 255
202 225 255
202 225 255
202 225 255
202 225 255
202 225 255
202 225 255
202 225 255
202 225 255
202 225 255
202 225 255
202 225 255
202 225 255
202 225 255
202 225 255
202 225 255
202 225 255
203 225 255
203 225 255
203 225 255
203 225 255
203 225 255
203 225 255
203 225 255
203 225 255
203 225 255
203 225 255
203 225 255
203 225 255
203 226 255
203 226 255
203 226 255
203 226 255
203 226 255
203 226 255
203 226 255
203 226 255
204 226 255
204 226 255
204 226 255
204 226 255
204 226 255
204 226 255
204 226 255
204 226 255
204 226 255
204 226 255
204 226 255
204 226 255
204 226 255
204 226 255
204 226 255
204 226 255
204 226 255
205 226 255
205 226 255
205 226 255
205 226 255
205 226 255
205 226 255
205 226 255
205 227 255
205 227 255
205 227 255
205 227 255
205 227 255
205 227 255
205 227 255
205 227 255
205 227 255
205 227 255
206 227 255
206 227 255
206 227 255
206 227 255
206 227 255
206 227 255
206 227 255
206 227 255
206 227 255
206 227 255
206 227 255
206 227 255
206 227 255
206 227 255
206 227 255
206 227 255
206 227 255
207 227 255
207 227 255
207 227 255
207 227 255
207 228 255
207 228 255
207 228 255
207 228 255
207 228 255
207 228 255
207 228 255
207 228 255
207 228 255
207 228 255
207 228 255
207 228 255
207 228 255
207 228 255
208 228 255
208 228 255
208 228 255
208 228 255
208 228 255
208 228 255
208 228 255
208 228 255
208 228 255
208 228 255
208 228 255
208 228 255
208 228 255
208 228 255
208 228 255
208 228 255
208 228 255
208 228 255
208 228 255
209 228 255
209 228 255
209 229 255
209 229 255
209 229 255
209 229 255
209 229 255
209 229 255
209 229 255
209 229 255
209 229 255
209 229 255
209 229 255
209 229 255
209 229 255
209 229 255
209 229 255
209 229 255
209 229 255
209 229 255
209 229 255
210 229 255
210 229 255
210 229 255
210 229 255
210 229 255
210 229 255
210 229 255
210 229 255
210 229 255
210 229 255
210 229 255
210 229 255
210 229 255
210 229 255
210 229 255
210 229 255
210 229 255
210 229 255
210 229 255
210 229 255
210 229 255
210 229 255
210 230 255
210 230 255
210 230 255
211 230 255
211 230 255
211 230 255
211 230 255
211 230 255
211 230 255
211 230 255
211 230 255
210 230 255
210 230 255
210 230 255
210 229 255
210 229 255
210 229 255
210 229 255
210 229 255
210 229 255
210 229 255
210 229 255
210 229 255
210 229 255
210 229 255
210 229 255
210 229 255
210 229 255
210 229 255
210 229 255
210 229 255
210 229 255
210 229 255
210 229 255
210 229 255
209 229 255
209 229 255
209 229 255
209 229 255
209 229 255
209 229 255
209 229 255
209 229 255
209 229 255
209 229 255
209 229 255
209 229 255
209 229 255
209 229 255
209 229 255
209 229 255
209 229 255
209 229 255
209 229 255
209 229 255
209 228 255
208 228 255
208 228 255
208 228 255
208 228 255
208 228 255
208 228 255
208 228 255
208 228 255
208 228 255
208 228 255
208 228 255
208 228 255
208 228 255
208 228 255
208 228 255
208 228 255
208 228 255
208 228 255
208 228 255
208 228 255
207 228 255
207 228 255
207 228 255
207 228 255
207 228 255
207 228 255
207 228 255
207 228 255
207 228 255
207 228 255
207 228 255
207 228 255
207 228 255
207 227 255
207 227 255
207 227 255
207 227 255
206 227 255
206 227 255
206 227 255
206 227 255
206 227 255
206 227 255
206 227 255
206 227 255
206 227 255
206 227 255
206 227 255
206 227 255
206 227 255
206 227 255
206 227 255
206 227 255
206 227 255
206 227 255
205 227 255
205 227 255
205 227 255
205 227 255
205 227 255
205 227 255
205 227 255
205 227 255
205 227 255
205 226 255
205 226 255
205 226 255
205 226 255
205 226 255
205 226 255
205 226 255
204 226 255
204 226 255
204 226 255
204 226 255
204 226 255
204 226 255
204 226 255
204 226 255
204 226 255
204 226 255
204 226 255
204 226 255
204 226 255
204 226 255
204 226 255
204 226 255
204 226 255
204 226 255
203 226 255
203 226 255
203 226 255
203 226 255
203 226 255
203 226 255
203 226 255
203 226 255
203 226 255
203 225 255
203 225 255
203 225 255
203 225 255
203 225 255
203 225 255
203 225 255
203 225 255
203 225 255
203 225 255
203 225 255
203 225 255
202 225 255
202 225 255
202 225 255
202 225 255
202 225 255
202 225 255
202 225 255
202 225 255
202 225 255
202 225 255
202 225 255
202 225 255
202 225 255
202 225 255
202 225 255
202 225 255
202 225 255
202 225 255
202 225 255
202 225 255
202 225 255
202 225 255
202 225 255
202 225 255
202 225 255
202 225 255
202 225 255
202 225 255
202 225 255
202 225 255
202 225 255
202 225 255
202 225 255
202 225 255
202 225 255
202 225 255
202 225 255
202 225 255
202 225 255
202 225 255
202 225 255
202 225 255
202 225 255
202 225 255
202 225 255
202 225 255
202 225 255
202 225 255
202 225 255
202 225 255
202 225 255
202 225 255
202 225 255
202 225 255
202 225 255
202 225 255
202 225 255
202 225 255
202 225 255
202 225 255
202 225 255
202 225 255
202 225 255
202 225 255
202 225 255
202 225 255
202 225 255
202 225 255
202 225 255
202 225 255
202 225 255
202 225 255
202 225 255
202 225 255
202 225 255
202 225 255
202 225 255
202 225 255
203 225 255
203 225 255
203 225 255
203 225 255
203 225 255
203 225 255
203 225 255
203 225 255
203 225 255
203 225 255
203 225 255
203 225 255
203 226 255
203 226 255
203 226 255
203 226 255
203 226 255
203 226 255
203 226 255
203 226 255
203 226 255
204 226 255
204 226 255
204 226 255
204 226 255
204 226 255
204 226 255
204 226 255
204 226 255
204 226 255
204 226 255
204 226 255
204 226 255
204 226 255
204 226 255
204 226 255
204 226 255
204 226 255
205 226 255
205 226 255
205 226 255
205 226 255
205 226 255
205 226 255
205 226 255
205 227 255
205 227 255
205 227 255
205 227 255
205 227 255
205 227 255
205 227 255
205 227 255
205 227 255
205 227 255
205 227 255
206 227 255
206 227 255
206 227 255
206 227 255
206 227 255
206 227 255
206 227 255
206 227 255
206 227 255
206 227 255
206 227 255
206 227 255
206 227 255
206 227 255
206 227 255
206 227 255
207 227 255
207 227 255
207 227 255
207 227 255
207 227 255
207 228 255
207 228 255
207 228 255
207 228 255
207 228 255
207 228 255
207 228 255
207 228 255
207 228 255
207 228 255
207 228 255
207 228 255
207 228 255
208 228 255
208 228 255
208 228 255
208 228 255
208 228 255
208 228 255
208 228 255
208 228 255
208 228 255
208 228 255
208 228 255
208 228 255
208 228 255
208 228 255
208 228 255
208 228 255
208 228 255
208 228 255
208 228 255
209 228 255
209 228 255
209 229 255
209 229 255
209 229 255
209 229 255
209 229 255
209 229 255
209 229 255
209 229 255
209 229 255
209 229 255
209 229 255
209 229 255
209 229 255
209 229 255
209 229 255
209 229 255
209 229 255
209 229 255
209 229 255
209 229 255
210 229 255
210 229 255
210 229 255
210 229 255
210 229 255
210 229 255
210 229 255
210 229 255
210 229 255
210 229 255
210 229 255
210 229 255
210 229 255
210 229 255
210 229 255
210 229 255
210 229 255
210 229 255
210 229 255
210 229 255
210 229 255
210 230 255
210 230 255
210 230 255
211 230 255
211 230 255
211 230 255
211 230 255
211 230 255
211 230 255
211 230 255
211 230 255
211 230 255
211 230 255
211 230 255
211 230 255
211 230 255
211 230 255
211 230 255
211 230 255
210 230 255
210 230 255
210 230 255
210 229 255
210 229 255
210 229 255
210 229 255
210 229 255
210 229 255
210 229 255
210 229 255
210 229 255
210 229 255
210 229 255
210 229 255
210 229 255
210 229 255
210 229 255
210 229 255
210 229 255
210 229 255
210 229 255
210 229 255
210 229 255
209 229 255
209 229 255
209 229 255
209 229 255
209 229 255
209 229 255
209 229 255
209 228 255
208 228 255
208 228 255
208 228 255
207 228 255
207 228 255
207 228 255
207 227 255
207 228 255
207 228 255
207 227 255
207 228 255
207 228 255
207 228 255
207 228 255
207 228 255
208 228 255
208 228 255
208 228 255
208 228 255
208 228 255
208 228 255
208 228 255
208 228 255
208 228 255
208 228 255
208 228 255
208 228 255
208 228 255
208 228 255
208 228 255
208 228 255
208 228 255
207 228 255
207 228 255
207 228 255
207 228 255
207 228 255
207 228 255
207 228 255
207 228 255
207 228 255
207 228 255
207 228 255
207 228 255
207 228 255
207 228 255
207 227 255
207 227 255
207 227 255
207 227 255
206 227 255
206 227 255
206 227 255
206 227 255
206 227 255
206 227 255
206 227 255
206 227 255
206 227 255
206 227 255
206 227 255
206 227 255
206 227 255
206 227 255
206 227 255
206 227 255
206 227 255
205 227 255
205 227 255
205 227 255
205 227 255
205 227 255
205 227 255
205 227 255
205 227 255
205 227 255
205 227 255
205 226 255
205 226 255
205 226 255
205 226 255
205 226 255
205 226 255
205 226 255
204 226 255
204 226 255
204 226 255
204 226 255
204 226 255
204 226 255
204 226 255
204 226 255
204 226 255
204 226 255
204 226 255
204 226 255
204 226 255
204 226 255
204 226 255
204 226 255
204 226 255
204 226 255
203 226 255
203 226 255
203 226 255
203 226 255
203 226 255
203 226 255
203 226 255
203 226 255
203 226 255
203 225 255
203 225 255
203 225 255
203 225 255
203 225 255
203 225 255
203 225 255
203 225 255
203 225 255
203 225 255
203 225 255
203 225 255
203 225 255
203 225 255
202 225 255
202 225 255
202 225 255
202 225 255
202 225 255
202 225 255
202 225 255
202 225 255
202 225 255
202 225 255
202 225 255
202 225 255
202 225 255
202 225 255
202 225 255
202 225 255
202 225 255
202 225 255
202 225 255
202 225 255
202 225 255
202 225 255
202 225 255
202 225 255
202 225 255
202 225 255
202 225 255
202 225 255
202 225 255
202 225 255
202 225 255
202 225 255
202 225 255
202 225 255
202 225 255
202 225 255
202 225 255
202 225 255
202 225 255
202 225 255
202 225 255
202 225 255
202 225 255
202 225 255
202 225 255
202 225 255
202 225 255
202 225 255
202 225 255
202 225 255
202 225 255
202 225 255
202 225 255
202 225 255
202 225 255
202 225 255
202 225 255
202 225 255
202 225 255
202 225 255
202 225 255
202 225 255
202 225 255
202 225 255
202 225 255
202 225 255
203 225 255
203 225 255
203 225 255
203 225 255
203 225 255
203 225 255
203 225 255
203 225 255
203 225 255
203 225 255
203 225 255
203 225 255
203 225 255
203 225 255
203 226 255
203 226 255
203 226 255
203 226 255
203 226 255
203 226 255
203 226 255
203 226 255
204 226 255
204 226 255
204 226 255
204 226 255
204 226 255
204 226 255
204 226 255
204 226 255
204 226 255
204 226 255
204 226 255
204 226 255
204 226 255
204 226 255
204 226 255
204 226 255
204 226 255
204 226 255
204 226 255
205 226 255
205 226 255
205 226 255
205 226 255
205 226 255
205 226 255
205 226 255
205 227 255
205 227 255
205 227 255
205 227 255
205 227 255
205 227 255
205 227 255
205 227 255
205 227 255
205 227 255
206 227 255
206 227 255
206 227 255
206 227 255
206 227 255
206 227 255
206 227 255
206 227 255
206 227 255
206 227 255
206 227 255
206 227 255
206 227 255
206 227 255
206 227 255
206 227 255
206 227 255
207 227 255
207 227 255
207 227 255
207 227 255
207 228 255
207 228 255
207 228 255
207 228 255
207 228 255
207 228 255
207 228 255
207 228 255
207 228 255
207 228 255
207 228 255
207 228 255
207 228 255
207 228 255
208 228 255
208 228 255
208 228 255
208 228 255
208 228 255
208 228 255
208 228 255
208 228 255
208 228 255
208 228 255
208 228 255
208 228 255
206 225 250
205 224 250
196 212 231
197 216 239
188 204 223
191 206 222
179 193 207
179 193 205
185 200 213
176 188 195
171 182 189
180 193 207
184 195 199
182 194 203
172 185 194
183 197 209
191 206 221
192 208 223
189 205 222
196 212 232
195 212 233
198 215 234
204 222 245
206 225 252
209 229 255
209 229 255
209 229 255
209 229 255
210 229 255
210 229 255
210 229 255
210 229 255
210 229 255
210 229 255
210 229 255
210 229 255
210 229 255
210 229 255
210 229 255
210 229 255
210 229 255
210 229 255
210 229 255
210 229 255
210 229 255
210 229 255
210 229 255
210 229 255
210 229 255
210 230 255
210 230 255
210 230 255
211 230 255
211 230 255
211 230 255
211 230 255
211 230 255
211 230 255
211 230 255
211 230 255
211 230 255
211 230 255
211 230 255
211 230 255
211 230 255
211 230 255
211 230 255
211 230 255
211 230 255
211 230 255
211 230 255
211 230 255
211 230 255
211 230 255
211 230 255
211 230 255
210 230 255
210 230 255
210 230 255
210 229 255
210 229 255
210 229 255
210 229 255
210 229 255
210 229 255
210 229 255
210 229 255
210 229 255
210 229 255
210 229 255
210 229 255
210 229 255
209 229 255
209 229 255
208 228 255
207 228 255
206 227 255
206 227 255
205 227 255
204 226 255
204 226 255
203 225 255
202 225 255
202 225 255
201 225 255
201 224 255
201 224 255
200 224 255
200 224 255
200 224 255
200 224 255
200 224 255
200 224 255
199 223 255
200 224 255
199 223 255
200 224 255
199 224 255
200 224 255
199 224 255
200 224 255
200 224 255
201 224 255
201 224 255
202 225 255
203 225 255
203 226 255
204 226 255
206 227 255
206 227 255
206 227 255
207 228 255
208 228 255
208 228 255
208 228 255
208 228 255
208 228 255
208 228 255
208 228 255
208 228 255
207 228 255
207 228 255
207 228 255
207 228 255
207 228 255
207 228 255
207 228 255
207 228 255
207 228 255
207 228 255
207 228 255
207 228 255
207 228 255
207 227 255
207 227 255
207 227 255
207 227 255
206 227 255
206 227 255
206 227 255
206 227 255
206 227 255
206 227 255
206 227 255
206 227 255
206 227 255
206 227 255
206 227 255
206 227 255
206 227 255
206 227 255
206 227 255
206 227 255
206 227 255
206 227 255
205 227 255
205 227 255
205 227 255
205 227 255
205 227 255
205 227 255
205 227 255
205 227 255
205 227 255
205 227 255
205 226 255
205 226 255
205 226 255
205 226 255
205 226 255
205 226 255
205 226 255
204 226 255
204 226 255
204 226 255
204 226 255
204 226 255
204 226 255
204 226 255
204 226 255
204 226 255
204 226 255
204 226 255
204 226 255
204 226 255
204 226 255
204 226 255
204 226 255
204 226 255
204 226 255
204 226 255
203 226 255
203 226 255
203 226 255
203 226 255
203 226 255
203 226 255
203 226 255
203 226 255
203 226 255
203 226 255
203 225 255
203 225 255
203 225 255
203 225 255
203 225 255
203 225 255
203 225 255
203 225 255
203 225 255
203 225 255
203 225 255
203 225 255
203 225 255
203 225 255
203 225 255
202 225 255
202 225 255
202 225 255
202 225 255
202 225 255
202 225 255
202 225 255
202 225 255
202 225 255
202 225 255
202 225 255
202 225 255
202 225 255
202 225 255
202 225 255
202 225 255
202 225 255
202 225 255
202 225 255
202 225 255
202 225 255
202 225 255
202 225 255
202 225 255
202 225 255
202 225 255
202 225 255
202 225 255
202 225 255
202 225 255
202 225 255
202 225 255
202 225 255
202 225 255
202 225 255
202 225 255
202 225 255
202 225 255
202 225 255
202 225 255
202 225 255
202 225 255
202 225 255
202 225 255
202 225 255
202 225 255
202 225 255
202 225 255
202 225 255
202 225 255
202 225 255
202 225 255
203 225 255
203 225 255
203 225 255
203 225 255
203 225 255
203 225 255
203 225 255
203 225 255
203 225 255
203 225 255
203 225 255
203 225 255
203 225 255
203 225 255
203 225 255
203 226 255
203 226 255
203 226 255
203 226 255
203 226 255
203 226 255
203 226 255
203 226 255
203 226 255
203 226 255
204 226 255
204 226 255
204 226 255
204 226 255
204 226 255
204 226 255
204 226 255
204 226 255
204 226 255
204 226 255
204 226 255
204 226 255
204 226 255
204 226 255
204 226 255
204 226 255
204 226 255
204 226 255
204 226 255
205 226 255
205 226 255
205 226 255
205 226 255
205 226 255
205 226 255
205 226 255
205 227 255
205 227 255
205 227 255
205 227 255
205 227 255
205 227 255
205 227 255
205 227 255
205 227 255
205 227 255
206 227 255
206 227 255
206 227 255
206 227 255
206 227 255
206 227 255
206 227 255
206 227 255
206 227 255
206 227 255
206 227 255
206 227 255
206 227 255
206 227 255
206 227 255
206 227 255
206 227 255
206 227 255
207 227 255
207 227 255
207 227 255
207 227 255
207 228 255
207 228 255
207 228 255
207 228 255
207 228 255
207 228 255
207 228 255
207 228 255
207 228 255
207 228 255
207 228 255
207 228 255
207 228 255
208 228 255
208 228 255
208 228 255
208 228 255
208 228 255
208 228 255
208 228 255
206 225 252
197 214 232
186 202 217
176 188 197
172 182 186
165 175 177
155 161 150
142 145 125
146 147 122
130 128 87
140 138 91
129 127 84
128 126 84
124 122 81
128 126 84
145 142 95
148 145 97
135 133 88
127 124 82
125 123 82
137 134 89
134 131 87
130 128 85
127 125 83
130 129 86
130 128 85
137 134 88
121 119 80
130 126 83
118 115 75
132 129 85
124 120 79
128 126 85
131 129 92
148 151 131
157 163 153
162 168 159
170 179 182
176 187 194
192 206 220
198 214 235
207 225 248
210 229 255
210 229 255
210 229 255
210 229 255
210 229 255
210 229 255
210 229 255
210 229 255
210 229 255
210 229 255
210 229 255
210 229 255
210 230 255
210 230 255
210 230 255
211 230 255
211 230 255
211 230 255
211 230 255
211 230 255
211 230 255
211 230 255
211 230 255
211 230 255
211 230 255
211 230 255
211 230 255
211 230 255
211 230 255
211 230 255
211 230 255
211 230 255
211 230 255
211 230 255
211 230 255
211 230 255
211 230 255
211 230 255
211 230 255
211 230 255
211 230 255
211 230 255
211 230 255
211 230 255
211 230 255
211 230 255
211 230 255
210 230 255
210 230 255
210 230 255
210 229 255
210 229 255
210 229 255
210 229 255
209 229 255
208 228 255
207 227 255
205 227 255
204 226 255
203 226 255
203 225 255
202 225 255
201 225 255
201 224 255
200 224 255
200 224 255
199 224 255
199 223 255
198 223 255
198 223 255
198 223 255
198 223 255
197 222 255
197 222 255
197 222 255
197 222 255
196 222 255
196 222 255
196 222 255
196 222 255
196 222 255
196 222 255
195 221 255
195 221 255
195 221 255
195 221 255
195 221 255
195 221 255
196 222 255
196 222 255
196 222 255
196 222 255
196 222 255
196 222 255
197 222 255
197 222 255
198 223 255
198 223 255
199 223 255
200 224 255
201 224 255
203 225 255
205 227 255
205 227 255
207 227 255
208 228 255
208 228 255
208 228 255
208 228 255
208 228 255
207 228 255
207 228 255
207 228 255
207 228 255
207 228 255
207 228 255
207 228 255
207 228 255
207 228 255
207 228 255
207 228 255
207 228 255
207 228 255
207 228 255
207 227 255
207 227 255
207 227 255
207 227 255
206 227 255
206 227 255
206 227 255
206 227 255
206 227 255
206 227 255
206 227 255
206 227 255
206 227 255
206 227 255
206 227 255
206 227 255
206 227 255
206 227 255
206 227 255
206 227 255
206 227 255
205 227 255
205 227 255
205 227 255
205 227 255
205 227 255
205 227 255
205 227 255
205 227 255
205 227 255
205 227 255
205 227 255
205 226 255
205 226 255
205 226 255
205 226 255
205 226 255
205 226 255
205 226 255
204 226 255
204 226 255
204 226 255
204 226 255
204 226 255
204 226 255
204 226 255
204 226 255
204 226 255
204 226 255
204 226 255
204 226 255
204 226 255
204 226 255
204 226 255
204 226 255
204 226 255
204 226 255
204 226 255
204 226 255
203 226 255
203 226 255
203 226 255
203 226 255
203 226 255
203 226 255
203 226 255
203 226 255
203 226 255
203 226 255
203 225 255
203 225 255
203 225 255
203 225 255
203 225 255
203 225 255
203 225 255
203 225 255
203 225 255
203 225 255
203 225 255
203 225 255
203 225 255
203 225 255
203 225 255
203 225 255
203 225 255
203 225 255
203 225 255
202 225 255
202 225 255
202 225 255
202 225 255
202 225 255
202 225 255
202 225 255
202 225 255
202 225 255
202 225 255
202 225 255
202 225 255
202 225 255
202 225 255
202 225 255
202 225 255
202 225 255
202 225 255
202 225 255
202 225 255
202 225 255
202 225 255
202 225 255
202 225 255
202 225 255
202 225 255
202 225 255
202 225 255
202 225 255
202 225 255
202 225 255
202 225 255
202 225 255
203 225 255
203 225 255
203 225 255
203 225 255
203 225 255
203 225 255
203 225 255
203 225 255
203 225 255
203 225 255
203 225 255
203 225 255
203 225 255
203 225 255
203 225 255
203 225 255
203 225 255
203 225 255
203 225 255
203 226 255
203 226 255
203 226 255
203 226 255
203 226 255
203 226 255
203 226 255
203 226 255
203 226 255
203 226 255
203 226 255
203 226 255
204 226 255
204 226 255
204 226 255
204 226 255
204 226 255
204 226 255
204 226 255
204 226 255
204 226 255
204 226 255
204 226 255
204 226 255
204 226 255
204 226 255
204 226 255
204 226 255
204 226 255
204 226 255
204 226 255
205 226 255
205 226 255
205 226 255
205 226 255
205 226 255
205 226 255
205 226 255
205 227 255
205 227 255
205 227 255
205 227 255
205 227 255
205 227 255
205 227 255
205 227 255
205 227 255
205 227 255
206 227 255
206 227 255
206 227 255
206 227 255
206 227 255
206 227 255
206 227 255
206 227 255
206 227 255
206 227 255
206 227 255
206 227 255
206 227 255
206 227 255
206 227 255
206 227 255
206 227 255
206 227 255
207 227 255
207 227 255
207 227 255
207 227 255
207 228 255
207 228 255
207 228 255
207 228 255
207 228 255
207 228 255
207 228 255
207 228 255
207 228 255
207 228 255
207 228 255
207 228 255
207 228 255
207 228 255
208 228 255
208 228 255
208 228 255
208 228 255
202 221 245
194 211 229
173 184 188
163 172 172
152 156 137
142 142 115
132 130 87
127 126 84
128 126 84
139 137 91
139 137 91
133 131 87
138 135 90
129 127 85
125 123 83
135 133 89
126 125 84
136 134 90
133 132 88
147 144 96
139 136 90
133 131 87
133 130 87
132 130 87
136 134 89
137 134 88
135 132 87
139 135 90
129 127 84
134 131 87
150 147 97
140 137 91
129 126 83
138 135 89
128 125 82
135 132 87
139 137 92
130 128 85
124 123 81
130 128 85
131 128 85
132 128 84
137 133 87
122 119 78
136 133 86
126 123 81
126 122 78
137 133 86
139 139 112
151 156 145
161 170 169
176 187 191
192 207 222
205 223 247
210 229 255
210 229 255
210 230 255
210 230 255
210 230 255
211 230 255
211 230 255
211 230 255
211 230 255
211 230 255
211 230 255
211 230 255
211 230 255
211 230 255
211 230 255
211 230 255
211 230 255
211 230 255
211 230 255
211 230 255
211 230 255
211 230 255
211 230 255
211 230 255
211 230 255
211 230 255
211 230 255
211 230 255
211 230 255
211 230 255
211 230 255
211 230 255
211 230 255
211 230 255
211 230 255
211 230 255
211 230 255
211 230 255
211 230 255
211 230 255
211 230 255
210 229 255
210 229 255
208 228 255
207 228 255
206 227 255
205 226 255
204 226 255
203 225 255
202 225 255
202 225 255
201 224 255
200 224 255
200 224 255
199 223 255
199 223 255
198 223 255
198 223 255
198 223 255
197 222 255
197 222 255
196 222 255
196 222 255
196 222 255
196 221 255
195 221 255
195 221 255
195 221 255
194 221 255
194 221 255
194 221 255
194 220 255
194 220 255
193 220 255
193 220 255
193 220 255
193 220 255
193 220 255
193 220 255
193 220 255
193 220 255
193 220 255
193 220 255
193 220 255
193 220 255
193 220 255
193 220 255
193 220 255
193 220 255
193 220 255
194 220 255
194 221 255
194 221 255
195 221 255
195 221 255
196 222 255
196 222 255
197 222 255
198 223 255
199 223 255
201 225 255
203 226 255
205 226 255
206 227 255
207 228 255
208 228 255
208 228 255
208 228 255
207 228 255
207 228 255
207 228 255
207 228 255
207 228 255
207 228 255
207 228 255
207 228 255
207 228 255
207 228 255
207 228 255
207 228 255
207 228 255
207 227 255
207 227 255
207 227 255
207 227 255
207 227 255
206 227 255
206 227 255
206 227 255
206 227 255
206 227 255
206 227 255
206 227 255
206 227 255
206 227 255
206 227 255
206 227 255
206 227 255
206 227 255
206 227 255
206 227 255
206 227 255
206 227 255
205 227 255
205 227 255
205 227 255
205 227 255
205 227 255
205 227 255
205 227 255
205 227 255
205 227 255
205 227 255
205 227 255
205 226 255
205 226 255
205 226 255
205 226 255
205 226 255
205 226 255
205 226 255
204 226 255
204 226 255
204 226 255
204 226 255
204 226 255
204 226 255
204 226 255
204 226 255
204 226 255
204 226 255
204 226 255
204 226 255
204 226 255
204 226 255
204 226 255
204 226 255
204 226 255
204 226 255
204 226 255
204 226 255
204 226 255
203 226 255
203 226 255
203 226 255
203 226 255
203 226 255
203 226 255
203 226 255
203 226 255
203 226 255
203 226 255
203 226 255
203 226 255
203 225 255
203 225 255
203 225 255
203 225 255
203 225 255
203 225 255
203 225 255
203 225 255
203 225 255
203 225 255
203 225 255
203 225 255
203 225 255
203 225 255
203 225 255
203 225 255
203 225 255
203 225 255
203 225 255
203 225 255
203 225 255
203 225 255
203 225 255
203 225 255
203 225 255
203 225 255
203 225 255
203 225 255
203 225 255
203 225 255
203 225 255
203 225 255
203 225 255
203 225 255
203 225 255
203 225 255
203 225 255
203 225 255
203 225 255
203 225 255
203 225 255
203 225 255
203 225 255
203 225 255
203 225 255
203 225 255
203 225 255
203 225 255
203 225 255
203 225 255
203 225 255
203 225 255
203 225 255
203 225 255
203 225 255
203 225 255
203 225 255
203 225 255
203 226 255
203 226 255
203 226 255
203 226 255
203 226 255
203 226 255
203 226 255
203 226 255
203 226 255
203 226 255
203 226 255
203 226 255
204 226 255
204 226 255
204 226 255
204 226 255
204 226 255
204 226 255
204 226 255
204 226 255
204 226 255
204 226 255
204 226 255
204 226 255
204 226 255
204 226 255
204 226 255
204 226 255
204 226 255
204 226 255
204 226 255
204 226 255
204 226 255
205 226 255
205 226 255
205 226 255
205 226 255
205 226 255
205 226 255
205 226 255
205 227 255
205 227 255
205 227 255
205 227 255
205 227 255
205 227 255
205 227 255
205 227 255
205 227 255
205 227 255
205 227 255
206 227 255
206 227 255
206 227 255
206 227 255
206 227 255
206 227 255
206 227 255
206 227 255
206 227 255
206 227 255
206 227 255
206 227 255
206 227 255
206 227 255
206 227 255
206 227 255
206 227 255
207 227 255
207 227 255
207 227 255
207 227 255
207 227 255
207 228 255
207 228 255
207 228 255
207 228 255
207 228 255
207 228 255
207 228 255
207 228 255
207 228 255
207 228 255
207 228 255
207 228 255
207 228 255
208 228 255
208 228 255
208 228 255
202 221 246
179 194 210
170 181 186
146 150 131
131 131 103
127 125 84
131 130 87
133 131 87
139 137 91
129 127 84
132 130 87
131 129 86
141 139 93
136 135 90
140 139 93
130 128 86
131 129 86
140 138 93
126 125 84
137 135 90
137 135 90
141 140 94
138 136 91
139 137 91
139 137 91
141 139 93
144 141 94
145 142 95
137 135 90
133 131 87
127 126 84
134 132 88
133 131 87
138 136 90
127 125 84
133 130 87
137 134 88
128 127 85
142 139 92
152 149 98
145 142 95
137 134 89
142 140 93
141 138 91
129 126 83
132 130 86
128 125 83
138 135 89
128 124 82
136 133 86
136 133 88
132 129 85
138 135 89
130 128 83
138 135 89
134 132 87
127 124 80
138 134 89
125 122 80
148 148 119
159 163 149
163 173 177
189 202 214
208 226 249
211 230 255
211 230 255
211 230 255
211 230 255
211 230 255
211 230 255
211 230 255
211 230 255
211 230 255
211 230 255
211 230 255
211 230 255
211 230 255
211 230 255
211 230 255
211 230 255
211 230 255
211 230 255
211 230 255
211 230 255
211 230 255
211 230 255
211 230 255
211 230 255
211 230 255
211 230 255
211 230 255
211 230 255
211 230 255
211 230 255
211 230 255
211 230 255
211 230 255
210 229 255
208 228 255
207 228 255
206 227 255
204 226 255
203 226 255
203 225 255
202 225 255
201 225 255
201 224 255
200 224 255
200 224 255
199 223 255
199 223 255
198 223 255
198 223 255
197 222 255
197 222 255
196 222 255
196 222 255
196 221 255
195 221 255
195 221 255
195 221 255
194 221 255
194 221 255
194 220 255
193 220 255
193 220 255
193 220 255
193 220 255
192 220 255
192 220 255
192 220 255
192 219 255
192 219 255
191 219 255
191 219 255
191 219 255
191 219 255
191 219 255
191 219 255
191 219 255
191 219 255
191 219 255
191 219 255
190 219 255
190 219 255
190 219 255
191 219 255
191 219 255
191 219 255
191 219 255
191 219 255
191 219 255
191 219 255
192 220 255
192 220 255
192 220 255
193 220 255
193 220 255
194 221 255
195 221 255
196 221 255
196 222 255
198 223 255
199 224 255
201 225 255
203 226 255
206 227 255
207 228 255
208 228 255
208 228 255
208 228 255
207 228 255
207 228 255
207 228 255
207 228 255
207 228 255
207 228 255
207 228 255
207 228 255
207 228 255
207 228 255
207 228 255
207 228 255
207 228 255
207 227 255
207 227 255
207 227 255
207 227 255
207 227 255
206 227 255
206 227 255
206 227 255
206 227 255
206 227 255
206 227 255
206 227 255
206 227 255
206 227 255
206 227 255
206 227 255
206 227 255
206 227 255
206 227 255
206 227 255
206 227 255
206 227 255
205 227 255
205 227 255
205 227 255
205 227 255
205 227 255
205 227 255
205 227 255
205 227 255
205 227 255
205 227 255
205 227 255
205 226 255
205 226 255
205 226 255
205 226 255
205 226 255
205 226 255
205 226 255
205 226 255
204 226 255
204 226 255
204 226 255
204 226 255
204 226 255
204 226 255
204 226 255
204 226 255
204 226 255
204 226 255
204 226 255
204 226 255
204 226 255
204 226 255
204 226 255
204 226 255
204 226 255
204 226 255
204 226 255
204 226 255
204 226 255
204 226 255
203 226 255
203 226 255
203 226 255
203 226 255
203 226 255
203 226 255
203 226 255
203 226 255
203 226 255
203 226 255
203 226 255
203 226 255
203 226 255
203 226 255
203 226 255
203 225 255
203 225 255
203 225 255
203 225 255
203 225 255
203 225 255
203 225 255
203 225 255
203 225 255
203 225 255
203 225 255
203 225 255
203 225 255
203 225 255
203 225 255
203 225 255
203 225 255
203 225 255
203 225 255
203 225 255
203 225 255
203 225 255
203 225 255
203 225 255
203 225 255
203 225 255
203 225 255
203 225 255
203 225 255
203 225 255
203 225 255
203 225 255
203 225 255
203 225 255
203 225 255
203 225 255
203 225 255
203 225 255
203 225 255
203 225 255
203 226 255
203 226 255
203 226 255
203 226 255
203 226 255
203 226 255
203 226 255
203 226 255
203 226 255
203 226 255
203 226 255
203 226 255
203 226 255
203 226 255
203 226 255
204 226 255
204 226 255
204 226 255
204 226 255
204 226 255
204 226 255
204 226 255
204 226 255
204 226 255
204 226 255
204 226 255
204 226 255
204 226 255
204 226 255
204 226 255
204 226 255
204 226 255
204 226 255
204 226 255
204 226 255
204 226 255
204 226 255
205 226 255
205 226 255
205 226 255
205 226 255
205 226 255
205 226 255
205 226 255
205 226 255
205 227 255
205 227 255
205 227 255
205 227 255
205 227 255
205 227 255
205 227 255
205 227 255
205 227 255
205 227 255
205 227 255
206 227 255
206 227 255
206 227 255
206 227 255
206 227 255
206 227 255
206 227 255
206 227 255
206 227 255
206 227 255
206 227 255
206 227 255
206 227 255
206 227 255
206 227 255
206 227 255
206 227 255
206 227 255
207 227 255
207 227 255
207 227 255
207 227 255
207 228 255
207 228 255
207 228 255
207 228 255
207 228 255
207 228 255
207 228 255
207 228 255
207 228 255
207 228 255
207 228 255
207 228 255
207 228 255
207 228 255
208 228 255
208 228 255
194 212 232
178 192 203
167 175 170
128 132 117
124 123 82
127 126 84
131 130 87
134 132 88
126 124 83
127 126 84
130 128 86
131 129 87
134 132 88
134 133 90
139 136 91
137 135 90
131 129 86
131 130 87
134 131 87
130 128 85
139 138 93
143 141 95
135 133 89
136 134 90
139 137 92
136 134 90
140 138 92
138 136 91
146 144 97
145 143 95
135 132 88
144 141 94
141 139 93
139 137 91
141 140 93
137 135 90
135 133 89
136 135 90
140 138 93
135 133 88
146 143 95
139 137 92
140 138 91
139 138 92
130 126 84
132 130 86
143 141 93
145 142 93
141 138 90
138 135 90
142 140 94
137 135 90
132 128 84
137 134 89
134 132 88
135 132 87
135 132 87
132 129 86
135 132 87
132 129 84
124 122 80
138 135 89
147 144 93
133 130 85
128 125 80
120 118 77
118 116 74
133 128 83
142 140 109
174 183 181
182 192 197
204 221 243
211 230 255
211 230 255
211 230 255
211 230 255
211 230 255
211 230 255
211 230 255
211 230 255
211 230 255
211 230 255
211 230 255
211 230 255
211 230 255
211 230 255
212 230 255
212 230 255
212 230 255
212 230 255
211 230 255
211 230 255
211 230 255
211 230 255
211 230 255
211 230 255
211 230 255
210 229 255
209 229 255
207 228 255
206 227 255
205 226 255
204 226 255
203 225 255
202 225 255
201 225 255
201 224 255
200 224 255
200 224 255
199 223 255
199 223 255
198 223 255
198 223 255
197 222 255
197 222 255
196 222 255
196 222 255
196 222 255
195 221 255
195 221 255
194 221 255
194 221 255
194 221 255
193 220 255
193 220 255
193 220 255
193 220 255
192 220 255
192 220 255
192 219 255
192 219 255
191 219 255
191 219 255
191 219 255
191 219 255
190 219 255
190 219 255
190 219 255
190 218 255
190 218 255
189 218 255
189 218 255
189 218 255
189 218 255
189 218 255
189 218 255
189 218 255
189 218 255
189 218 255
189 218 255
189 218 255
189 218 255
189 218 255
189 218 255
189 218 255
189 218 255
189 218 255
189 218 255
190 218 255
190 218 255
190 219 255
190 219 255
191 219 255
191 219 255
192 219 255
192 220 255
193 220 255
194 221 255
195 221 255
196 222 255
197 222 255
198 223 255
201 224 255
204 226 255
206 227 255
207 228 255
208 228 255
208 228 255
207 228 255
207 228 255
207 228 255
207 228 255
207 228 255
207 228 255
207 228 255
207 228 255
207 228 255
207 228 255
207 228 255
207 228 255
207 228 255
207 228 255
207 227 255
207 227 255
207 227 255
207 227 255
206 227 255
206 227 255
206 227 255
206 227 255
206 227 255
206 227 255
206 227 255
206 227 255
206 227 255
206 227 255
206 227 255
206 227 255
206 227 255
206 227 255
206 227 255
206 227 255
206 227 255
206 227 255
205 227 255
205 227 255
205 227 255
205 227 255
205 227 255
205 227 255
205 227 255
205 227 255
205 227 255
205 227 255
205 227 255
205 226 255
205 226 255
205 226 255
205 226 255
205 226 255
205 226 255
205 226 255
205 226 255
204 226 255
204 226 255
204 226 255
204 226 255
204 226 255
204 226 255
204 226 255
204 226 255
204 226 255
204 226 255
204 226 255
204 226 255
204 226 255
204 226 255
204 226 255
204 226 255
204 226 255
204 226 255
204 226 255
204 226 255
204 226 255
204 226 255
204 226 255
204 226 255
204 226 255
204 226 255
203 226 255
203 226 255
203 226 255
203 226 255
203 226 255
203 226 255
203 226 255
203 226 255
203 226 255
203 226 255
203 226 255
203 226 255
203 226 255
203 226 255
203 226 255
203 226 255
203 226 255
203 226 255
203 226 255
203 226 255
203 226 255
203 226 255
203 226 255
203 226 255
203 226 255
203 226 255
203 226 255
203 226 255
203 226 255
203 226 255
203 226 255
203 226 255
203 226 255
203 226 255
203 226 255
203 226 255
203 226 255
203 226 255
203 226 255
203 226 255
203 226 255
203 226 255
203 226 255
203 226 255
203 226 255
203 226 255
203 226 255
203 226 255
203 226 255
203 226 255
203 226 255
203 226 255
203 226 255
203 226 255
203 226 255
204 226 255
204 226 255
204 226 255
204 226 255
204 226 255
204 226 255
204 226 255
204 226 255
204 226 255
204 226 255
204 226 255
204 226 255
204 226 255
204 226 255
204 226 255
204 226 255
204 226 255
204 226 255
204 226 255
204 226 255
204 226 255
204 226 255
204 226 255
204 226 255
204 226 255
205 226 255
205 226 255
205 226 255
205 226 255
205 226 255
205 226 255
205 226 255
205 226 255
205 227 255
205 227 255
205 227 255
205 227 255
205 227 255
205 227 255
205 227 255
205 227 255
205 227 255
205 227 255
205 227 255
206 227 255
206 227 255
206 227 255
206 227 255
206 227 255
206 227 255
206 227 255
206 227 255
206 227 255
206 227 255
206 227 255
206 227 255
206 227 255
206 227 255
206 227 255
206 227 255
206 227 255
206 227 255
207 227 255
207 227 255
207 227 255
207 227 255
207 228 255
207 228 255
207 228 255
207 228 255
207 228 255
207 228 255
207 228 255
207 228 255
207 228 255
207 228 255
207 228 255
207 228 255
207 228 255
207 228 255
208 228 255
208 228 255
198 216 239
180 194 206
165 174 174
149 149 113
121 120 80
148 146 97
130 128 85
132 131 88
140 138 92
138 137 92
138 136 91
138 136 91
129 128 86
137 136 91
140 139 93
132 131 87
140 138 92
135 134 90
146 145 97
140 139 93
136 135 90
147 145 97
148 146 98
144 142 95
139 138 93
136 134 90
136 133 89
144 142 95
147 145 97
135 133 89
136 135 90
136 135 90
141 140 94
138 136 91
142 139 92
139 137 91
129 127 84
148 146 98
142 140 93
139 137 90
146 143 95
138 136 90
143 141 94
136 134 89
133 132 88
147 145 97
143 141 93
140 137 90
137 134 89
152 149 99
144 141 94
144 141 93
139 137 91
144 141 93
141 137 90
146 144 96
153 151 98
143 139 91
138 136 90
153 150 99
133 131 87
124 122 80
127 125 80
135 131 87
148 144 93
134 131 85
137 133 87
134 131 86
144 141 92
137 133 84
134 130 82
131 128 82
123 119 77
132 129 83
120 118 77
135 131 86
132 131 99
163 169 163
184 197 209
206 224 248
211 230 255
211 230 255
211 230 255
211 230 255
211 230 255
211 230 255
212 230 255
212 230 255
212 230 255
212 230 255
212 230 255
212 230 255
212 230 255
212 230 255
212 230 255
212 230 255
212 230 255
211 230 255
210 229 255
208 228 255
207 227 255
206 227 255
204 226 255
203 226 255
203 225 255
202 225 255
202 225 255
201 224 255
200 224 255
200 224 255
199 223 255
199 223 255
198 223 255
198 223 255
197 222 255
197 222 255
196 222 255
196 222 255
196 221 255
195 221 255
195 221 255
194 221 255
194 221 255
194 220 255
193 220 255
193 220 255
193 220 255
192 220 255
192 220 255
192 219 255
191 219 255
191 219 255
191 219 255
191 219 255
190 219 255
190 219 255
190 219 255
190 218 255
189 218 255
189 218 255
189 218 255
189 218 255
189 218 255
188 218 255
188 218 255
188 218 255
188 218 255
188 217 255
188 217 255
188 217 255
187 217 255
187 217 255
187 217 255
187 217 255
187 217 255
187 217 255
187 217 255
187 217 255
187 217 255
187 217 255
187 217 255
187 217 255
188 217 255
188 217 255
188 217 255
188 218 255
188 218 255
189 218 255
189 218 255
189 218 255
190 218 255
190 219 255
191 219 255
192 219 255
192 220 255
193 220 255
194 221 255
196 221 255
197 222 255
199 223 255
202 225 255
205 226 255
207 228 255
208 228 255
208 228 255
208 228 255
207 228 255
207 228 255
207 228 255
207 228 255
207 228 255
207 228 255
207 228 255
207 228 255
207 228 255
207 228 255
207 228 255
207 228 255
207 228 255
207 228 255
207 227 255
207 227 255
207 227 255
207 227 255
206 227 255
206 227 255
206 227 255
206 227 255
206 227 255
206 227 255
206 227 255
206 227 255
206 227 255
206 227 255
206 227 255
206 227 255
206 227 255
206 227 255
206 227 255
206 227 255
206 227 255
206 227 255
205 227 255
205 227 255
205 227 255
205 227 255
205 227 255
205 227 255
205 227 255
205 227 255
205 227 255
205 227 255
205 227 255
205 227 255
205 226 255
205 226 255
205 226 255
205 226 255
205 226 255
205 226 255
205 226 255
205 226 255
205 226 255
204 226 255
204 226 255
204 226 255
204 226 255
204 226 255
204 226 255
204 226 255
204 226 255
204 226 255
204 226 255
204 226 255
204 226 255
204 226 255
204 226 255
204 226 255
204 226 255
204 226 255
204 226 255
204 226 255
204 226 255
204 226 255
204 226 255
204 226 255
204 226 255
204 226 255
204 226 255
204 226 255
204 226 255
204 226 255
204 226 255
203 226 255
203 226 255
203 226 255
203 226 255
203 226 255
203 226 255
203 226 255
203 226 255
203 226 255
203 226 255
203 226 255
203 226 255
203 226 255
203 226 255
203 226 255
203 226 255
203 226 255
203 226 255
203 226 255
203 226 255
203 226 255
203 226 255
203 226 255
203 226 255
203 226 255
203 226 255
203 226 255
203 226 255
203 226 255
203 226 255
203 226 255
203 226 255
203 226 255
203 226 255
204 226 255
204 226 255
204 226 255
204 226 255
204 226 255
204 226 255
204 226 255
204 226 255
204 226 255
204 226 255
204 226 255
204 226 255
204 226 255
204 226 255
204 226 255
204 226 255
204 226 255
204 226 255
204 226 255
204 226 255
204 226 255
204 226 255
204 226 255
204 226 255
204 226 255
204 226 255
204 226 255
204 226 255
204 226 255
204 226 255
204 226 255
205 226 255
205 226 255
205 226 255
205 226 255
205 226 255
205 226 255
205 226 255
205 226 255
205 227 255
205 227 255
205 227 255
205 227 255
205 227 255
205 227 255
205 227 255
205 227 255
205 227 255
205 227 255
205 227 255
205 227 255
206 227 255
206 227 255
206 227 255
206 227 255
206 227 255
206 227 255
206 227 255
206 227 255
206 227 255
206 227 255
206 227 255
206 227 255
206 227 255
206 227 255
206 227 255
206 227 255
206 227 255
206 227 255
207 227 255
207 227 255
207 227 255
207 227 255
207 228 255
207 228 255
207 228 255
207 228 255
207 228 255
207 228 255
207 228 255
207 228 255
207 228 255
207 228 255
207 228 255
207 228 255
207 228 255
207 228 255
208 228 255
208 228 255
208 228 255
194 212 236
176 187 192
153 158 144
129 128 85
125 124 84
119 118 79
117 115 77
141 140 94
141 139 93
136 135 90
132 130 87
135 134 90
125 124 83
132 131 88
141 140 94
146 144 97
141 140 94
147 145 97
143 141 95
135 134 90
134 133 89
134 132 88
151 149 100
138 136 91
154 153 103
145 144 97
140 139 93
144 143 96
137 135 90
132 131 87
145 143 96
138 136 91
129 127 85
143 141 95
134 133 89
146 144 97
147 145 97
152 149 99
150 147 97
140 138 92
143 142 95
143 141 93
148 145 96
143 141 95
140 138 92
143 141 94
148 146 97
137 135 90
142 140 93
141 139 93
140 137 91
128 126 84
139 137 91
152 149 98
142 140 92
144 142 95
155 150 98
148 146 97
149 146 97
135 132 87
145 142 93
148 145 96
153 150 100
134 131 86
138 135 87
142 138 91
134 131 85
138 134 86
131 129 85
146 142 93
131 129 84
141 139 91
142 139 90
135 132 86
128 125 80
142 139 92
140 136 87
147 143 90
134 130 82
137 133 87
124 121 80
125 121 78
128 123 78
150 151 123
167 177 182
197 212 229
212 230 255
212 230 255
212 230 255
212 230 255
212 230 255
212 230 255
212 230 255
212 230 255
212 230 255
212 230 255
212 230 255
211 230 255
210 229 255
208 228 255
207 227 255
205 227 255
204 226 255
204 226 255
203 225 255
202 225 255
202 225 255
201 224 255
200 224 255
200 224 255
199 223 255
199 223 255
198 223 255
198 223 255
197 222 255
197 222 255
197 222 255
196 222 255
196 222 255
195 221 255
195 221 255
195 221 255
194 221 255
194 221 255
193 220 255
193 220 255
193 220 255
192 220 255
192 220 255
192 219 255
191 219 255
191 219 255
191 219 255
191 219 255
190 219 255
190 219 255
190 218 255
190 218 255
189 218 255
189 218 255
189 218 255
189 218 255
188 218 255
188 218 255
188 217 255
188 217 255
188 217 255
187 217 255
187 217 255
187 217 255
187 217 255
187 217 255
187 217 255
186 217 255
186 217 255
186 217 255
186 217 255
186 217 255
186 217 255
186 216 255
186 216 255
186 216 255
186 216 255
186 216 255
186 216 255
186 217 255
186 217 255
186 217 255
186 217 255
187 217 255
187 217 255
187 217 255
187 217 255
188 217 255
188 218 255
189 218 255
189 218 255
189 218 255
190 219 255
191 219 255
192 219 255
192 220 255
193 220 255
195 221 255
196 222 255
198 223 255
201 224 255
204 226 255
207 228 255
208 228 255
208 228 255
208 228 255
208 228 255
207 228 255
207 228 255
207 228 255
207 228 255
207 228 255
207 228 255
207 228 255
207 228 255
207 228 255
207 228 255
207 228 255
207 228 255
207 228 255
207 228 255
207 227 255
207 227 255
207 227 255
207 227 255
206 227 255
206 227 255
206 227 255
206 227 255
206 227 255
206 227 255
206 227 255
206 227 255
206 227 255
206 227 255
206 227 255
206 227 255
206 227 255
206 227 255
206 227 255
206 227 255
206 227 255
206 227 255
206 227 255
205 227 255
205 227 255
205 227 255
205 227 255
205 227 255
205 227 255
205 227 255
205 227 255
205 227 255
205 227 255
205 227 255
205 227 255
205 226 255
205 226 255
205 226 255
205 226 255
205 226 255
205 226 255
205 226 255
205 226 255
205 226 255
204 226 255
204 226 255
204 226 255
204 226 255
204 226 255
204 226 255
204 226 255
204 226 255
204 226 255
204 226 255
204 226 255
204 226 255
204 226 255
204 226 255
204 226 255
204 226 255
204 226 255
204 226 255
204 226 255
204 226 255
204 226 255
204 226 255
204 226 255
204 226 255
204 226 255
204 226 255
204 226 255
204 226 255
204 226 255
204 226 255
204 226 255
204 226 255
204 226 255
204 226 255
204 226 255
204 226 255
204 226 255
204 226 255
204 226 255
204 226 255
204 226 255
204 226 255
204 226 255
204 226 255
204 226 255
204 226 255
204 226 255
204 226 255
204 226 255
204 226 255
204 226 255
204 226 255
204 226 255
204 226 255
204 226 255
204 226 255
204 226 255
204 226 255
204 226 255
204 226 255
204 226 255
204 226 255
204 226 255
204 226 255
204 226 255
204 226 255
204 226 255
204 226 255
204 226 255
204 226 255
204 226 255
204 226 255
204 226 255
204 226 255
204 226 255
204 226 255
204 226 255
204 226 255
204 226 255
204 226 255
204 226 255
204 226 255
204 226 255
204 226 255
205 226 255
205 226 255
205 226 255
205 226 255
205 226 255
205 226 255
205 226 255
205 226 255
205 226 255
205 227 255
205 227 255
205 227 255
205 227 255
205 227 255
205 227 255
205 227 255
205 227 255
205 227 255
205 227 255
205 227 255
205 227 255
206 227 255
206 227 255
206 227 255
206 227 255
206 227 255
206 227 255
206 227 255
206 227 255
206 227 255
206 227 255
206 227 255
206 227 255
206 227 255
206 227 255
206 227 255
206 227 255
206 227 255
206 227 255
206 227 255
207 227 255
207 227 255
207 227 255
207 227 255
207 228 255
207 228 255
207 228 255
207 228 255
207 228 255
207 228 255
207 228 255
207 228 255
207 228 255
207 228 255
207 228 255
207 228 255
207 228 255
207 228 255
208 228 255
208 228 255
208 228 255
208 228 255
199 217 239
175 185 187
138 141 121
131 129 86
135 132 88
122 120 80
137 136 91
141 139 93
135 133 89
140 139 93
136 135 91
134 133 89
135 134 90
143 142 96
137 135 90
138 136 91
145 144 97
143 142 95
146 146 98
138 137 92
135 134 90
144 143 96
140 138 93
141 140 95
134 133 90
147 145 97
147 145 97
153 151 101
148 146 98
141 141 95
139 138 93
150 148 99
142 140 94
147 145 97
139 137 92
151 149 100
134 132 88
145 143 95
141 139 93
146 144 96
150 148 99
148 146 97
137 135 90
149 146 97
149 147 97
150 148 99
141 139 92
146 143 95
149 147 98
145 143 95
145 143 94
146 144 95
138 136 90
143 141 93
138 136 90
144 141 93
140 138 92
145 142 94
141 139 93
139 137 90
147 145 93
149 147 97
141 138 91
151 146 97
133 131 85
150 147 98
141 137 90
128 126 81
145 142 93
145 142 93
135 132 85
143 140 90
148 145 94
135 131 84
144 140 90
135 132 86
146 143 94
148 146 97
144 141 93
146 142 92
135 132 84
133 129 83
139 135 87
146 143 93
147 142 89
126 123 79
137 133 86
126 123 80
129 126 79
140 141 118
169 177 174
200 215 235
212 230 255
212 230 255
212 230 255
212 230 255
212 230 255
212 230 255
211 230 255
209 229 255
207 228 255
206 227 255
205 226 255
204 226 255
203 226 255
203 225 255
202 225 255
201 225 255
201 224 255
200 224 255
200 224 255
199 223 255
199 223 255
198 223 255
198 223 255
197 222 255
197 222 255
196 222 255
196 222 255
196 222 255
195 221 255
195 221 255
194 221 255
194 221 255
194 221 255
193 220 255
193 220 255
193 220 255
192 220 255
192 220 255
192 219 255
191 219 255
191 219 255
191 219 255
190 219 255
190 219 255
190 219 255
190 218 255
189 218 255
189 218 255
189 218 255
189 218 255
188 218 255
188 218 255
188 217 255
188 217 255
187 217 255
187 217 255
187 217 255
187 217 255
187 217 255
186 217 255
186 217 255
186 216 255
186 216 255
186 216 255
186 216 255
185 216 255
185 216 255
185 216 255
185 216 255
185 216 255
185 216 255
185 216 255
185 216 255
185 216 255
185 216 255
185 216 255
185 216 255
185 216 255
185 216 255
185 216 255
185 216 255
185 216 255
185 216 255
186 216 255
186 216 255
186 217 255
187 217 255
187 217 255
187 217 255
188 217 255
188 218 255
189 218 255
189 218 255
190 219 255
191 219 255
192 220 255
193 220 255
194 221 255
196 222 255
198 223 255
201 225 255
205 226 255
207 228 255
208 228 255
208 228 255
208 228 255
208 228 255
208 228 255
207 228 255
207 228 255
207 228 255
207 228 255
207 228 255
207 228 255
207 228 255
207 228 255
207 228 255
207 228 255
207 228 255
207 228 255
207 228 255
207 228 255
207 227 255
207 227 255
207 227 255
207 227 255
206 227 255
206 227 255
206 227 255
206 227 255
206 227 255
206 227 255
206 227 255
206 227 255
206 227 255
206 227 255
206 227 255
206 227 255
206 227 255
206 227 255
206 227 255
206 227 255
206 227 255
206 227 255
206 227 255
205 227 255
205 227 255
205 227 255
205 227 255
205 227 255
205 227 255
205 227 255
205 227 255
205 227 255
205 227 255
205 227 255
205 227 255
205 227 255
205 226 255
205 226 255
205 226 255
205 226 255
205 226 255
205 226 255
205 226 255
205 226 255
205 226 255
205 226 255
205 226 255
204 226 255
204 226 255
204 226 255
204 226 255
204 226 255
204 226 255
204 226 255
204 226 255
204 226 255
204 226 255
204 226 255
204 226 255
204 226 255
204 226 255
204 226 255
204 226 255
204 226 255
204 226 255
204 226 255
204 226 255
204 226 255
204 226 255
204 226 255
204 226 255
204 226 255
204 226 255
204 226 255
204 226 255
204 226 255
204 226 255
204 226 255
204 226 255
204 226 255
204 226 255
204 226 255
204 226 255
204 226 255
204 226 255
204 226 255
204 226 255
204 226 255
204 226 255
204 226 255
204 226 255
204 226 255
204 226 255
204 226 255
204 226 255
204 226 255
204 226 255
204 226 255
204 226 255
204 226 255
204 226 255
204 226 255
204 226 255
204 226 255
204 226 255
204 226 255
204 226 255
204 226 255
204 226 255
204 226 255
204 226 255
204 226 255
204 226 255
204 226 255
204 226 255
204 226 255
204 226 255
204 226 255
205 226 255
205 226 255
205 226 255
205 226 255
205 226 255
205 226 255
205 226 255
205 226 255
205 226 255
205 226 255
205 227 255
205 227 255
205 227 255
205 227 255
205 227 255
205 227 255
205 227 255
205 227 255
205 227 255
205 227 255
205 227 255
205 227 255
205 227 255
206 227 255
206 227 255
206 227 255
206 227 255
206 227 255
206 227 255
206 227 255
206 227 255
206 227 255
206 227 255
206 227 255
206 227 255
206 227 255
206 227 255
206 227 255
206 227 255
206 227 255
206 227 255
206 227 255
207 227 255
207 227 255
207 227 255
207 227 255
207 228 255
207 228 255
207 228 255
207 228 255
207 228 255
207 228 255
207 228 255
207 228 255
207 228 255
207 228 255
207 228 255
207 228 255
207 228 255
207 228 255
208 228 255
208 228 255
208 228 255
208 228 255
208 228 255
192 209 230
171 184 191
144 145 117
135 133 89
132 130 87
139 138 93
142 140 94
133 132 89
126 125 84
134 133 90
134 133 89
132 131 88
139 138 93
141 140 94
144 143 96
141 140 94
134 132 88
140 139 93
137 136 92
144 142 95
133 132 89
140 138 93
146 145 97
145 143 96
135 134 90
141 140 94
140 139 93
144 143 96
151 149 100
145 143 95
142 139 93
141 140 94
139 137 91
145 144 97
146 144 96
135 133 89
139 138 93
140 138 93
150 148 99
149 147 99
143 141 94
139 137 92
148 147 98
150 148 99
152 150 100
152 150 100
141 140 93
144 142 95
144 142 94
145 143 94
144 141 93
147 145 96
143 140 93
142 140 92
152 150 99
143 141 93
144 142 94
148 145 96
150 147 97
140 137 90
149 146 97
145 142 93
139 137 90
137 134 89
149 146 96
137 135 90
137 135 90
139 136 88
144 141 93
135 133 88
155 151 99
145 142 94
137 133 86
149 147 98
141 138 90
145 141 90
120 116 74
147 144 93
121 118 76
142 140 90
144 140 92
130 127 82
129 126 82
144 140 92
132 128 84
141 137 90
143 139 91
136 133 85
150 146 93
133 129 84
132 128 80
137 131 84
132 128 80
143 139 87
128 125 80
140 141 121
180 191 198
203 221 243
212 230 255
209 229 255
208 228 255
207 227 255
205 227 255
205 226 255
204 226 255
203 226 255
203 225 255
202 225 255
201 225 255
201 224 255
200 224 255
200 224 255
199 223 255
199 223 255
198 223 255
198 223 255
197 222 255
197 222 255
196 222 255
196 222 255
196 222 255
195 221 255
195 221 255
195 221 255
194 221 255
194 221 255
193 220 255
193 220 255
193 220 255
192 220 255
192 220 255
192 219 255
191 219 255
191 219 255
191 219 255
190 219 255
190 219 255
190 219 255
190 218 255
189 218 255
189 218 255
189 218 255
189 218 255
188 218 255
188 218 255
188 217 255
187 217 255
187 217 255
187 217 255
187 217 255
187 217 255
186 217 255
186 217 255
186 216 255
186 216 255
186 216 255
185 216 255
185 216 255
185 216 255
185 216 255
185 216 255
185 216 255
185 216 255
184 216 255
184 216 255
184 216 255
184 216 255
184 216 255
184 215 255
184 215 255
184 215 255
184 215 255
184 215 255
184 215 255
184 215 255
184 215 255
184 216 255
184 216 255
184 216 255
185 216 255
185 216 255
185 216 255
185 216 255
186 216 255
186 216 255
186 217 255
187 217 255
187 217 255
188 217 255
188 218 255
189 218 255
190 218 255
191 219 255
192 219 255
193 220 255
194 221 255
196 222 255
199 223 255
202 225 255
205 227 255
208 228 255
208 228 255
208 228 255
208 228 255
208 228 255
208 228 255
208 228 255
207 228 255
207 228 255
207 228 255
207 228 255
207 228 255
207 228 255
207 228 255
207 228 255
207 228 255
207 228 255
207 228 255
207 228 255
207 228 255
207 228 255
207 227 255
207 227 255
207 227 255
207 227 255
206 227 255
206 227 255
206 227 255
206 227 255
206 227 255
206 227 255
206 227 255
206 227 255
206 227 255
206 227 255
206 227 255
206 227 255
206 227 255
206 227 255
206 227 255
206 227 255
206 227 255
206 227 255
206 227 255
206 227 255
205 227 255
205 227 255
205 227 255
205 227 255
205 227 255
205 227 255
205 227 255
205 227 255
205 227 255
205 227 255
205 227 255
205 227 255
205 227 255
205 227 255
205 226 255
205 226 255
205 226 255
205 226 255
205 226 255
205 226 255
205 226 255
205 226 255
205 226 255
205 226 255
205 226 255
205 226 255
204 226 255
204 226 255
204 226 255
204 226 255
204 226 255
204 226 255
204 226 255
204 226 255
204 226 255
204 226 255
204 226 255
204 226 255
204 226 255
204 226 255
204 226 255
204 226 255
204 226 255
204 226 255
204 226 255
204 226 255
204 226 255
204 226 255
204 226 255
204 226 255
204 226 255
204 226 255
204 226 255
204 226 255
204 226 255
204 226 255
204 226 255
204 226 255
204 226 255
204 226 255
204 226 255
204 226 255
204 226 255
204 226 255
204 226 255
204 226 255
204 226 255
204 226 255
204 226 255
204 226 255
204 226 255
204 226 255
204 226 255
204 226 255
204 226 255
204 226 255
204 226 255
204 226 255
204 226 255
204 226 255
204 226 255
204 226 255
205 226 255
205 226 255
205 226 255
205 226 255
205 226 255
205 226 255
205 226 255
205 226 255
205 226 255
205 226 255
205 226 255
205 226 255
205 227 255
205 227 255
205 227 255
205 227 255
205 227 255
205 227 255
205 227 255
205 227 255
205 227 255
205 227 255
205 227 255
205 227 255
205 227 255
205 227 255
206 227 255
206 227 255
206 227 255
206 227 255
206 227 255
206 227 255
206 227 255
206 227 255
206 227 255
206 227 255
206 227 255
206 227 255
206 227 255
206 227 255
206 227 255
206 227 255
206 227 255
206 227 255
206 227 255
207 227 255
207 227 255
207 227 255
207 227 255
207 227 255
207 228 255
207 228 255
207 228 255
207 228 255
207 228 255
207 228 255
207 228 255
207 228 255
207 228 255
207 228 255
207 228 255
207 228 255
207 228 255
207 228 255
208 228 255
208 228 255
208 228 255
208 228 255
208 228 255
208 228 255
203 222 245
174 185 190
149 155 147
138 136 91
138 136 91
136 134 90
124 123 82
133 132 88
142 141 95
143 141 95
147 145 97
136 134 90
135 134 90
130 129 87
147 146 98
145 143 95
139 138 93
136 135 91
151 150 101
149 148 99
141 141 95
150 149 100
146 145 97
138 137 93
148 147 99
146 146 98
141 140 94
145 143 96
139 137 92
145 143 95
150 148 99
149 148 99
154 152 102
146 144 96
144 142 95
142 141 95
151 149 100
143 142 95
143 141 95
149 146 96
141 139 93
143 140 93
148 146 97
143 142 95
143 141 94
153 150 100
156 153 103
144 142 94
148 145 97
145 143 95
149 147 98
151 148 97
149 146 97
142 140 91
148 146 97
141 138 92
141 139 93
140 137 91
151 148 98
146 143 95
151 148 98
150 147 97
151 148 97
142 140 94
146 143 95
144 140 93
148 146 95
144 141 93
151 148 97
146 144 94
151 148 97
149 146 95
152 148 97
150 147 97
138 135 87
141 138 90
150 147 94
143 139 91
143 139 92
146 142 94
144 141 92
132 130 84
152 148 96
143 140 89
139 135 87
138 134 84
136 134 88
131 128 84
145 141 91
134 130 84
130 128 84
141 137 88
139 136 90
135 133 85
141 137 88
142 138 87
134 131 84
131 127 80
135 131 84
129 126 80
136 132 84
150 153 135
206 227 255
205 227 255
205 226 255
204 226 255
203 226 255
203 225 255
202 225 255
201 225 255
201 224 255
200 224 255
200 224 255
199 223 255
199 223 255
198 223 255
198 223 255
198 223 255
197 222 255
197 222 255
196 222 255
196 222 255
195 221 255
195 221 255
195 221 255
194 221 255
194 221 255
194 220 255
193 220 255
193 220 255
193 220 255
192 220 255
192 220 255
192 219 255
191 219 255
191 219 255
191 219 255
190 219 255
190 219 255
190 218 255
189 218 255
189 218 255
189 218 255
189 218 255
188 218 255
188 218 255
188 217 255
188 217 255
187 217 255
187 217 255
187 217 255
187 217 255
186 217 255
186 217 255
186 216 255
186 216 255
186 216 255
185 216 255
185 216 255
185 216 255
185 216 255
185 216 255
184 216 255
184 216 255
184 216 255
184 215 255
184 215 255
184 215 255
184 215 255
184 215 255
183 215 255
183 215 255
183 215 255
183 215 255
183 215 255
183 215 255
183 215 255
183 215 255
183 215 255
183 215 255
183 215 255
183 215 255
183 215 255
184 215 255
184 215 255
184 215 255
184 216 255
184 216 255
185 216 255
185 216 255
186 216 255
186 216 255
186 217 255
187 217 255
187 217 255
188 218 255
189 218 255
190 218 255
191 219 255
192 219 255
193 220 255
195 221 255
197 222 255
200 224 255
204 226 255
207 228 255
208 228 255
208 228 255
208 228 255
208 228 255
208 228 255
208 228 255
208 228 255
208 228 255
207 228 255
207 228 255
207 228 255
207 228 255
207 228 255
207 228 255
207 228 255
207 228 255
207 228 255
207 228 255
207 228 255
207 228 255
207 228 255
207 228 255
207 228 255
207 227 255
207 227 255
207 227 255
207 227 255
206 227 255
206 227 255
206 227 255
206 227 255
206 227 255
206 227 255
206 227 255
206 227 255
206 227 255
206 227 255
206 227 255
206 227 255
206 227 255
206 227 255
206 227 255
206 227 255
206 227 255
206 227 255
206 227 255
206 227 255
206 227 255
205 227 255
205 227 255
205 227 255
205 227 255
205 227 255
205 227 255
205 227 255
205 227 255
205 227 255
205 227 255
205 227 255
205 227 255
205 227 255
205 227 255
205 227 255
205 226 255
205 226 255
205 226 255
205 226 255
205 226 255
205 226 255
205 226 255
205 226 255
205 226 255
205 226 255
205 226 255
205 226 255
205 226 255
205 226 255
205 226 255
204 226 255
204 226 255
204 226 255
204 226 255
204 226 255
204 226 255
204 226 255
204 226 255
204 226 255
204 226 255
204 226 255
204 226 255
204 226 255
204 226 255
204 226 255
204 226 255
204 226 255
204 226 255
204 226 255
204 226 255
204 226 255
204 226 255
204 226 255
204 226 255
204 226 255
204 226 255
204 226 255
204 226 255
204 226 255
204 226 255
204 226 255
204 226 255
204 226 255
204 226 255
204 226 255
205 226 255
205 226 255
205 226 255
205 226 255
205 226 255
205 226 255
205 226 255
205 226 255
205 226 255
205 226 255
205 226 255
205 226 255
205 226 255
205 226 255
205 226 255
205 226 255
205 227 255
205 227 255
205 227 255
205 227 255
205 227 255
205 227 255
205 227 255
205 227 255
205 227 255
205 227 255
205 227 255
205 227 255
205 227 255
205 227 255
205 227 255
206 227 255
206 227 255
206 227 255
206 227 255
206 227 255
206 227 255
206 227 255
206 227 255
206 227 255
206 227 255
206 227 255
206 227 255
206 227 255
206 227 255
206 227 255
206 227 255
206 227 255
206 227 255
206 227 255
206 227 255
206 227 255
207 227 255
207 227 255
207 227 255
207 227 255
207 227 255
207 228 255
207 228 255
207 228 255
207 228 255
207 228 255
207 228 255
207 228 255
207 228 255
207 228 255
207 228 255
207 228 255
207 228 255
207 228 255
207 228 255
208 228 255
208 228 255
208 228 255
208 228 255
208 228 255
208 228 255
208 228 255
208 228 255
196 213 234
158 168 169
126 126 93
130 129 86
128 127 85
137 134 90
132 132 89
144 143 95
139 138 93
142 142 95
151 149 100
139 138 93
138 137 92
143 141 95
138 138 93
141 139 93
140 139 93
144 142 95
146 145 97
140 139 94
142 140 94
141 140 94
138 137 92
147 146 98
139 138 93
147 146 97
144 142 95
145 143 96
149 148 99
139 138 93
145 145 97
153 151 101
151 150 101
151 149 100
149 148 100
148 146 97
157 155 104
142 141 95
149 147 98
151 149 100
149 147 98
155 153 101
145 143 96
142 140 94
138 136 91
147 144 96
148 147 99
150 148 99
152 149 99
146 144 96
154 151 100
145 143 95
148 145 96
148 146 98
162 158 104
152 149 98
156 153 103
145 143 95
148 146 97
153 151 100
156 153 101
139 137 91
152 149 98
149 147 97
149 146 96
138 136 90
146 142 93
145 143 95
146 144 96
143 141 93
141 138 90
152 149 99
142 139 92
147 143 93
141 138 91
144 142 94
153 149 99
154 149 98
143 140 90
152 149 97
145 141 93
132 129 84
140 137 90
149 145 94
153 150 98
140 137 86
146 142 91
142 139 90
145 142 91
145 142 93
143 139 88
137 133 87
133 130 84
144 140 90
140 136 87
143 138 90
142 138 89
129 126 80
132 129 83
135 132 85
142 137 88
143 140 88
145 140 88
127 123 78
205 226 255
204 226 255
203 226 255
203 225 255
202 225 255
202 225 255
201 224 255
201 224 255
200 224 255
200 224 255
199 223 255
199 223 255
198 223 255
198 223 255
197 222 255
197 222 255
197 222 255
196 222 255
196 222 255
195 221 255
195 221 255
195 221 255
194 221 255
194 221 255
194 220 255
193 220 255
193 220 255
193 220 255
192 220 255
192 220 255
192 219 255
191 219 255
191 219 255
191 219 255
190 219 255
190 219 255
190 218 255
189 218 255
189 218 255
189 218 255
189 218 255
188 218 255
188 218 255
188 217 255
188 217 255
187 217 255
187 217 255
187 217 255
187 217 255
186 217 255
186 217 255
186 216 255
186 216 255
185 216 255
185 216 255
185 216 255
185 216 255
185 216 255
184 216 255
184 216 255
184 215 255
184 215 255
184 215 255
184 215 255
183 215 255
183 215 255
183 215 255
183 215 255
183 215 255
183 215 255
183 215 255
183 215 255
183 215 255
183 215 255
183 215 255
182 215 255
182 215 255
182 215 255
183 215 255
183 215 255
183 215 255
183 215 255
183 215 255
183 215 255
183 215 255
183 215 255
184 215 255
184 215 255
184 215 255
184 216 255
185 216 255
185 216 255
186 216 255
186 217 255
187 217 255
187 217 255
188 218 255
189 218 255
190 218 255
191 219 255
192 220 255
194 221 255
196 222 255
199 223 255
203 225 255
206 227 255
208 228 255
208 228 255
208 228 255
208 228 255
208 228 255
208 228 255
208 228 255
208 228 255
208 228 255
208 228 255
207 228 255
207 228 255
207 228 255
207 228 255
207 228 255
207 228 255
207 228 255
207 228 255
207 228 255
207 228 255
207 228 255
207 228 255
207 228 255
207 228 255
207 228 255
207 227 255
207 227 255
207 227 255
207 227 255
207 227 255
206 227 255
206 227 255
206 227 255
206 227 255
206 227 255
206 227 255
206 227 255
206 227 255
206 227 255
206 227 255
206 227 255
206 227 255
206 227 255
206 227 255
206 227 255
206 227 255
206 227 255
206 227 255
206 227 255
206 227 255
206 227 255
206 227 255
205 227 255
205 227 255
205 227 255
205 227 255
205 227 255
205 227 255
205 227 255
205 227 255
205 227 255
205 227 255
205 227 255
205 227 255
205 227 255
205 227 255
205 227 255
205 227 255
205 227 255
205 227 255
205 226 255
205 226 255
205 226 255
205 226 255
205 226 255
205 226 255
205 226 255
205 226 255
205 226 255
205 226 255
205 226 255
205 226 255
205 226 255
205 226 255
205 226 255
205 226 255
205 226 255
205 226 255
205 226 255
205 226 255
205 226 255
205 226 255
205 226 255
205 226 255
205 226 255
205 226 255
205 226 255
205 226 255
205 226 255
205 226 255
205 226 255
205 226 255
205 226 255
205 226 255
205 226 255
205 226 255
205 226 255
205 226 255
205 226 255
205 226 255
205 226 255
205 226 255
205 226 255
205 226 255
205 226 255
205 226 255
205 226 255
205 226 255
205 227 255
205 227 255
205 227 255
205 227 255
205 227 255
205 227 255
205 227 255
205 227 255
205 227 255
205 227 255
205 227 255
205 227 255
205 227 255
205 227 255
205 227 255
205 227 255
205 227 255
205 227 255
206 227 255
206 227 255
206 227 255
206 227 255
206 227 255
206 227 255
206 227 255
206 227 255
206 227 255
206 227 255
206 227 255
206 227 255
206 227 255
206 227 255
206 227 255
206 227 255
206 227 255
206 227 255
206 227 255
206 227 255
206 227 255
206 227 255
206 227 255
207 227 255
207 227 255
207 227 255
207 227 255
207 228 255
207 228 255
207 228 255
207 228 255
207 228 255
207 228 255
207 228 255
207 228 255
207 228 255
207 228 255
207 228 255
207 228 255
207 228 255
207 228 255
207 228 255
208 228 255
208 228 255
208 228 255
208 228 255
208 228 255
208 228 255
208 228 255
208 228 255
208 228 255
208 228 254
183 198 212
146 151 135
138 135 90
130 128 85
133 131 87
132 130 87
139 137 92
146 145 97
135 134 90
141 139 93
127 126 84
140 138 93
144 143 96
131 129 86
137 136 92
141 140 94
149 148 99
151 150 101
145 144 97
145 143 96
141 140 94
148 147 99
147 145 97
152 150 101
147 146 98
155 154 103
154 152 102
148 146 98
147 146 98
139 138 93
148 146 98
143 142 95
143 142 95
151 151 101
146 144 97
150 148 99
143 141 95
149 148 99
146 145 97
142 141 95
152 150 101
153 151 101
150 148 99
156 154 103
149 147 98
151 149 99
151 149 100
145 143 95
150 148 99
149 147 98
145 144 96
150 148 99
147 146 97
155 153 103
150 148 98
150 147 97
150 147 96
150 147 98
146 144 96
152 149 99
147 143 95
153 150 99
153 150 98
156 153 102
153 151 100
141 139 90
146 143 95
145 143 94
153 150 99
144 142 94
143 139 91
142 139 91
146 142 92
150 146 95
152 149 98
136 133 85
140 137 90
146 144 93
140 137 90
144 141 92
145 142 93
146 142 92
149 146 95
149 145 92
153 150 97
151 147 95
145 142 91
148 143 91
135 132 84
154 150 97
149 146 95
141 137 89
140 138 90
139 135 87
140 137 90
131 127 83
148 144 93
141 137 89
145 141 90
133 129 84
138 134 84
138 133 84
140 136 85
135 131 84
147 143 90
141 137 87
204 226 255
203 225 255
202 225 255
202 225 255
201 225 255
201 224 255
200 224 255
200 224 255
199 224 255
199 223 255
199 223 255
198 223 255
198 223 255
197 222 255
197 222 255
196 222 255
196 222 255
196 222 255
195 221 255
195 221 255
195 221 255
194 221 255
194 221 255
194 220 255
193 220 255
193 220 255
193 220 255
192 220 255
192 220 255
192 219 255
191 219 255
191 219 255
191 219 255
190 219 255
190 219 255
190 218 255
190 218 255
189 218 255
189 218 255
189 218 255
188 218 255
188 218 255
188 217 255
188 217 255
187 217 255
187 217 255
187 217 255
187 217 255
186 217 255
186 217 255
186 216 255
186 216 255
185 216 255
185 216 255
185 216 255
185 216 255
185 216 255
184 216 255
184 216 255
184 215 255
184 215 255
184 215 255
183 215 255
183 215 255
183 215 255
183 215 255
183 215 255
183 215 255
183 215 255
182 215 255
182 215 255
182 215 255
182 215 255
182 214 255
182 214 255
182 214 255
182 214 255
182 214 255
182 214 255
182 214 255
182 214 255
182 214 255
182 214 255
182 215 255
182 215 255
182 215 255
183 215 255
183 215 255
183 215 255
183 215 255
184 215 255
184 215 255
184 216 255
185 216 255
185 216 255
186 216 255
186 217 255
187 217 255
188 217 255
188 218 255
189 218 255
191 219 255
192 220 255
193 220 255
195 221 255
198 223 255
202 225 255
206 227 255
208 228 255
208 228 255
208 228 255
208 228 255
208 228 255
208 228 255
208 228 255
208 228 255
208 228 255
208 228 255
208 228 255
208 228 255
208 228 255
207 228 255
207 228 255
207 228 255
207 228 255
207 228 255
207 228 255
207 228 255
207 228 255
207 228 255
207 228 255
207 228 255
207 228 255
207 228 255
207 228 255
207 228 255
207 227 255
207 227 255
207 227 255
207 227 255
207 227 255
206 227 255
206 227 255
206 227 255
206 227 255
206 227 255
206 227 255
206 227 255
206 227 255
206 227 255
206 227 255
206 227 255
206 227 255
206 227 255
206 227 255
206 227 255
206 227 255
206 227 255
206 227 255
206 227 255
206 227 255
206 227 255
206 227 255
206 227 255
206 227 255
205 227 255
205 227 255
205 227 255
205 227 255
205 227 255
205 227 255
205 227 255
205 227 255
205 227 255
205 227 255
205 227 255
205 227 255
205 227 255
205 227 255
205 227 255
205 227 255
205 227 255
205 227 255
205 227 255
205 227 255
205 227 255
205 227 255
205 227 255
205 227 255
205 227 255
205 227 255
205 226 255
205 226 255
205 226 255
205 226 255
205 226 255
205 226 255
205 226 255
205 226 255
205 226 255
205 226 255
205 226 255
205 226 255
205 226 255
205 226 255
205 226 255
205 226 255
205 226 255
205 226 255
205 226 255
205 227 255
205 227 255
205 227 255
205 227 255
205 227 255
205 227 255
205 227 255
205 227 255
205 227 255
205 227 255
205 227 255
205 227 255
205 227 255
205 227 255
205 227 255
205 227 255
205 227 255
205 227 255
205 227 255
205 227 255
205 227 255
205 227 255
205 227 255
205 227 255
205 227 255
205 227 255
206 227 255
206 227 255
206 227 255
206 227 255
206 227 255
206 227 255
206 227 255
206 227 255
206 227 255
206 227 255
206 227 255
206 227 255
206 227 255
206 227 255
206 227 255
206 227 255
206 227 255
206 227 255
206 227 255
206 227 255
206 227 255
206 227 255
206 227 255
207 227 255
207 227 255
207 227 255
207 227 255
207 227 255
207 228 255
207 228 255
207 228 255
207 228 255
207 228 255
207 228 255
207 228 255
207 228 255
207 228 255
207 228 255
207 228 255
207 228 255
207 228 255
207 228 255
207 228 255
208 228 255
208 228 255
208 228 255
208 228 255
208 228 255
208 228 255
208 228 255
208 228 255
208 228 255
208 228 255
208 228 255
208 228 255
207 226 250
180 194 206
139 141 116
131 129 86
143 141 94
137 135 90
136 135 90
135 133 89
136 135 90
140 138 93
146 144 97
137 136 91
142 140 94
150 148 99
130 130 87
143 141 95
146 144 97
146 146 98
145 144 97
141 140 95
151 150 101
142 141 95
145 143 96
150 148 99
148 148 99
157 156 104
144 142 95
149 148 99
144 143 96
147 145 97
145 144 97
147 146 98
152 150 101
151 150 101
145 144 96
147 145 97
153 152 102
155 153 103
148 146 97
151 149 100
147 145 97
155 152 101
153 150 100
153 152 102
145 143 95
152 150 101
151 148 98
149 147 98
148 146 98
144 141 93
147 144 96
140 138 91
152 150 99
156 153 101
152 150 100
140 138 90
158 154 102
152 149 99
148 146 97
153 151 100
153 150 100
150 148 98
152 148 98
152 149 98
157 153 99
153 151 100
149 147 97
136 133 88
155 152 101
145 143 95
147 145 95
155 153 99
156 153 99
144 141 93
144 141 92
150 147 95
155 152 99
152 149 97
155 152 100
137 134 87
153 150 98
139 136 90
146 143 93
150 146 95
144 141 90
154 151 97
139 136 90
138 135 88
152 149 98
149 145 96
139 135 88
143 140 92
143 140 90
147 142 90
145 141 89
132 129 84
139 136 90
143 139 89
140 138 89
142 138 88
128 125 81
137 134 87
150 145 93
144 141 90
140 137 86
140 136 89
141 137 87
138 133 83
135 131 83
203 225 255
202 225 255
202 225 255
201 224 255
201 224 255
200 224 255
200 224 255
199 223 255
199 223 255
199 223 255
198 223 255
198 223 255
197 222 255
197 222 255
197 222 255
196 222 255
196 222 255
195 221 255
195 221 255
195 221 255
194 221 255
194 221 255
194 221 255
193 220 255
193 220 255
193 220 255
192 220 255
192 220 255
192 219 255
191 219 255
191 219 255
191 219 255
191 219 255
190 219 255
190 219 255
190 218 255
189 218 255
189 218 255
189 218 255
189 218 255
188 218 255
188 218 255
188 217 255
187 217 255
187 217 255
187 217 255
187 217 255
186 217 255
186 217 255
186 216 255
186 216 255
185 216 255
185 216 255
185 216 255
185 216 255
185 216 255
184 216 255
184 216 255
184 215 255
184 215 255
184 215 255
183 215 255
183 215 255
183 215 255
183 215 255
183 215 255
183 215 255
182 215 255
182 215 255
182 215 255
182 214 255
182 214 255
182 214 255
182 214 255
182 214 255
182 214 255
182 214 255
181 214 255
181 214 255
181 214 255
182 214 255
182 214 255
182 214 255
182 214 255
182 214 255
182 214 255
182 214 255
182 214 255
182 215 255
182 215 255
183 215 255
183 215 255
183 215 255
184 215 255
184 215 255
184 216 255
185 216 255
185 216 255
186 216 255
186 217 255
187 217 255
188 218 255
189 218 255
190 219 255
191 219 255
193 220 255
195 221 255
197 222 255
201 224 255
206 227 255
208 228 255
208 228 255
208 228 255
208 228 255
208 228 255
208 228 255
208 228 255
208 228 255
208 228 255
208 228 255
208 228 255
208 228 255
208 228 255
208 228 255
208 228 255
207 228 255
207 228 255
207 228 255
207 228 255
207 228 255
207 228 255
207 228 255
207 228 255
207 228 255
207 228 255
207 228 255
207 228 255
207 228 255
207 228 255
207 228 255
207 228 255
207 227 255
207 227 255
207 227 255
207 227 255
207 227 255
206 227 255
206 227 255
206 227 255
206 227 255
206 227 255
206 227 255
206 227 255
206 227 255
206 227 255
206 227 255
206 227 255
206 227 255
206 227 255
206 227 255
206 227 255
206 227 255
206 227 255
206 227 255
206 227 255
206 227 255
206 227 255
206 227 255
206 227 255
206 227 255
206 227 255
206 227 255
206 227 255
205 227 255
205 227 255
205 227 255
205 227 255
205 227 255
205 227 255
205 227 255
205 227 255
205 227 255
205 227 255
205 227 255
205 227 255
205 227 255
205 227 255
205 227 255
205 227 255
205 227 255
205 227 255
205 227 255
205 227 255
205 227 255
205 227 255
205 227 255
205 227 255
204 226 255
199 221 252
203 225 254
200 222 252
198 220 251
202 224 254
205 227 255
205 227 255
205 227 255
205 227 255
205 227 255
205 227 255
205 227 255
205 227 255
205 227 255
205 227 255
205 227 255
205 227 255
205 227 255
205 227 255
205 227 255
205 227 255
205 227 255
205 227 255
205 227 255
205 227 255
205 227 255
205 227 255
205 227 255
205 227 255
206 227 255
206 227 255
206 227 255
206 227 255
206 227 255
206 227 255
206 227 255
206 227 255
206 227 255
206 227 255
206 227 255
206 227 255
206 227 255
206 227 255
206 227 255
206 227 255
206 227 255
206 227 255
206 227 255
206 227 255
206 227 255
206 227 255
206 227 255
206 227 255
206 227 255
206 227 255
206 227 255
207 227 255
207 227 255
207 227 255
207 227 255
207 227 255
207 228 255
207 228 255
207 228 255
207 228 255
207 228 255
207 228 255
207 228 255
207 228 255
207 228 255
207 228 255
207 228 255
207 228 255
207 228 255
207 228 255
207 228 255
207 228 255
208 228 255
208 228 255
208 228 255
208 228 255
208 228 255
208 228 255
208 228 255
208 228 255
208 228 255
208 228 255
208 228 255
208 228 255
208 228 255
208 228 255
202 221 244
177 189 194
140 141 113
142 139 93
128 126 84
142 140 94
131 130 87
141 139 93
136 135 90
135 134 90
142 141 95
145 143 96
142 140 94
137 135 90
145 143 96
137 135 90
141 140 94
151 150 101
151 150 101
151 149 100
146 145 97
150 149 100
144 142 95
142 141 95
144 143 96
146 144 97
147 145 97
148 146 98
139 138 93
147 145 97
148 146 98
152 150 100
146 145 97
149 147 99
153 150 100
147 146 98
152 151 101
155 153 103
155 153 103
146 144 96
145 143 96
144 142 95
155 153 103
154 150 100
155 154 103
157 155 104
149 147 98
152 149 99
148 146 97
152 150 100
162 160 108
152 150 99
157 155 103
151 149 100
152 150 100
148 145 97
147 144 95
157 154 101
151 148 99
149 147 97
154 151 100
152 148 98
156 154 102
145 143 95
153 150 99
148 145 96
151 149 98
157 154 101
151 149 97
156 153 101
150 147 95
139 137 90
147 144 93
154 152 101
142 140 93
157 154 101
156 153 100
146 144 95
154 150 98
154 151 99
158 155 100
158 154 99
148 145 95
147 145 95
149 146 96
144 141 92
155 151 98
146 143 93
153 150 97
151 148 95
149 146 95
144 141 90
149 144 93
152 148 96
150 147 97
142 140 91
144 140 88
147 143 91
141 139 91
138 134 88
136 133 84
137 134 87
151 147 95
148 144 91
142 138 88
146 142 89
134 130 83
147 143 90
144 138 87
135 131 83
148 143 93
202 225 255
202 225 255
201 224 255
201 224 255
200 224 255
200 224 255
199 224 255
199 223 255
199 223 255
198 223 255
198 223 255
197 222 255
197 222 255
197 222 255
196 222 255
196 222 255
196 222 255
195 221 255
195 221 255
195 221 255
194 221 255
194 221 255
194 220 255
193 220 255
193 220 255
193 220 255
192 220 255
192 220 255
192 219 255
191 219 255
191 219 255
191 219 255
191 219 255
190 219 255
190 219 255
190 218 255
189 218 255
189 218 255
189 218 255
188 218 255
188 218 255
188 217 255
188 217 255
187 217 255
187 217 255
187 217 255
187 217 255
186 217 255
186 217 255
186 216 255
186 216 255
185 216 255
185 216 255
185 216 255
185 216 255
185 216 255
184 216 255
184 216 255
184 215 255
184 215 255
183 215 255
183 215 255
183 215 255
183 215 255
183 215 255
183 215 255
182 215 255
182 215 255
182 215 255
182 214 255
182 214 255
182 214 255
182 214 255
182 214 255
181 214 255
181 214 255
181 214 255
181 214 255
181 214 255
181 214 255
181 214 255
181 214 255
181 214 255
181 214 255
181 214 255
181 214 255
181 214 255
181 214 255
182 214 255
182 214 255
182 214 255
182 215 255
182 215 255
183 215 255
183 215 255
183 215 255
184 215 255
184 215 255
185 216 255
185 216 255
186 216 255
186 217 255
187 217 255
188 218 255
189 218 255
190 219 255
191 219 255
193 220 255
195 221 255
197 222 255
201 225 255
206 227 255
208 228 255
208 228 255
208 228 255
208 228 255
208 228 255
208 228 255
208 228 255
208 228 255
208 228 255
208 228 255
208 228 255
208 228 255
208 228 255
208 228 255
208 228 255
208 228 255
208 228 255
208 228 255
207 228 255
207 228 255
207 228 255
207 228 255
207 228 255
207 228 255
207 228 255
207 228 255
207 228 255
207 228 255
207 228 255
207 228 255
207 228 255
207 228 255
207 228 255
207 228 255
207 227 255
207 227 255
207 227 255
207 227 255
207 227 255
207 227 255
206 227 255
206 227 255
206 227 255
206 227 255
206 227 255
206 227 255
206 227 255
206 227 255
206 227 255
206 227 255
206 227 255
206 227 255
206 227 255
206 227 255
206 227 255
206 227 255
206 227 255
206 227 255
206 227 255
206 227 255
206 227 255
206 227 255
206 227 255
206 227 255
206 227 255
206 227 255
206 227 255
206 227 255
206 227 255
206 227 255
206 227 255
206 227 255
206 227 255
205 227 255
205 227 255
205 227 255
205 227 255
203 224 254
184 206 241
166 189 228
155 178 222
133 157 208
107 134 197
94 123 190
81 113 183
65 101 180
61 98 175
61 98 175
62 99 179
62 99 180
62 99 177
92 121 188
90 120 186
114 141 200
145 168 215
152 175 220
166 188 228
181 203 239
205 226 255
205 227 255
205 227 255
205 227 255
205 227 255
206 227 255
206 227 255
206 227 255
206 227 255
206 227 255
206 227 255
206 227 255
206 227 255
206 227 255
206 227 255
206 227 255
206 227 255
206 227 255
206 227 255
206 227 255
206 227 255
206 227 255
206 227 255
206 227 255
206 227 255
206 227 255
206 227 255
206 227 255
206 227 255
206 227 255
206 227 255
206 227 255
206 227 255
206 227 255
206 227 255
206 227 255
206 227 255
206 227 255
207 227 255
207 227 255
207 227 255
207 227 255
207 227 255
207 227 255
207 228 255
207 228 255
207 228 255
207 228 255
207 228 255
207 228 255
207 228 255
207 228 255
207 228 255
207 228 255
207 228 255
207 228 255
207 228 255
207 228 255
207 228 255
207 228 255
208 228 255
208 228 255
208 228 255
208 228 255
208 228 255
208 228 255
208 228 255
208 228 255
208 228 255
208 228 255
208 228 255
208 228 255
208 228 255
208 228 255
208 228 255
208 228 255
208 228 255
208 227 252
173 184 187
129 128 97
129 127 85
137 135 90
142 140 93
138 137 92
139 138 93
146 144 97
143 141 94
145 144 97
142 141 95
146 144 97
147 146 98
136 134 90
138 137 92
155 154 103
142 142 95
151 149 100
135 134 90
148 148 99
141 141 95
144 143 96
137 136 91
149 147 99
154 153 103
143 142 95
150 149 100
144 142 95
144 142 96
152 149 99
147 146 98
155 153 103
152 151 101
158 156 104
152 150 101
151 150 101
153 151 101
147 145 97
157 155 104
149 147 98
157 155 104
160 157 105
145 143 95
160 158 105
149 147 98
152 151 101
149 147 99
158 155 103
152 151 101
160 158 105
151 150 101
156 153 102
141 139 93
162 159 105
158 155 103
157 154 103
149 146 96
154 151 101
156 153 102
150 147 98
155 151 101
152 150 99
159 155 103
159 155 101
154 151 99
154 151 100
142 140 93
152 150 99
154 150 97
151 147 96
149 145 97
153 150 98
151 149 96
146 143 95
153 149 98
153 150 99
146 144 94
158 154 100
151 147 95
154 151 99
149 147 95
156 153 100
154 151 101
145 142 93
150 146 93
154 149 97
154 151 99
148 144 93
149 146 95
140 137 89
149 145 93
147 144 90
143 140 91
157 152 98
137 134 84
148 145 94
139 136 87
148 144 91
149 145 93
144 141 90
146 143 91
141 138 85
142 138 86
144 140 87
147 143 90
142 137 87
130 126 79
142 138 88
141 137 89
130 127 80
132 128 82
142 138 87
202 225 255
201 224 255
201 224 255
200 224 255
200 224 255
199 224 255
199 223 255
199 223 255
198 223 255
198 223 255
198 223 255
197 222 255
197 222 255
196 222 255
196 222 255
196 222 255
195 221 255
195 221 255
195 221 255
194 221 255
194 221 255
194 221 255
193 220 255
193 220 255
193 220 255
193 220 255
192 220 255
192 220 255
192 219 255
191 219 255
191 219 255
191 219 255
190 219 255
190 219 255
190 219 255
190 218 255
189 218 255
189 218 255
189 218 255
189 218 255
188 218 255
188 218 255
188 217 255
187 217 255
187 217 255
187 217 255
187 217 255
186 217 255
186 217 255
186 216 255
186 216 255
185 216 255
185 216 255
185 216 255
185 216 255
185 216 255
184 216 255
184 216 255
184 215 255
184 215 255
184 215 255
183 215 255
183 215 255
183 215 255
183 215 255
183 215 255
182 215 255
182 215 255
182 214 255
182 214 255
182 214 255
182 214 255
182 214 255
181 214 255
181 214 255
181 214 255
181 214 255
181 214 255
181 214 255
181 214 255
181 214 255
181 214 255
181 214 255
181 214 255
181 214 255
181 214 255
181 214 255
181 214 255
181 214 255
181 214 255
181 214 255
182 214 255
182 214 255
182 214 255
182 215 255
182 215 255
183 215 255
183 215 255
183 215 255
184 215 255
184 216 255
185 216 255
186 216 255
186 217 255
187 217 255
188 218 255
189 218 255
190 219 255
192 219 255
193 220 255
195 221 255
198 223 255
202 225 255
207 228 255
208 228 255
208 228 255
208 228 255
208 228 255
208 228 255
208 228 255
208 228 255
208 228 255
208 228 255
208 228 255
208 228 255
208 228 255
208 228 255
208 228 255
208 228 255
208 228 255
208 228 255
208 228 255
208 228 255
208 228 255
208 228 255
207 228 255
207 228 255
207 228 255
207 228 255
207 228 255
207 228 255
207 228 255
207 228 255
207 228 255
207 228 255
207 228 255
207 228 255
207 228 255
207 228 255
207 228 255
207 228 255
207 228 255
207 227 255
207 227 255
207 227 255
207 227 255
207 227 255
207 227 255
206 227 255
206 227 255
206 227 255
206 227 255
206 227 255
206 227 255
206 227 255
206 227 255
206 227 255
206 227 255
206 227 255
206 227 255
206 227 255
206 227 255
206 227 255
206 227 255
206 227 255
206 227 255
206 227 255
206 227 255
206 227 255
206 227 255
206 227 255
206 227 255
206 227 255
206 227 255
206 227 255
206 227 255
185 207 241
148 171 217
104 131 194
76 109 183
62 99 175
63 99 177
62 99 174
62 99 176
62 99 176
61 98 175
63 100 178
62 99 177
62 99 176
62 99 177
62 99 176
61 98 172
62 99 177
62 99 175
62 99 175
62 99 174
61 98 174
63 100 176
62 99 178
62 99 180
70 104 176
109 136 195
149 173 219
185 207 241
202 223 253
206 227 255
206 227 255
206 227 255
206 227 255
206 227 255
206 227 255
206 227 255
206 227 255
206 227 255
206 227 255
206 227 255
206 227 255
206 227 255
206 227 255
206 227 255
206 227 255
206 227 255
206 227 255
206 227 255
206 227 255
206 227 255
206 227 255
206 227 255
206 227 255
206 227 255
206 227 255
206 227 255
207 227 255
207 227 255
207 227 255
207 227 255
207 227 255
207 227 255
207 228 255
207 228 255
207 228 255
207 228 255
207 228 255
207 228 255
207 228 255
207 228 255
207 228 255
207 228 255
207 228 255
207 228 255
207 228 255
207 228 255
207 228 255
207 228 255
207 228 255
208 228 255
208 228 255
208 228 255
208 228 255
208 228 255
208 228 255
208 228 255
208 228 255
208 228 255
208 228 255
208 228 255
208 228 255
208 228 255
208 228 255
208 228 255
208 228 255
208 228 255
208 228 255
208 228 255
208 228 255
209 228 255
174 187 197
148 149 118
125 122 81
142 140 93
136 135 91
128 127 85
142 141 95
139 138 92
140 138 92
141 139 93
150 148 99
143 142 96
145 144 97
146 144 97
145 143 96
138 137 92
149 149 100
146 146 98
150 149 100
150 149 100
146 144 97
153 152 102
156 154 103
138 137 92
152 150 101
146 145 97
151 150 100
142 140 94
154 152 102
148 146 98
154 153 103
150 148 99
150 148 99
157 156 105
154 153 103
156 153 103
155 153 102
151 149 100
150 148 99
153 151 101
154 152 101
150 149 100
153 151 101
154 151 101
153 151 101
156 155 104
151 149 100
156 153 102
153 150 99
148 145 97
154 152 102
156 153 101
150 148 99
157 155 103
154 152 102
159 155 102
153 151 99
158 155 104
155 153 101
155 151 99
153 150 99
159 156 103
157 154 103
156 153 101
159 156 103
145 141 93
155 152 101
151 148 98
160 157 104
158 155 103
163 160 105
159 155 101
164 160 106
148 146 97
156 153 101
145 142 93
153 149 97
158 155 102
152 149 97
149 146 95
152 147 95
159 155 102
154 150 97
148 144 93
137 135 90
156 152 98
157 154 101
150 147 96
148 145 94
155 150 97
153 148 96
142 139 90
154 151 97
152 149 98
153 148 94
142 139 90
148 144 92
144 141 91
154 151 95
152 148 95
143 139 85
147 143 91
144 141 92
154 150 97
149 146 93
147 143 90
151 147 96
144 140 89
140 136 86
138 134 85
141 138 88
155 150 94
148 143 89
148 144 93
201 224 255
201 224 255
200 224 255
200 224 255
200 224 255
199 223 255
199 223 255
198 223 255
198 223 255
198 223 255
197 222 255
197 222 255
197 222 255
196 222 255
196 222 255
196 222 255
195 221 255
195 221 255
195 221 255
194 221 255
194 221 255
194 221 255
193 220 255
193 220 255
193 220 255
193 220 255
192 220 255
192 220 255
192 219 255
191 219 255
191 219 255
191 219 255
191 219 255
190 219 255
190 219 255
190 218 255
189 218 255
189 218 255
189 218 255
189 218 255
188 218 255
188 218 255
188 217 255
188 217 255
187 217 255
187 217 255
187 217 255
187 217 255
186 217 255
186 217 255
186 216 255
186 216 255
185 216 255
185 216 255
185 216 255
185 216 255
184 216 255
184 216 255
184 215 255
184 215 255
184 215 255
183 215 255
183 215 255
183 215 255
183 215 255
183 215 255
182 215 255
182 215 255
182 214 255
182 214 255
182 214 255
182 214 255
182 214 255
181 214 255
181 214 255
181 214 255
181 214 255
181 214 255
181 214 255
181 214 255
181 214 255
181 214 255
181 214 255
181 214 255
181 214 255
181 214 255
181 214 255
181 214 255
181 214 255
181 214 255
181 214 255
181 214 255
181 214 255
181 214 255
182 214 255
182 214 255
182 214 255
182 215 255
183 215 255
183 215 255
183 215 255
184 215 255
184 216 255
185 216 255
186 216 255
186 217 255
187 217 255
188 218 255
189 218 255
190 219 255
192 220 255
193 220 255
196 222 255
198 223 255
203 225 255
207 228 255
209 229 255
209 229 255
209 228 255
208 228 255
208 228 255
208 228 255
208 228 255
208 228 255
208 228 255
208 228 255
208 228 255
208 228 255
208 228 255
208 228 255
208 228 255
208 228 255
208 228 255
208 228 255
208 228 255
208 228 255
208 228 255
208 228 255
208 228 255
208 228 255
208 228 255
207 228 255
207 228 255
207 228 255
207 228 255
207 228 255
207 228 255
207 228 255
207 228 255
207 228 255
207 228 255
207 228 255
207 228 255
207 228 255
207 228 255
207 228 255
207 228 255
207 228 255
207 228 255
207 227 255
207 227 255
207 227 255
207 227 255
207 227 255
207 227 255
207 227 255
206 227 255
206 227 255
206 227 255
206 227 255
206 227 255
206 227 255
206 227 255
206 227 255
206 227 255
206 227 255
206 227 255
206 227 255
206 227 255
206 227 255
206 227 255
206 227 255
201 222 252
169 191 229
129 154 207
65 101 178
62 99 180
62 99 178
62 99 177
62 99 177
62 99 177
61 98 173
62 99 174
62 99 177
62 99 176
62 99 171
62 99 176
63 100 176
61 98 170
62 99 176
62 99 173
62 99 175
62 98 175
62 98 170
62 99 177
62 99 175
62 99 177
61 98 175
63 99 176
62 98 170
62 99 175
62 99 174
61 98 174
61 98 175
85 116 185
136 160 208
156 179 223
201 222 252
206 227 255
206 227 255
206 227 255
206 227 255
206 227 255
206 227 255
206 227 255
206 227 255
206 227 255
206 227 255
206 227 255
206 227 255
206 227 255
206 227 255
206 227 255
206 227 255
207 227 255
207 227 255
207 227 255
207 227 255
207 227 255
207 227 255
207 227 255
207 228 255
207 228 255
207 228 255
207 228 255
207 228 255
207 228 255
207 228 255
207 228 255
207 228 255
207 228 255
207 228 255
207 228 255
207 228 255
207 228 255
207 228 255
207 228 255
207 228 255
207 228 255
207 228 255
208 228 255
208 228 255
208 228 255
208 228 255
208 228 255
208 228 255
208 228 255
208 228 255
208 228 255
208 228 255
208 228 255
208 228 255
208 228 255
208 228 255
208 228 255
208 228 255
208 228 255
208 228 255
208 228 255
208 228 255
209 228 255
209 228 255
209 229 255
209 229 255
193 210 229
150 153 137
135 131 87
137 135 90
141 139 93
129 127 85
135 133 89
143 141 95
145 143 96
145 143 95
144 143 96
138 137 93
136 136 92
132 131 89
143 142 95
143 142 95
144 143 96
147 146 98
148 147 98
147 146 98
138 138 93
155 153 103
145 143 95
149 147 99
148 147 98
145 144 97
153 151 101
153 153 103
155 153 102
154 152 102
149 148 99
152 151 101
153 150 99
153 151 101
147 145 97
150 148 99
152 150 101
152 150 100
156 154 103
158 157 105
160 157 105
155 153 102
155 151 101
154 150 100
160 158 106
160 158 105
156 155 103
154 152 101
150 147 97
161 158 104
155 153 102
157 154 103
156 154 103
155 153 101
150 148 99
153 151 101
156 155 104
153 151 101
154 152 101
157 154 102
153 151 98
152 149 99
158 156 103
153 149 99
147 145 97
154 151 99
155 151 100
155 152 101
155 152 100
157 154 102
152 149 97
152 149 98
159 156 102
159 156 103
150 148 97
157 154 99
154 151 100
155 151 100
159 155 101
157 155 102
158 154 99
154 151 99
157 154 99
153 150 98
159 155 101
161 156 101
152 148 96
153 150 94
148 145 93
149 146 94
154 150 98
150 146 95
141 137 87
155 151 98
148 145 95
161 157 101
149 146 93
150 146 95
146 141 92
145 140 89
144 141 90
148 145 95
151 145 93
145 141 89
142 139 88
153 149 96
150 147 93
148 144 92
143 139 87
152 146 93
138 135 87
153 148 95
141 137 84
135 132 84
143 139 89
146 142 87
201 224 255
201 224 255
200 224 255
200 224 255
199 224 255
199 223 255
199 223 255
198 223 255
198 223 255
198 223 255
197 222 255
197 222 255
197 222 255
196 222 255
196 222 255
196 222 255
195 221 255
195 221 255
195 221 255
194 221 255
194 221 255
194 221 255
194 220 255
193 220 255
193 220 255
193 220 255
192 220 255
192 220 255
192 219 255
191 219 255
191 219 255
191 219 255
191 219 255
190 219 255
190 219 255
190 218 255
190 218 255
189 218 255
189 218 255
189 218 255
188 218 255
188 218 255
188 217 255
188 217 255
187 217 255
187 217 255
187 217 255
187 217 255
186 217 255
186 217 255
186 216 255
186 216 255
185 216 255
185 216 255
185 216 255
185 216 255
185 216 255
184 216 255
184 216 255
184 215 255
184 215 255
184 215 255
183 215 255
183 215 255
183 215 255
183 215 255
183 215 255
182 215 255
182 215 255
182 214 255
182 214 255
182 214 255
182 214 255
181 214 255
181 214 255
181 214 255
181 214 255
181 214 255
181 214 255
181 214 255
181 214 255
181 214 255
181 214 255
181 214 255
181 214 255
181 214 255
181 214 255
181 214 255
181 214 255
181 214 255
181 214 255
181 214 255
181 214 255
181 214 255
181 214 255
181 214 255
182 214 255
182 214 255
182 214 255
182 215 255
183 215 255
183 215 255
184 215 255
184 215 255
185 216 255
185 216 255
186 216 255
187 217 255
188 217 255
189 218 255
189 218 255
191 219 255
192 220 255
194 221 255
196 222 255
200 224 255
204 226 255
208 228 255
209 229 255
209 229 255
209 229 255
209 229 255
209 229 255
209 228 255
209 228 255
208 228 255
208 228 255
208 228 255
208 228 255
208 228 255
208 228 255
208 228 255
208 228 255
208 228 255
208 228 255
208 228 255
208 228 255
208 228 255
208 228 255
208 228 255
208 228 255
208 228 255
208 228 255
208 228 255
208 228 255
208 228 255
207 228 255
207 228 255
207 228 255
207 228 255
207 228 255
207 228 255
207 228 255
207 228 255
207 228 255
207 228 255
207 228 255
207 228 255
207 228 255
207 228 255
207 228 255
207 228 255
207 228 255
207 228 255
207 228 255
207 228 255
207 227 255
207 227 255
207 227 255
207 227 255
207 227 255
207 227 255
207 227 255
207 227 255
207 227 255
206 227 255
206 227 255
206 227 255
206 227 255
206 227 255
170 192 231
118 144 199
80 112 180
62 99 175
62 99 173
61 98 177
62 99 176
62 99 178
63 100 179
62 99 172
62 99 173
61 98 172
62 99 174
62 98 170
63 99 173
61 98 171
62 99 173
63 99 174
62 99 177
62 99 173
62 98 173
62 99 175
62 99 174
62 98 168
62 99 175
63 100 178
62 99 175
62 99 170
62 99 175
62 99 176
62 99 173
62 99 173
62 98 171
62 99 174
62 98 176
61 98 175
61 98 171
67 102 176
130 155 207
182 204 238
206 227 255
206 227 255
206 227 255
206 227 255
206 227 255
207 227 255
207 227 255
207 227 255
207 227 255
207 227 255
207 227 255
207 227 255
207 227 255
207 228 255
207 228 255
207 228 255
207 228 255
207 228 255
207 228 255
207 228 255
207 228 255
207 228 255
207 228 255
207 228 255
207 228 255
207 228 255
207 228 255
207 228 255
207 228 255
207 228 255
207 228 255
207 228 255
207 228 255
207 228 255
208 228 255
208 228 255
208 228 255
208 228 255
208 228 255
208 228 255
208 228 255
208 228 255
208 228 255
208 228 255
208 228 255
208 228 255
208 228 255
208 228 255
208 228 255
208 228 255
208 228 255
208 228 255
208 228 255
208 228 255
208 228 255
208 228 255
209 228 255
209 229 255
209 229 255
209 229 255
209 229 255
209 229 255
205 223 246
149 154 140
137 135 90
142 140 93
143 142 95
127 126 85
134 132 88
137 136 91
139 138 93
134 133 89
144 143 96
145 144 96
146 145 98
143 142 95
135 134 90
149 147 99
148 146 97
155 154 103
149 148 99
148 146 98
147 145 97
151 151 102
150 149 100
152 151 102
153 151 101
153 152 102
151 149 100
153 152 102
149 147 98
158 156 104
153 151 102
151 150 101
157 155 103
152 150 100
159 157 105
157 154 103
155 153 103
158 156 104
150 149 100
155 153 102
158 155 104
152 150 100
154 152 102
156 155 104
156 153 102
159 157 104
152 150 99
156 154 103
156 152 101
151 148 99
161 158 105
158 155 103
158 154 102
163 160 106
153 151 101
155 153 102
157 154 102
160 156 104
162 159 106
161 158 106
162 158 104
161 158 104
155 153 101
153 151 101
147 144 96
153 150 99
157 154 101
154 150 99
160 157 104
158 155 101
155 152 101
157 154 101
160 157 103
160 157 101
148 145 93
152 149 99
157 154 100
149 147 98
157 155 101
155 152 100
151 148 98
156 152 99
151 149 97
154 151 99
152 149 98
145 142 93
149 145 93
153 149 97
154 150 98
157 153 98
152 150 97
149 146 93
153 148 95
151 148 95
151 148 97
144 141 92
154 149 95
154 150 98
153 150 99
149 144 93
153 149 95
158 154 99
140 135 87
137 135 86
147 142 90
149 144 91
152 148 94
152 148 91
147 142 91
138 134 87
138 135 85
151 147 93
143 140 88
152 147 90
150 146 93
147 144 93
138 133 84
147 144 89
201 224 255
200 224 255
200 224 255
200 224 255
199 223 255
199 223 255
199 223 255
198 223 255
198 223 255
198 223 255
197 222 255
197 222 255
197 222 255
196 222 255
196 222 255
196 222 255
195 221 255
195 221 255
195 221 255
195 221 255
194 221 255
194 221 255
194 220 255
193 220 255
193 220 255
193 220 255
192 220 255
192 220 255
192 220 255
192 219 255
191 219 255
191 219 255
191 219 255
191 219 255
190 219 255
190 219 255
190 218 255
189 218 255
189 218 255
189 218 255
189 218 255
188 218 255
188 218 255
188 217 255
188 217 255
187 217 255
187 217 255
187 217 255
187 217 255
186 217 255
186 217 255
186 216 255
186 216 255
185 216 255
185 216 255
185 216 255
185 216 255
185 216 255
184 216 255
184 216 255
184 215 255
184 215 255
184 215 255
183 215 255
183 215 255
183 215 255
183 215 255
183 215 255
182 215 255
182 215 255
182 214 255
182 214 255
182 214 255
182 214 255
181 214 255
181 214 255
181 214 255
181 214 255
181 214 255
181 214 255
181 214 255
181 214 255
181 214 255
181 214 255
181 214 255
181 214 255
181 214 255
181 214 255
181 214 255
181 214 255
181 214 255
181 214 255
181 214 255
181 214 255
181 214 255
181 214 255
181 214 255
181 214 255
182 214 255
182 214 255
182 215 255
182 215 255
183 215 255
183 215 255
184 215 255
184 216 255
185 216 255
185 216 255
186 217 255
187 217 255
188 217 255
189 218 255
190 219 255
191 219 255
193 220 255
195 221 255
197 222 255
201 224 255
206 227 255
209 229 255
209 229 255
209 229 255
209 229 255
209 229 255
209 229 255
209 229 255
209 229 255
209 229 255
209 228 255
209 228 255
208 228 255
208 228 255
208 228 255
208 228 255
208 228 255
208 228 255
208 228 255
208 228 255
208 228 255
208 228 255
208 228 255
208 228 255
208 228 255
208 228 255
208 228 255
208 228 255
208 228 255
208 228 255
208 228 255
208 228 255
208 228 255
208 228 255
208 228 255
207 228 255
207 228 255
207 228 255
207 228 255
207 228 255
207 228 255
207 228 255
207 228 255
207 228 255
207 228 255
207 228 255
207 228 255
207 228 255
207 228 255
207 228 255
207 228 255
207 228 255
207 228 255
207 228 255
207 228 255
207 228 255
207 228 255
207 228 255
207 228 255
205 226 254
168 190 230
106 134 195
63 100 179
62 99 177
62 99 174
62 99 174
62 99 175
63 99 172
62 99 174
62 99 172
63 100 178
63 99 172
62 99 175
62 99 173
62 99 174
62 99 174
62 99 174
62 99 174
63 99 170
62 98 171
61 98 172
61 98 167
61 98 169
63 99 171
62 99 173
62 99 171
62 99 168
62 99 174
62 98 170
63 100 177
62 98 173
62 98 174
62 98 170
61 98 170
61 98 169
62 99 172
62 98 173
62 98 169
62 98 172
61 97 170
63 99 176
62 99 175
102 130 189
168 190 228
205 226 254
207 228 255
207 228 255
207 228 255
207 228 255
207 228 255
207 228 255
207 228 255
207 228 255
207 228 255
207 228 255
207 228 255
207 228 255
207 228 255
207 228 255
207 228 255
207 228 255
207 228 255
207 228 255
207 228 255
207 228 255
207 228 255
207 228 255
207 228 255
207 228 255
208 228 255
208 228 255
208 228 255
208 228 255
208 228 255
208 228 255
208 228 255
208 228 255
208 228 255
208 228 255
208 228 255
208 228 255
208 228 255
208 228 255
208 228 255
208 228 255
208 228 255
208 228 255
208 228 255
208 228 255
208 228 255
208 228 255
208 228 255
209 228 255
209 228 255
209 229 255
209 229 255
209 229 255
209 229 255
209 229 255
209 229 255
209 229 255
209 229 255
209 228 254
179 193 206
140 139 101
135 133 88
139 136 90
132 130 87
142 140 94
134 132 89
142 141 95
145 144 97
141 139 93
139 139 94
142 141 94
142 141 95
139 138 93
148 147 99
147 146 99
149 147 99
153 151 101
142 140 94
151 150 100
153 151 101
146 145 98
151 149 100
146 145 97
144 143 97
157 156 104
155 153 103
146 145 98
150 148 99
155 154 103
146 144 96
155 153 103
150 147 98
154 152 101
157 155 104
161 160 107
152 150 101
157 154 103
157 154 103
157 156 104
150 147 97
159 157 105
160 158 105
161 159 106
164 161 108
161 158 106
158 156 104
154 151 100
155 152 101
155 153 102
157 154 102
149 146 96
159 155 103
157 155 103
161 158 105
164 160 106
157 154 103
162 159 105
159 158 105
160 157 104
161 158 104
162 159 103
161 157 103
157 154 103
156 154 101
163 159 104
160 157 103
157 155 103
155 153 102
150 148 97
155 153 101
162 158 102
147 144 95
156 153 101
156 153 100
152 149 99
163 159 104
150 146 95
154 151 101
157 154 100
159 156 101
151 147 91
149 146 95
155 151 99
158 154 101
154 150 98
158 155 102
149 146 95
153 150 98
151 148 96
159 155 98
159 154 98
164 160 104
155 152 98
152 147 94
153 150 97
154 150 98
151 146 93
150 147 95
148 145 93
147 144 95
152 148 95
150 147 95
149 145 93
157 153 99
152 148 95
139 136 86
147 143 90
150 145 91
152 148 95
143 140 90
145 140 90
154 150 94
150 145 90
148 144 90
140 137 83
143 140 87
142 138 85
139 134 86
201 224 255
200 224 255
200 224 255
200 224 255
199 223 255
199 223 255
199 223 255
198 223 255
198 223 255
198 223 255
197 222 255
197 222 255
197 222 255
196 222 255
196 222 255
196 222 255
196 221 255
195 221 255
195 221 255
195 221 255
194 221 255
194 221 255
194 221 255
193 220 255
193 220 255
193 220 255
193 220 255
192 220 255
192 220 255
192 220 255
192 219 255
191 219 255
191 219 255
191 219 255
190 219 255
190 219 255
190 219 255
190 218 255
189 218 255
189 218 255
189 218 255
189 218 255
188 218 255
188 218 255
188 217 255
188 217 255
187 217 255
187 217 255
187 217 255
187 217 255
186 217 255
186 217 255
186 216 255
186 216 255
186 216 255
185 216 255
185 216 255
185 216 255
185 216 255
184 216 255
184 216 255
184 215 255
184 215 255
184 215 255
183 215 255
183 215 255
183 215 255
183 215 255
183 215 255
182 215 255
182 215 255
182 214 255
182 214 255
182 214 255
182 214 255
182 214 255
181 214 255
181 214 255
181 214 255
181 214 255
181 214 255
181 214 255
181 214 255
181 214 255
181 214 255
181 214 255
181 214 255
181 214 255
181 214 255
181 214 255
181 214 255
181 214 255
181 214 255
181 214 255
181 214 255
181 214 255
181 214 255
181 214 255
181 214 255
182 214 255
182 214 255
182 214 255
182 215 255
183 215 255
183 215 255
184 215 255
184 215 255
185 216 255
185 216 255
186 216 255
187 217 255
187 217 255
188 218 255
189 218 255
191 219 255
192 220 255
194 220 255
196 222 255
199 223 255
204 226 255
208 228 255
209 229 255
209 229 255
209 229 255
209 229 255
209 229 255
209 229 255
209 229 255
209 229 255
209 229 255
209 229 255
209 229 255
209 229 255
209 229 255
209 228 255
208 228 255
208 228 255
208 228 255
208 228 255
208 228 255
208 228 255
208 228 255
208 228 255
208 228 255
208 228 255
208 228 255
208 228 255
208 228 255
208 228 255
208 228 255
208 228 255
208 228 255
208 228 255
208 228 255
208 228 255
208 228 255
208 228 255
208 228 255
208 228 255
208 228 255
207 228 255
207 228 255
207 228 255
207 228 255
207 228 255
207 228 255
207 228 255
207 228 255
207 228 255
207 228 255
207 228 255
207 228 255
207 228 255
207 228 255
207 228 255
207 228 255
169 190 228
102 130 191
62 99 178
62 99 175
62 99 178
62 99 175
61 98 171
62 99 174
62 98 167
63 99 169
62 99 174
62 99 171
61 98 170
62 99 173
62 99 173
62 98 172
63 99 173
62 99 175
62 99 175
62 99 173
61 98 166
63 99 172
62 99 172
62 99 168
62 99 168
63 99 174
63 99 175
61 96 165
62 99 172
62 99 173
62 99 172
62 98 169
61 98 165
62 99 171
63 99 171
62 99 168
61 98 171
62 99 171
61 97 165
61 98 171
62 99 177
61 98 170
62 98 170
61 98 173
62 99 172
62 98 172
94 122 184
161 183 221
207 228 255
207 228 255
207 228 255
207 228 255
207 228 255
207 228 255
207 228 255
207 228 255
207 228 255
207 228 255
207 228 255
207 228 255
207 228 255
207 228 255
207 228 255
207 228 255
208 228 255
208 228 255
208 228 255
208 228 255
208 228 255
208 228 255
208 228 255
208 228 255
208 228 255
208 228 255
208 228 255
208 228 255
208 228 255
208 228 255
208 228 255
208 228 255
208 228 255
208 228 255
208 228 255
208 228 255
208 228 255
208 228 255
208 228 255
208 228 255
208 228 255
209 228 255
209 228 255
209 229 255
209 229 255
209 229 255
209 229 255
209 229 255
209 229 255
209 229 255
209 229 255
209 229 255
209 229 255
209 229 255
209 229 255
198 214 230
156 159 140
127 124 83
145 142 95
135 133 89
147 146 97
139 137 91
134 133 89
145 144 96
141 139 93
136 135 91
148 147 99
146 144 97
145 144 97
154 152 102
151 149 100
144 143 96
150 148 99
142 141 95
146 146 99
149 147 99
150 149 100
161 158 105
154 153 103
151 149 100
156 154 103
149 148 99
158 155 104
164 162 108
155 154 103
151 149 100
155 154 103
154 152 101
159 157 105
150 149 99
157 155 103
155 153 103
159 156 104
157 156 104
148 148 99
151 150 101
155 152 101
151 149 100
160 158 105
151 148 99
150 149 99
156 153 102
164 161 107
157 154 103
161 158 105
161 158 104
159 157 104
155 153 102
160 157 104
159 156 104
159 157 105
162 158 103
163 159 105
164 161 107
163 160 106
157 154 102
157 155 103
155 152 100
161 157 104
157 152 99
160 157 103
152 149 99
156 153 101
158 155 100
161 157 102
155 151 97
159 155 103
168 164 108
155 152 99
157 153 100
161 157 103
162 159 104
160 156 103
150 147 96
159 155 99
154 151 99
156 152 97
157 153 100
153 149 97
156 152 99
151 147 93
165 161 104
158 154 99
156 151 99
153 149 97
160 155 99
155 151 99
156 151 96
155 151 98
164 158 102
149 146 93
157 153 97
148 144 94
153 150 97
150 146 95
150 146 92
145 141 91
153 149 93
158 154 100
148 145 93
145 141 90
143 140 87
151 147 91
146 142 87
148 144 89
148 143 90
150 146 92
142 138 89
153 148 93
144 141 90
149 144 92
144 140 91
147 142 89
153 148 93
147 142 89
144 141 87
201 224 255
200 224 255
200 224 255
200 224 255
199 223 255
199 223 255
199 223 255
198 223 255
198 223 255
198 223 255
197 222 255
197 222 255
197 222 255
197 222 255
196 222 255
196 222 255
196 222 255
195 221 255
195 221 255
195 221 255
195 221 255
194 221 255
194 221 255
194 220 255
193 220 255
193 220 255
193 220 255
193 220 255
192 220 255
192 220 255
192 219 255
192 219 255
191 219 255
191 219 255
191 219 255
190 219 255
190 219 255
190 219 255
190 218 255
189 218 255
189 218 255
189 218 255
189 218 255
188 218 255
188 218 255
188 217 255
188 217 255
187 217 255
187 217 255
187 217 255
187 217 255
187 217 255
186 217 255
186 217 255
186 216 255
186 216 255
185 216 255
185 216 255
185 216 255
185 216 255
184 216 255
184 216 255
184 215 255
184 215 255
184 215 255
183 215 255
183 215 255
183 215 255
183 215 255
183 215 255
183 215 255
182 215 255
182 215 255
182 214 255
182 214 255
182 214 255
182 214 255
181 214 255
181 214 255
181 214 255
181 214 255
181 214 255
181 214 255
181 214 255
181 214 255
181 214 255
181 214 255
181 214 255
181 214 255
181 214 255
181 214 255
181 214 255
181 214 255
181 214 255
181 214 255
181 214 255
181 214 255
181 214 255
181 214 255
181 214 255
182 214 255
182 214 255
182 214 255
182 215 255
183 215 255
183 215 255
183 215 255
184 215 255
184 216 255
185 216 255
186 216 255
186 217 255
187 217 255
188 218 255
189 218 255
190 219 255
191 219 255
193 220 255
195 221 255
197 222 255
201 224 255
206 227 255
209 229 255
209 229 255
209 229 255
209 229 255
209 229 255
209 229 255
209 229 255
209 229 255
209 229 255
209 229 255
209 229 255
209 229 255
209 229 255
209 229 255
209 229 255
209 229 255
209 229 255
209 228 255
209 228 255
208 228 255
208 228 255
208 228 255
208 228 255
208 228 255
208 228 255
208 228 255
208 228 255
208 228 255
208 228 255
208 228 255
208 228 255
208 228 255
208 228 255
208 228 255
208 228 255
208 228 255
208 228 255
208 228 255
208 228 255
208 228 255
208 228 255
208 228 255
208 228 255
208 228 255
208 228 255
208 228 255
207 228 255
207 228 255
207 228 255
207 228 255
207 228 255
207 228 255
180 201 237
95 124 188
62 99 179
62 99 171
62 99 173
63 99 172
61 97 166
62 99 173
62 99 174
63 100 174
62 99 169
62 98 163
62 99 171
62 98 167
63 99 171
63 100 177
62 98 163
63 99 170
62 98 164
62 99 174
63 99 170
62 99 173
62 99 172
62 98 172
62 99 168
62 99 170
61 98 169
62 98 167
63 99 173
61 98 163
62 99 173
62 98 166
62 98 169
61 97 166
62 99 173
62 99 175
62 98 171
61 98 165
61 98 165
62 98 171
62 98 175
62 99 172
63 100 179
62 98 171
61 98 174
62 98 169
61 97 164
62 98 171
62 97 167
62 99 178
100 128 192
179 200 234
207 228 255
207 228 255
207 228 255
207 228 255
207 228 255
208 228 255
208 228 255
208 228 255
208 228 255
208 228 255
208 228 255
208 228 255
208 228 255
208 228 255
208 228 255
208 228 255
208 228 255
208 228 255
208 228 255
208 228 255
208 228 255
208 228 255
208 228 255
208 228 255
208 228 255
208 228 255
208 228 255
208 228 255
208 228 255
208 228 255
208 228 255
208 228 255
208 228 255
209 228 255
209 228 255
209 229 255
209 229 255
209 229 255
209 229 255
209 229 255
209 229 255
209 229 255
209 229 255
209 229 255
209 229 255
209 229 255
209 229 255
209 229 255
209 229 255
209 229 255
209 229 255
209 228 253
170 180 185
134 131 89
131 128 84
126 125 83
138 136 90
135 132 88
135 134 90
137 136 91
145 143 95
136 135 91
142 141 95
145 143 95
152 151 102
139 138 92
147 145 97
137 136 91
149 147 99
147 146 98
151 149 101
148 146 98
149 147 98
150 149 101
150 148 99
158 156 105
146 145 98
146 145 97
156 154 103
158 156 105
159 157 105
158 155 103
153 151 101
154 152 102
157 155 104
158 156 104
160 157 105
161 159 107
160 157 105
165 161 107
153 150 100
159 157 105
158 157 105
162 158 105
160 157 105
155 152 101
156 153 102
163 160 106
157 154 103
157 155 104
151 149 100
159 157 105
157 154 102
158 156 104
158 155 103
160 157 104
148 144 95
160 157 104
158 155 103
162 159 104
159 156 103
158 156 104
167 162 107
155 151 99
162 158 104
159 155 99
160 157 104
152 148 97
161 157 103
159 156 102
161 158 104
163 160 105
157 153 101
160 156 102
162 159 103
158 154 100
159 155 102
157 154 102
159 155 101
157 154 100
154 151 98
158 154 101
164 160 104
155 150 97
151 148 96
156 152 98
162 158 104
157 154 101
158 154 101
154 151 97
161 157 99
158 154 100
161 157 101
150 146 90
160 156 99
157 153 99
152 149 95
152 148 94
153 148 95
154 151 98
154 150 98
158 153 99
146 142 91
156 152 96
152 148 93
166 161 103
153 149 97
151 146 94
156 151 97
153 148 95
145 141 88
155 151 97
154 149 95
139 136 85
155 151 94
156 150 92
154 149 93
149 144 89
144 140 85
147 143 89
151 145 89
134 131 80
149 144 92
146 142 89
201 224 255
200 224 255
200 224 255
200 224 255
199 224 255
199 223 255
199 223 255
198 223 255
198 223 255
198 223 255
198 223 255
197 222 255
197 222 255
197 222 255
196 222 255
196 222 255
196 222 255
196 221 255
195 221 255
195 221 255
195 221 255
194 221 255
194 221 255
194 221 255
194 220 255
193 220 255
193 220 255
193 220 255
193 220 255
192 220 255
192 220 255
192 220 255
192 219 255
191 219 255
191 219 255
191 219 255
191 219 255
190 219 255
190 219 255
190 218 255
190 218 255
189 218 255
189 218 255
189 218 255
189 218 255
188 218 255
188 218 255
188 217 255
188 217 255
187 217 255
187 217 255
187 217 255
186 217 255
186 217 255
186 217 255
186 216 255
186 216 255
186 216 255
186 216 255
186 216 255
185 216 255
185 216 255
185 216 255
185 216 255
185 216 255
185 216 255
185 216 255
185 216 255
184 216 255
184 216 255
184 215 255
184 215 255
184 215 255
184 215 255
183 215 255
183 215 255
183 215 255
183 215 255
182 215 255
182 215 255
182 214 255
182 214 255
181 214 255
181 214 255
181 214 255
181 214 255
181 214 255
181 214 255
181 214 255
181 214 255
181 214 255
181 214 255
181 214 255
181 214 255
181 214 255
181 214 255
181 214 255
181 214 255
181 214 255
181 214 255
182 214 255
182 214 255
182 214 255
182 215 255
182 215 255
183 215 255
183 215 255
183 215 255
184 215 255
184 216 255
185 216 255
185 216 255
186 217 255
187 217 255
188 217 255
189 218 255
190 218 255
191 219 255
193 220 255
194 221 255
196 222 255
199 223 255
204 226 255
209 229 255
209 229 255
209 229 255
209 229 255
209 229 255
209 229 255
209 229 255
209 229 255
209 229 255
209 229 255
209 229 255
209 229 255
209 229 255
209 229 255
209 229 255
209 229 255
209 229 255
209 229 255
209 229 255
209 229 255
209 229 255
209 229 255
209 229 255
209 228 255
208 228 255
208 228 255
208 228 255
208 228 255
208 228 255
208 228 255
208 228 255
208 228 255
208 228 255
208 228 255
208 228 255
208 228 255
208 228 255
208 228 255
208 228 255
208 228 255
208 228 255
208 228 255
208 228 255
208 228 255
208 228 255
208 228 255
208 228 255
208 228 255
208 228 255
196 217 246
123 148 202
61 98 171
62 99 174
62 99 174
63 99 172
62 99 172
62 99 172
63 99 174
62 99 173
62 99 173
63 99 174
63 99 173
62 98 171
62 98 167
63 99 171
62 98 170
62 99 168
62 99 169
62 98 167
62 99 169
62 99 169
63 100 176
61 98 165
63 99 172
63 99 170
62 98 165
62 98 166
61 97 166
63 99 172
62 98 170
62 98 162
62 99 170
62 98 168
63 99 171
62 98 169
61 98 164
62 98 170
61 97 166
61 97 164
62 99 172
62 98 168
61 97 164
62 99 174
62 99 175
61 97 167
62 97 166
62 98 170
62 98 170
62 98 168
61 97 170
62 99 173
61 98 174
63 99 175
123 148 201
188 209 241
208 228 255
208 228 255
208 228 255
208 228 255
208 228 255
208 228 255
208 228 255
208 228 255
208 228 255
208 228 255
208 228 255
208 228 255
208 228 255
208 228 255
208 228 255
208 228 255
208 228 255
208 228 255
208 228 255
208 228 255
208 228 255
208 228 255
208 228 255
208 228 255
209 228 255
209 228 255
209 229 255
209 229 255
209 229 255
209 229 255
209 229 255
209 229 255
209 229 255
209 229 255
209 229 255
209 229 255
209 229 255
209 229 255
209 229 255
209 229 255
209 229 255
209 229 255
209 229 255
209 229 255
209 229 255
209 229 255
209 229 255
209 229 255
194 212 236
146 150 132
144 141 93
144 141 94
136 134 89
144 141 94
131 131 88
142 141 95
142 140 94
144 143 96
145 144 97
145 144 97
146 145 97
143 142 96
142 141 95
153 152 103
147 146 98
141 140 94
151 150 101
144 143 97
152 151 103
150 148 99
147 145 98
148 146 98
150 149 100
160 158 106
151 151 101
146 144 96
156 154 103
159 158 106
159 156 104
158 156 105
150 149 100
158 156 104
162 160 107
148 146 98
154 152 102
155 153 103
154 152 102
163 160 106
160 158 106
155 153 102
147 145 97
161 159 106
158 156 105
163 161 107
159 157 104
159 157 104
158 155 103
163 160 107
156 153 101
152 149 99
163 159 105
161 158 106
163 160 106
162 158 105
161 159 104
155 152 99
159 155 103
161 158 104
156 153 101
164 161 106
160 156 103
164 160 103
152 150 99
159 155 103
163 159 104
162 158 104
159 156 103
151 148 97
156 153 101
159 156 103
159 155 101
157 153 100
158 155 102
160 156 102
161 157 104
167 163 105
160 156 101
157 152 98
157 152 99
159 155 100
150 147 94
159 154 99
154 151 98
160 157 101
154 150 97
156 153 99
157 155 101
157 152 96
155 151 99
155 152 97
157 153 98
151 149 98
154 150 95
158 154 97
157 153 96
153 149 98
158 155 100
147 144 90
149 145 91
161 157 99
144 140 90
145 141 90
154 150 98
155 150 97
152 148 94
157 153 98
150 146 93
158 153 97
152 147 93
147 143 88
149 145 92
159 154 96
148 143 87
147 143 90
156 151 99
151 146 91
146 141 90
154 150 97
144 141 89
156 151 94
147 143 90
144 140 85
201 224 255
200 224 255
200 224 255
200 224 255
199 224 255
199 223 255
199 223 255
199 223 255
198 223 255
198 223 255
198 223 255
197 222 255
197 222 255
197 222 255
197 222 255
196 222 255
196 222 255
196 222 255
196 221 255
195 221 255
195 221 255
195 221 255
194 221 255
194 221 255
194 221 255
194 220 255
193 220 255
193 220 255
193 220 255
193 220 255
192 220 255
192 220 255
192 220 255
192 219 255
191 219 255
191 219 255
191 219 255
191 219 255
190 219 255
190 219 255
190 219 255
190 218 255
189 218 255
189 218 255
189 218 255
189 218 255
188 218 255
188 218 255
188 217 255
188 217 255
188 217 255
187 217 255
187 217 255
187 217 255
187 217 255
187 217 255
187 217 255
187 217 255
187 217 255
187 217 255
187 217 255
187 217 255
187 217 255
187 217 255
186 217 255
186 217 255
186 217 255
186 216 255
186 216 255
186 216 255
186 216 255
185 216 255
185 216 255
185 216 255
185 216 255
185 216 255
184 216 255
184 216 255
184 215 255
184 215 255
184 215 255
183 215 255
183 215 255
183 215 255
182 215 255
182 214 255
182 214 255
182 214 255
181 214 255
181 214 255
181 214 255
181 214 255
181 214 255
181 214 255
181 214 255
181 214 255
181 214 255
181 214 255
181 214 255
181 214 255
182 214 255
182 214 255
182 214 255
182 214 255
182 215 255
183 215 255
183 215 255
183 215 255
184 215 255
184 215 255
184 216 255
185 216 255
185 216 255
186 217 255
187 217 255
188 217 255
188 218 255
190 218 255
191 219 255
192 220 255
194 221 255
196 222 255
198 223 255
202 225 255
208 228 255
210 229 255
210 229 255
210 229 255
210 229 255
210 229 255
209 229 255
209 229 255
209 229 255
209 229 255
209 229 255
209 229 255
209 229 255
209 229 255
209 229 255
209 229 255
209 229 255
209 229 255
209 229 255
209 229 255
209 229 255
209 229 255
209 229 255
209 229 255
209 229 255
209 229 255
209 229 255
209 229 255
209 228 255
209 228 255
208 228 255
208 228 255
208 228 255
208 228 255
208 228 255
208 228 255
208 228 255
208 228 255
208 228 255
208 228 255
208 228 255
208 228 255
208 228 255
208 228 255
208 228 255
208 228 255
206 226 254
165 186 226
72 106 178
61 98 176
62 98 172
62 99 171
62 99 177
61 98 166
62 99 170
62 99 175
62 98 167
63 99 169
61 98 164
63 99 172
62 99 175
62 99 171
62 98 165
62 99 170
62 99 168
63 100 173
62 98 164
62 98 166
62 98 165
62 99 169
63 99 173
62 99 167
62 98 173
63 99 174
62 98 169
61 98 167
62 98 162
62 98 164
62 98 167
62 99 173
62 98 171
62 98 164
62 98 169
62 98 165
61 98 165
62 98 170
62 98 162
62 98 170
62 98 170
63 99 176
62 98 169
61 97 162
62 99 173
62 99 175
62 98 166
62 98 169
62 98 170
62 98 171
61 96 161
62 99 172
62 98 174
61 97 170
62 98 173
71 105 178
151 173 217
207 227 255
208 228 255
208 228 255
208 228 255
208 228 255
208 228 255
208 228 255
208 228 255
208 228 255
208 228 255
208 228 255
208 228 255
208 228 255
208 228 255
208 228 255
208 228 255
209 228 255
209 228 255
209 229 255
209 229 255
209 229 255
209 229 255
209 229 255
209 229 255
209 229 255
209 229 255
209 229 255
209 229 255
209 229 255
209 229 255
209 229 255
209 229 255
209 229 255
209 229 255
209 229 255
209 229 255
209 229 255
209 229 255
209 229 255
209 229 255
209 229 255
210 229 255
210 229 255
210 229 255
210 229 255
210 229 255
184 197 207
123 120 80
133 131 86
138 136 91
142 140 94
144 142 95
137 135 90
129 127 86
151 149 100
148 146 99
137 135 91
148 146 98
153 151 102
145 144 97
150 150 101
151 150 101
138 136 91
148 147 99
152 150 101
146 146 98
140 139 93
150 148 100
150 148 100
158 156 104
151 149 100
154 152 102
149 148 99
156 154 104
155 153 102
152 150 101
156 153 103
159 157 105
157 154 103
155 153 102
157 155 103
152 151 102
163 160 106
158 155 103
161 159 106
161 160 107
167 164 109
154 153 103
162 159 106
152 149 98
161 159 106
163 160 107
163 160 107
159 156 103
162 160 106
161 158 106
165 162 108
160 158 104
162 159 104
156 153 101
167 163 108
157 153 101
164 160 105
156 154 101
158 155 103
155 150 97
159 155 103
167 162 106
159 155 101
163 159 105
159 156 101
161 158 104
159 156 103
161 157 103
164 160 104
159 156 103
160 158 105
163 159 104
160 156 103
160 157 102
159 155 101
164 161 106
167 164 108
165 162 106
158 154 102
161 157 101
160 156 99
148 145 91
153 150 97
158 154 99
161 157 103
161 157 101
151 148 96
151 147 95
161 156 101
160 155 101
160 156 101
161 156 101
150 147 94
157 154 100
161 156 102
161 156 101
156 152 97
153 148 95
156 151 99
157 152 97
149 145 90
159 155 98
147 144 93
161 157 101
158 154 97
155 150 93
153 148 90
156 152 97
160 154 98
150 145 93
164 159 100
154 148 94
154 149 95
158 154 99
151 147 94
151 147 92
154 150 96
154 150 96
154 149 93
154 148 95
152 147 93
156 150 93
147 142 89
150 146 93
143 138 86
201 224 255
200 224 255
200 224 255
200 224 255
200 224 255
199 223 255
199 223 255
199 223 255
198 223 255
198 223 255
198 223 255
198 223 255
197 222 255
197 222 255
197 222 255
197 222 255
196 222 255
196 222 255
196 222 255
196 221 255
195 221 255
195 221 255
195 221 255
194 221 255
194 221 255
194 221 255
194 221 255
193 220 255
193 220 255
193 220 255
193 220 255
192 220 255
192 220 255
192 220 255
192 219 255
192 219 255
191 219 255
191 219 255
191 219 255
191 219 255
190 219 255
190 219 255
190 218 255
189 218 255
189 218 255
189 218 255
189 218 255
189 218 255
189 218 255
189 218 255
189 218 255
189 218 255
189 218 255
189 218 255
189 218 255
188 218 255
188 218 255
188 218 255
188 218 255
188 218 255
188 218 255
188 218 255
188 218 255
188 217 255
188 217 255
188 217 255
188 217 255
187 217 255
187 217 255
187 217 255
187 217 255
187 217 255
187 217 255
187 217 255
186 217 255
186 217 255
186 216 255
186 216 255
186 216 255
185 216 255
185 216 255
185 216 255
185 216 255
184 216 255
184 216 255
184 215 255
184 215 255
183 215 255
183 215 255
183 215 255
182 215 255
182 214 255
182 214 255
181 214 255
181 214 255
181 214 255
181 214 255
181 214 255
181 214 255
182 214 255
182 214 255
182 214 255
182 214 255
182 214 255
182 215 255
182 215 255
183 215 255
183 215 255
183 215 255
184 215 255
184 216 255
185 216 255
185 216 255
186 216 255
186 217 255
187 217 255
188 217 255
188 218 255
189 218 255
191 219 255
192 220 255
193 220 255
195 221 255
197 222 255
200 224 255
206 227 255
210 229 255
210 229 255
210 229 255
210 229 255
210 229 255
210 229 255
210 229 255
210 229 255
210 229 255
210 229 255
209 229 255
209 229 255
209 229 255
209 229 255
209 229 255
209 229 255
209 229 255
209 229 255
209 229 255
209 229 255
209 229 255
209 229 255
209 229 255
209 229 255
209 229 255
209 229 255
209 229 255
209 229 255
209 229 255
209 229 255
209 229 255
209 229 255
209 229 255
209 229 255
209 229 255
209 228 255
208 228 255
208 228 255
208 228 255
208 228 255
208 228 255
208 228 255
208 228 255
198 218 248
120 146 198
62 99 174
62 99 172
62 99 171
62 99 172
62 98 168
61 98 169
62 99 171
63 99 173
62 99 168
62 99 170
62 99 168
62 99 172
62 99 164
62 98 167
62 98 165
62 98 165
63 99 171
62 98 166
63 99 173
62 98 168
62 98 167
64 100 175
62 99 173
62 99 167
62 99 174
61 98 162
62 98 166
62 98 167
62 98 158
62 98 165
62 99 170
61 98 164
62 99 166
62 99 170
62 98 162
62 98 164
62 98 169
62 98 169
62 98 164
62 97 164
63 99 171
62 98 169
61 97 170
63 100 173
62 98 168
61 97 165
60 97 165
62 98 168
61 97 166
62 98 167
62 97 164
61 97 164
62 99 172
62 97 170
61 97 168
61 96 163
61 97 163
60 96 166
108 134 191
193 214 243
208 228 255
208 228 255
208 228 255
208 228 255
208 228 255
208 228 255
209 228 255
209 228 255
209 228 255
209 229 255
209 229 255
209 229 255
209 229 255
209 229 255
209 229 255
209 229 255
209 229 255
209 229 255
209 229 255
209 229 255
209 229 255
209 229 255
209 229 255
209 229 255
209 229 255
209 229 255
209 229 255
209 229 255
209 229 255
209 229 255
209 229 255
209 229 255
209 229 255
210 229 255
210 229 255
210 229 255
210 229 255
210 229 255
210 229 255
210 229 255
210 229 255
210 229 255
208 227 251
159 166 161
130 128 84
135 133 89
131 129 86
138 138 93
150 148 99
139 137 92
145 143 96
138 136 91
141 140 94
148 146 98
137 136 93
150 149 101
142 141 96
142 142 96
144 143 97
146 144 97
147 146 98
151 149 100
156 155 104
154 152 102
147 145 98
153 151 102
141 139 94
149 147 99
154 151 101
158 156 104
155 154 103
153 152 102
149 148 100
161 160 107
158 155 104
159 156 104
150 148 99
159 156 104
159 157 104
158 155 104
167 164 109
157 155 103
162 159 105
157 155 104
158 155 103
166 164 109
158 156 104
157 154 102
159 156 103
163 161 108
164 161 108
158 156 103
164 161 106
162 159 106
151 148 97
163 160 106
157 154 101
165 161 106
163 160 106
161 158 104
164 160 104
159 155 100
167 163 108
159 156 103
163 160 105
161 157 104
159 156 101
165 161 107
163 160 106
164 160 104
159 156 103
165 161 106
165 161 104
159 155 101
159 155 101
158 155 101
166 161 103
158 155 99
165 161 104
168 163 107
158 154 99
159 156 102
164 161 106
161 158 102
152 149 97
157 153 97
158 154 100
167 163 106
161 157 101
151 148 94
163 160 103
155 152 98
157 154 100
158 153 97
159 154 99
157 153 99
155 151 97
152 147 94
161 156 99
158 154 97
159 155 99
162 157 101
155 151 97
153 148 93
159 155 101
152 149 93
151 147 92
152 148 95
153 149 95
155 151 95
162 157 102
153 150 93
159 154 99
152 147 91
148 145 93
158 153 97
153 148 93
152 147 93
151 147 92
157 151 93
148 144 90
153 149 95
156 151 95
157 153 96
149 144 92
151 146 90
147 143 85
149 144 91
158 153 95
201 224 255
201 224 255
200 224 255
200 224 255
200 224 255
200 224 255
199 223 255
199 223 255
199 223 255
198 223 255
198 223 255
198 223 255
198 223 255
197 222 255
197 222 255
197 222 255
197 222 255
196 222 255
196 222 255
196 222 255
196 221 255
195 221 255
195 221 255
195 221 255
195 221 255
194 221 255
194 221 255
194 221 255
194 220 255
193 220 255
193 220 255
193 220 255
193 220 255
192 220 255
192 220 255
192 220 255
192 219 255
191 219 255
191 219 255
191 219 255
190 219 255
190 219 255
190 219 255
190 219 255
190 219 255
190 219 255
190 219 255
190 219 255
190 219 255
190 219 255
190 219 255
190 219 255
190 219 255
190 219 255
190 219 255
190 218 255
190 218 255
190 218 255
190 218 255
190 218 255
189 218 255
189 218 255
189 218 255
189 218 255
189 218 255
189 218 255
189 218 255
189 218 255
189 218 255
188 218 255
188 218 255
188 218 255
188 218 255
188 217 255
188 217 255
188 217 255
188 217 255
187 217 255
187 217 255
187 217 255
187 217 255
186 217 255
186 217 255
186 217 255
186 216 255
185 216 255
185 216 255
185 216 255
185 216 255
184 216 255
184 215 255
184 215 255
183 215 255
183 215 255
183 215 255
182 214 255
182 214 255
182 214 255
182 214 255
182 214 255
182 214 255
182 214 255
182 214 255
182 215 255
182 215 255
183 215 255
183 215 255
183 215 255
183 215 255
184 215 255
184 215 255
184 216 255
185 216 255
185 216 255
186 216 255
186 217 255
187 217 255
188 217 255
189 218 255
189 218 255
191 219 255
192 219 255
193 220 255
195 221 255
197 222 255
200 224 255
206 227 255
210 229 255
210 229 255
210 229 255
210 229 255
210 229 255
210 229 255
210 229 255
210 229 255
210 229 255
210 229 255
210 229 255
210 229 255
210 229 255
210 229 255
210 229 255
209 229 255
209 229 255
209 229 255
209 229 255
209 229 255
209 229 255
209 229 255
209 229 255
209 229 255
209 229 255
209 229 255
209 229 255
209 229 255
209 229 255
209 229 255
209 229 255
209 229 255
209 229 255
209 229 255
209 229 255
209 229 255
209 229 255
209 229 255
209 229 255
209 229 255
209 229 255
183 204 238
71 105 177
61 98 167
63 99 174
61 98 167
63 99 172
62 98 164
62 98 168
62 99 170
62 99 172
62 98 167
62 98 165
62 99 169
62 98 166
62 98 165
62 98 167
61 97 162
63 99 169
62 98 169
62 99 170
62 99 168
62 99 172
62 98 167
62 98 162
62 98 165
62 99 167
63 99 168
62 98 166
62 98 167
62 98 163
62 98 162
62 99 170
62 98 164
62 99 168
62 98 166
61 98 165
62 98 171
61 98 164
62 98 162
62 98 169
63 99 171
63 99 168
62 98 166
63 99 171
63 99 173
62 98 163
62 98 167
62 98 166
61 97 164
61 98 164
61 97 166
61 97 164
62 97 165
62 97 167
62 98 166
62 98 163
62 97 165
62 98 171
62 97 168
61 97 169
62 97 163
61 98 173
73 105 176
179 200 234
209 229 255
209 229 255
209 229 255
209 229 255
209 229 255
209 229 255
209 229 255
209 229 255
209 229 255
209 229 255
209 229 255
209 229 255
209 229 255
209 229 255
209 229 255
209 229 255
209 229 255
209 229 255
209 229 255
209 229 255
209 229 255
209 229 255
209 229 255
209 229 255
209 229 255
209 229 255
210 229 255
210 229 255
210 229 255
210 229 255
210 229 255
210 229 255
210 229 255
210 229 255
210 229 255
210 229 255
210 229 255
210 229 255
210 229 255
210 229 255
203 221 244
144 147 129
135 132 88
139 136 90
138 136 90
137 135 91
135 133 89
128 127 86
141 139 94
140 139 94
152 150 100
146 146 99
142 142 96
143 141 95
142 142 96
148 147 99
145 143 97
146 145 97
148 146 98
156 155 104
147 147 99
152 151 102
149 147 99
147 146 98
150 148 99
155 153 102
154 151 101
159 156 104
142 140 94
154 152 103
159 157 104
152 150 100
156 155 104
145 143 96
156 153 102
157 155 104
156 154 103
159 156 104
162 159 106
156 153 102
156 154 103
162 160 107
167 163 108
164 161 106
152 148 98
160 159 106
161 157 103
164 161 106
159 156 103
164 160 106
162 159 105
162 158 104
167 163 108
164 160 106
162 159 106
162 159 106
162 158 105
165 160 106
164 160 106
160 156 102
166 162 105
165 161 106
164 160 104
159 155 101
165 161 103
160 156 103
165 162 106
162 159 104
165 161 106
161 157 102
163 160 104
169 164 108
158 154 101
163 159 104
165 161 103
162 158 104
161 157 103
164 159 101
161 158 101
157 153 99
160 156 102
161 157 101
159 156 99
169 163 104
157 153 98
161 156 100
168 164 105
158 154 98
159 155 97
163 159 103
160 156 99
164 160 102
159 156 102
150 147 96
159 154 97
155 151 97
153 150 96
151 147 95
161 157 99
159 154 99
160 154 97
157 152 97
163 158 101
166 161 104
156 151 97
154 150 97
154 150 97
158 154 100
140 136 88
156 151 93
157 152 95
159 155 99
151 146 92
152 148 96
144 141 87
155 151 97
160 155 98
153 149 92
157 152 94
146 141 90
152 149 92
142 138 87
155 151 91
152 147 93
155 150 93
155 150 92
154 148 90
145 142 89
201 224 255
201 224 255
201 224 255
200 224 255
200 224 255
200 224 255
200 224 255
199 223 255
199 223 255
199 223 255
198 223 255
198 223 255
198 223 255
198 223 255
197 222 255
197 222 255
197 222 255
197 222 255
196 222 255
196 222 255
196 222 255
196 222 255
195 221 255
195 221 255
195 221 255
195 221 255
194 221 255
194 221 255
194 221 255
194 221 255
194 220 255
193 220 255
193 220 255
193 220 255
193 220 255
192 220 255
192 220 255
192 219 255
191 219 255
191 219 255
191 219 255
191 219 255
191 219 255
191 219 255
191 219 255
191 219 255
191 219 255
191 219 255
191 219 255
191 219 255
191 219 255
191 219 255
191 219 255
191 219 255
191 219 255
191 219 255
191 219 255
191 219 255
191 219 255
191 219 255
191 219 255
191 219 255
191 219 255
190 219 255
190 219 255
190 219 255
190 219 255
190 219 255
190 219 255
190 219 255
190 218 255
190 218 255
189 218 255
189 218 255
189 218 255
189 218 255
189 218 255
189 218 255
188 218 255
188 218 255
188 218 255
188 217 255
188 217 255
188 217 255
187 217 255
187 217 255
187 217 255
186 217 255
186 217 255
186 216 255
186 216 255
185 216 255
185 216 255
185 216 255
184 216 255
184 215 255
183 215 255
183 215 255
183 215 255
182 215 255
182 214 255
182 214 255
182 215 255
182 215 255
183 215 255
183 215 255
183 215 255
183 215 255
183 215 255
184 215 255
184 215 255
184 216 255
185 216 255
185 216 255
185 216 255
186 216 255
187 217 255
187 217 255
188 217 255
189 218 255
190 218 255
191 219 255
192 220 255
193 220 255
195 221 255
197 222 255
200 224 255
204 226 255
209 229 255
210 229 255
210 229 255
210 229 255
210 229 255
210 229 255
210 229 255
210 229 255
210 229 255
210 229 255
210 229 255
210 229 255
210 229 255
210 229 255
210 229 255
210 229 255
210 229 255
210 229 255
210 229 255
210 229 255
210 229 255
209 229 255
209 229 255
209 229 255
209 229 255
209 229 255
209 229 255
209 229 255
209 229 255
209 229 255
209 229 255
209 229 255
209 229 255
209 229 255
209 229 255
209 229 255
209 229 255
209 229 255
207 227 254
147 170 215
65 101 174
62 98 172
62 99 169
62 99 170
62 98 165
62 98 167
62 99 172
62 98 166
62 98 171
62 98 167
62 98 166
62 98 164
62 98 166
62 98 167
62 98 167
62 98 165
63 99 168
63 99 166
62 98 164
63 99 168
63 99 167
62 98 166
62 98 163
62 98 168
62 98 163
62 98 166
62 98 162
62 98 163
62 98 164
62 98 162
62 99 167
62 98 166
62 98 168
61 98 159
62 98 164
62 98 165
62 98 164
63 99 167
61 98 165
62 98 166
62 98 166
62 98 167
62 98 163
61 98 166
62 98 170
62 98 165
62 97 159
62 98 169
60 95 149
61 96 163
63 98 165
62 98 164
62 98 164
62 98 166
62 98 168
61 96 158
61 97 161
63 98 169
61 97 166
62 98 172
61 97 164
62 97 168
60 95 158
61 96 166
144 166 209
209 229 255
209 229 255
209 229 255
209 229 255
209 229 255
209 229 255
209 229 255
209 229 255
209 229 255
209 229 255
209 229 255
209 229 255
209 229 255
209 229 255
209 229 255
209 229 255
209 229 255
209 229 255
210 229 255
210 229 255
210 229 255
210 229 255
210 229 255
210 229 255
210 229 255
210 229 255
210 229 255
210 229 255
210 229 255
210 229 255
210 229 255
210 229 255
210 229 255
210 229 255
210 229 255
210 229 255
210 229 255
210 229 255
197 213 230
136 137 104
127 125 84
128 126 83
131 129 87
142 140 94
137 136 91
140 139 94
143 141 96
145 144 97
137 136 93
143 142 96
141 140 95
137 137 92
146 145 98
146 144 96
145 144 98
142 142 97
144 143 97
149 148 101
152 151 102
149 148 99
149 147 99
154 153 104
147 146 98
148 146 97
147 145 97
155 153 103
162 160 107
149 147 97
164 161 107
158 156 105
157 155 104
163 160 107
159 156 104
155 151 100
163 160 107
162 159 106
166 163 109
162 159 105
152 149 100
158 155 103
162 158 104
161 158 104
162 159 105
166 162 108
164 161 106
157 155 104
165 162 108
162 159 103
165 162 108
162 160 106
166 163 108
166 162 107
164 160 106
156 153 99
166 162 107
167 164 109
159 155 103
161 158 104
164 160 105
165 161 106
166 162 106
157 154 101
167 163 105
165 161 105
169 164 108
166 161 105
164 159 103
163 158 103
162 158 102
164 161 104
164 161 105
167 163 108
165 160 104
160 157 100
170 165 107
158 153 100
163 160 104
161 156 101
164 160 104
159 155 99
166 163 106
159 155 99
160 157 100
157 154 101
161 156 99
169 165 107
161 156 101
158 153 98
161 158 99
159 155 100
160 156 99
159 154 95
162 158 101
158 154 98
156 152 97
160 156 97
149 146 95
154 150 94
162 157 98
155 150 95
155 151 95
155 152 97
157 153 99
157 153 95
159 155 97
164 159 103
159 155 100
154 149 96
148 145 93
149 145 90
150 145 93
154 149 93
158 152 95
155 150 94
158 153 98
154 149 93
158 153 93
145 141 87
157 152 95
155 150 93
150 144 87
156 151 94
147 142 86
156 150 96
151 147 91
153 148 87
145 140 87
201 225 255
201 224 255
201 224 255
201 224 255
200 224 255
200 224 255
200 224 255
200 224 255
199 223 255
199 223 255
199 223 255
199 223 255
198 223 255
198 223 255
198 223 255
198 223 255
197 222 255
197 222 255
197 222 255
197 222 255
196 222 255
196 222 255
196 222 255
196 222 255
195 221 255
195 221 255
195 221 255
195 221 255
194 221 255
194 221 255
194 221 255
194 221 255
193 220 255
193 220 255
193 220 255
193 220 255
193 220 255
193 220 255
192 220 255
192 220 255
192 220 255
192 220 255
193 220 255
193 220 255
192 220 255
193 220 255
192 220 255
192 220 255
192 220 255
192 220 255
192 220 255
192 220 255
192 220 255
192 220 255
192 220 255
192 220 255
192 220 255
192 220 255
192 220 255
192 220 255
192 220 255
192 220 255
192 219 255
192 219 255
192 219 255
191 219 255
191 219 255
191 219 255
191 219 255
191 219 255
191 219 255
191 219 255
191 219 255
191 219 255
190 219 255
190 219 255
190 219 255
190 219 255
190 218 255
190 218 255
189 218 255
189 218 255
189 218 255
189 218 255
189 218 255
188 218 255
188 218 255
188 218 255
188 217 255
187 217 255
187 217 255
187 217 255
187 217 255
186 217 255
186 216 255
186 216 255
185 216 255
185 216 255
184 216 255
184 215 255
183 215 255
183 215 255
183 215 255
183 215 255
183 215 255
183 215 255
183 215 255
183 215 255
184 215 255
184 215 255
184 215 255
184 216 255
185 216 255
185 216 255
185 216 255
186 216 255
186 217 255
187 217 255
188 217 255
188 218 255
189 218 255
190 218 255
191 219 255
192 220 255
193 220 255
195 221 255
197 222 255
199 224 255
203 225 255
209 229 255
210 230 255
210 230 255
210 230 255
210 229 255
210 229 255
210 229 255
210 229 255
210 229 255
210 229 255
210 229 255
210 229 255
210 229 255
210 229 255
210 229 255
210 229 255
210 229 255
210 229 255
210 229 255
210 229 255
210 229 255
210 229 255
210 229 255
210 229 255
210 229 255
210 229 255
210 229 255
210 229 255
209 229 255
209 229 255
209 229 255
209 229 255
209 229 255
209 229 255
209 229 255
209 229 255
205 225 253
125 150 201
62 99 175
62 98 169
62 99 169
62 98 162
62 98 164
62 99 171
62 99 168
63 99 168
62 99 167
62 98 167
62 98 167
62 99 169
61 98 165
63 99 167
62 99 169
62 98 165
63 99 170
62 98 166
62 98 164
62 98 159
61 97 160
62 98 167
61 97 159
62 98 162
63 99 170
61 98 166
63 99 169
62 98 164
62 98 165
62 98 164
62 98 167
62 98 165
62 98 162
61 97 160
62 98 169
62 98 166
62 99 170
62 98 162
62 99 166
62 98 172
62 98 167
62 98 168
62 98 169
61 97 166
63 99 167
62 98 167
62 98 165
62 98 165
62 98 168
61 98 168
63 99 172
61 96 159
60 96 156
62 98 162
62 97 165
62 97 161
61 97 163
62 98 161
62 98 169
61 97 161
62 98 165
61 97 164
60 95 157
61 96 168
59 94 159
60 95 164
120 143 191
205 225 252
209 229 255
209 229 255
209 229 255
209 229 255
209 229 255
209 229 255
209 229 255
210 229 255
210 229 255
210 229 255
210 229 255
210 229 255
210 229 255
210 229 255
210 229 255
210 229 255
210 229 255
210 229 255
210 229 255
210 229 255
210 229 255
210 229 255
210 229 255
210 229 255
210 229 255
210 229 255
210 229 255
210 229 255
210 229 255
210 229 255
210 229 255
210 229 255
210 230 255
210 230 255
211 230 255
185 198 208
130 127 86
127 125 82
136 134 88
138 136 91
135 134 91
134 133 90
133 132 89
145 144 97
141 140 95
139 138 93
145 143 97
150 148 100
139 138 94
141 140 94
145 143 97
147 146 99
151 149 100
157 155 104
148 147 99
155 153 103
146 145 98
152 150 101
151 150 101
156 154 103
161 159 106
156 154 104
155 153 103
162 160 107
160 158 105
160 158 106
159 157 104
153 149 100
163 159 106
160 158 105
159 157 105
164 160 105
155 153 102
156 154 103
156 153 102
158 155 102
159 156 102
160 157 104
159 157 106
164 160 107
162 159 106
164 162 107
164 160 106
167 163 107
156 153 101
160 157 103
157 154 102
158 155 103
164 160 106
170 167 106
162 159 106
166 161 106
160 155 101
161 158 104
167 164 107
162 157 102
163 159 104
163 159 104
166 162 104
167 163 107
163 158 103
161 156 103
162 158 102
163 158 102
170 166 109
165 162 105
161 157 99
166 162 104
166 161 104
156 153 98
168 163 104
161 158 101
162 157 99
166 161 104
166 162 106
163 159 100
158 155 99
162 157 98
163 159 104
155 152 98
162 158 101
160 155 97
164 159 101
160 155 99
155 150 95
161 156 98
159 155 99
162 157 101
162 158 98
160 156 99
166 161 102
162 158 102
162 158 104
159 154 99
158 154 97
160 154 97
155 151 95
157 152 93
155 150 95
155 151 97
152 149 92
149 144 89
152 148 93
156 152 97
164 158 98
160 155 96
157 152 97
163 158 101
154 150 93
157 152 93
156 152 95
160 155 93
151 147 92
159 154 95
150 147 93
152 148 94
147 143 82
160 156 99
148 144 87
154 149 92
148 143 90
151 147 89
155 151 93
153 148 91
153 148 94
202 225 255
201 225 255
201 224 255
201 224 255
201 224 255
200 224 255
200 224 255
200 224 255
200 224 255
199 223 255
199 223 255
199 223 255
199 223 255
198 223 255
198 223 255
198 223 255
198 223 255
197 222 255
197 222 255
197 222 255
197 222 255
197 222 255
196 222 255
196 222 255
196 222 255
196 221 255
195 221 255
195 221 255
195 221 255
195 221 255
194 221 255
194 221 255
194 221 255
194 220 255
194 220 255
194 220 255
194 220 255
194 220 255
194 220 255
194 220 255
194 220 255
194 220 255
194 220 255
194 220 255
194 220 255
194 220 255
194 220 255
194 220 255
194 220 255
194 220 255
194 220 255
194 220 255
194 220 255
193 220 255
193 220 255
193 220 255
193 220 255
193 220 255
193 220 255
193 220 255
193 220 255
193 220 255
193 220 255
193 220 255
193 220 255
193 220 255
193 220 255
192 220 255
192 220 255
192 220 255
192 220 255
192 220 255
192 220 255
192 219 255
192 219 255
191 219 255
191 219 255
191 219 255
191 219 255
191 219 255
191 219 255
191 219 255
190 219 255
190 219 255
190 219 255
190 218 255
190 218 255
189 218 255
189 218 255
189 218 255
189 218 255
188 218 255
188 218 255
188 217 255
187 217 255
187 217 255
187 217 255
186 217 255
186 217 255
186 216 255
185 216 255
185 216 255
184 216 255
184 215 255
183 215 255
183 215 255
183 215 255
184 215 255
184 215 255
184 215 255
184 216 255
184 216 255
185 216 255
185 216 255
185 216 255
186 216 255
186 217 255
187 217 255
187 217 255
188 217 255
188 218 255
189 218 255
190 219 255
191 219 255
192 220 255
193 220 255
195 221 255
197 222 255
199 223 255
203 225 255
209 229 255
211 230 255
211 230 255
211 230 255
211 230 255
211 230 255
211 230 255
210 230 255
210 230 255
210 230 255
210 229 255
210 229 255
210 229 255
210 229 255
210 229 255
210 229 255
210 229 255
210 229 255
210 229 255
210 229 255
210 229 255
210 229 255
210 229 255
210 229 255
210 229 255
210 229 255
210 229 255
210 229 255
210 229 255
210 229 255
210 229 255
210 229 255
210 229 255
210 229 255
203 222 249
105 132 187
62 99 173
63 99 169
62 98 167
62 99 168
62 98 166
62 99 171
62 99 165
62 98 171
62 99 169
62 98 169
62 99 167
62 98 163
62 98 171
61 97 160
62 99 170
62 98 168
61 97 156
62 98 166
62 99 170
61 97 158
62 98 157
63 99 167
62 98 164
61 97 160
62 98 166
62 98 164
62 98 159
61 97 164
62 98 160
62 98 164
62 98 161
61 97 161
62 98 166
62 99 171
63 99 168
62 98 159
62 98 164
60 96 155
63 99 166
62 98 166
62 98 162
62 98 161
62 98 162
61 97 167
62 98 163
62 98 160
61 96 157
62 97 161
62 98 166
62 97 159
62 98 167
61 98 171
61 97 161
62 98 166
61 97 165
62 98 164
60 95 162
62 98 162
61 97 161
60 95 160
62 97 168
60 94 161
60 95 158
61 96 163
61 96 163
62 97 167
61 97 168
62 96 163
120 144 195
198 217 246
210 229 255
210 229 255
210 229 255
210 229 255
210 229 255
210 229 255
210 229 255
210 229 255
210 229 255
210 229 255
210 229 255
210 229 255
210 229 255
210 229 255
210 229 255
210 229 255
210 229 255
210 229 255
210 229 255
210 229 255
210 229 255
210 229 255
210 229 255
210 229 255
210 230 255
210 230 255
210 230 255
211 230 255
211 230 255
211 230 255
211 230 255
211 230 255
211 230 255
173 184 192
135 132 90
133 130 86
137 136 91
139 136 90
130 128 85
132 131 89
136 135 92
147 146 99
135 133 90
141 140 95
143 141 95
155 153 103
149 147 99
140 139 94
147 146 99
148 146 98
142 141 95
155 153 103
151 150 101
143 141 95
155 153 103
156 155 105
157 155 104
157 155 104
152 149 99
149 147 100
153 151 102
156 154 103
149 148 100
164 162 108
160 158 105
152 149 100
160 158 105
157 153 101
162 159 105
155 154 103
163 159 106
162 159 107
165 161 106
165 162 108
161 158 105
165 161 106
156 153 102
159 157 103
164 161 107
160 157 102
157 154 101
161 158 104
165 161 106
160 156 103
166 162 107
167 162 107
162 159 104
164 160 105
164 160 105
163 159 104
167 163 107
168 165 108
163 159 104
166 161 105
164 160 106
171 167 109
163 160 104
165 161 105
168 163 104
162 158 101
169 164 105
167 162 104
158 155 100
168 163 106
167 164 108
157 154 100
160 156 101
160 155 96
163 158 103
161 157 103
169 164 107
168 163 105
156 151 97
165 160 101
166 161 104
160 155 99
154 151 98
166 161 104
164 160 104
164 160 102
163 159 98
155 151 96
163 157 101
165 159 99
160 155 95
163 158 103
162 157 99
159 155 100
161 158 103
155 151 96
161 156 98
161 157 100
162 157 99
162 158 101
162 157 97
162 157 100
158 154 97
164 161 103
158 153 99
153 148 94
161 156 97
154 151 94
162 157 101
159 154 93
161 156 97
158 154 95
148 144 90
155 152 95
153 149 93
149 145 90
157 152 93
155 151 97
152 147 93
153 148 91
156 152 93
155 149 90
151 146 93
155 150 96
158 153 93
151 147 90
148 143 88
152 147 88
157 151 93
153 149 93
202 225 255
202 225 255
201 225 255
201 224 255
201 224 255
201 224 255
200 224 255
200 224 255
200 224 255
200 224 255
199 224 255
199 223 255
199 223 255
199 223 255
199 223 255
198 223 255
198 223 255
198 223 255
198 223 255
197 222 255
197 222 255
197 222 255
197 222 255
196 222 255
196 222 255
196 222 255
196 222 255
196 221 255
195 221 255
195 221 255
195 221 255
195 221 255
195 221 255
195 221 255
195 221 255
195 221 255
195 221 255
195 221 255
195 221 255
195 221 255
195 221 255
195 221 255
195 221 255
195 221 255
195 221 255
195 221 255
195 221 255
195 221 255
195 221 255
195 221 255
195 221 255
195 221 255
195 221 255
194 221 255
194 221 255
194 221 255
194 221 255
194 221 255
194 221 255
194 221 255
194 221 255
194 221 255
194 221 255
194 221 255
194 221 255
194 221 255
194 220 255
194 220 255
193 220 255
193 220 255
193 220 255
193 220 255
193 220 255
193 220 255
193 220 255
193 220 255
193 220 255
192 220 255
192 220 255
192 220 255
192 220 255
192 220 255
192 219 255
191 219 255
191 219 255
191 219 255
191 219 255
191 219 255
191 219 255
190 219 255
190 219 255
190 218 255
190 218 255
189 218 255
189 218 255
189 218 255
188 218 255
188 218 255
188 217 255
187 217 255
187 217 255
186 217 255
186 217 255
186 216 255
185 216 255
185 216 255
184 215 255
184 215 255
184 215 255
184 216 255
184 216 255
185 216 255
185 216 255
185 216 255
185 216 255
186 216 255
186 217 255
187 217 255
187 217 255
188 217 255
188 218 255
189 218 255
190 218 255
190 219 255
191 219 255
192 220 255
194 221 255
195 221 255
197 222 255
199 223 255
203 225 255
209 229 255
211 230 255
211 230 255
211 230 255
211 230 255
211 230 255
211 230 255
211 230 255
211 230 255
211 230 255
211 230 255
211 230 255
211 230 255
210 230 255
210 230 255
210 230 255
210 229 255
210 229 255
210 229 255
210 229 255
210 229 255
210 229 255
210 229 255
210 229 255
210 229 255
210 229 255
210 229 255
210 229 255
210 229 255
210 229 255
210 229 255
210 229 255
201 221 250
111 137 193
62 99 173
62 98 170
63 99 167
62 98 168
62 99 171
62 98 165
62 99 169
62 98 167
61 97 164
62 98 163
62 98 165
61 97 165
62 99 169
62 97 151
62 98 164
62 98 163
62 98 164
62 98 162
63 99 170
63 99 171
61 97 160
62 98 168
62 98 165
61 97 163
62 98 164
62 98 165
61 98 170
62 99 168
61 97 158
62 98 165
62 98 160
62 97 156
62 98 160
62 98 165
62 98 169
62 98 162
61 97 154
61 97 156
61 97 164
62 98 166
62 99 167
62 98 167
62 98 165
62 98 162
62 98 166
63 99 169
62 98 169
62 98 160
62 98 158
62 97 161
61 97 158
61 97 156
62 98 163
62 98 167
62 98 161
61 97 158
60 96 161
61 97 164
62 97 165
61 96 159
60 96 161
61 97 163
61 96 164
61 97 164
60 95 158
61 96 158
61 97 165
60 96 161
60 94 159
60 95 159
108 132 181
204 223 250
210 229 255
210 229 255
210 229 255
210 229 255
210 229 255
210 229 255
210 229 255
210 229 255
210 229 255
210 229 255
210 229 255
210 229 255
210 229 255
210 229 255
210 229 255
210 230 255
210 230 255
210 230 255
210 230 255
211 230 255
211 230 255
211 230 255
211 230 255
211 230 255
211 230 255
211 230 255
211 230 255
211 230 255
211 230 255
211 230 255
211 229 254
168 178 184
137 133 88
136 133 89
135 132 88
134 132 89
140 138 92
141 139 94
143 140 94
143 141 95
133 132 89
145 145 98
138 138 94
145 144 96
142 142 96
146 146 99
156 155 105
140 139 94
143 142 97
153 151 102
147 146 99
153 152 101
146 144 98
152 150 101
155 152 102
154 152 103
162 159 106
149 148 100
148 146 99
162 159 106
157 154 103
157 154 103
156 155 104
159 157 106
161 158 105
156 154 103
162 159 105
160 158 106
161 158 106
164 161 106
166 162 106
156 154 100
164 162 108
161 158 104
160 157 103
161 159 106
166 163 107
161 158 105
163 159 104
161 158 104
166 162 107
168 165 108
157 154 102
162 158 103
161 157 103
161 158 103
166 162 108
164 160 104
164 161 105
164 160 104
167 163 106
171 167 110
158 155 101
164 160 103
171 166 107
166 162 106
161 157 102
163 159 104
162 159 104
167 164 105
168 164 106
165 160 104
164 160 104
164 160 104
162 158 102
166 162 104
165 160 104
169 165 106
163 159 103
163 160 103
167 163 106
168 162 104
163 159 104
169 164 104
162 157 101
165 161 104
162 157 101
163 159 104
161 156 98
168 163 103
167 162 103
164 159 103
162 157 99
169 163 103
168 162 103
159 154 97
159 155 95
162 157 101
165 160 99
162 157 100
168 162 102
163 158 100
159 153 97
157 152 97
164 160 103
165 160 103
162 158 101
156 151 93
162 157 100
161 156 97
155 150 92
168 162 103
154 149 90
156 151 95
155 152 94
159 154 96
154 150 95
165 159 99
166 159 99
159 155 97
153 149 92
160 155 93
157 153 92
150 145 93
153 148 93
157 152 93
151 146 90
160 155 95
151 148 90
149 144 87
163 157 99
160 155 96
155 150 95
202 225 255
202 225 255
202 225 255
201 225 255
201 225 255
201 224 255
201 224 255
201 224 255
200 224 255
200 224 255
200 224 255
200 224 255
199 224 255
199 223 255
199 223 255
199 223 255
198 223 255
198 223 255
198 223 255
198 223 255
198 223 255
197 222 255
197 222 255
197 222 255
197 222 255
196 222 255
196 222 255
196 222 255
196 222 255
196 221 255
196 221 255
196 221 255
196 221 255
196 222 255
196 222 255
196 222 255
196 222 255
196 222 255
196 222 255
196 222 255
196 222 255
196 222 255
196 222 255
196 222 255
196 222 255
196 222 255
196 222 255
196 222 255
196 222 255
196 222 255
196 222 255
196 222 255
196 221 255
195 221 255
195 221 255
195 221 255
195 221 255
195 221 255
195 221 255
195 221 255
195 221 255
195 221 255
195 221 255
195 221 255
195 221 255
195 221 255
195 221 255
195 221 255
195 221 255
194 221 255
194 221 255
194 221 255
194 221 255
194 221 255
194 221 255
194 221 255
194 220 255
194 220 255
193 220 255
193 220 255
193 220 255
193 220 255
193 220 255
193 220 255
192 220 255
192 220 255
192 220 255
192 220 255
192 219 255
192 219 255
191 219 255
191 219 255
191 219 255
191 219 255
190 219 255
190 219 255
190 218 255
189 218 255
189 218 255
189 218 255
188 218 255
188 218 255
188 217 255
187 217 255
187 217 255
186 217 255
186 216 255
185 216 255
185 216 255
185 216 255
185 216 255
185 216 255
185 216 255
185 216 255
186 216 255
186 217 255
186 217 255
187 217 255
187 217 255
188 217 255
188 218 255
189 218 255
189 218 255
190 219 255
191 219 255
192 220 255
193 220 255
194 221 255
195 221 255
197 222 255
200 224 255
203 225 255
208 228 255
211 230 255
211 230 255
211 230 255
211 230 255
211 230 255
211 230 255
211 230 255
211 230 255
211 230 255
211 230 255
211 230 255
211 230 255
211 230 255
211 230 255
211 230 255
211 230 255
211 230 255
211 230 255
211 230 255
210 230 255
210 230 255
210 230 255
210 230 255
210 229 255
210 229 255
210 229 255
210 229 255
210 229 255
210 229 255
201 221 250
89 118 181
62 99 172
62 99 172
62 98 165
61 98 162
62 99 166
62 98 162
62 99 169
62 99 169
61 97 153
62 98 164
62 99 167
62 98 161
62 98 158
62 98 162
63 100 170
61 98 163
61 97 159
62 97 155
62 99 170
62 98 164
61 97 157
62 98 166
61 97 164
62 98 163
63 99 165
62 98 162
62 98 161
62 98 160
62 97 154
62 98 160
62 99 167
61 98 164
61 97 163
63 99 166
62 98 156
61 97 155
62 98 159
62 97 164
61 97 160
62 99 163
62 98 162
61 97 158
62 98 163
62 98 164
62 98 162
62 98 162
63 99 167
62 98 163
61 96 155
62 97 166
62 98 170
61 97 161
61 97 163
61 97 162
62 97 163
61 97 158
62 98 167
62 97 158
62 98 165
61 97 161
62 97 163
61 97 164
61 97 162
61 96 164
61 97 168
60 96 161
62 98 166
60 95 159
61 97 163
62 97 165
60 95 162
61 95 160
96 122 176
201 221 248
210 229 255
210 229 255
210 229 255
210 229 255
210 229 255
210 229 255
210 230 255
210 230 255
210 230 255
210 230 255
211 230 255
211 230 255
211 230 255
211 230 255
211 230 255
211 230 255
211 230 255
211 230 255
211 230 255
211 230 255
211 230 255
211 230 255
211 230 255
211 230 255
211 230 255
211 230 255
211 230 255
211 230 255
211 229 254
164 173 178
136 133 89
138 134 89
147 144 96
141 140 95
132 131 89
134 132 90
136 134 91
138 136 92
135 135 92
135 135 92
134 134 92
144 143 97
147 147 100
149 148 100
149 148 100
143 142 95
149 148 99
146 145 98
144 144 99
155 154 103
142 140 95
139 139 94
149 147 99
155 153 103
147 146 98
153 151 99
160 157 105
153 152 102
153 150 100
160 158 106
154 152 102
155 154 103
158 156 105
161 157 104
157 155 103
162 159 105
159 156 103
166 162 107
167 164 110
157 155 101
162 158 105
166 162 107
167 163 108
161 158 105
164 161 107
166 163 107
170 165 108
161 158 103
169 165 109
168 164 108
164 160 105
173 168 110
167 163 105
161 156 100
167 162 105
169 165 108
163 159 104
163 159 103
167 164 106
166 163 105
168 165 108
169 165 108
163 159 104
162 158 101
162 158 101
168 164 106
170 165 106
163 159 102
166 163 104
166 163 106
169 164 104
165 161 103
161 157 101
169 164 106
162 158 102
170 165 104
165 160 103
162 157 99
168 163 104
162 157 99
167 162 106
164 160 103
164 159 101
165 160 101
164 159 102
162 158 103
160 156 98
167 162 104
163 158 98
165 160 101
160 156 99
162 157 99
162 157 99
159 155 98
158 154 97
161 156 94
156 152 95
165 160 101
164 159 102
162 156 98
162 157 99
153 150 95
156 152 94
158 154 95
164 159 102
153 149 90
166 160 102
157 152 93
161 156 99
166 161 101
165 160 99
163 158 100
161 157 101
154 150 93
162 156 97
153 148 91
150 145 90
158 153 95
156 150 95
161 155 99
152 147 88
159 154 93
154 149 91
156 152 92
156 151 90
156 151 95
156 151 94
151 146 90
149 145 88
152 148 93
157 151 96
155 150 90
203 225 255
202 225 255
202 225 255
202 225 255
202 225 255
201 225 255
201 224 255
201 224 255
201 224 255
200 224 255
200 224 255
200 224 255
200 224 255
200 224 255
199 224 255
199 223 255
199 223 255
199 223 255
199 223 255
198 223 255
198 223 255
198 223 255
198 223 255
197 223 255
197 222 255
197 222 255
197 222 255
196 222 255
197 222 255
197 222 255
197 222 255
197 222 255
197 222 255
197 222 255
197 222 255
197 222 255
197 222 255
197 222 255
197 222 255
197 222 255
197 222 255
197 222 255
197 222 255
197 222 255
197 222 255
197 222 255
197 222 255
197 222 255
197 222 255
197 222 255
197 222 255
197 222 255
197 222 255
197 222 255
196 222 255
196 222 255
196 222 255
196 222 255
196 222 255
196 222 255
196 222 255
196 222 255
196 222 255
196 222 255
196 222 255
196 222 255
196 222 255
196 222 255
196 221 255
195 221 255
195 221 255
195 221 255
195 221 255
195 221 255
195 221 255
195 221 255
195 221 255
195 221 255
194 221 255
194 221 255
194 221 255
194 221 255
194 221 255
194 221 255
194 220 255
193 220 255
193 220 255
193 220 255
193 220 255
193 220 255
193 220 255
192 220 255
192 220 255
192 220 255
192 219 255
191 219 255
191 219 255
191 219 255
191 219 255
190 219 255
190 219 255
190 218 255
189 218 255
189 218 255
188 218 255
188 218 255
188 217 255
187 217 255
187 217 255
186 217 255
186 216 255
185 216 255
186 216 255
186 216 255
186 217 255
186 217 255
187 217 255
187 217 255
187 217 255
188 217 255
188 218 255
189 218 255
189 218 255
190 219 255
191 219 255
191 219 255
192 220 255
193 220 255
195 221 255
196 222 255
198 223 255
200 224 255
203 226 255
209 229 255
211 230 255
211 230 255
211 230 255
211 230 255
211 230 255
211 230 255
211 230 255
211 230 255
211 230 255
211 230 255
211 230 255
211 230 255
211 230 255
211 230 255
211 230 255
211 230 255
211 230 255
211 230 255
211 230 255
211 230 255
211 230 255
211 230 255
211 230 255
211 230 255
211 230 255
211 230 255
211 230 255
204 223 251
98 126 186
62 98 169
62 99 171
62 98 171
62 98 163
62 98 165
62 98 163
61 98 165
61 97 157
62 98 169
62 99 167
63 99 170
62 98 160
62 98 165
62 98 163
62 98 161
62 98 164
62 98 164
63 99 169
61 96 153
62 98 160
62 99 169
60 96 153
63 99 168
62 98 160
63 99 167
61 97 156
61 97 159
62 98 165
61 97 157
61 97 154
62 97 160
62 98 160
61 97 162
62 98 161
61 97 156
61 96 151
61 97 155
62 97 159
61 97 156
62 98 166
62 98 165
62 98 163
61 97 160
63 99 167
63 99 167
61 97 162
63 99 169
62 98 163
62 98 158
61 97 162
62 98 160
61 97 157
60 95 155
62 98 164
62 98 164
61 97 160
62 98 169
61 96 158
61 97 158
61 97 165
61 97 161
62 98 165
61 96 155
61 97 162
61 96 161
61 97 161
61 95 155
61 96 160
61 96 162
59 94 162
60 95 157
61 96 161
60 94 161
61 96 164
111 135 185
204 223 250
211 230 255
211 230 255
211 230 255
211 230 255
211 230 255
211 230 255
211 230 255
211 230 255
211 230 255
211 230 255
211 230 255
211 230 255
211 230 255
211 230 255
211 230 255
211 230 255
211 230 255
211 230 255
211 230 255
211 230 255
211 230 255
211 230 255
211 230 255
211 230 255
211 230 255
211 230 255
211 230 255
163 172 175
136 133 88
128 125 83
135 132 88
137 136 92
132 131 89
135 134 91
135 134 91
138 137 92
139 139 95
135 135 92
138 137 92
147 147 100
141 140 95
144 143 96
151 149 101
138 138 95
156 154 103
150 148 100
154 152 102
150 148 101
149 149 101
145 143 94
154 151 101
157 156 106
152 149 101
157 156 105
159 157 105
157 154 103
159 156 104
158 155 102
155 152 99
165 162 108
158 156 104
159 156 101
162 159 104
162 159 105
158 154 102
156 154 102
158 156 104
162 159 106
158 156 102
162 159 106
163 159 106
160 156 103
159 156 101
166 162 104
164 161 106
162 158 103
162 159 104
170 166 108
163 159 103
168 164 107
170 165 107
168 163 105
166 162 105
163 159 102
167 163 105
167 163 106
167 162 104
164 159 102
168 164 108
174 168 108
166 162 106
167 164 107
171 167 106
165 162 106
169 165 108
159 155 101
165 160 104
166 161 104
167 163 104
163 159 102
159 154 97
168 164 104
167 163 106
159 156 98
174 170 110
167 162 103
166 162 102
170 165 104
161 158 102
168 164 105
164 159 100
170 165 105
164 160 103
165 161 104
165 161 104
162 158 101
166 162 103
165 159 99
170 166 105
168 162 102
162 157 99
164 158 99
167 162 102
163 158 99
166 162 100
164 159 99
157 153 95
162 159 96
159 155 93
160 155 99
162 157 99
166 161 102
163 159 99
162 157 97
156 152 92
156 152 93
163 157 95
163 158 98
163 159 98
163 158 99
156 151 94
163 159 97
158 154 95
154 149 90
154 149 91
154 149 93
156 152 97
162 157 99
150 145 90
160 156 97
157 152 94
156 151 93
154 150 90
152 146 84
154 150 93
155 149 93
152 147 91
150 145 92
154 149 89
153 148 92
159 153 93
203 225 255
203 225 255
202 225 255
202 225 255
202 225 255
202 225 255
202 225 255
201 225 255
201 224 255
201 224 255
201 224 255
200 224 255
200 224 255
200 224 255
200 224 255
200 224 255
199 224 255
199 223 255
199 223 255
199 223 255
199 223 255
198 223 255
198 223 255
198 223 255
198 223 255
197 222 255
197 222 255
197 222 255
197 222 255
197 223 255
198 223 255
198 223 255
198 223 255
198 223 255
198 223 255
198 223 255
198 223 255
198 223 255
198 223 255
198 223 255
198 223 255
198 223 255
198 223 255
198 223 255
198 223 255
198 223 255
198 223 255
198 223 255
198 223 255
198 223 255
198 223 255
198 223 255
197 223 255
197 222 255
197 222 255
197 222 255
197 222 255
197 222 255
197 222 255
197 222 255
197 222 255
197 222 255
197 222 255
197 222 255
197 222 255
197 222 255
197 222 255
197 222 255
197 222 255
196 222 255
196 222 255
196 222 255
196 222 255
196 222 255
196 222 255
196 222 255
196 222 255
196 222 255
196 221 255
195 221 255
195 221 255
195 221 255
195 221 255
195 221 255
195 221 255
195 221 255
194 221 255
194 221 255
194 221 255
194 221 255
194 221 255
194 220 255
193 220 255
193 220 255
193 220 255
193 220 255
192 220 255
192 220 255
192 220 255
192 219 255
191 219 255
191 219 255
191 219 255
190 219 255
190 219 255
190 218 255
189 218 255
189 218 255
188 218 255
188 217 255
187 217 255
187 217 255
186 217 255
186 217 255
186 217 255
187 217 255
187 217 255
187 217 255
188 217 255
188 218 255
188 218 255
189 218 255
189 218 255
190 219 255
191 219 255
191 219 255
192 220 255
193 220 255
194 221 255
195 221 255
196 222 255
198 223 255
201 224 255
204 226 255
210 229 255
212 230 255
212 230 255
212 230 255
212 230 255
211 230 255
211 230 255
211 230 255
211 230 255
211 230 255
211 230 255
211 230 255
211 230 255
211 230 255
211 230 255
211 230 255
211 230 255
211 230 255
211 230 255
211 230 255
211 230 255
211 230 255
211 230 255
211 230 255
211 230 255
211 230 255
208 227 254
128 152 199
62 98 168
61 98 167
62 98 162
61 98 160
62 98 164
61 97 164
61 97 153
62 98 169
61 97 163
62 99 168
62 97 158
61 97 157
63 99 168
62 98 163
61 97 158
61 97 154
62 99 163
61 97 154
62 97 160
62 98 167
62 98 164
61 97 158
61 96 153
62 99 166
61 97 159
62 98 164
61 98 158
62 98 163
63 99 160
61 97 156
63 99 164
61 98 161
62 98 158
61 97 160
62 98 165
63 98 167
62 97 153
61 97 154
61 97 154
62 98 160
61 97 158
63 99 165
61 97 156
61 97 157
62 98 165
62 98 160
62 98 159
62 98 166
62 98 164
62 98 161
61 97 161
61 97 157
62 98 160
62 98 167
61 97 158
62 98 161
61 97 162
62 97 160
62 97 160
61 97 160
62 97 162
61 96 154
61 96 156
61 97 158
60 94 152
61 96 159
61 95 158
61 95 158
60 95 160
60 94 150
62 97 166
61 96 159
61 95 157
62 97 165
61 96 163
60 94 162
119 142 189
211 230 255
211 230 255
211 230 255
211 230 255
211 230 255
211 230 255
211 230 255
211 230 255
211 230 255
211 230 255
211 230 255
211 230 255
211 230 255
211 230 255
211 230 255
211 230 255
211 230 255
211 230 255
211 230 255
211 230 255
211 230 255
211 230 255
212 230 255
212 230 255
212 230 255
212 230 255
165 174 173
134 130 85
133 130 87
143 142 95
127 126 86
131 129 87
134 132 89
135 133 90
143 142 96
127 127 86
132 132 90
139 137 94
147 145 98
147 146 99
134 133 91
143 142 97
135 135 93
144 142 96
147 146 99
145 143 96
147 146 99
154 153 102
153 151 102
146 145 97
152 151 102
160 158 106
155 153 102
153 152 103
164 160 107
152 151 101
155 154 103
157 155 105
161 159 106
161 158 105
158 155 104
165 162 108
163 161 107
161 158 104
162 159 106
154 151 101
162 159 105
161 158 105
158 155 103
164 160 105
157 154 101
164 160 103
162 159 106
168 164 108
165 161 107
168 164 108
163 160 105
169 165 108
167 163 105
167 164 108
165 160 104
164 161 106
169 165 107
166 161 106
167 162 104
168 164 108
171 166 106
165 160 103
169 165 104
167 163 103
167 163 102
168 163 105
167 162 105
167 163 106
169 164 106
167 163 107
167 163 104
163 158 102
168 163 105
166 163 106
170 165 104
167 163 106
167 162 104
166 162 102
169 164 104
167 162 104
168 163 105
167 163 101
165 160 101
165 159 98
165 160 102
165 160 101
162 158 99
164 158 100
166 161 103
167 162 101
168 162 100
164 159 103
159 154 98
161 157 99
163 159 100
164 159 101
165 160 99
165 160 104
159 154 96
164 158 98
167 161 103
155 151 90
164 158 100
168 161 103
163 158 97
157 153 97
156 151 94
161 157 94
162 157 96
159 154 97
158 154 95
152 148 89
163 157 99
170 165 104
166 160 97
155 151 91
160 155 95
161 156 99
162 157 98
160 155 95
163 157 93
158 153 94
161 156 95
153 149 92
153 148 90
158 153 93
156 152 90
153 148 93
149 145 93
160 156 95
154 150 92
152 147 91
153 148 90
156 150 90
161 156 96
203 226 255
203 225 255
203 225 255
203 225 255
202 225 255
202 225 255
202 225 255
202 225 255
202 225 255
201 225 255
201 224 255
201 224 255
201 224 255
201 224 255
200 224 255
200 224 255
200 224 255
200 224 255
200 224 255
199 223 255
199 223 255
199 223 255
199 223 255
198 223 255
198 223 255
198 223 255
198 223 255
198 223 255
198 223 255
198 223 255
198 223 255
198 223 255
198 223 255
199 223 255
199 223 255
199 223 255
199 223 255
199 223 255
199 223 255
199 223 255
199 223 255
199 223 255
199 223 255
199 223 255
199 223 255
199 223 255
199 223 255
199 223 255
199 223 255
198 223 255
198 223 255
198 223 255
198 223 255
198 223 255
198 223 255
198 223 255
198 223 255
198 223 255
198 223 255
198 223 255
198 223 255
198 223 255
198 223 255
198 223 255
198 223 255
198 223 255
198 223 255
198 223 255
198 223 255
197 222 255
197 222 255
197 222 255
197 222 255
197 222 255
197 222 255
197 222 255
197 222 255
197 222 255
197 222 255
196 222 255
196 222 255
196 222 255
196 222 255
196 222 255
196 222 255
196 222 255
196 221 255
195 221 255
195 221 255
195 221 255
195 221 255
195 221 255
194 221 255
194 221 255
194 221 255
194 221 255
194 220 255
193 220 255
193 220 255
193 220 255
193 220 255
192 220 255
192 220 255
192 219 255
191 219 255
191 219 255
191 219 255
190 219 255
190 219 255
190 218 255
189 218 255
188 218 255
188 218 255
187 217 255
187 217 255
187 217 255
187 217 255
188 217 255
188 218 255
188 218 255
189 218 255
189 218 255
190 218 255
190 219 255
191 219 255
191 219 255
192 220 255
193 220 255
194 220 255
195 221 255
196 222 255
197 222 255
199 223 255
201 224 255
204 226 255
210 230 255
212 230 255
212 230 255
212 230 255
212 230 255
212 230 255
212 230 255
212 230 255
212 230 255
212 230 255
212 230 255
212 230 255
211 230 255
211 230 255
211 230 255
211 230 255
211 230 255
211 230 255
211 230 255
211 230 255
211 230 255
211 230 255
211 230 255
211 230 255
211 230 255
139 161 207
61 98 163
61 98 163
62 98 164
62 99 171
61 97 160
62 98 167
62 98 164
62 98 162
62 98 158
61 98 161
62 98 163
62 98 163
62 99 168
62 98 162
61 97 160
62 98 162
61 97 157
61 97 157
61 97 154
62 98 164
63 99 161
61 96 154
62 98 161
62 97 156
62 98 162
62 98 161
61 97 158
61 97 162
61 97 152
62 98 158
61 97 161
61 97 159
62 98 161
62 98 158
61 97 157
61 96 154
61 97 159
61 97 151
61 97 160
62 98 163
62 98 160
61 97 158
62 98 161
63 99 163
61 97 162
62 98 161
62 98 160
62 98 157
61 96 159
62 97 154
63 99 165
62 98 159
63 99 167
62 98 158
62 98 160
62 99 164
62 98 157
61 97 160
62 98 162
61 96 158
61 97 160
60 95 155
61 96 155
61 96 156
61 97 159
60 95 157
60 96 153
60 95 156
60 95 151
61 96 162
61 95 156
61 96 155
59 93 155
61 96 162
60 95 160
60 95 160
60 94 160
60 93 161
135 157 198
211 230 255
211 230 255
211 230 255
211 230 255
211 230 255
211 230 255
211 230 255
211 230 255
211 230 255
211 230 255
211 230 255
211 230 255
212 230 255
212 230 255
212 230 255
212 230 255
212 230 255
212 230 255
212 230 255
212 230 255
212 230 255
212 230 255
212 230 255
212 230 255
182 194 202
135 133 86
120 118 77
129 128 88
138 137 92
128 127 85
131 130 88
131 130 89
134 132 90
140 140 95
145 143 96
137 136 93
133 133 91
134 134 92
141 139 94
142 141 97
149 148 101
149 148 100
154 153 103
152 150 101
144 142 95
140 140 96
150 148 100
150 149 101
150 148 100
148 147 100
153 151 101
149 147 98
157 154 102
159 156 104
145 144 96
161 159 105
160 157 104
163 161 108
161 158 104
164 161 107
161 157 103
164 161 105
163 160 104
163 160 105
164 160 107
159 156 104
159 156 102
163 158 103
160 157 103
164 161 106
166 162 106
165 162 106
158 155 103
163 160 105
163 159 104
167 163 108
166 162 103
164 159 102
170 166 108
162 159 104
165 160 105
169 164 107
163 159 102
166 161 103
167 163 103
165 162 105
166 161 104
166 161 103
168 163 106
169 165 106
165 160 102
168 163 105
166 162 103
165 161 105
168 164 104
168 164 106
169 165 104
168 163 105
168 163 102
167 163 102
171 165 104
168 163 101
167 162 105
168 163 105
164 160 101
168 163 105
165 160 99
167 162 104
166 161 99
165 161 101
171 165 104
159 154 101
161 156 99
164 160 99
164 160 99
168 162 103
167 163 104
163 159 103
169 163 103
162 158 98
161 157 95
164 158 100
164 159 100
157 152 93
163 158 100
166 160 99
165 159 99
165 161 101
155 151 90
159 155 95
161 156 97
166 161 101
158 153 97
163 159 98
156 151 91
159 155 97
163 158 98
158 153 97
163 159 100
157 153 93
157 152 93
153 148 90
157 153 94
160 155 93
158 153 95
156 151 92
158 152 95
158 153 92
152 147 90
153 148 91
156 151 92
158 152 92
161 156 93
160 154 96
160 156 94
151 148 91
157 151 94
154 149 92
163 158 97
147 142 89
204 226 255
203 226 255
203 226 255
203 225 255
203 225 255
203 225 255
202 225 255
202 225 255
202 225 255
202 225 255
202 225 255
201 225 255
201 225 255
201 224 255
201 224 255
201 224 255
200 224 255
200 224 255
200 224 255
200 224 255
200 224 255
199 223 255
199 223 255
199 223 255
199 223 255
199 223 255
199 223 255
199 223 255
199 223 255
199 224 255
199 223 255
199 224 255
199 224 255
199 224 255
199 224 255
199 224 255
199 224 255
199 224 255
200 224 255
199 224 255
200 224 255
200 224 255
200 224 255
200 224 255
199 224 255
199 224 255
199 224 255
199 224 255
199 224 255
199 224 255
199 224 255
199 223 255
199 223 255
199 223 255
199 223 255
199 223 255
199 223 255
199 223 255
199 223 255
199 223 255
199 223 255
199 223 255
199 223 255
199 223 255
199 223 255
199 223 255
199 223 255
199 223 255
198 223 255
198 223 255
198 223 255
198 223 255
198 223 255
198 223 255
198 223 255
198 223 255
198 223 255
198 223 255
198 223 255
197 222 255
197 222 255
197 222 255
197 222 255
197 222 255
197 222 255
197 222 255
197 222 255
196 222 255
196 222 255
196 222 255
196 222 255
196 222 255
196 222 255
195 221 255
195 221 255
195 221 255
195 221 255
195 221 255
194 221 255
194 221 255
194 221 255
194 220 255
193 220 255
193 220 255
193 220 255
192 220 255
192 220 255
192 220 255
191 219 255
191 219 255
191 219 255
190 219 255
190 218 255
189 218 255
189 218 255
188 218 255
188 217 255
188 218 255
188 218 255
189 218 255
189 218 255
189 218 255
190 218 255
190 219 255
191 219 255
191 219 255
192 220 255
193 220 255
193 220 255
194 221 255
195 221 255
197 222 255
198 223 255
200 224 255
202 225 255
205 226 255
211 230 255
212 230 255
212 230 255
212 230 255
212 230 255
212 230 255
212 230 255
212 230 255
212 230 255
212 230 255
212 230 255
212 230 255
212 230 255
212 230 255
212 230 255
212 230 255
212 230 255
212 230 255
212 230 255
212 230 255
212 230 255
211 230 255
211 230 255
174 194 228
62 99 168
62 98 167
62 98 164
63 99 165
62 98 165
62 98 163
62 98 162
62 99 167
62 97 157
62 98 163
62 98 164
62 98 165
62 98 163
62 98 163
62 98 161
62 98 164
63 99 170
62 98 159
61 98 163
62 98 159
62 98 161
62 98 165
62 97 159
61 97 160
61 97 157
62 98 160
61 98 159
63 98 158
62 98 161
61 97 154
62 97 158
62 98 162
63 99 163
62 98 162
61 96 149
62 98 167
62 98 160
62 98 159
63 99 168
62 97 157
62 98 161
63 98 159
63 99 166
61 97 153
62 98 161
62 98 157
62 97 156
62 98 162
62 98 159
61 97 155
62 98 158
62 98 159
62 98 158
63 99 166
62 98 164
61 96 152
62 98 162
61 96 155
62 98 163
60 96 158
61 96 154
61 97 157
61 97 162
61 96 156
60 95 151
62 97 157
60 95 156
61 97 159
61 96 153
60 94 151
61 95 155
62 97 167
60 94 155
61 96 162
62 97 160
60 95 159
58 92 156
58 91 149
59 93 153
59 93 157
165 185 218
211 230 255
211 230 255
212 230 255
212 230 255
212 230 255
212 230 255
212 230 255
212 230 255
212 230 255
212 230 255
212 230 255
212 230 255
212 230 255
212 230 255
212 230 255
212 230 255
212 230 255
212 230 255
212 230 255
212 230 255
212 230 255
212 230 255
188 201 213
133 130 84
127 125 83
134 132 88
127 126 84
136 134 91
136 134 91
145 144 97
146 144 97
140 139 95
122 123 86
135 133 91
135 136 93
137 136 93
137 137 94
141 141 96
146 145 97
149 147 100
145 144 97
135 134 92
144 143 97
146 145 98
143 142 96
145 145 98
155 152 102
144 143 95
146 144 97
156 154 104
153 151 103
153 150 102
152 150 98
157 154 103
147 145 96
155 152 101
162 160 106
164 161 107
154 152 100
159 156 103
165 161 108
164 161 104
161 157 103
166 163 108
161 158 103
156 152 101
163 159 104
170 166 107
160 156 104
169 166 109
166 163 107
170 166 107
162 159 104
169 165 106
169 166 107
165 162 105
166 162 103
168 164 106
163 159 104
167 163 107
166 162 105
174 169 110
170 166 106
172 166 107
164 160 106
170 164 105
164 161 101
166 161 101
170 165 105
163 158 101
166 162 104
172 166 107
168 163 103
166 162 104
169 164 104
170 165 105
164 160 103
163 158 100
167 163 101
170 165 104
166 162 104
167 162 101
170 165 104
164 160 101
172 167 107
169 165 104
167 162 103
168 163 101
163 159 98
168 163 102
162 158 97
162 158 100
171 165 102
158 154 95
163 158 99
161 156 98
166 161 103
161 155 94
171 166 104
165 159 101
165 159 100
166 160 101
166 161 98
165 160 103
158 153 92
159 154 95
160 155 96
164 159 102
164 159 99
170 165 106
161 156 98
162 157 99
159 154 98
156 151 92
163 157 97
155 151 93
156 151 90
158 154 94
157 152 97
159 154 92
160 154 95
161 156 96
157 152 94
163 157 97
156 151 95
159 155 93
155 150 95
153 149 88
156 152 95
150 145 90
153 149 91
156 151 90
149 145 86
147 143 86
162 156 93
159 154 95
154 149 86
151 147 87
154 149 90
204 226 255
204 226 255
204 226 255
203 226 255
203 226 255
203 226 255
203 225 255
203 225 255
203 225 255
202 225 255
202 225 255
202 225 255
202 225 255
202 225 255
201 225 255
201 224 255
201 224 255
201 224 255
201 224 255
200 224 255
200 224 255
200 224 255
200 224 255
200 224 255
200 224 255
200 224 255
200 224 255
200 224 255
200 224 255
200 224 255
200 224 255
200 224 255
200 224 255
200 224 255
200 224 255
200 224 255
200 224 255
200 224 255
200 224 255
200 224 255
200 224 255
200 224 255
200 224 255
200 224 255
200 224 255
200 224 255
200 224 255
200 224 255
200 224 255
200 224 255
200 224 255
200 224 255
200 224 255
200 224 255
200 224 255
200 224 255
200 224 255
200 224 255
200 224 255
200 224 255
200 224 255
200 224 255
200 224 255
200 224 255
200 224 255
200 224 255
199 224 255
199 224 255
199 223 255
199 223 255
199 223 255
199 223 255
199 223 255
199 223 255
199 223 255
199 223 255
199 223 255
199 223 255
199 223 255
198 223 255
198 223 255
198 223 255
198 223 255
198 223 255
198 223 255
198 223 255
198 223 255
197 222 255
197 222 255
197 222 255
197 222 255
197 222 255
197 222 255
196 222 255
196 222 255
196 222 255
196 222 255
196 222 255
196 221 255
195 221 255
195 221 255
195 221 255
195 221 255
194 221 255
194 221 255
194 221 255
193 220 255
193 220 255
193 220 255
193 220 255
192 220 255
192 219 255
191 219 255
191 219 255
190 219 255
190 218 255
189 218 255
189 218 255
189 218 255
189 218 255
189 218 255
190 218 255
190 219 255
191 219 255
191 219 255
192 219 255
192 220 255
193 220 255
193 220 255
194 221 255
195 221 255
196 222 255
197 222 255
199 223 255
200 224 255
203 225 255
207 227 255
211 230 255
212 231 255
212 231 255
212 231 255
212 231 255
212 230 255
212 230 255
212 230 255
212 230 255
212 230 255
212 230 255
212 230 255
212 230 255
212 230 255
212 230 255
212 230 255
212 230 255
212 230 255
212 230 255
212 230 255
212 230 255
190 210 240
68 102 167
61 98 159
62 98 163
61 97 162
62 98 167
62 98 163
62 98 165
61 97 162
61 97 161
61 97 151
61 96 155
62 97 153
62 98 163
61 97 157
63 99 166
62 98 163
62 98 154
62 98 162
62 98 162
62 99 165
62 98 161
60 96 145
61 97 157
62 98 164
63 98 166
61 97 155
61 97 155
61 97 160
62 99 166
63 99 165
62 98 156
63 99 164
62 97 155
62 98 160
61 97 153
62 98 164
62 98 163
61 97 153
60 96 151
63 99 164
62 98 157
62 98 160
61 97 158
63 99 167
62 97 156
62 98 164
63 99 163
62 97 153
62 98 163
62 98 160
61 96 155
62 98 158
63 98 158
61 97 159
61 97 154
62 98 160
62 98 158
62 98 163
62 98 159
62 98 162
61 97 160
61 97 154
62 98 160
61 96 159
61 97 161
61 96 155
61 96 154
62 98 162
60 93 143
61 96 160
62 97 162
61 96 164
61 96 162
60 95 160
60 93 144
60 95 161
59 93 153
60 95 154
60 95 157
58 92 154
60 94 158
66 98 160
195 214 241
212 230 255
212 230 255
212 230 255
212 230 255
212 230 255
212 230 255
212 230 255
212 230 255
212 230 255
212 230 255
212 230 255
212 230 255
212 230 255
212 230 255
212 230 255
212 231 255
212 231 255
212 231 255
212 231 255
212 231 255
190 204 220
138 135 86
133 130 86
129 127 85
139 137 91
134 132 89
127 127 88
133 132 90
136 136 93
134 135 92
136 136 94
139 139 96
134 134 91
134 134 93
137 137 94
145 144 98
140 140 96
129 129 88
136 136 92
152 150 100
154 153 104
144 144 97
149 147 98
150 148 100
151 149 98
151 149 99
140 140 96
146 144 96
149 148 101
153 151 102
153 151 100
157 155 104
161 158 104
166 163 108
156 153 102
159 156 103
160 158 103
159 157 104
163 160 107
165 162 107
162 158 105
162 158 103
155 153 101
161 157 101
157 155 100
165 161 105
166 163 108
166 162 104
171 166 107
165 161 105
164 159 101
172 168 110
161 158 101
162 158 102
167 163 105
172 168 109
171 166 106
157 153 100
170 165 106
167 163 105
172 167 108
169 164 106
172 166 106
175 170 109
169 165 106
168 164 107
165 161 101
170 165 107
175 169 109
167 162 104
169 164 104
172 167 107
168 164 104
168 163 103
166 161 102
165 161 103
169 163 104
170 165 104
167 163 103
164 159 102
166 161 101
165 161 101
169 164 103
164 159 100
165 161 102
169 164 101
169 163 103
167 162 101
172 167 106
172 166 101
171 165 106
166 161 100
165 160 99
169 164 104
173 167 106
158 154 93
163 158 101
172 166 103
161 155 97
166 160 101
165 160 98
167 161 101
163 158 99
169 163 101
167 162 102
172 165 102
165 160 99
162 156 95
164 160 101
165 161 99
161 156 97
163 157 97
169 163 102
164 158 99
167 161 99
152 148 90
166 159 97
161 156 97
166 161 96
165 159 94
161 157 96
159 154 96
155 150 90
156 151 95
154 150 93
157 152 90
166 160 99
158 152 95
160 154 91
153 148 88
155 150 93
162 158 95
156 151 89
156 151 90
152 148 90
160 154 94
153 147 88
156 151 90
204 226 255
204 226 255
204 226 255
204 226 255
204 226 255
204 226 255
203 226 255
203 226 255
203 225 255
203 225 255
203 225 255
202 225 255
202 225 255
202 225 255
202 225 255
202 225 255
201 225 255
201 225 255
201 224 255
201 224 255
201 224 255
201 224 255
201 224 255
201 224 255
201 224 255
201 224 255
201 224 255
201 224 255
201 224 255
201 224 255
201 224 255
201 224 255
201 224 255
201 224 255
201 224 255
201 224 255
201 225 255
201 225 255
201 225 255
201 225 255
201 225 255
201 225 255
201 225 255
201 224 255
201 224 255
201 224 255
201 224 255
201 224 255
201 224 255
201 224 255
201 224 255
201 224 255
201 224 255
201 224 255
201 224 255
201 224 255
201 224 255
201 224 255
201 224 255
201 224 255
201 224 255
201 224 255
201 224 255
201 224 255
200 224 255
200 224 255
200 224 255
200 224 255
200 224 255
200 224 255
200 224 255
200 224 255
200 224 255
200 224 255
200 224 255
200 224 255
200 224 255
199 224 255
199 224 255
199 223 255
199 223 255
199 223 255
199 223 255
199 223 255
199 223 255
199 223 255
199 223 255
198 223 255
198 223 255
198 223 255
198 223 255
198 223 255
198 223 255
198 223 255
197 222 255
197 222 255
197 222 255
197 222 255
197 222 255
196 222 255
196 222 255
196 222 255
196 222 255
196 222 255
195 221 255
195 221 255
195 221 255
194 221 255
194 221 255
194 221 255
193 220 255
193 220 255
193 220 255
192 220 255
192 220 255
191 219 255
191 219 255
190 219 255
190 218 255
190 218 255
190 219 255
190 219 255
191 219 255
191 219 255
191 219 255
192 219 255
192 220 255
193 220 255
193 220 255
194 221 255
195 221 255
196 222 255
197 222 255
198 223 255
199 224 255
201 225 255
204 226 255
208 228 255
212 231 255
213 231 255
213 231 255
213 231 255
212 231 255
212 231 255
212 231 255
212 231 255
212 231 255
212 231 255
212 231 255
212 231 255
212 231 255
212 231 255
212 230 255
212 230 255
212 230 255
212 230 255
212 230 255
208 227 252
98 126 184
61 97 162
61 98 162
62 98 166
61 98 163
63 99 170
62 99 168
61 97 156
61 98 162
62 98 159
61 96 155
62 98 161
62 97 159
62 98 159
61 98 161
63 99 165
61 97 157
62 98 164
61 97 154
62 98 164
61 97 157
61 97 159
61 97 156
62 97 159
62 98 156
62 98 156
61 97 155
62 98 161
62 98 160
62 97 158
63 99 162
62 97 156
61 97 154
61 97 152
62 98 157
62 98 156
62 98 160
63 99 160
62 97 155
63 99 164
63 99 164
61 98 158
62 98 158
63 99 165
61 97 155
61 97 153
61 96 152
62 98 158
62 98 158
61 97 163
61 96 152
61 97 156
61 96 150
62 98 158
61 96 149
61 97 157
62 98 164
61 97 161
62 97 153
61 97 160
62 97 155
61 97 159
61 97 155
61 97 157
62 98 162
60 95 159
60 95 158
61 97 159
61 96 161
63 99 167
60 95 149
60 95 154
60 94 154
61 96 158
61 95 152
59 92 146
60 94 156
61 95 154
60 94 158
60 94 152
59 93 156
59 92 159
59 92 154
87 113 165
206 224 250
212 230 255
212 230 255
212 230 255
212 230 255
212 230 255
212 231 255
212 231 255
212 231 255
212 231 255
212 231 255
212 231 255
212 231 255
212 231 255
212 231 255
212 231 255
213 231 255
213 231 255
213 231 255
208 224 245
143 143 116
129 127 85
130 128 87
135 133 90
135 133 90
133 133 90
138 137 93
139 139 94
123 123 84
135 133 91
124 124 86
131 131 89
129 129 89
137 137 93
139 137 93
133 133 92
138 137 92
138 138 94
140 140 95
146 145 98
140 140 95
151 149 99
153 151 102
139 138 93
154 151 100
157 155 103
152 150 101
154 152 102
148 146 99
159 157 103
163 160 105
159 156 102
155 153 102
154 152 99
160 157 104
164 161 104
160 157 103
162 160 107
166 162 107
159 156 103
161 159 104
167 162 105
162 159 104
166 162 104
161 158 102
165 161 105
163 159 105
165 161 105
167 163 106
169 165 104
167 163 106
167 163 105
168 164 104
168 164 103
164 161 104
170 166 106
165 161 103
169 164 104
168 163 105
166 161 105
166 162 106
166 162 102
170 164 105
167 162 102
170 165 104
172 166 106
169 164 106
165 161 104
171 165 104
173 167 105
169 165 106
174 169 106
163 157 98
166 161 99
171 165 104
167 162 98
168 163 104
169 163 100
164 160 99
171 166 106
170 166 101
170 166 101
170 165 100
164 159 99
164 159 97
175 169 108
170 165 101
164 161 100
166 162 101
168 163 103
167 161 99
165 160 101
170 164 101
169 163 102
170 164 101
168 162 103
163 157 99
167 162 99
163 157 99
167 162 100
166 160 102
164 158 97
163 159 101
168 163 101
158 153 93
166 161 99
171 164 102
163 157 97
157 152 90
166 161 99
168 162 97
159 156 96
162 157 98
157 152 94
159 154 93
157 153 94
157 152 92
160 156 95
166 161 99
158 153 93
163 158 97
160 156 94
159 155 99
163 159 91
164 158 99
155 151 92
156 151 90
161 155 95
157 152 93
158 153 91
152 147 90
164 158 96
157 152 90
161 156 93
157 152 93
146 143 87
148 143 85
161 155 93
205 227 255
205 226 255
205 226 255
204 226 255
204 226 255
204 226 255
204 226 255
204 226 255
203 226 255
203 226 255
203 226 255
203 225 255
203 225 255
203 225 255
202 225 255
202 225 255
202 225 255
202 225 255
202 225 255
202 225 255
202 225 255
202 225 255
202 225 255
202 225 255
202 225 255
202 225 255
202 225 255
202 225 255
202 225 255
202 225 255
202 225 255
202 225 255
202 225 255
202 225 255
202 225 255
202 225 255
202 225 255
202 225 255
202 225 255
202 225 255
202 225 255
202 225 255
202 225 255
202 225 255
202 225 255
202 225 255
202 225 255
202 225 255
202 225 255
202 225 255
202 225 255
202 225 255
202 225 255
202 225 255
202 225 255
202 225 255
202 225 255
202 225 255
202 225 255
202 225 255
202 225 255
201 225 255
201 225 255
201 225 255
201 225 255
201 225 255
201 224 255
201 224 255
201 224 255
201 224 255
201 224 255
201 224 255
201 224 255
201 224 255
201 224 255
201 224 255
200 224 255
200 224 255
200 224 255
200 224 255
200 224 255
200 224 255
200 224 255
200 224 255
200 224 255
200 224 255
199 224 255
199 223 255
199 223 255
199 223 255
199 223 255
199 223 255
199 223 255
198 223 255
198 223 255
198 223 255
198 223 255
198 223 255
198 223 255
198 223 255
197 222 255
197 222 255
197 222 255
197 222 255
196 222 255
196 222 255
196 222 255
196 222 255
195 221 255
195 221 255
195 221 255
195 221 255
194 221 255
194 221 255
193 220 255
193 220 255
192 220 255
192 220 255
191 219 255
191 219 255
191 219 255
191 219 255
191 219 255
191 219 255
192 220 255
192 220 255
193 220 255
193 220 255
194 221 255
194 221 255
195 221 255
196 222 255
197 222 255
198 223 255
199 223 255
200 224 255
202 225 255
205 226 255
209 229 255
213 231 255
213 231 255
213 231 255
213 231 255
213 231 255
213 231 255
213 231 255
213 231 255
213 231 255
213 231 255
213 231 255
213 231 255
213 231 255
213 231 255
212 231 255
212 231 255
212 231 255
212 231 255
144 166 207
62 98 167
61 98 161
61 97 159
62 97 155
62 98 162
62 98 165
62 98 159
61 98 159
62 98 163
62 98 159
61 97 160
63 99 162
61 97 157
62 98 162
61 96 151
62 98 161
63 99 164
61 98 160
62 98 160
61 96 153
62 98 164
62 98 158
62 98 157
61 97 151
61 97 149
61 97 153
62 98 159
61 97 147
61 97 155
61 98 159
62 98 155
63 99 166
62 98 160
62 98 161
63 98 163
61 96 154
62 98 160
61 96 151
62 98 159
61 97 160
61 97 158
62 97 155
61 97 154
62 97 156
61 97 152
61 96 153
62 97 152
61 97 155
62 98 162
61 97 154
60 96 154
61 97 154
60 96 151
62 97 158
62 98 164
62 97 158
60 96 147
61 96 150
62 98 161
62 98 157
62 98 154
60 95 151
62 98 166
60 95 149
61 96 151
61 96 144
62 98 162
59 95 154
59 94 155
61 95 156
61 96 153
60 96 157
59 94 149
60 95 155
61 96 159
60 95 150
60 94 153
60 94 150
61 97 160
59 94 154
61 97 164
59 92 150
57 90 147
58 90 145
126 147 188
212 231 255
212 231 255
212 231 255
212 231 255
213 231 255
213 231 255
213 231 255
213 231 255
213 231 255
213 231 255
213 231 255
213 231 255
213 231 255
213 231 255
213 231 255
213 231 255
213 231 255
212 229 252
148 152 137
120 119 79
118 117 77
130 128 86
129 128 86
143 140 94
138 138 94
125 125 86
133 134 92
129 130 90
132 132 91
126 126 87
135 135 94
144 143 97
139 138 94
146 145 99
149 147 98
137 137 93
144 143 97
145 145 99
140 140 96
147 146 98
149 147 98
144 142 95
148 147 99
152 150 101
150 148 100
155 152 102
160 157 104
152 151 103
159 156 103
154 151 100
155 153 103
159 157 103
154 152 101
160 158 105
163 159 101
166 162 104
160 157 102
169 164 109
161 158 103
162 159 105
157 154 99
162 158 104
166 163 106
162 158 103
163 161 108
162 158 103
169 165 107
165 162 105
169 165 108
166 162 105
165 161 103
170 165 105
165 162 103
164 161 103
167 164 104
169 164 104
174 169 108
167 162 103
164 160 101
172 167 108
165 161 102
169 165 103
167 163 104
162 158 97
167 162 103
171 165 102
174 168 108
170 164 103
168 163 101
172 167 106
164 159 101
169 164 103
168 164 103
172 166 106
173 168 106
169 164 104
166 161 100
169 163 101
172 166 103
166 161 99
165 162 100
169 163 102
165 161 101
170 165 105
166 161 102
170 166 105
169 164 103
164 158 96
172 166 106
169 163 103
166 162 101
172 167 107
166 160 97
165 160 102
169 164 101
167 162 100
166 161 99
167 162 102
159 155 95
171 165 101
162 157 95
169 163 100
163 157 99
168 163 103
161 156 93
165 160 98
157 152 93
160 155 93
168 162 101
165 159 101
155 150 90
159 155 95
156 152 86
161 155 95
165 160 95
162 157 96
159 154 88
157 152 92
158 153 90
164 159 97
157 151 90
159 154 90
164 159 98
160 155 94
163 158 92
153 148 84
153 149 88
162 156 93
162 155 95
159 152 94
152 148 89
154 149 91
153 148 87
157 152 93
154 149 93
152 147 88
162 156 93
205 227 255
205 227 255
205 227 255
205 226 255
205 226 255
205 226 255
204 226 255
204 226 255
204 226 255
204 226 255
204 226 255
203 226 255
203 226 255
203 226 255
203 225 255
203 225 255
202 225 255
202 225 255
202 225 255
202 225 255
202 225 255
203 225 255
203 225 255
203 225 255
203 225 255
203 225 255
203 225 255
203 225 255
203 225 255
203 225 255
203 225 255
203 225 255
203 225 255
203 225 255
203 225 255
203 225 255
203 225 255
203 225 255
203 225 255
203 225 255
203 225 255
203 225 255
203 225 255
203 225 255
203 225 255
203 225 255
203 225 255
203 225 255
203 225 255
203 225 255
203 225 255
203 225 255
203 225 255
203 225 255
203 225 255
203 225 255
202 225 255
202 225 255
202 225 255
202 225 255
202 225 255
202 225 255
202 225 255
202 225 255
202 225 255
202 225 255
202 225 255
202 225 255
202 225 255
202 225 255
202 225 255
202 225 255
202 225 255
202 225 255
201 225 255
201 225 255
201 225 255
201 225 255
201 224 255
201 224 255
201 224 255
201 224 255
201 224 255
201 224 255
201 224 255
200 224 255
200 224 255
200 224 255
200 224 255
200 224 255
200 224 255
200 224 255
200 224 255
200 224 255
199 224 255
199 223 255
199 223 255
199 223 255
199 223 255
199 223 255
198 223 255
198 223 255
198 223 255
198 223 255
198 223 255
197 222 255
197 222 255
197 222 255
197 222 255
196 222 255
196 222 255
196 222 255
196 221 255
195 221 255
195 221 255
194 221 255
194 221 255
193 220 255
193 220 255
192 220 255
192 220 255
191 219 255
192 219 255
192 220 255
192 220 255
193 220 255
193 220 255
194 220 255
194 221 255
195 221 255
195 221 255
196 222 255
197 222 255
198 223 255
199 223 255
200 224 255
201 225 255
203 226 255
206 227 255
211 230 255
213 231 255
213 231 255
213 231 255
213 231 255
213 231 255
213 231 255
213 231 255
213 231 255
213 231 255
213 231 255
213 231 255
213 231 255
213 231 255
213 231 255
213 231 255
213 231 255
178 197 230
61 98 167
62 98 167
62 98 163
61 97 157
61 97 159
61 97 155
62 97 154
61 97 152
62 98 162
61 98 160
61 97 157
62 98 163
62 98 161
62 98 158
62 98 160
62 98 158
61 97 152
62 98 162
62 98 159
61 97 155
61 97 159
62 99 169
62 98 162
62 97 159
61 96 151
63 98 156
60 95 148
62 98 158
62 97 157
62 98 158
60 96 151
62 98 158
62 98 156
62 98 157
62 98 158
62 97 158
62 98 163
62 98 156
62 97 157
61 97 156
61 97 153
62 98 160
61 97 152
61 97 156
63 98 159
61 97 152
61 96 149
62 97 158
62 98 158
62 98 159
62 98 159
61 96 153
61 96 151
61 97 153
61 97 155
61 97 154
62 98 161
62 97 156
62 98 161
61 97 164
59 94 141
60 95 145
61 97 160
61 97 152
61 97 158
61 96 155
61 96 155
61 97 154
60 95 156
60 94 148
61 97 161
62 97 159
60 94 149
61 96 154
61 96 151
61 96 157
61 95 157
60 95 152
60 93 145
59 93 152
60 95 153
59 93 152
58 92 152
59 93 154
59 93 156
57 89 146
174 193 224
213 231 255
213 231 255
213 231 255
213 231 255
213 231 255
213 231 255
213 231 255
213 231 255
213 231 255
213 231 255
213 231 255
213 231 255
213 231 255
213 231 255
213 231 255
213 231 255
182 193 201
119 116 76
133 130 84
120 118 79
125 125 84
127 126 85
122 122 85
130 129 88
119 120 83
137 136 94
128 128 87
127 128 89
133 132 90
139 139 95
126 127 89
124 125 89
143 142 97
138 138 95
143 144 100
136 134 91
135 134 93
144 143 97
144 142 96
146 145 96
140 139 91
144 143 98
154 152 101
148 146 98
151 150 101
159 156 103
158 155 101
163 160 106
150 148 98
147 147 96
153 151 98
159 156 102
161 157 102
159 156 103
158 155 102
162 158 101
156 152 98
163 160 103
155 152 100
162 158 101
165 162 105
164 160 103
166 161 103
164 159 102
164 162 106
171 166 106
166 161 103
164 158 102
174 168 108
172 167 107
172 167 107
168 163 104
172 166 107
165 161 102
172 166 104
164 161 103
173 168 108
166 161 104
171 166 108
169 164 102
170 165 101
169 164 104
166 161 97
171 166 106
170 165 106
173 168 104
167 162 102
170 165 105
176 170 107
171 167 106
173 167 103
171 165 101
172 167 104
167 162 97
166 161 99
173 168 108
167 163 102
171 166 100
163 159 95
169 163 100
171 165 102
171 166 103
169 164 101
171 166 104
168 162 100
169 164 100
168 163 100
168 162 99
173 167 103
166 161 97
167 162 99
165 159 95
164 158 98
164 159 99
165 160 99
168 162 99
167 162 96
173 167 102
170 163 99
170 165 101
167 160 99
159 156 97
173 166 102
166 161 101
162 157 95
164 159 100
165 160 98
160 154 93
166 161 93
166 160 99
166 161 99
155 150 92
164 159 95
159 154 93
160 155 90
160 154 90
156 151 87
166 160 97
157 151 93
160 154 94
164 159 95
166 160 99
155 150 90
159 154 93
151 147 89
157 151 92
157 152 92
161 156 93
160 154 93
159 154 91
152 147 88
159 154 93
163 156 93
157 151 92
159 154 90
159 154 94
206 227 255
206 227 255
206 227 255
205 227 255
205 227 255
205 227 255
205 226 255
205 226 255
205 226 255
204 226 255
204 226 255
204 226 255
204 226 255
204 226 255
203 226 255
203 226 255
203 226 255
203 226 255
203 226 255
203 226 255
203 226 255
203 226 255
203 226 255
203 226 255
203 226 255
203 226 255
203 226 255
204 226 255
204 226 255
204 226 255
204 226 255
204 226 255
204 226 255
204 226 255
204 226 255
204 226 255
204 226 255
204 226 255
204 226 255
204 226 255
204 226 255
204 226 255
204 226 255
204 226 255
204 226 255
204 226 255
204 226 255
204 226 255
204 226 255
204 226 255
203 226 255
203 226 255
203 226 255
203 226 255
203 226 255
203 226 255
203 226 255
203 226 255
203 226 255
203 226 255
203 226 255
203 226 255
203 225 255
203 225 255
203 225 255
203 225 255
203 225 255
203 225 255
203 225 255
203 225 255
203 225 255
203 225 255
202 225 255
202 225 255
202 225 255
202 225 255
202 225 255
202 225 255
202 225 255
202 225 255
202 225 255
202 225 255
202 225 255
202 225 255
201 225 255
201 225 255
201 225 255
201 224 255
201 224 255
201 224 255
201 224 255
201 224 255
201 224 255
200 224 255
200 224 255
200 224 255
200 224 255
200 224 255
200 224 255
200 224 255
199 224 255
199 223 255
199 223 255
199 223 255
199 223 255
198 223 255
198 223 255
198 223 255
198 223 255
198 223 255
197 222 255
197 222 255
197 222 255
196 222 255
196 222 255
196 222 255
195 221 255
195 221 255
194 221 255
194 221 255
193 220 255
193 220 255
192 220 255
193 220 255
193 220 255
193 220 255
194 220 255
194 221 255
194 221 255
195 221 255
195 221 255
196 222 255
197 222 255
198 223 255
199 223 255
200 224 255
201 224 255
202 225 255
204 226 255
208 228 255
213 231 255
213 231 255
213 231 255
213 231 255
213 231 255
213 231 255
213 231 255
213 231 255
213 231 255
213 231 255
213 231 255
213 231 255
213 231 255
213 231 255
213 231 255
210 228 253
89 119 180
60 97 162
62 98 168
61 97 158
62 99 166
62 98 160
61 97 156
61 97 158
61 97 152
61 97 155
62 98 159
61 97 157
62 98 156
62 98 158
61 97 152
61 97 148
61 97 156
60 96 153
62 98 161
61 96 150
62 98 158
62 98 157
62 98 159
62 98 156
61 97 159
61 97 149
61 96 153
61 97 155
61 97 155
62 98 156
62 98 159
62 98 152
62 98 157
61 97 160
62 97 155
62 98 155
62 98 156
61 97 158
61 97 154
61 96 148
62 98 161
62 98 158
60 96 151
61 96 145
62 98 166
62 98 160
61 96 153
61 96 151
62 98 162
60 95 145
61 97 157
61 97 152
61 96 156
61 96 148
61 97 149
63 98 160
60 95 148
61 96 156
62 97 156
62 97 158
61 96 153
60 95 138
62 97 158
61 96 157
60 95 150
60 96 153
61 96 151
60 95 155
62 97 155
59 93 145
60 95 155
60 95 157
60 95 149
61 95 151
59 93 149
60 94 158
61 96 155
60 95 152
59 92 143
58 90 144
58 91 146
59 93 149
59 93 149
60 94 154
59 93 148
58 92 155
58 90 144
95 119 170
207 225 250
213 231 255
213 231 255
213 231 255
213 231 255
213 231 255
213 231 255
213 231 255
213 231 255
213 231 255
213 231 255
213 231 255
213 231 255
213 231 255
213 231 255
196 211 226
126 124 78
121 120 79
133 131 87
128 127 85
121 120 83
133 132 90
129 128 87
131 130 88
118 120 85
115 116 80
137 137 94
133 132 90
138 138 94
128 128 88
145 144 98
135 134 92
130 131 90
139 139 93
136 136 94
136 136 93
143 142 96
143 143 96
144 143 96
147 146 99
149 147 99
149 147 99
142 140 91
150 148 100
152 149 99
157 155 101
153 151 99
161 158 104
153 152 101
161 158 105
152 150 99
158 156 102
157 153 100
160 157 104
167 162 106
162 159 104
166 162 102
161 157 102
166 163 108
165 162 103
166 162 101
162 158 101
166 162 103
169 167 108
170 165 104
169 165 107
165 161 101
168 163 106
166 162 106
167 163 104
170 165 104
168 163 104
170 166 103
175 169 107
168 164 106
172 167 102
172 167 106
169 164 104
169 164 103
172 167 106
167 162 103
166 162 104
170 164 104
168 164 102
171 165 104
172 167 105
171 166 106
170 164 103
172 166 104
165 161 99
170 164 98
171 166 104
170 165 99
170 165 103
167 162 99
171 166 101
166 161 101
164 160 98
175 168 104
173 167 103
169 163 101
166 160 101
163 159 97
171 165 103
168 163 102
174 169 104
163 158 99
172 166 101
165 160 96
169 162 101
163 158 97
172 166 104
167 162 101
164 159 95
165 158 98
165 160 98
174 168 104
166 160 95
166 160 101
167 162 101
171 166 102
164 159 97
162 158 96
166 161 101
164 158 95
161 156 93
160 156 95
158 154 93
162 158 95
158 153 91
159 154 93
165 159 95
161 155 90
163 158 95
158 153 90
160 155 97
160 154 90
152 148 84
156 150 93
159 155 90
158 152 88
161 156 93
158 153 90
163 156 93
152 147 87
159 154 90
158 153 93
158 153 90
157 152 90
160 155 93
158 153 95
153 148 86
162 157 94
157 151 92
160 154 95
157 152 87
206 227 255
206 227 255
206 227 255
206 227 255
206 227 255
206 227 255
205 227 255
205 227 255
205 227 255
205 227 255
205 226 255
205 226 255
204 226 255
204 226 255
204 226 255
204 226 255
204 226 255
204 226 255
204 226 255
204 226 255
204 226 255
204 226 255
204 226 255
204 226 255
204 226 255
204 226 255
204 226 255
204 226 255
204 226 255
204 226 255
204 226 255
204 226 255
204 226 255
204 226 255
204 226 255
204 226 255
204 226 255
204 226 255
204 226 255
204 226 255
204 226 255
204 226 255
204 226 255
204 226 255
204 226 255
204 226 255
204 226 255
204 226 255
204 226 255
204 226 255
204 226 255
204 226 255
204 226 255
204 226 255
204 226 255
204 226 255
204 226 255
204 226 255
204 226 255
204 226 255
204 226 255
204 226 255
204 226 255
204 226 255
204 226 255
204 226 255
204 226 255
204 226 255
204 226 255
204 226 255
203 226 255
203 226 255
203 226 255
203 226 255
203 226 255
203 226 255
203 225 255
203 225 255
203 225 255
203 225 255
203 225 255
203 225 255
203 225 255
202 225 255
202 225 255
202 225 255
202 225 255
202 225 255
202 225 255
202 225 255
202 225 255
202 225 255
201 225 255
201 225 255
201 225 255
201 224 255
201 224 255
201 224 255
201 224 255
201 224 255
200 224 255
200 224 255
200 224 255
200 224 255
200 224 255
199 224 255
199 223 255
199 223 255
199 223 255
199 223 255
198 223 255
198 223 255
198 223 255
198 223 255
197 222 255
197 222 255
197 222 255
196 222 255
196 222 255
195 221 255
195 221 255
194 221 255
194 221 255
193 220 255
194 220 255
194 221 255
194 221 255
195 221 255
195 221 255
195 221 255
196 222 255
196 222 255
197 222 255
198 223 255
199 223 255
200 224 255
201 224 255
202 225 255
204 226 255
206 227 255
210 229 255
214 231 255
214 231 255
214 231 255
214 231 255
214 231 255
214 231 255
213 231 255
213 231 255
213 231 255
213 231 255
213 231 255
213 231 255
213 231 255
213 231 255
159 179 215
61 97 156
63 99 166
61 97 160
62 98 164
60 96 154
61 96 152
62 98 160
62 98 158
62 98 160
61 97 154
61 97 156
62 98 156
61 97 152
62 98 159
61 96 157
61 96 156
61 97 150
62 97 156
62 98 158
62 98 161
62 98 158
62 98 156
62 98 156
63 99 166
60 95 143
62 98 155
62 97 151
61 97 155
61 97 156
62 97 153
60 95 145
63 98 156
61 97 149
63 99 162
62 98 160
61 97 152
60 96 145
61 97 157
63 99 161
62 98 158
61 97 155
61 97 154
61 97 152
63 99 162
61 96 151
62 97 155
61 96 153
60 95 148
62 98 159
61 97 145
63 98 162
61 97 158
61 97 157
61 97 158
61 96 158
60 96 149
61 97 157
62 97 157
62 97 156
62 98 156
61 95 144
61 96 155
60 95 143
61 96 152
61 95 149
60 95 149
61 96 149
61 96 155
62 98 161
61 96 154
60 95 149
61 96 154
62 98 163
60 95 151
61 97 164
62 98 159
60 95 150
60 94 149
59 92 145
61 95 159
59 92 145
60 94 152
60 94 155
60 94 148
60 94 156
57 89 140
57 89 143
55 86 137
152 172 208
213 231 255
213 231 255
213 231 255
213 231 255
213 231 255
213 231 255
213 231 255
213 231 255
214 231 255
214 231 255
214 231 255
214 231 255
214 231 255
213 231 254
130 133 116
132 129 85
126 125 84
131 129 86
134 134 91
138 137 93
126 126 87
122 121 84
125 126 87
121 122 85
131 131 89
119 119 83
130 130 90
128 127 88
130 130 90
129 129 88
125 126 87
142 142 97
133 133 92
135 134 90
136 136 92
142 141 97
144 144 96
149 148 99
148 147 97
151 149 97
159 157 103
142 141 94
153 151 102
142 141 96
152 151 99
156 153 100
156 153 100
154 152 100
151 148 95
161 157 102
158 155 101
154 151 101
161 158 101
156 153 99
167 164 108
160 157 103
160 157 104
158 155 100
164 160 103
163 159 102
163 159 101
165 161 105
166 162 104
169 165 108
163 159 102
166 162 100
168 163 103
165 162 103
170 164 102
169 164 103
168 164 103
167 163 105
163 159 101
167 162 102
170 165 104
174 168 106
171 166 106
169 164 103
173 167 107
176 171 109
173 168 102
174 169 106
173 168 105
173 167 105
167 161 102
174 168 106
172 167 103
169 165 103
170 164 103
175 168 105
172 166 104
173 168 106
170 165 102
166 162 101
172 167 102
173 167 102
170 165 103
168 163 96
171 166 104
171 166 103
165 160 98
170 165 103
167 162 98
169 164 101
163 157 93
168 163 97
163 158 99
162 157 97
173 167 102
164 160 96
168 162 97
162 158 94
166 161 97
167 162 96
169 163 99
163 158 95
168 163 101
163 159 99
169 163 100
170 165 101
168 162 100
162 157 94
165 159 97
166 161 96
166 160 95
167 161 98
163 158 90
161 156 97
165 159 95
159 154 92
167 161 98
157 152 89
162 156 97
167 160 96
159 154 93
163 157 94
164 158 96
157 151 92
166 160 96
157 152 86
166 160 95
156 150 90
160 155 95
159 153 95
152 147 88
158 153 90
159 155 91
151 146 86
151 147 86
160 154 95
156 150 91
159 153 93
159 153 89
160 154 92
158 152 87
207 228 255
207 227 255
207 227 255
206 227 255
206 227 255
206 227 255
206 227 255
206 227 255
206 227 255
205 227 255
205 227 255
205 227 255
205 227 255
205 226 255
205 226 255
205 226 255
205 226 255
205 226 255
205 226 255
205 226 255
205 226 255
205 227 255
205 227 255
205 227 255
205 227 255
205 227 255
205 227 255
205 227 255
205 227 255
205 227 255
205 227 255
205 227 255
205 227 255
205 227 255
205 227 255
205 227 255
205 227 255
205 227 255
205 227 255
205 227 255
205 227 255
205 227 255
205 227 255
205 227 255
205 227 255
205 227 255
205 227 255
205 227 255
205 227 255
205 227 255
205 227 255
205 227 255
205 227 255
205 227 255
205 226 255
205 226 255
205 226 255
205 226 255
205 226 255
205 226 255
205 226 255
205 226 255
205 226 255
205 226 255
204 226 255
204 226 255
204 226 255
204 226 255
204 226 255
204 226 255
204 226 255
204 226 255
204 226 255
204 226 255
204 226 255
204 226 255
204 226 255
204 226 255
204 226 255
204 226 255
204 226 255
203 226 255
203 226 255
203 226 255
203 226 255
203 226 255
203 225 255
203 225 255
203 225 255
203 225 255
203 225 255
203 225 255
202 225 255
202 225 255
202 225 255
202 225 255
202 225 255
202 225 255
202 225 255
202 225 255
201 225 255
201 225 255
201 224 255
201 224 255
201 224 255
201 224 255
200 224 255
200 224 255
200 224 255
200 224 255
200 224 255
199 223 255
199 223 255
199 223 255
199 223 255
198 223 255
198 223 255
198 223 255
197 222 255
197 222 255
196 222 255
196 222 255
195 221 255
195 221 255
194 221 255
195 221 255
195 221 255
195 221 255
196 222 255
196 222 255
196 222 255
197 222 255
198 223 255
198 223 255
199 223 255
200 224 255
201 224 255
202 225 255
203 225 255
205 226 255
207 228 255
212 230 255
214 231 255
214 231 255
214 231 255
214 231 255
214 231 255
214 231 255
214 231 255
214 231 255
214 231 255
214 231 255
214 231 255
214 231 255
196 215 244
79 110 170
62 98 161
62 98 168
61 96 154
62 98 162
61 96 151
62 98 159
62 98 161
62 97 156
62 98 154
62 98 160
63 99 161
61 97 157
63 99 158
61 97 151
61 97 158
62 97 159
61 97 161
62 98 160
60 96 148
62 98 161
61 97 149
62 98 154
62 97 154
61 97 150
62 97 152
60 95 145
62 98 159
62 98 156
62 98 160
60 95 147
61 96 145
60 96 154
61 97 154
61 97 155
62 98 155
61 97 153
60 95 147
60 96 144
62 98 160
62 97 152
61 97 153
62 98 158
61 97 142
62 98 156
61 96 152
62 97 155
60 96 144
61 96 147
61 97 152
60 95 147
62 98 158
61 97 154
62 97 154
62 98 155
61 97 153
62 97 155
62 97 152
62 98 155
60 95 154
62 97 156
60 95 140
61 96 145
61 98 163
62 97 162
61 95 144
59 94 140
62 97 158
62 97 155
61 96 148
60 95 152
59 93 143
60 95 154
61 96 154
60 95 152
60 94 151
61 95 154
60 95 153
61 95 151
61 96 162
59 92 149
61 95 156
59 93 145
60 95 151
59 93 151
58 91 148
60 94 155
57 89 141
59 92 149
64 94 149
202 220 246
214 231 255
214 231 255
214 231 255
214 231 255
214 231 255
214 231 255
214 231 255
214 231 255
214 231 255
214 231 255
214 231 255
214 231 255
175 182 173
122 120 79
123 121 81
134 131 87
120 119 80
115 116 81
122 122 84
121 122 84
131 131 89
124 124 86
121 121 84
122 122 84
127 128 89
127 127 88
131 130 89
128 127 87
127 129 90
137 136 91
125 126 87
144 143 96
132 132 91
139 139 95
131 130 89
151 150 100
141 140 95
147 146 95
147 145 96
147 146 97
152 150 99
137 135 90
151 149 98
150 148 97
153 150 96
162 158 102
154 152 100
156 153 100
156 153 101
153 150 98
157 155 103
164 160 103
163 158 100
159 156 99
165 162 105
167 163 104
159 156 102
165 161 101
171 166 106
171 166 107
161 157 97
165 161 105
170 164 104
169 164 103
169 165 104
166 162 103
169 165 104
169 165 104
173 169 110
168 164 103
173 168 107
169 165 103
168 164 105
172 168 104
171 166 103
170 165 103
165 160 97
169 163 99
166 161 98
171 165 99
172 166 105
171 166 104
172 167 106
173 167 104
176 169 104
171 165 99
172 166 106
167 162 103
174 168 103
172 167 101
170 165 101
169 164 101
172 167 103
171 166 99
167 162 97
174 169 106
173 167 106
170 165 99
173 166 104
167 160 99
172 167 101
169 164 99
173 167 101
170 165 103
170 165 102
171 165 100
167 162 99
170 165 101
165 160 95
164 160 97
162 158 96
166 160 97
171 166 104
167 161 99
166 161 99
167 162 99
171 165 103
165 160 95
164 160 97
164 159 98
173 166 103
166 160 95
168 163 99
160 156 93
166 160 97
166 160 95
162 157 95
164 158 97
160 155 93
166 159 97
162 157 93
157 151 86
164 158 90
165 159 97
165 159 93
159 154 90
166 160 98
166 160 94
159 153 90
160 154 91
162 156 97
158 153 94
160 155 87
151 145 83
159 154 89
154 149 86
159 153 91
159 154 91
156 150 87
162 155 92
153 149 85
155 150 86
152 146 87
153 149 87
207 228 255
207 228 255
207 228 255
207 228 255
207 228 255
207 227 255
206 227 255
206 227 255
206 227 255
206 227 255
206 227 255
206 227 255
205 227 255
205 227 255
205 227 255
206 227 255
206 227 255
206 227 255
206 227 255
206 227 255
206 227 255
206 227 255
206 227 255
206 227 255
206 227 255
206 227 255
206 227 255
206 227 255
206 227 255
206 227 255
206 227 255
206 227 255
206 227 255
206 227 255
206 227 255
206 227 255
206 227 255
206 227 255
206 227 255
206 227 255
206 227 255
206 227 255
206 227 255
206 227 255
206 227 255
206 227 255
206 227 255
206 227 255
206 227 255
206 227 255
206 227 255
206 227 255
206 227 255
206 227 255
206 227 255
206 227 255
206 227 255
206 227 255
205 227 255
205 227 255
205 227 255
205 227 255
205 227 255
205 227 255
205 227 255
205 227 255
205 227 255
205 227 255
205 227 255
205 227 255
205 227 255
205 227 255
205 226 255
205 226 255
205 226 255
205 226 255
205 226 255
205 226 255
204 226 255
204 226 255
204 226 255
204 226 255
204 226 255
204 226 255
204 226 255
204 226 255
204 226 255
204 226 255
204 226 255
204 226 255
203 226 255
203 226 255
203 226 255
203 226 255
203 226 255
203 225 255
203 225 255
203 225 255
203 225 255
202 225 255
202 225 255
202 225 255
202 225 255
202 225 255
202 225 255
202 225 255
201 225 255
201 224 255
201 224 255
201 224 255
201 224 255
200 224 255
200 224 255
200 224 255
200 224 255
199 224 255
199 223 255
199 223 255
198 223 255
198 223 255
198 223 255
197 222 255
197 222 255
196 222 255
196 222 255
195 221 255
196 222 255
196 222 255
196 222 255
197 222 255
197 222 255
197 222 255
198 223 255
198 223 255
199 223 255
200 224 255
201 224 255
202 225 255
203 225 255
204 226 255
206 227 255
209 229 255
214 231 255
214 232 255
214 232 255
214 232 255
214 232 255
214 232 255
214 232 255
214 232 255
214 231 255
214 231 255
214 231 255
214 231 255
136 157 196
61 97 159
61 97 157
62 98 162
62 97 160
62 98 161
61 97 156
63 99 163
62 98 160
62 98 158
61 97 154
62 97 156
62 98 163
61 97 155
61 96 151
61 97 152
61 97 158
60 96 151
62 98 160
62 98 156
61 97 153
61 96 149
62 98 157
60 95 149
60 95 145
62 98 157
62 97 148
61 97 151
63 98 154
61 96 147
61 97 151
62 98 156
62 98 156
61 97 153
61 96 151
61 97 151
62 98 160
62 97 160
61 96 153
61 97 157
61 96 149
62 98 154
62 98 158
60 96 145
61 97 155
61 97 160
62 98 161
61 97 154
61 96 153
61 97 155
61 96 155
61 97 151
62 97 155
61 97 147
62 97 152
61 96 146
62 97 156
61 96 148
61 97 155
61 96 141
62 97 158
62 98 156
60 96 147
62 97 153
61 97 152
60 95 151
61 97 147
60 95 151
60 95 149
60 95 148
60 94 144
61 96 154
60 94 148
60 95 146
61 96 150
60 95 151
61 97 157
60 94 154
60 94 143
60 94 150
60 94 154
61 96 154
60 95 156
60 94 148
59 92 141
58 91 137
58 92 153
58 91 146
60 94 154
57 90 147
57 88 144
133 152 187
214 231 255
214 231 255
214 231 255
214 231 255
214 232 255
214 232 255
214 232 255
214 232 255
214 232 255
214 232 255
214 232 255
198 212 227
126 124 83
116 114 76
120 119 78
123 123 83
110 111 79
116 118 83
122 123 86
122 123 87
117 119 84
119 120 84
114 116 82
114 116 83
123 124 87
121 121 84
130 132 91
124 124 85
135 135 94
139 138 94
133 134 92
134 133 91
144 144 99
143 141 93
143 142 95
144 143 97
141 140 95
151 148 99
146 144 95
153 150 98
150 148 99
152 150 98
150 148 99
154 152 102
157 153 100
155 152 100
152 149 96
156 153 98
161 157 99
166 163 106
154 152 97
165 161 103
160 157 98
160 157 99
164 160 102
161 158 101
161 157 102
162 158 101
164 160 102
165 160 102
161 158 100
168 164 102
164 161 101
165 161 101
170 164 102
167 163 102
169 165 104
169 164 105
168 164 103
170 164 104
168 162 101
172 166 107
174 168 103
168 162 99
171 167 103
176 170 104
171 166 106
174 168 103
168 162 100
165 161 100
177 171 105
170 164 102
175 169 101
170 165 103
170 164 101
171 167 101
173 168 103
172 168 107
173 168 102
170 164 100
173 167 103
171 166 101
169 164 101
174 168 104
173 166 101
172 166 101
168 163 98
169 163 97
169 165 100
170 165 101
171 166 98
167 161 97
170 164 100
171 165 101
168 162 95
173 167 104
166 160 98
172 165 101
172 166 103
167 161 99
170 165 103
162 157 94
171 164 101
167 162 100
168 163 97
167 161 97
165 159 95
163 157 95
165 160 95
166 161 99
163 158 90
158 153 93
166 160 94
165 159 95
157 151 87
164 159 96
163 158 93
155 149 91
166 160 97
167 161 96
164 160 96
157 151 90
162 157 97
168 161 94
166 160 97
163 158 95
168 161 95
158 152 94
158 153 88
155 149 85
166 160 99
165 160 95
158 153 89
155 149 87
159 154 90
161 155 93
158 152 89
160 155 90
164 157 93
153 148 88
156 152 90
151 146 85
162 156 89
157 151 93
208 228 255
208 228 255
208 228 255
207 228 255
207 228 255
207 228 255
207 228 255
207 228 255
207 227 255
207 227 255
206 227 255
206 227 255
206 227 255
206 227 255
206 227 255
206 227 255
206 227 255
206 227 255
206 227 255
206 227 255
206 227 255
206 227 255
206 227 255
207 227 255
207 227 255
206 227 255
207 227 255
207 227 255
207 227 255
207 227 255
207 227 255
207 227 255
207 227 255
207 227 255
207 227 255
207 227 255
207 227 255
207 227 255
207 227 255
207 227 255
207 227 255
207 227 255
207 227 255
207 227 255
207 227 255
207 227 255
207 227 255
206 227 255
206 227 255
206 227 255
206 227 255
206 227 255
206 227 255
206 227 255
206 227 255
206 227 255
206 227 255
206 227 255
206 227 255
206 227 255
206 227 255
206 227 255
206 227 255
206 227 255
206 227 255
206 227 255
206 227 255
206 227 255
206 227 255
206 227 255
206 227 255
206 227 255
206 227 255
206 227 255
206 227 255
206 227 255
205 227 255
205 227 255
205 227 255
205 227 255
205 227 255
205 227 255
205 227 255
205 227 255
205 226 255
205 226 255
205 226 255
205 226 255
205 226 255
204 226 255
204 226 255
204 226 255
204 226 255
204 226 255
204 226 255
204 226 255
204 226 255
204 226 255
204 226 255
203 226 255
203 226 255
203 226 255
203 225 255
203 225 255
203 225 255
203 225 255
202 225 255
202 225 255
202 225 255
202 225 255
202 225 255
201 225 255
201 225 255
201 224 255
201 224 255
201 224 255
200 224 255
200 224 255
200 224 255
199 224 255
199 223 255
199 223 255
198 223 255
198 223 255
197 222 255
197 222 255
196 222 255
197 222 255
197 222 255
197 222 255
198 223 255
198 223 255
199 223 255
199 223 255
200 224 255
200 224 255
201 224 255
202 225 255
203 225 255
204 226 255
206 227 255
208 228 255
212 230 255
214 232 255
214 232 255
214 232 255
214 232 255
214 232 255
214 232 255
214 232 255
214 232 255
214 232 255
214 232 255
199 217 242
62 98 161
62 98 165
61 96 151
61 98 160
61 97 157
61 96 151
63 99 165
61 96 150
61 97 158
61 97 151
62 98 163
61 97 157
62 98 155
62 98 154
61 96 145
61 96 150
62 98 157
62 97 158
62 99 164
61 98 161
61 96 150
62 98 153
61 96 145
62 98 155
61 96 150
62 97 152
61 97 152
62 98 159
63 98 161
62 98 151
62 98 157
62 98 161
61 97 150
61 97 160
62 97 154
61 97 147
61 97 152
61 97 150
62 98 160
62 97 153
61 97 157
62 97 154
62 97 157
61 96 147
62 98 156
61 97 149
60 95 144
61 97 152
61 95 147
61 96 148
62 97 151
61 96 151
62 97 152
62 97 154
62 97 154
62 97 152
61 96 149
62 97 154
62 98 156
62 98 159
62 97 151
61 96 153
61 96 147
62 97 154
61 96 155
61 96 150
60 95 153
61 97 154
60 95 151
62 97 154
60 95 150
61 95 150
61 97 154
61 95 144
58 92 142
61 96 158
60 95 149
60 95 153
61 96 147
60 95 156
59 92 151
59 93 149
59 93 146
60 93 154
60 94 152
60 94 155
59 92 149
60 95 157
59 93 145
59 92 142
57 89 142
61 89 134
199 216 240
214 232 255
214 232 255
214 232 255
214 232 255
214 232 255
214 232 255
214 232 255
214 232 255
214 232 255
214 231 254
143 146 132
126 123 81
115 114 76
112 112 76
100 101 71
123 123 84
113 113 79
128 129 90
117 118 82
113 114 80
111 113 78
118 120 84
120 120 83
124 124 85
120 121 85
127 128 89
129 128 86
127 128 89
126 126 84
139 138 92
137 136 93
146 145 97
138 138 94
145 145 98
149 147 97
139 138 92
142 140 93
150 148 99
150 149 98
152 150 97
145 144 94
152 148 98
150 148 97
148 145 93
146 143 95
151 149 99
158 155 102
142 142 90
148 146 95
161 157 98
163 159 103
168 163 101
164 160 98
155 153 101
163 159 102
161 158 99
162 158 101
165 160 101
171 166 102
163 159 103
158 155 98
168 162 102
164 160 102
170 164 104
161 157 99
170 166 103
170 165 102
167 164 103
166 162 97
169 164 105
167 162 100
167 162 99
171 166 103
172 167 103
166 161 99
174 168 105
172 166 105
171 167 102
169 164 103
173 168 105
173 167 101
174 168 104
169 163 99
172 167 101
168 163 100
169 165 101
176 170 106
175 169 104
169 164 99
168 163 97
173 167 101
172 167 99
171 166 101
168 162 99
178 171 107
166 161 95
172 168 104
173 168 102
172 167 105
175 168 101
174 168 102
171 165 103
173 167 101
171 165 101
163 158 93
173 167 103
171 166 98
170 165 101
169 163 101
166 160 93
170 164 99
168 162 98
165 160 95
165 159 95
174 168 103
165 160 93
169 163 98
167 162 95
169 163 100
161 155 95
161 155 93
165 160 99
165 160 93
162 156 94
167 162 97
163 157 93
168 162 97
163 157 93
164 159 92
162 156 93
164 158 95
162 157 94
155 150 89
158 154 86
161 154 91
157 152 90
161 156 92
157 152 89
166 160 97
155 149 85
164 158 95
168 161 97
157 152 90
154 149 87
153 148 86
159 154 93
154 148 87
168 162 99
169 163 100
150 144 80
158 152 91
158 151 86
156 151 90
208 228 255
208 228 255
208 228 255
208 228 255
208 228 255
208 228 255
208 228 255
207 228 255
207 228 255
207 228 255
207 228 255
207 228 255
207 228 255
207 228 255
207 228 255
207 228 255
207 228 255
207 228 255
207 228 255
207 228 255
207 228 255
207 228 255
207 228 255
207 228 255
207 228 255
207 228 255
207 228 255
207 228 255
207 228 255
207 228 255
207 228 255
207 228 255
207 228 255
207 228 255
207 228 255
207 228 255
207 228 255
207 228 255
207 228 255
207 228 255
207 228 255
207 228 255
207 228 255
207 228 255
207 228 255
207 228 255
207 228 255
207 228 255
207 228 255
207 228 255
207 228 255
207 228 255
207 228 255
207 228 255
207 228 255
207 228 255
207 228 255
207 228 255
207 228 255
207 228 255
207 228 255
207 228 255
207 228 255
207 228 255
207 228 255
207 227 255
207 227 255
207 227 255
207 227 255
207 227 255
207 227 255
206 227 255
206 227 255
206 227 255
206 227 255
206 227 255
206 227 255
206 227 255
206 227 255
206 227 255
206 227 255
206 227 255
206 227 255
206 227 255
206 227 255
206 227 255
205 227 255
205 227 255
205 227 255
205 227 255
205 227 255
205 227 255
205 227 255
205 227 255
205 226 255
205 226 255
205 226 255
205 226 255
204 226 255
204 226 255
204 226 255
204 226 255
204 226 255
204 226 255
204 226 255
204 226 255
203 226 255
203 226 255
203 225 255
203 225 255
203 225 255
203 225 255
202 225 255
202 225 255
202 225 255
202 225 255
201 225 255
201 224 255
201 224 255
201 224 255
200 224 255
200 224 255
200 224 255
199 223 255
199 223 255
198 223 255
198 223 255
197 222 255
198 223 255
198 223 255
198 223 255
199 223 255
199 223 255
200 224 255
200 224 255
201 224 255
201 225 255
202 225 255
203 225 255
204 226 255
205 227 255
207 228 255
209 229 255
214 231 255
215 232 255
215 232 255
215 232 255
215 232 255
215 232 255
215 232 255
215 232 255
215 232 255
215 232 255
141 162 202
61 97 151
61 97 155
61 97 157
61 97 160
61 97 158
61 96 153
60 95 150
61 96 154
60 96 151
60 96 151
62 97 151
61 96 145
62 98 155
61 96 150
61 97 149
62 97 152
62 98 158
61 97 152
61 96 145
61 97 157
62 98 153
61 97 157
62 97 152
61 97 148
60 96 147
62 97 154
62 97 150
61 97 152
61 97 152
61 97 152
62 98 159
60 96 150
61 96 137
62 97 154
61 96 145
62 97 149
62 98 153
61 96 143
61 97 149
62 97 155
60 95 147
61 96 152
63 99 159
62 97 151
61 96 152
61 97 152
61 96 148
60 95 145
63 99 161
62 97 151
61 97 151
61 97 150
61 96 152
61 96 147
62 97 153
61 96 147
61 97 158
62 97 156
62 97 154
61 97 155
61 97 151
60 95 145
61 97 151
61 97 151
61 96 152
61 96 149
60 95 141
62 97 154
60 95 147
62 97 150
60 95 144
61 97 151
61 96 146
61 96 150
60 95 154
60 93 147
60 94 150
60 95 149
60 95 152
60 94 144
59 93 140
59 93 140
59 94 151
61 94 149
59 92 145
58 91 138
58 90 140
58 90 145
58 91 144
57 88 144
57 88 138
57 89 142
147 165 198
215 232 255
215 232 255
215 232 255
215 232 255
215 232 255
215 232 255
215 232 255
215 232 255
215 232 255
179 190 201
126 122 80
114 114 77
115 114 76
116 116 79
104 105 73
122 123 85
118 117 80
118 118 83
120 122 86
113 115 82
111 113 80
122 122 84
124 125 87
124 126 87
118 119 81
132 132 90
134 134 90
131 131 89
133 133 91
135 135 90
135 136 93
127 128 85
133 132 87
143 142 95
143 141 93
142 141 94
141 141 94
149 147 96
147 145 95
153 150 98
147 145 95
143 140 90
151 150 99
149 147 96
158 155 101
162 159 102
149 146 89
158 154 96
152 149 97
155 152 98
156 153 98
157 154 98
164 160 101
163 158 102
162 158 96
163 160 99
170 165 105
157 153 96
165 162 101
165 160 100
170 165 105
171 165 104
171 166 103
168 164 105
170 164 102
173 167 100
168 164 102
170 165 102
173 168 104
165 161 102
172 167 105
170 166 102
169 164 102
165 161 96
170 165 103
173 167 104
174 168 105
173 166 103
178 171 105
174 169 106
176 170 104
171 165 99
168 164 97
169 163 101
171 166 100
171 165 101
173 167 102
177 170 104
173 168 103
169 163 97
168 163 101
169 164 98
173 168 103
170 164 103
172 166 101
176 169 104
173 166 101
170 165 100
172 167 98
171 165 99
171 165 97
171 164 97
168 162 97
167 162 97
171 166 100
168 163 97
170 165 101
172 166 99
167 162 97
167 161 97
166 161 95
161 156 91
170 163 94
168 162 94
163 158 94
161 156 92
163 158 90
164 159 92
171 164 101
165 160 95
166 160 95
168 162 95
168 162 95
171 165 94
163 159 92
163 159 93
164 158 93
165 158 93
163 158 95
162 158 87
169 164 98
160 154 88
156 152 89
159 154 89
165 160 94
152 147 84
165 160 97
158 153 92
160 154 90
165 160 93
157 152 87
153 148 87
166 160 96
158 152 88
158 153 87
155 150 88
155 151 86
164 158 90
158 153 91
155 150 91
157 150 87
159 154 89
162 155 92
209 229 255
209 229 255
209 229 255
209 228 255
208 228 255
208 228 255
208 228 255
208 228 255
208 228 255
208 228 255
208 228 255
208 228 255
208 228 255
208 228 255
208 228 255
208 228 255
208 228 255
208 228 255
208 228 255
208 228 255
208 228 255
208 228 255
208 228 255
208 228 255
208 228 255
208 228 255
208 228 255
208 228 255
208 228 255
208 228 255
208 228 255
208 228 255
208 228 255
208 228 255
208 228 255
208 228 255
208 228 255
208 228 255
208 228 255
208 228 255
208 228 255
208 228 255
208 228 255
208 228 255
208 228 255
208 228 255
208 228 255
208 228 255
208 228 255
208 228 255
208 228 255
208 228 255
208 228 255
208 228 255
208 228 255
208 228 255
208 228 255
208 228 255
208 228 255
208 228 255
208 228 255
208 228 255
208 228 255
208 228 255
207 228 255
207 228 255
207 228 255
207 228 255
207 228 255
207 228 255
207 228 255
207 228 255
207 228 255
207 228 255
207 228 255
207 228 255
207 228 255
207 228 255
207 228 255
207 228 255
207 227 255
207 227 255
207 227 255
207 227 255
206 227 255
206 227 255
206 227 255
206 227 255
206 227 255
206 227 255
206 227 255
206 227 255
206 227 255
206 227 255
206 227 255
206 227 255
205 227 255
205 227 255
205 227 255
205 227 255
205 227 255
205 227 255
205 226 255
205 226 255
205 226 255
204 226 255
204 226 255
204 226 255
204 226 255
204 226 255
204 226 255
204 226 255
203 226 255
203 226 255
203 225 255
203 225 255
203 225 255
202 225 255
202 225 255
202 225 255
201 225 255
201 224 255
201 224 255
200 224 255
200 224 255
200 224 255
199 223 255
199 223 255
197 221 254
160 185 228
140 166 213
146 172 220
155 180 225
179 203 240
199 222 254
201 225 255
202 225 255
202 225 255
203 226 255
204 226 255
205 227 255
207 227 255
208 228 255
212 230 255
215 232 255
215 232 255
215 232 255
215 232 255
215 232 255
215 232 255
215 232 255
215 232 255
199 217 244
67 101 163
62 98 161
62 98 160
62 98 162
62 97 156
61 97 158
61 97 156
61 97 153
62 98 160
60 95 147
61 97 153
60 96 149
61 97 154
61 97 151
61 97 156
61 97 154
60 95 145
61 96 156
61 97 156
61 96 150
62 97 151
61 97 153
62 97 149
62 97 152
59 94 139
61 96 156
60 96 149
61 96 147
60 95 144
62 97 150
61 97 153
61 96 147
62 97 156
61 97 150
60 95 137
61 96 148
61 96 149
62 98 155
63 98 159
61 96 149
61 96 147
60 96 146
62 98 156
61 96 153
62 98 153
61 96 144
61 96 151
61 97 156
62 97 155
61 97 152
61 97 150
62 97 160
61 96 149
62 97 154
60 96 150
61 96 145
63 98 162
61 96 146
62 98 155
62 97 153
61 96 147
62 98 162
62 98 154
61 96 149
62 97 155
61 96 152
61 96 148
61 95 141
60 95 140
60 94 140
62 98 160
61 96 149
59 93 135
60 94 148
60 95 144
61 96 152
61 96 150
60 95 151
61 95 149
60 94 148
59 93 148
59 93 146
60 94 146
58 92 147
61 96 158
59 92 142
59 91 142
59 92 142
59 93 149
58 91 143
57 90 139
59 92 150
55 86 135
56 83 122
205 222 247
215 232 255
215 232 255
215 232 255
215 232 255
215 232 255
215 232 255
215 232 255
214 231 254
138 139 114
110 109 72
121 120 81
117 116 77
86 88 64
99 102 73
108 110 77
114 115 81
110 113 81
110 112 80
103 105 75
105 107 76
118 120 84
120 122 85
121 122 85
124 125 88
128 128 88
134 133 91
131 132 90
116 118 82
134 134 93
135 135 89
147 145 96
139 139 96
141 140 94
143 142 94
148 146 97
140 139 91
150 147 96
151 148 97
150 147 97
150 147 96
159 156 100
144 142 92
146 144 93
154 151 98
152 149 96
161 157 102
149 147 96
160 156 100
155 152 98
157 154 100
160 156 98
158 154 95
160 157 98
166 161 101
165 161 101
159 156 99
167 163 104
167 162 102
164 160 102
167 161 101
166 161 99
169 164 104
166 161 105
170 165 102
166 162 102
171 166 101
169 164 100
169 164 103
170 165 99
172 167 102
170 165 103
167 162 101
169 164 100
167 162 98
170 164 99
173 167 103
177 171 106
173 169 106
173 168 104
171 166 100
172 167 98
168 162 98
173 167 103
170 164 100
170 164 97
171 166 102
173 167 102
171 166 98
168 163 95
167 161 98
171 166 101
174 167 103
172 166 99
172 167 99
167 161 93
169 163 99
170 164 95
166 161 95
169 164 98
174 168 99
177 171 107
172 167 101
167 162 97
168 163 96
167 162 97
167 163 96
171 164 99
168 162 95
165 160 98
166 161 97
170 164 97
170 164 95
167 161 94
167 161 97
167 162 97
170 164 100
167 162 93
169 163 96
165 160 96
165 160 91
161 156 89
160 154 86
162 157 95
165 158 90
168 162 97
158 153 87
166 160 90
159 154 88
160 155 93
165 159 95
164 157 92
157 152 93
157 152 87
155 151 89
167 161 98
164 157 90
155 149 88
161 155 91
164 157 90
159 155 91
157 150 86
159 153 90
161 155 93
168 160 92
162 157 89
159 153 90
153 149 85
153 147 85
163 158 95
158 151 87
160 154 90
160 155 93
209 229 255
209 229 255
209 229 255
209 229 255
209 229 255
209 229 255
209 229 255
209 229 255
208 228 255
208 228 255
208 228 255
208 228 255
208 228 255
208 228 255
208 228 255
208 228 255
208 228 255
209 228 255
209 228 255
209 228 255
209 229 255
209 229 255
209 229 255
209 229 255
209 229 255
209 229 255
209 229 255
209 229 255
209 229 255
209 229 255
209 229 255
209 229 255
209 229 255
209 229 255
209 229 255
209 229 255
209 229 255
209 229 255
209 229 255
209 229 255
209 229 255
209 229 255
209 229 255
209 229 255
209 229 255
209 229 255
209 229 255
209 229 255
209 229 255
209 229 255
209 229 255
209 229 255
209 228 255
208 228 255
209 228 255
208 228 255
208 228 255
208 228 255
208 228 255
208 228 255
208 228 255
208 228 255
208 228 255
208 228 255
208 228 255
208 228 255
208 228 255
208 228 255
208 228 255
208 228 255
208 228 255
208 228 255
208 228 255
208 228 255
208 228 255
208 228 255
208 228 255
208 228 255
208 228 255
208 228 255
207 228 255
207 228 255
207 228 255
207 228 255
207 228 255
207 228 255
207 228 255
207 228 255
207 228 255
207 228 255
207 228 255
207 227 255
207 227 255
207 227 255
207 227 255
206 227 255
206 227 255
206 227 255
206 227 255
206 227 255
206 227 255
206 227 255
206 227 255
206 227 255
205 227 255
205 227 255
205 227 255
205 227 255
205 226 255
205 226 255
205 226 255
204 226 255
204 226 255
204 226 255
204 226 255
204 226 255
204 226 255
203 226 255
203 226 255
203 225 255
203 225 255
202 225 255
202 225 255
202 225 255
201 225 255
201 224 255
200 224 255
200 224 255
200 224 255
133 159 211
62 98 173
63 100 176
62 99 175
62 99 173
67 102 174
129 155 203
174 197 234
203 225 255
204 226 255
204 226 255
205 227 255
207 227 255
208 228 255
210 229 255
214 232 255
215 232 255
215 232 255
215 232 255
215 232 255
215 232 255
215 232 255
215 232 255
147 167 200
61 97 161
61 97 157
61 97 154
60 96 150
60 96 157
61 96 147
61 97 154
61 97 158
61 97 155
62 97 156
61 97 152
61 96 151
61 96 151
62 97 151
61 96 149
61 96 152
62 98 157
61 97 151
61 96 155
61 97 151
61 97 152
61 97 151
61 97 148
62 97 150
61 96 152
60 95 141
62 97 155
61 96 150
60 96 143
63 99 163
63 98 154
60 95 145
62 97 149
61 97 155
60 96 143
60 96 151
61 97 149
61 97 149
59 94 139
61 96 149
61 96 148
62 97 151
62 97 155
61 96 150
62 98 156
61 96 145
61 97 158
62 98 160
60 95 138
62 97 151
60 95 152
62 97 145
61 97 151
61 96 136
61 96 148
61 96 152
61 96 147
58 93 134
61 96 153
62 97 155
61 97 154
60 95 148
61 97 151
61 97 152
61 96 149
62 97 158
61 96 145
61 95 149
61 96 152
61 96 155
61 96 149
60 95 141
61 96 153
61 95 147
61 96 146
60 95 149
61 95 149
61 96 153
62 97 154
61 95 148
59 93 145
61 96 154
61 96 159
60 94 153
58 90 141
58 91 146
59 92 144
59 92 144
59 91 142
58 91 144
58 90 135
58 90 137
56 88 139
57 88 145
156 173 201
215 232 255
215 232 255
215 232 255
215 232 255
215 232 255
215 232 255
215 232 255
184 194 202
128 125 78
116 115 76
112 112 78
104 106 74
109 109 76
104 105 73
106 108 77
118 119 82
114 116 82
117 118 83
112 114 81
112 113 79
104 106 76
126 127 87
127 128 89
124 124 86
128 128 87
117 118 80
128 127 86
122 122 83
139 139 93
138 137 91
138 138 94
139 138 92
142 140 91
138 138 93
144 141 93
146 144 95
149 147 95
140 139 93
145 143 93
150 148 97
156 153 99
158 155 100
154 150 97
162 159 102
151 148 93
155 152 96
166 161 103
153 150 96
154 151 96
160 157 99
161 158 100
166 162 101
161 158 96
159 156 97
163 159 101
166 162 103
170 165 104
170 166 105
171 165 100
165 160 102
165 161 99
166 161 101
168 164 102
166 162 101
165 161 100
168 164 101
165 160 95
171 166 102
169 165 101
171 165 101
172 166 104
166 162 96
175 169 105
172 168 103
174 168 102
172 167 100
170 165 99
172 166 102
176 170 105
172 166 103
173 167 103
175 169 103
170 165 102
168 162 100
173 167 101
172 167 104
172 166 99
175 169 103
173 167 103
168 163 99
166 160 93
174 168 103
171 165 102
176 170 104
175 169 104
174 168 102
170 164 99
166 161 95
172 166 98
172 166 97
173 167 101
163 158 90
170 165 101
169 164 97
170 164 98
165 160 96
169 163 97
172 165 95
165 159 97
172 165 100
168 162 93
165 160 97
167 161 92
164 158 92
169 162 99
165 160 93
170 163 96
167 161 95
166 161 91
162 156 87
163 157 90
162 156 84
174 166 101
167 161 96
164 157 91
164 159 96
158 152 90
167 161 93
160 154 87
167 161 95
163 157 93
165 158 95
164 159 93
158 152 90
164 159 90
156 151 89
166 159 96
167 160 96
157 152 92
160 154 93
163 156 92
163 158 91
158 153 92
157 152 87
159 153 88
154 148 88
151 145 76
157 150 90
156 151 87
161 155 93
154 149 90
155 148 86
210 229 255
210 229 255
210 229 255
210 229 255
210 229 255
209 229 255
209 229 255
209 229 255
209 229 255
209 229 255
209 229 255
209 229 255
209 229 255
209 229 255
209 229 255
209 229 255
209 229 255
209 229 255
209 229 255
209 229 255
209 229 255
209 229 255
209 229 255
209 229 255
209 229 255
209 229 255
209 229 255
209 229 255
209 229 255
209 229 255
209 229 255
209 229 255
209 229 255
209 229 255
209 229 255
209 229 255
209 229 255
209 229 255
209 229 255
209 229 255
209 229 255
209 229 255
209 229 255
209 229 255
209 229 255
209 229 255
209 229 255
209 229 255
209 229 255
209 229 255
209 229 255
209 229 255
209 229 255
209 229 255
209 229 255
209 229 255
209 229 255
209 229 255
209 229 255
209 229 255
209 229 255
209 229 255
209 229 255
209 229 255
209 229 255
209 229 255
209 229 255
209 229 255
209 229 255
209 229 255
209 229 255
209 229 255
209 229 255
209 228 255
208 228 255
208 228 255
208 228 255
208 228 255
208 228 255
208 228 255
208 228 255
208 228 255
208 228 255
208 228 255
208 228 255
208 228 255
208 228 255
208 228 255
208 228 255
208 228 255
208 228 255
208 228 255
207 228 255
207 228 255
207 228 255
207 228 255
207 228 255
207 228 255
207 228 255
207 228 255
207 228 255
207 227 255
207 227 255
206 227 255
206 227 255
206 227 255
206 227 255
206 227 255
206 227 255
206 227 255
206 227 255
205 227 255
205 227 255
205 227 255
205 227 255
205 226 255
205 226 255
204 226 255
204 226 255
204 226 255
204 226 255
204 226 255
203 226 255
203 225 255
203 225 255
202 225 255
202 225 255
201 225 255
201 224 255
189 212 247
65 101 178
62 98 172
62 99 168
62 99 168
62 98 172
62 98 166
61 98 172
121 147 198
190 212 244
205 226 255
206 227 255
207 227 255
208 228 255
210 229 255
213 231 255
216 232 255
216 232 255
216 232 255
216 232 255
216 232 255
215 232 255
211 228 252
82 112 168
61 97 154
61 97 153
61 97 154
60 96 156
61 97 156
62 97 152
62 97 154
62 98 157
61 97 155
61 96 148
61 97 152
60 95 143
61 96 154
61 96 144
61 96 154
60 95 147
61 96 153
60 95 143
60 95 142
61 96 149
61 96 150
62 97 151
61 96 150
61 96 150
60 95 145
62 97 153
61 96 150
61 97 149
62 97 153
61 97 151
61 96 148
62 98 158
61 96 144
61 96 142
60 95 139
61 96 145
62 98 152
60 95 144
62 98 158
60 96 147
60 96 153
62 97 144
61 97 150
61 96 150
62 98 153
61 96 140
61 97 150
61 96 143
61 96 150
60 95 145
61 96 149
62 97 143
60 95 145
62 98 161
60 95 144
62 97 150
62 97 153
61 96 147
61 96 151
60 95 148
61 97 151
60 95 146
61 96 152
62 97 152
61 97 155
60 94 141
61 96 155
62 97 157
60 95 144
60 95 144
61 96 152
60 95 145
61 96 149
60 94 153
60 94 147
60 94 143
60 95 151
60 93 138
60 94 148
60 94 142
60 95 145
59 93 147
59 93 139
60 93 148
58 92 139
59 92 143
58 92 138
58 91 142
59 92 140
58 91 143
57 90 138
57 89 139
57 89 135
57 87 142
92 115 159
213 230 254
215 232 255
216 232 255
216 232 255
216 232 255
216 232 255
215 232 254
140 141 115
102 102 69
115 114 77
112 113 78
114 115 80
107 107 74
106 107 76
104 107 78
100 103 75
104 105 73
113 114 79
105 108 78
112 114 82
111 114 80
114 116 81
112 114 80
124 124 84
129 130 87
123 124 86
122 123 86
139 138 92
135 134 89
134 134 90
144 143 95
143 141 94
133 132 88
147 145 94
139 137 91
142 140 95
151 149 96
155 152 97
150 148 95
155 152 99
153 150 96
154 151 96
146 143 92
152 150 97
156 153 96
159 155 100
163 160 104
160 157 99
164 159 98
162 158 97
157 155 96
165 160 100
161 158 99
161 158 96
167 162 102
166 161 102
165 161 97
164 159 101
167 162 98
169 164 99
167 162 99
169 164 100
166 161 101
166 161 100
171 165 97
166 162 95
171 164 98
173 167 101
173 167 102
172 166 99
172 167 100
171 165 99
170 164 103
167 162 96
170 165 96
166 162 95
173 167 101
172 166 97
170 165 98
170 165 97
170 164 96
175 169 99
174 169 103
170 165 96
173 167 102
172 165 97
171 165 100
171 165 95
169 164 99
171 165 96
172 167 99
169 163 99
167 161 93
173 167 101
173 167 98
172 167 100
173 167 102
163 159 90
171 165 100
174 168 102
174 167 97
167 162 99
169 163 97
167 161 94
171 164 97
168 164 96
168 161 95
168 163 97
165 160 93
164 159 90
164 159 96
168 162 95
167 161 91
170 163 99
167 162 97
170 163 97
168 163 95
166 160 93
170 164 99
161 155 89
171 163 100
164 158 90
168 162 97
167 161 95
162 157 90
160 154 88
169 163 95
159 154 89
163 157 91
167 160 95
168 161 97
167 161 93
155 150 88
160 154 90
167 161 95
165 159 93
171 164 99
160 155 89
158 152 90
150 144 81
157 152 83
159 153 89
160 155 92
166 160 91
157 151 85
149 144 82
158 153 84
158 152 90
162 156 88
156 150 86
156 151 80
159 153 82
211 230 255
210 230 255
210 229 255
210 229 255
210 229 255
210 229 255
210 229 255
210 229 255
210 229 255
210 229 255
210 229 255
210 229 255
210 229 255
210 229 255
210 229 255
210 229 255
210 229 255
210 229 255
210 229 255
210 229 255
210 229 255
210 229 255
210 229 255
210 229 255
210 229 255
210 229 255
210 229 255
210 229 255
210 229 255
210 229 255
210 229 255
210 229 255
210 229 255
210 229 255
210 229 255
210 229 255
210 229 255
210 229 255
210 229 255
210 229 255
210 229 255
210 229 255
210 229 255
210 229 255
210 229 255
210 229 255
210 229 255
210 229 255
210 229 255
210 229 255
210 229 255
210 229 255
210 229 255
210 229 255
210 229 255
210 229 255
210 229 255
210 229 255
210 229 255
210 229 255
210 229 255
210 229 255
210 229 255
210 229 255
210 229 255
210 229 255
210 229 255
210 229 255
209 229 255
209 229 255
209 229 255
209 229 255
209 229 255
209 229 255
209 229 255
209 229 255
209 229 255
209 229 255
209 229 255
209 229 255
209 229 255
209 229 255
209 229 255
209 229 255
209 229 255
209 229 255
209 229 255
209 229 255
209 228 255
208 228 255
208 228 255
208 228 255
208 228 255
208 228 255
208 228 255
208 228 255
208 228 255
208 228 255
208 228 255
208 228 255
208 228 255
207 228 255
207 228 255
207 228 255
207 228 255
207 228 255
207 228 255
207 228 255
207 227 255
207 227 255
206 227 255
206 227 255
206 227 255
206 227 255
206 227 255
206 227 255
206 227 255
205 227 255
205 227 255
205 227 255
205 226 255
205 226 255
204 226 255
204 226 255
204 226 255
203 226 255
203 225 255
203 225 255
202 225 255
202 225 255
127 152 203
62 98 168
62 99 168
61 97 165
61 98 168
61 97 165
61 98 169
62 99 172
72 106 173
161 184 224
206 227 255
207 228 255
208 228 255
209 229 255
211 230 255
215 232 255
216 233 255
216 233 255
216 233 255
216 232 255
216 232 255
179 197 229
60 96 153
61 97 156
61 97 154
62 98 158
61 96 148
62 98 157
60 96 151
60 95 145
61 97 158
60 95 137
61 97 154
61 97 156
60 96 148
61 96 147
62 97 150
62 97 153
62 97 153
61 96 153
61 96 145
61 96 142
60 96 144
61 97 156
61 96 150
62 97 157
61 96 148
60 95 143
61 96 144
60 95 139
61 97 156
60 96 142
62 97 157
61 96 148
62 97 149
61 97 148
62 98 153
62 97 152
62 97 154
60 95 143
61 97 152
62 97 151
61 96 154
61 96 147
61 96 150
62 97 151
61 97 147
62 97 147
61 96 149
61 97 150
61 96 147
61 96 150
61 96 152
61 97 153
61 96 154
61 96 148
61 96 144
61 96 151
62 97 156
62 98 155
62 97 153
61 97 148
62 97 154
61 96 152
61 95 143
61 96 153
61 96 150
61 96 146
61 96 149
60 94 144
61 95 147
60 95 148
60 96 146
60 95 148
61 95 147
60 94 143
60 95 143
61 96 149
60 94 151
60 93 142
60 93 142
59 94 145
60 94 143
58 92 136
60 94 145
59 91 141
60 94 135
61 95 148
59 93 146
59 93 145
59 92 142
59 93 142
58 91 145
60 93 145
57 88 132
58 90 139
54 84 131
55 85 137
185 202 229
216 232 255
216 232 255
216 233 255
216 233 255
216 233 255
192 204 217
120 118 74
107 107 72
113 112 74
107 108 75
109 110 77
104 106 74
93 95 67
105 106 75
99 102 74
96 99 71
108 111 79
107 110 79
116 117 82
119 121 85
125 126 87
120 122 85
120 119 79
119 121 84
129 130 90
119 120 80
131 131 88
128 129 87
130 130 86
118 118 78
136 136 93
133 133 88
145 143 93
142 140 91
144 143 94
138 138 91
149 146 96
152 151 96
156 152 96
157 153 94
157 155 99
152 150 99
155 151 96
146 144 89
160 156 99
150 148 93
168 163 100
163 158 94
164 160 99
161 157 97
162 159 98
163 159 99
170 164 104
166 162 99
168 163 100
167 162 98
169 165 100
161 157 94
165 161 101
169 164 101
169 165 102
166 160 99
166 161 98
172 166 98
167 162 99
170 165 99
160 157 94
167 162 97
173 168 100
172 166 100
170 164 100
174 167 101
163 159 97
167 162 94
173 168 99
168 163 100
174 168 99
173 168 103
171 165 98
169 164 97
174 168 98
170 166 96
175 168 101
174 168 102
169 164 98
171 165 97
172 166 95
172 165 97
174 167 99
169 163 93
169 163 101
173 167 96
169 163 93
167 162 99
170 164 98
173 167 97
169 163 95
171 166 96
171 165 95
174 167 96
174 167 96
168 163 98
165 160 94
168 163 95
172 166 100
168 162 96
168 162 95
169 162 97
170 163 96
171 164 99
171 165 100
164 159 95
171 164 97
169 163 95
167 162 97
166 159 93
162 156 90
169 163 95
165 159 98
166 160 98
163 157 91
168 161 93
168 162 96
171 165 97
157 150 81
163 157 89
166 160 91
163 157 93
164 157 90
164 159 90
160 154 87
167 161 93
165 160 91
156 150 84
157 151 87
164 157 88
169 162 99
157 151 84
164 158 89
165 159 91
164 159 91
164 158 90
160 154 90
159 153 89
157 151 84
160 154 90
159 153 91
165 157 93
163 156 90
164 156 89
157 152 90
211 230 255
211 230 255
211 230 255
211 230 255
211 230 255
211 230 255
211 230 255
210 229 255
210 229 255
210 229 255
210 230 255
210 230 255
210 230 255
210 230 255
210 230 255
211 230 255
211 230 255
211 230 255
211 230 255
211 230 255
211 230 255
211 230 255
211 230 255
211 230 255
211 230 255
211 230 255
211 230 255
211 230 255
211 230 255
211 230 255
211 230 255
211 230 255
211 230 255
211 230 255
211 230 255
211 230 255
211 230 255
211 230 255
211 230 255
211 230 255
211 230 255
211 230 255
211 230 255
211 230 255
211 230 255
211 230 255
211 230 255
211 230 255
211 230 255
211 230 255
211 230 255
211 230 255
211 230 255
211 230 255
211 230 255
211 230 255
210 230 255
210 230 255
210 230 255
210 230 255
210 229 255
210 229 255
210 229 255
210 229 255
210 229 255
210 229 255
210 229 255
210 229 255
210 229 255
210 229 255
210 229 255
210 229 255
210 229 255
210 229 255
210 229 255
210 229 255
210 229 255
210 229 255
210 229 255
210 229 255
210 229 255
210 229 255
210 229 255
210 229 255
209 229 255
209 229 255
209 229 255
209 229 255
209 229 255
209 229 255
209 229 255
209 229 255
209 229 255
209 229 255
209 229 255
209 229 255
209 229 255
209 229 255
209 229 255
209 228 255
208 228 255
208 228 255
208 228 255
208 228 255
208 228 255
208 228 255
208 228 255
208 228 255
208 228 255
208 228 255
207 228 255
207 228 255
207 228 255
207 228 255
207 228 255
207 228 255
207 227 255
206 227 255
206 227 255
206 227 255
206 227 255
206 227 255
205 227 255
205 227 255
205 227 255
205 226 255
204 226 255
204 226 255
204 226 255
203 226 255
186 208 243
61 98 169
60 97 161
62 98 163
62 98 169
60 96 158
61 97 167
61 97 163
60 96 157
61 97 166
152 175 217
207 228 255
208 228 255
209 229 255
211 230 255
214 231 255
216 233 255
216 233 255
216 233 255
216 233 255
216 233 255
135 157 196
60 96 147
60 96 152
60 96 144
60 95 141
60 96 149
61 97 155
61 97 150
62 97 153
61 97 157
60 95 152
62 97 157
61 97 153
61 96 149
60 96 151
61 96 151
61 96 152
61 96 152
61 97 149
61 96 153
61 97 149
62 98 154
60 95 142
62 98 154
60 96 144
61 97 147
61 97 152
61 96 144
61 97 151
61 96 143
59 93 135
61 96 144
60 95 144
61 96 145
61 97 148
62 97 147
62 98 159
58 93 137
62 97 149
60 94 141
61 97 150
62 97 156
61 96 143
61 97 149
61 96 150
62 97 153
61 97 150
61 97 154
60 95 142
61 97 145
62 98 155
62 97 151
61 96 144
61 96 151
61 97 153
61 97 152
60 95 139
61 96 142
60 95 138
59 94 141
61 96 150
61 97 153
60 95 143
60 95 145
61 97 154
60 95 144
61 96 148
62 98 160
59 94 134
61 96 152
60 95 144
60 95 140
60 96 145
59 93 146
60 95 146
61 95 150
60 94 140
60 95 144
59 93 139
60 95 147
59 93 138
59 93 143
59 93 144
59 93 140
58 91 140
59 92 139
59 92 141
58 91 141
59 93 145
60 92 140
57 89 135
59 91 141
55 86 130
58 90 147
56 87 140
57 87 130
56 88 145
126 144 175
216 233 255
216 233 255
216 233 255
216 233 255
216 233 255
148 154 146
105 103 66
107 107 73
109 110 77
103 103 72
95 98 69
106 107 74
96 99 70
96 99 72
109 111 78
108 110 77
98 102 74
99 102 72
112 114 81
105 107 75
106 108 75
112 115 79
121 122 84
125 126 85
126 127 88
126 126 86
117 120 80
135 134 90
132 133 91
135 135 90
143 142 92
140 139 89
145 143 93
144 144 95
134 134 86
139 138 86
147 144 95
143 142 92
147 144 89
138 137 85
152 149 95
151 148 93
154 151 94
155 151 95
151 149 94
154 151 97
157 154 95
161 158 99
165 160 101
158 154 96
162 157 94
167 162 100
159 155 98
161 158 95
168 163 98
160 157 100
168 163 96
166 161 95
167 162 100
161 157 95
172 166 101
167 162 94
167 163 101
171 166 102
166 162 97
170 164 100
169 164 101
173 167 103
169 165 98
169 164 98
170 165 103
174 167 101
168 164 99
168 163 96
172 167 97
172 165 100
172 166 93
173 167 99
174 169 100
171 165 94
168 163 96
173 167 98
171 166 98
175 168 101
175 168 101
169 163 96
171 165 97
168 162 91
173 167 100
170 164 96
168 163 92
173 167 99
175 169 101
174 167 95
170 164 97
170 164 97
170 165 99
176 169 100
170 165 98
165 159 90
171 165 99
167 161 99
169 163 97
169 162 95
169 162 93
173 166 99
170 163 98
176 169 101
170 164 95
169 163 93
171 165 101
166 160 94
170 164 99
165 159 88
170 164 97
169 163 95
169 163 91
163 157 88
169 163 93
165 159 89
163 158 93
168 162 98
167 161 95
162 156 90
162 157 92
157 152 80
164 159 96
169 162 94
161 156 90
166 158 95
168 161 94
163 158 92
165 159 92
160 155 84
167 161 92
167 160 91
161 155 88
163 156 86
165 158 95
166 159 91
151 146 80
155 150 85
159 153 87
157 152 89
158 153 93
151 146 81
153 148 81
160 154 89
152 148 84
163 157 89
156 150 89
212 230 255
212 230 255
212 230 255
211 230 255
211 230 255
211 230 255
211 230 255
211 230 255
211 230 255
211 230 255
211 230 255
211 230 255
211 230 255
211 230 255
211 230 255
211 230 255
211 230 255
211 230 255
211 230 255
211 230 255
211 230 255
211 230 255
211 230 255
211 230 255
211 230 255
211 230 255
211 230 255
211 230 255
211 230 255
211 230 255
211 230 255
211 230 255
211 230 255
211 230 255
211 230 255
211 230 255
211 230 255
211 230 255
211 230 255
211 230 255
211 230 255
211 230 255
211 230 255
211 230 255
211 230 255
211 230 255
211 230 255
211 230 255
211 230 255
211 230 255
211 230 255
211 230 255
211 230 255
211 230 255
211 230 255
211 230 255
211 230 255
211 230 255
211 230 255
211 230 255
211 230 255
211 230 255
211 230 255
211 230 255
211 230 255
211 230 255
211 230 255
211 230 255
211 230 255
211 230 255
211 230 255
211 230 255
211 230 255
211 230 255
211 230 255
211 230 255
211 230 255
210 230 255
210 230 255
210 230 255
210 230 255
210 229 255
210 229 255
210 229 255
210 229 255
210 229 255
210 229 255
210 229 255
210 229 255
210 229 255
210 229 255
210 229 255
210 229 255
210 229 255
210 229 255
210 229 255
210 229 255
209 229 255
209 229 255
209 229 255
209 229 255
209 229 255
209 229 255
209 229 255
209 229 255
209 229 255
209 229 255
209 228 255
209 228 255
208 228 255
208 228 255
208 228 255
208 228 255
208 228 255
208 228 255
208 228 255
208 228 255
207 228 255
207 228 255
207 228 255
207 228 255
207 227 255
206 227 255
206 227 255
206 227 255
206 227 255
205 227 255
205 227 255
205 226 255
204 226 255
204 226 255
103 130 182
61 97 162
61 97 166
61 98 163
61 97 161
61 98 166
61 97 166
61 97 165
60 97 164
60 97 165
148 170 212
209 228 255
210 229 255
211 230 255
213 231 255
216 233 255
216 233 255
216 233 255
216 233 255
209 226 251
67 100 152
60 95 149
61 96 151
60 95 147
59 94 140
61 97 151
61 97 150
60 95 136
61 97 153
60 95 147
60 95 142
61 97 147
61 97 152
61 96 144
61 97 152
60 95 149
61 96 143
61 97 152
61 96 148
61 96 149
61 96 147
62 97 151
62 97 153
60 96 151
61 97 149
62 98 151
62 97 158
61 97 150
60 95 131
61 97 152
61 96 145
61 96 145
61 97 153
62 97 154
62 97 151
60 95 139
61 97 153
62 98 155
62 97 154
61 96 145
60 96 150
60 95 148
60 95 139
61 97 149
61 96 150
62 98 153
60 96 140
61 96 142
61 96 145
60 96 142
60 96 145
61 95 142
61 96 144
61 96 148
61 96 150
60 95 144
59 94 141
60 95 145
61 96 155
61 96 150
60 95 147
60 95 146
60 95 147
61 96 145
60 95 140
60 95 143
60 95 145
60 95 145
60 95 147
62 97 149
61 95 148
60 95 145
58 92 137
61 96 154
60 94 143
60 95 142
60 95 148
59 94 147
61 95 144
61 95 147
61 96 154
60 95 148
60 94 139
60 93 141
60 95 147
60 94 148
62 97 157
59 92 145
58 91 138
58 91 146
58 90 134
59 91 138
57 89 131
55 86 130
57 88 130
57 89 140
53 84 125
68 90 126
211 227 250
216 233 255
216 233 255
216 233 255
194 208 224
112 110 71
104 103 68
110 109 72
109 108 73
94 96 68
100 103 73
95 99 72
97 99 71
101 104 75
90 94 68
100 103 72
93 97 72
115 115 78
100 103 70
118 119 84
109 111 79
122 123 83
122 122 84
129 130 88
120 120 80
114 115 78
133 132 89
127 127 78
140 138 90
133 133 87
140 140 89
134 134 88
146 145 95
150 148 95
139 137 85
139 137 90
138 136 87
141 139 92
145 143 88
148 146 92
155 152 97
155 151 91
159 156 97
165 161 100
158 154 93
157 154 99
161 156 96
170 164 101
158 155 99
159 156 93
155 151 91
163 158 96
156 153 91
170 165 100
160 156 95
157 153 95
160 157 97
169 163 97
165 161 97
170 164 101
168 162 97
168 163 99
168 162 95
170 165 96
166 162 94
175 169 101
168 163 98
172 166 100
169 165 99
169 164 98
170 165 95
171 166 98
170 166 98
172 167 95
166 162 97
174 167 100
171 166 94
174 168 100
171 166 97
173 168 98
173 167 96
171 166 95
173 166 98
173 167 101
168 162 93
174 167 98
169 162 93
170 165 95
171 165 99
176 169 102
171 166 95
170 164 94
171 166 96
171 164 96
168 162 95
175 167 97
171 165 93
169 163 95
174 167 97
175 168 101
176 169 101
167 161 90
166 160 90
169 164 90
169 162 96
165 160 95
166 160 94
170 163 93
170 165 96
164 158 89
170 164 96
166 160 88
167 160 91
170 163 93
172 166 96
170 164 99
173 166 97
169 162 94
166 160 93
169 163 97
165 160 90
159 154 81
166 160 93
171 165 93
165 159 92
163 158 90
162 157 89
168 162 96
167 160 95
167 161 94
162 157 87
157 152 87
163 157 94
168 161 95
164 157 93
163 157 89
162 157 87
165 158 91
156 150 84
158 151 88
160 155 85
161 155 84
161 156 87
157 152 87
160 154 87
159 154 89
164 159 87
156 150 86
155 149 84
155 150 87
152 147 80
212 231 255
212 231 255
212 230 255
212 230 255
212 230 255
212 230 255
212 230 255
212 230 255
212 230 255
212 230 255
212 230 255
212 230 255
212 230 255
212 230 255
212 230 255
212 230 255
212 230 255
212 230 255
212 230 255
212 230 255
212 230 255
212 230 255
212 230 255
212 230 255
212 230 255
212 230 255
212 230 255
212 230 255
212 230 255
212 230 255
212 230 255
212 230 255
212 230 255
212 230 255
212 230 255
212 230 255
212 230 255
212 230 255
212 230 255
212 230 255
212 230 255
212 230 255
212 230 255
212 230 255
212 230 255
212 230 255
212 230 255
212 230 255
212 230 255
212 230 255
212 230 255
212 230 255
212 230 255
212 230 255
212 230 255
212 230 255
212 230 255
212 230 255
212 230 255
212 230 255
212 230 255
212 230 255
212 230 255
212 230 255
212 230 255
212 230 255
212 230 255
212 230 255
212 230 255
212 230 255
211 230 255
211 230 255
211 230 255
211 230 255
211 230 255
211 230 255
211 230 255
211 230 255
211 230 255
211 230 255
211 230 255
211 230 255
211 230 255
211 230 255
211 230 255
211 230 255
211 230 255
211 230 255
211 230 255
211 230 255
211 230 255
211 230 255
211 230 255
210 230 255
210 230 255
210 229 255
210 229 255
210 229 255
210 229 255
210 229 255
210 229 255
210 229 255
210 229 255
210 229 255
210 229 255
210 229 255
210 229 255
209 229 255
209 229 255
209 229 255
209 229 255
209 229 255
209 229 255
209 229 255
209 229 255
209 229 255
209 228 255
208 228 255
208 228 255
208 228 255
208 228 255
208 228 255
208 228 255
207 228 255
207 228 255
207 228 255
207 227 255
206 227 255
206 227 255
206 227 255
205 227 255
174 196 232
61 97 162
60 97 160
61 97 165
61 97 165
60 96 159
61 98 162
62 98 165
60 96 163
61 97 166
61 97 168
165 186 221
210 229 255
211 230 255
213 231 255
215 232 255
217 233 255
217 233 255
217 233 255
177 195 223
60 95 152
61 97 159
61 97 156
60 95 145
60 96 153
60 95 144
61 96 151
61 96 151
61 96 149
61 97 152
61 97 152
60 95 143
62 98 155
62 97 150
62 97 152
61 97 157
61 96 151
62 97 149
62 97 151
61 96 144
60 95 147
60 95 134
61 96 148
61 97 153
63 98 159
60 96 143
60 95 140
60 96 150
61 96 153
61 97 149
60 95 135
61 96 145
61 97 150
60 95 140
60 96 140
61 96 144
59 94 137
61 97 155
60 96 149
60 96 149
61 97 148
61 96 142
60 95 147
60 95 147
61 97 148
60 95 141
61 96 152
61 97 148
62 98 153
62 98 152
60 95 143
62 97 148
63 99 160
60 96 150
60 95 141
61 96 150
60 95 139
62 97 152
61 96 151
60 95 142
60 95 149
61 96 147
61 97 151
61 95 147
61 97 152
61 95 143
61 96 151
61 96 153
61 96 148
60 95 147
61 96 147
62 96 149
60 94 142
60 95 140
60 95 149
61 96 148
61 96 142
62 97 155
60 94 144
60 94 148
61 96 148
61 96 149
60 94 142
60 94 150
58 91 141
60 94 144
58 91 133
59 91 143
58 90 136
59 92 139
59 92 149
57 89 126
58 90 139
56 88 134
57 89 132
56 86 131
56 86 128
52 80 125
177 194 220
217 233 255
217 233 255
217 233 255
174 184 188
114 112 70
102 103 69
88 89 63
84 87 65
95 97 68
97 99 71
96 99 70
91 94 68
84 87 63
103 106 76
94 98 71
116 119 82
106 108 74
104 105 72
107 109 76
102 105 73
110 113 80
124 125 81
130 130 86
128 128 85
126 126 82
126 126 86
126 127 84
129 129 81
138 137 85
127 127 81
142 140 86
144 143 92
142 141 88
138 137 89
148 146 93
157 153 97
152 149 95
145 143 90
151 149 95
142 140 89
150 148 95
161 156 96
152 149 94
150 147 91
159 156 94
155 152 95
163 158 93
158 154 94
161 156 95
162 158 96
162 159 97
165 161 97
163 159 94
169 163 99
165 161 97
160 156 95
171 165 102
170 165 101
165 161 98
167 162 100
164 160 92
171 166 101
172 166 102
168 163 97
166 161 98
170 164 94
176 170 103
172 167 96
169 163 97
170 165 96
167 161 92
167 161 89
171 166 97
173 167 99
171 165 99
167 162 92
171 165 98
171 167 98
169 164 90
168 162 95
169 164 90
169 164 92
166 160 93
172 166 95
171 165 96
175 168 101
174 168 97
169 163 95
174 168 100
172 166 97
170 165 93
171 165 91
170 164 98
171 166 96
171 165 96
169 164 95
169 163 85
172 165 99
169 163 94
172 166 95
174 168 97
167 162 95
169 164 96
175 168 97
170 164 96
167 160 90
169 163 92
169 163 90
167 161 89
171 164 96
167 161 89
171 164 95
169 162 94
170 163 97
172 165 98
171 164 96
173 167 97
166 161 91
167 160 90
164 159 90
164 158 86
171 164 98
162 157 88
165 159 88
162 157 92
162 157 90
166 160 94
159 154 86
166 159 91
165 159 91
165 159 93
162 157 87
163 158 89
166 159 87
165 160 92
162 156 91
159 153 85
164 157 93
164 159 90
154 148 83
160 154 84
163 156 90
157 153 86
159 152 85
163 157 92
164 157 90
165 158 91
166 159 90
163 156 87
157 151 88
213 231 255
213 231 255
213 231 255
213 231 255
213 231 255
212 231 255
212 231 255
212 231 255
212 231 255
212 231 255
212 231 255
212 231 255
212 231 255
213 231 255
213 231 255
213 231 255
213 231 255
213 231 255
213 231 255
213 231 255
213 231 255
213 231 255
213 231 255
213 231 255
213 231 255
213 231 255
213 231 255
213 231 255
213 231 255
213 231 255
213 231 255
213 231 255
213 231 255
213 231 255
213 231 255
213 231 255
213 231 255
213 231 255
213 231 255
213 231 255
213 231 255
213 231 255
213 231 255
213 231 255
213 231 255
213 231 255
213 231 255
213 231 255
213 231 255
213 231 255
213 231 255
213 231 255
213 231 255
213 231 255
213 231 255
212 231 255
212 231 255
212 231 255
212 231 255
212 231 255
212 231 255
212 231 255
212 231 255
212 231 255
212 231 255
212 231 255
212 231 255
212 231 255
212 230 255
212 230 255
212 230 255
212 230 255
212 230 255
212 230 255
212 230 255
212 230 255
212 230 255
212 230 255
212 230 255
212 230 255
212 230 255
212 230 255
212 230 255
212 230 255
212 230 255
212 230 255
212 230 255
212 230 255
211 230 255
211 230 255
211 230 255
211 230 255
211 230 255
211 230 255
211 230 255
211 230 255
211 230 255
211 230 255
211 230 255
211 230 255
211 230 255
211 230 255
211 230 255
211 230 255
211 230 255
210 230 255
210 230 255
210 229 255
210 229 255
210 229 255
210 229 255
210 229 255
210 229 255
210 229 255
210 229 255
210 229 255
209 229 255
209 229 255
209 229 255
209 229 255
209 229 255
209 229 255
209 228 255
208 228 255
208 228 255
208 228 255
208 228 255
207 228 255
207 228 255
207 228 255
207 227 255
201 223 252
71 105 167
61 97 159
62 98 166
61 97 162
62 98 164
61 97 164
60 96 163
60 96 161
59 94 153
61 97 165
70 104 171
193 213 244
211 230 255
212 231 255
215 232 255
217 233 255
217 233 255
217 233 255
146 166 200
61 96 150
60 95 147
62 98 157
61 96 150
61 97 150
61 96 147
60 96 139
61 97 147
60 96 141
61 96 154
61 96 148
61 96 147
62 97 148
60 95 144
62 98 161
61 96 142
62 97 153
61 97 153
61 96 152
61 97 148
61 97 154
61 97 144
62 97 151
60 96 140
62 97 154
62 97 145
60 95 137
62 97 144
61 96 145
60 95 139
61 96 147
61 97 150
60 95 137
60 95 134
61 96 150
60 95 136
61 96 142
62 97 151
61 97 149
61 96 141
61 97 152
61 97 149
60 95 139
60 95 143
62 97 153
61 96 145
61 96 150
60 95 141
61 96 141
61 96 144
59 93 130
60 95 138
60 95 136
60 96 143
61 97 149
62 97 153
60 95 147
61 96 145
60 96 149
60 95 142
60 95 141
61 95 139
61 96 148
61 96 147
61 96 148
62 97 152
61 95 145
60 95 141
60 95 140
61 97 151
61 96 151
60 95 142
61 96 147
61 95 142
60 95 137
60 95 145
61 95 145
60 94 147
59 93 141
60 94 148
59 93 135
59 93 145
60 94 149
60 93 139
59 94 149
59 92 140
59 93 145
59 92 142
59 93 148
58 90 140
58 91 140
57 89 135
59 93 144
59 91 141
56 86 133
57 88 129
55 85 134
55 84 125
140 157 183
217 233 255
217 233 255
217 233 255
134 136 115
106 104 69
90 90 61
88 89 62
95 95 62
88 90 64
80 83 61
95 99 72
94 99 74
92 95 66
96 99 72
103 107 76
110 113 81
108 109 75
94 97 68
110 113 77
120 122 84
112 115 78
111 114 81
117 118 79
129 129 86
128 129 88
120 120 80
133 132 86
128 127 82
140 138 90
142 140 92
133 133 83
140 138 85
135 134 82
130 131 86
134 134 83
146 144 91
145 143 90
152 149 92
139 138 87
151 148 90
148 147 90
147 144 94
157 153 95
156 153 93
155 153 99
159 155 94
159 156 98
160 155 95
154 151 93
161 157 96
166 162 96
158 155 93
161 156 94
163 159 92
165 161 98
166 161 97
168 163 98
168 163 98
162 158 94
165 161 98
170 164 97
169 165 100
174 167 97
166 161 96
170 164 95
168 163 98
171 165 100
170 165 94
166 162 93
169 163 95
174 168 101
173 167 99
173 167 98
173 167 97
173 167 96
170 164 92
173 167 101
172 166 97
175 169 102
174 167 97
172 166 95
169 164 93
175 169 101
173 166 97
170 164 95
176 169 100
169 164 97
169 164 95
170 164 98
168 162 95
166 160 93
174 167 99
176 170 99
170 163 95
164 159 90
171 165 98
175 168 101
169 163 90
171 165 96
169 163 96
168 162 95
168 163 95
173 167 98
170 163 95
174 166 98
169 163 95
168 163 94
165 159 88
168 162 92
173 166 93
167 160 88
169 162 93
168 162 87
169 162 90
163 156 85
161 156 86
168 162 93
166 160 84
168 161 93
167 162 94
166 160 89
168 162 93
162 156 92
170 163 90
169 162 97
167 161 95
169 162 90
161 155 84
167 161 91
166 160 95
167 161 94
163 158 87
168 162 91
161 155 85
167 161 95
166 159 90
164 158 90
156 150 79
164 158 93
160 155 88
156 151 80
163 158 90
157 151 90
164 158 91
160 154 87
160 154 84
161 156 85
158 152 92
158 152 83
154 150 80
213 231 255
213 231 255
213 231 255
213 231 255
213 231 255
213 231 255
213 231 255
213 231 255
213 231 255
213 231 255
213 231 255
213 231 255
213 231 255
213 231 255
213 231 255
213 231 255
213 231 255
213 231 255
213 231 255
213 231 255
213 231 255
213 231 255
213 231 255
213 231 255
213 231 255
213 231 255
213 231 255
213 231 255
213 231 255
213 231 255
213 231 255
213 231 255
213 231 255
213 231 255
213 231 255
213 231 255
213 231 255
213 231 255
213 231 255
213 231 255
213 231 255
213 231 255
213 231 255
213 231 255
213 231 255
213 231 255
213 231 255
213 231 255
213 231 255
213 231 255
213 231 255
213 231 255
213 231 255
213 231 255
213 231 255
213 231 255
213 231 255
213 231 255
213 231 255
213 231 255
213 231 255
213 231 255
213 231 255
213 231 255
213 231 255
213 231 255
213 231 255
213 231 255
213 231 255
213 231 255
213 231 255
213 231 255
213 231 255
213 231 255
213 231 255
213 231 255
213 231 255
213 231 255
213 231 255
213 231 255
213 231 255
212 231 255
212 231 255
212 231 255
212 231 255
212 231 255
212 231 255
212 231 255
212 231 255
212 231 255
212 230 255
212 230 255
212 230 255
212 230 255
212 230 255
212 230 255
212 230 255
212 230 255
212 230 255
212 230 255
212 230 255
212 230 255
211 230 255
211 230 255
211 230 255
211 230 255
211 230 255
211 230 255
211 230 255
211 230 255
211 230 255
211 230 255
211 230 255
211 230 255
211 230 255
210 230 255
210 229 255
210 229 255
210 229 255
210 229 255
210 229 255
210 229 255
209 229 255
209 229 255
209 229 255
209 229 255
209 229 255
209 228 255
208 228 255
208 228 255
208 228 255
207 228 255
107 134 185
60 96 154
60 96 155
61 97 159
61 97 159
58 94 152
60 96 155
60 96 152
60 96 151
61 97 165
59 94 156
105 131 180
209 227 254
213 231 255
214 232 255
217 233 255
217 233 255
217 233 255
98 123 166
60 95 148
62 97 150
61 97 150
60 95 144
61 96 144
62 98 153
61 97 150
60 95 143
60 95 143
60 95 145
61 96 144
60 95 142
61 96 148
60 96 145
61 96 144
61 96 142
61 97 150
62 97 150
62 97 150
61 97 148
60 95 143
60 95 134
61 96 141
61 96 150
62 97 151
60 96 147
60 95 143
62 97 154
61 96 145
61 97 152
61 96 147
59 94 143
61 96 152
61 97 144
62 97 152
61 96 148
60 95 143
62 97 144
61 96 151
62 98 153
62 97 156
61 96 147
60 95 140
61 97 142
60 95 142
62 97 143
61 96 145
62 98 153
61 96 141
60 95 139
60 95 140
61 96 147
60 96 143
61 96 142
60 95 141
61 96 144
60 95 137
61 96 147
60 94 136
60 95 139
60 95 140
60 95 143
60 95 145
60 95 148
62 97 150
61 96 149
61 96 141
60 95 147
60 94 134
61 96 146
61 96 147
61 96 148
61 96 148
61 95 143
61 95 146
60 95 148
59 92 130
60 95 148
61 95 142
59 93 140
60 94 140
59 92 142
59 92 136
60 94 147
59 92 134
59 93 137
59 92 136
60 94 143
59 93 142
59 92 143
58 90 139
59 91 141
56 87 127
58 89 131
56 88 135
55 85 128
54 84 116
54 84 133
77 99 132
217 233 255
217 233 255
198 211 227
117 115 76
105 105 71
106 106 70
101 101 69
86 89 62
77 81 60
86 89 63
85 88 63
80 84 61
102 104 72
94 96 67
85 89 63
79 84 61
111 112 78
111 113 79
95 99 70
102 102 68
106 108 72
116 116 75
117 117 74
117 118 80
123 123 83
123 123 84
134 133 86
127 128 85
135 134 86
125 126 83
143 141 87
134 134 87
132 131 82
150 148 96
149 148 93
147 145 91
149 147 91
146 144 93
142 140 89
154 151 98
159 155 96
155 151 94
151 147 89
155 152 95
153 150 86
155 151 90
153 150 89
156 153 93
161 157 94
154 151 89
162 157 95
164 159 96
163 158 93
163 158 95
164 160 93
161 157 93
157 153 89
164 159 89
171 165 100
170 164 95
174 168 102
171 166 99
170 165 100
168 163 94
169 163 95
168 163 94
172 165 99
171 165 100
170 164 97
172 166 95
161 158 90
172 166 98
173 168 101
172 166 98
172 166 95
173 167 96
173 168 96
166 160 89
173 167 99
170 163 91
172 165 94
173 167 97
170 164 98
172 166 96
173 167 99
171 165 93
171 165 96
172 166 95
168 163 95
173 167 98
171 165 96
170 164 94
169 164 93
169 164 95
170 164 94
170 164 94
170 164 92
173 166 98
170 163 88
168 163 97
168 162 88
172 165 92
173 167 98
170 163 92
165 160 90
166 160 90
168 162 90
170 164 97
163 158 93
169 162 90
167 161 87
169 163 95
162 157 88
171 165 95
168 162 92
164 158 86
164 158 85
162 157 85
160 155 89
161 155 89
168 161 93
169 162 93
163 156 87
164 158 87
166 159 92
163 157 90
166 160 95
166 160 91
152 147 78
164 158 90
167 160 93
159 153 87
168 161 91
156 151 87
161 155 86
161 155 87
160 154 87
159 154 88
159 153 84
159 153 87
157 152 84
161 155 83
159 153 87
165 158 92
163 157 85
149 144 80
159 153 83
154 148 83
157 151 81
162 156 91
214 232 255
214 231 255
214 231 255
214 231 255
214 231 255
214 231 255
214 231 255
214 231 255
214 231 255
214 231 255
214 231 255
214 231 255
214 231 255
214 231 255
214 231 255
214 231 255
214 231 255
214 231 255
214 231 255
214 231 255
214 231 255
214 231 255
214 231 255
214 231 255
214 231 255
214 231 255
214 231 255
214 231 255
214 231 255
214 231 255
214 231 255
214 231 255
214 231 255
214 231 255
214 231 255
214 231 255
214 231 255
214 231 255
214 231 255
214 231 255
214 231 255
214 231 255
214 231 255
214 231 255
214 231 255
214 231 255
214 231 255
214 231 255
214 231 255
214 231 255
214 231 255
214 231 255
214 231 255
214 231 255
214 231 255
214 231 255
214 231 255
214 231 255
214 231 255
214 231 255
214 231 255
214 231 255
214 231 255
214 231 255
214 231 255
214 231 255
214 231 255
214 231 255
214 231 255
214 231 255
213 231 255
214 231 255
213 231 255
213 231 255
213 231 255
213 231 255
213 231 255
213 231 255
213 231 255
213 231 255
213 231 255
213 231 255
213 231 255
213 231 255
213 231 255
213 231 255
213 231 255
213 231 255
213 231 255
213 231 255
213 231 255
213 231 255
213 231 255
213 231 255
213 231 255
213 231 255
213 231 255
213 231 255
213 231 255
212 231 255
212 231 255
212 231 255
212 231 255
212 230 255
212 230 255
212 230 255
212 230 255
212 230 255
212 230 255
212 230 255
212 230 255
212 230 255
212 230 255
211 230 255
211 230 255
211 230 255
211 230 255
211 230 255
211 230 255
211 230 255
211 230 255
211 230 255
210 230 255
210 229 255
210 229 255
210 229 255
210 229 255
210 229 255
209 229 255
209 229 255
209 229 255
209 229 255
156 177 212
59 95 160
61 97 161
60 95 156
61 97 166
59 95 149
60 95 157
61 97 163
59 95 155
59 94 159
60 96 159
60 96 162
148 169 205
213 231 255
214 232 255
217 233 255
218 233 255
208 224 248
59 94 148
60 96 151
60 95 147
61 96 149
60 94 142
62 97 151
62 97 152
61 96 144
62 97 153
59 94 140
60 95 141
60 96 144
61 97 151
60 96 151
60 94 141
60 95 143
60 95 135
62 97 151
60 94 136
60 95 150
61 96 144
61 96 139
61 96 137
61 96 144
61 96 151
61 96 145
60 96 151
60 96 142
60 94 128
61 96 148
61 97 152
61 96 149
62 97 149
62 97 148
60 95 144
61 96 144
61 96 145
60 96 140
59 94 141
59 94 137
61 96 141
61 97 148
60 95 136
62 97 152
60 95 139
61 96 145
61 96 152
61 96 147
61 96 142
60 95 142
60 95 143
60 95 142
60 95 139
60 95 135
62 98 161
61 96 141
61 96 144
60 95 137
61 97 153
60 94 134
60 95 142
61 95 140
61 96 144
61 96 145
59 94 139
61 96 147
61 96 144
61 95 139
60 94 139
60 94 142
60 95 142
60 95 137
59 93 139
61 96 148
60 94 137
61 95 143
59 94 138
59 93 141
59 93 138
59 93 135
59 92 139
60 93 141
62 96 151
60 93 143
60 94 143
60 94 144
59 91 135
59 93 146
59 91 130
58 90 126
57 89 126
58 90 133
59 92 134
57 89 131
56 87 131
56 88 127
55 84 124
56 86 128
54 83 123
50 76 110
200 216 238
218 234 255
179 189 195
99 97 62
92 92 62
87 88 60
76 80 57
73 76 51
88 92 66
86 88 62
86 90 66
78 82 61
87 91 65
84 88 64
98 101 70
97 101 71
100 103 73
106 108 76
106 109 76
107 109 73
115 117 79
114 116 80
121 123 82
127 127 85
120 120 79
138 137 89
124 125 81
128 128 84
134 133 86
131 130 83
128 128 80
140 138 87
128 128 84
142 140 88
143 142 92
146 144 90
145 143 90
144 141 88
150 147 92
147 145 91
149 146 90
147 145 90
156 152 92
151 147 88
151 148 87
151 147 90
159 154 93
155 151 93
163 158 99
162 158 92
163 158 92
159 155 90
166 161 97
155 151 87
161 157 95
161 156 96
168 163 99
165 160 91
161 158 93
168 163 91
168 163 96
164 159 94
168 163 96
164 160 93
166 162 92
172 167 98
169 163 94
172 166 96
171 165 96
169 164 97
166 161 93
168 162 98
171 165 96
171 164 98
173 167 93
170 165 93
172 165 91
172 166 94
171 165 96
169 164 95
168 163 95
173 167 94
169 162 94
174 167 94
171 165 97
176 169 101
174 168 99
174 167 102
174 167 96
169 163 93
169 163 89
174 168 101
171 164 90
166 160 87
171 165 93
172 166 95
170 164 95
172 167 97
168 162 90
169 163 85
169 163 90
173 166 99
173 166 95
171 164 87
167 161 88
167 162 93
172 165 95
167 160 93
172 166 93
169 163 93
164 159 89
168 161 90
166 160 95
164 160 84
171 165 94
167 161 90
170 164 98
164 158 87
166 161 92
158 153 80
168 162 93
164 158 84
170 163 92
163 157 90
169 162 96
169 162 93
164 159 88
169 162 94
160 155 84
162 156 86
171 164 93
161 154 89
161 156 87
160 155 85
158 153 89
160 154 83
165 159 90
156 150 85
166 160 88
166 158 90
161 155 83
160 153 86
158 151 81
159 153 86
158 152 81
159 153 87
157 150 81
160 154 89
165 158 93
161 155 84
215 232 255
215 232 255
215 232 255
214 232 255
214 232 255
214 232 255
214 232 255
214 232 255
214 232 255
214 232 255
214 232 255
214 232 255
214 232 255
214 232 255
214 232 255
214 232 255
214 232 255
215 232 255
215 232 255
215 232 255
215 232 255
215 232 255
215 232 255
215 232 255
215 232 255
215 232 255
215 232 255
215 232 255
215 232 255
215 232 255
215 232 255
215 232 255
215 232 255
215 232 255
215 232 255
215 232 255
215 232 255
215 232 255
215 232 255
215 232 255
215 232 255
215 232 255
215 232 255
215 232 255
215 232 255
215 232 255
215 232 255
214 232 255
215 232 255
215 232 255
215 232 255
215 232 255
214 232 255
214 232 255
214 232 255
214 232 255
214 232 255
214 232 255
214 232 255
214 232 255
214 232 255
214 232 255
214 232 255
214 232 255
214 232 255
214 232 255
214 232 255
214 232 255
214 232 255
214 232 255
214 232 255
214 232 255
214 232 255
214 232 255
214 232 255
214 232 255
214 232 255
214 231 255
214 231 255
214 231 255
214 231 255
214 231 255
214 231 255
214 231 255
214 231 255
214 231 255
214 231 255
214 231 255
214 231 255
214 231 255
214 231 255
214 231 255
213 231 255
213 231 255
213 231 255
213 231 255
213 231 255
213 231 255
213 231 255
213 231 255
213 231 255
213 231 255
213 231 255
213 231 255
213 231 255
213 231 255
213 231 255
213 231 255
213 231 255
213 231 255
213 231 255
212 231 255
212 231 255
212 231 255
212 231 255
212 230 255
212 230 255
212 230 255
212 230 255
212 230 255
212 230 255
212 230 255
211 230 255
211 230 255
211 230 255
211 230 255
211 230 255
211 230 255
210 230 255
210 229 255
210 229 255
210 229 255
194 213 242
60 96 163
60 96 159
61 97 162
60 96 161
60 95 159
59 95 154
59 95 162
59 95 150
59 94 149
60 96 163
57 92 155
72 104 165
208 226 252
214 232 255
216 233 255
218 234 255
178 196 227
60 96 153
61 97 150
60 95 144
61 96 147
60 95 137
61 96 151
60 95 143
61 96 149
61 97 145
60 95 144
62 97 154
61 96 153
60 96 149
60 95 139
61 97 148
61 96 150
61 96 142
61 96 149
61 96 142
61 96 143
62 97 150
62 97 154
62 97 152
61 96 142
62 98 156
60 95 140
61 96 142
61 96 145
61 96 144
62 97 149
62 97 148
61 96 149
61 96 145
61 96 150
60 95 134
61 96 144
60 95 137
61 96 139
61 96 139
61 96 140
59 94 133
61 96 149
61 96 142
61 96 144
61 97 150
61 97 151
61 95 137
61 96 147
59 94 137
61 96 140
61 96 144
61 96 143
60 95 134
61 96 145
60 95 140
59 93 133
61 95 142
60 95 139
60 95 137
61 96 149
60 95 147
59 93 128
61 96 142
60 95 142
60 94 141
60 95 139
62 98 153
61 96 145
59 93 130
60 95 141
60 94 145
59 93 134
58 92 133
60 95 145
61 95 146
60 95 142
60 95 142
61 96 147
60 94 142
60 94 140
58 91 132
59 93 141
61 95 146
59 92 131
60 94 139
59 92 141
60 93 143
58 92 138
59 92 138
57 90 143
59 92 140
58 91 140
57 89 133
58 90 131
57 88 133
56 87 134
54 84 118
55 85 123
56 86 130
53 82 120
172 187 210
218 234 255
139 142 126
102 101 64
84 85 56
75 76 53
76 80 57
84 87 62
83 86 62
72 77 57
78 82 58
85 90 64
92 96 69
86 91 67
85 89 64
96 99 67
96 100 71
99 101 68
99 103 71
107 109 76
114 115 79
116 117 79
102 104 67
117 118 76
118 119 79
131 131 84
133 132 85
122 124 84
122 123 78
135 134 85
133 132 89
136 136 88
134 132 84
133 133 81
146 143 88
133 132 81
139 137 83
147 144 85
143 139 81
147 144 89
148 145 90
153 149 89
150 148 91
161 156 90
156 152 89
152 148 89
158 154 92
158 154 94
161 157 92
166 161 95
160 156 94
160 156 89
162 158 97
167 162 94
169 163 96
162 159 96
167 161 94
161 156 90
166 161 97
168 163 99
167 161 92
168 162 96
168 162 96
166 161 94
167 162 94
165 160 92
169 163 94
170 164 93
171 165 96
167 161 92
172 166 99
169 164 91
172 166 99
169 164 92
173 167 92
170 163 90
174 168 95
169 165 95
171 165 90
170 164 90
170 164 92
172 165 93
171 165 91
176 169 98
170 165 93
173 166 94
170 163 93
171 164 93
171 165 93
166 161 90
168 163 94
171 165 93
170 164 93
175 169 101
171 165 94
168 162 93
167 161 92
171 165 94
171 165 97
172 166 93
174 167 95
176 168 94
167 161 92
169 163 92
170 163 93
169 164 90
172 165 92
169 162 90
165 160 84
170 164 89
167 160 95
168 162 88
167 161 93
168 161 91
166 161 91
167 160 92
159 153 79
167 160 90
165 159 87
167 161 91
166 160 90
170 163 91
170 164 97
162 158 86
168 162 90
169 163 90
167 160 90
163 156 81
159 155 84
162 155 87
153 149 81
157 152 80
164 157 87
165 158 94
163 157 86
161 155 87
161 155 87
159 152 87
158 153 85
160 154 84
159 153 82
163 157 91
163 158 90
162 156 90
161 155 90
158 152 87
154 149 82
158 152 86
154 148 78
149 144 76
215 232 255
215 232 255
215 232 255
215 232 255
215 232 255
215 232 255
215 232 255
215 232 255
215 232 255
215 232 255
215 232 255
215 232 255
215 232 255
215 232 255
215 232 255
215 232 255
215 232 255
215 232 255
215 232 255
215 232 255
215 232 255
215 232 255
215 232 255
215 232 255
215 232 255
215 232 255
215 232 255
215 232 255
215 232 255
215 232 255
215 232 255
215 232 255
215 232 255
215 232 255
215 232 255
215 232 255
215 232 255
215 232 255
215 232 255
215 232 255
215 232 255
215 232 255
215 232 255
215 232 255
215 232 255
215 232 255
215 232 255
215 232 255
215 232 255
215 232 255
215 232 255
215 232 255
215 232 255
215 232 255
215 232 255
215 232 255
215 232 255
215 232 255
215 232 255
215 232 255
215 232 255
215 232 255
215 232 255
215 232 255
215 232 255
215 232 255
215 232 255
215 232 255
215 232 255
215 232 255
215 232 255
215 232 255
215 232 255
215 232 255
215 232 255
215 232 255
215 232 255
215 232 255
215 232 255
215 232 255
215 232 255
215 232 255
215 232 255
214 232 255
215 232 255
214 232 255
214 232 255
214 232 255
214 232 255
214 232 255
214 232 255
214 232 255
214 232 255
214 232 255
214 232 255
214 232 255
214 232 255
214 232 255
214 232 255
214 231 255
214 231 255
214 231 255
214 231 255
214 231 255
214 231 255
214 231 255
214 231 255
214 231 255
213 231 255
213 231 255
213 231 255
213 231 255
213 231 255
213 231 255
213 231 255
213 231 255
213 231 255
213 231 255
213 231 255
213 231 255
213 231 255
213 231 255
212 231 255
212 231 255
212 230 255
212 230 255
212 230 255
212 230 255
211 230 255
211 230 255
211 230 255
211 230 255
210 229 255
61 96 161
60 95 156
60 95 157
59 94 139
59 94 154
58 93 148
60 95 159
59 94 151
61 97 162
58 94 149
59 94 159
58 92 144
146 167 203
215 232 255
216 233 255
218 234 255
147 167 197
59 94 143
61 96 154
60 95 144
60 95 142
60 96 149
61 97 151
60 95 145
61 96 149
58 93 139
61 96 142
60 94 139
60 95 148
60 95 147
60 95 141
60 95 144
60 95 143
60 95 140
61 96 142
59 94 135
60 95 133
61 96 145
62 98 155
61 97 150
60 95 142
61 96 139
59 94 134
61 96 136
61 96 144
62 98 154
61 96 151
61 96 143
61 96 148
62 97 147
61 97 147
60 95 134
60 95 144
63 98 154
61 96 143
61 96 147
61 97 147
61 96 142
61 96 142
59 94 139
61 96 145
62 97 141
59 92 142
61 96 147
61 95 141
60 94 140
60 95 148
60 95 139
62 98 155
61 96 142
60 95 137
61 95 137
61 96 148
61 96 144
60 94 139
62 97 149
61 96 149
62 97 152
60 95 139
61 95 142
61 96 148
61 96 139
60 95 147
60 95 142
59 94 138
60 94 136
60 94 143
60 95 136
59 92 138
59 93 135
61 95 146
59 93 134
58 93 135
59 93 134
58 92 135
61 94 141
60 94 145
59 93 141
60 94 141
61 96 152
59 93 136
60 94 142
60 95 149
59 92 135
59 91 129
59 92 142
59 92 142
60 93 149
58 90 131
57 88 129
58 89 131
55 86 127
57 88 134
54 84 117
55 85 130
54 83 124
50 76 110
142 157 180
214 229 250
113 112 80
79 79 54
72 73 52
75 76 51
69 72 53
74 77 54
83 87 62
66 69 49
74 78 56
89 93 66
90 94 65
80 85 59
95 98 70
83 88 63
87 92 67
87 91 64
100 102 70
103 105 70
104 107 72
96 99 66
110 112 73
108 109 73
114 115 77
118 119 79
110 112 77
124 124 81
125 125 79
122 122 77
128 127 78
139 138 86
129 128 83
143 140 86
139 135 82
149 146 90
143 140 84
146 143 91
145 142 84
152 148 88
150 147 92
157 154 94
150 148 88
159 155 96
158 155 92
156 152 93
157 154 85
159 154 89
164 160 96
158 155 91
158 154 93
162 158 91
157 154 88
165 160 92
156 152 89
166 160 95
164 160 93
164 159 90
161 157 90
166 162 96
166 161 93
168 163 93
165 160 89
171 165 96
168 163 91
168 162 91
170 164 94
168 162 92
168 163 88
170 164 95
171 166 93
171 165 91
170 165 96
169 164 90
169 163 91
170 163 95
172 166 92
173 166 98
173 167 96
176 168 90
174 168 94
172 166 95
174 167 95
169 163 91
176 169 97
171 165 89
171 164 90
170 164 92
168 162 90
168 163 87
173 167 98
171 164 92
172 166 95
173 167 96
168 162 91
169 163 90
171 164 92
169 163 94
165 159 89
172 165 95
173 166 92
168 161 89
171 165 91
170 163 93
173 166 95
168 162 93
165 160 87
167 160 91
171 165 92
161 155 84
167 162 88
168 162 90
157 152 82
170 163 95
163 157 88
163 158 83
171 163 95
168 162 87
167 162 89
162 157 90
166 160 86
164 159 87
162 156 81
167 161 90
165 159 90
164 158 90
168 161 88
167 160 91
155 150 84
162 155 86
164 158 89
163 156 87
159 153 86
162 158 89
157 152 76
164 158 90
158 153 80
156 151 87
160 153 84
163 156 86
160 153 85
160 155 87
158 152 84
156 150 83
162 156 87
164 157 87
152 147 80
155 149 83
156 150 80
161 155 86
216 232 255
216 232 255
216 232 255
216 232 255
216 232 255
216 232 255
216 232 255
216 232 255
216 232 255
216 232 255
216 232 255
216 232 255
216 232 255
216 232 255
216 232 255
216 232 255
216 232 255
216 232 255
216 232 255
216 232 255
216 233 255
216 232 255
216 233 255
216 233 255
216 233 255
216 233 255
216 233 255
216 232 255
216 233 255
216 232 255
216 233 255
216 233 255
216 233 255
216 233 255
216 233 255
216 233 255
216 233 255
216 233 255
216 232 255
216 233 255
216 233 255
216 233 255
216 233 255
216 232 255
216 232 255
216 233 255
216 232 255
216 232 255
216 232 255
216 232 255
216 232 255
216 232 255
216 232 255
216 232 255
216 232 255
216 232 255
216 232 255
216 232 255
216 232 255
216 232 255
216 232 255
216 232 255
216 232 255
216 232 255
216 232 255
216 232 255
216 232 255
216 232 255
216 232 255
216 232 255
216 232 255
215 232 255
215 232 255
215 232 255
215 232 255
215 232 255
215 232 255
215 232 255
215 232 255
215 232 255
215 232 255
215 232 255
215 232 255
215 232 255
215 232 255
215 232 255
215 232 255
215 232 255
215 232 255
215 232 255
215 232 255
215 232 255
215 232 255
215 232 255
215 232 255
215 232 255
215 232 255
215 232 255
215 232 255
215 232 255
215 232 255
215 232 255
215 232 255
215 232 255
215 232 255
214 232 255
214 232 255
214 232 255
214 232 255
214 232 255
214 232 255
214 232 255
214 232 255
214 232 255
214 231 255
214 231 255
214 231 255
214 231 255
214 231 255
214 231 255
214 231 255
213 231 255
213 231 255
213 231 255
213 231 255
213 231 255
213 231 255
213 231 255
213 231 255
212 231 255
212 231 255
212 230 255
212 230 255
118 143 187
58 93 141
60 96 158
58 93 141
60 96 150
59 95 157
58 93 150
58 93 145
57 92 151
58 93 154
57 91 145
57 91 149
99 125 175
214 231 255
216 233 255
218 234 255
117 139 181
61 97 156
61 97 147
60 94 148
61 97 150
60 95 139
60 95 143
61 96 145
61 96 145
60 95 142
60 96 148
62 97 153
59 94 139
61 97 145
60 95 136
61 96 141
61 95 139
58 92 121
61 96 143
61 96 149
61 97 148
61 96 141
61 96 147
61 95 142
62 98 153
61 96 143
60 96 149
60 95 139
61 96 144
60 95 133
61 96 144
61 96 141
60 95 136
60 95 140
61 96 143
61 96 142
62 97 150
61 96 145
61 96 147
60 94 144
60 94 137
60 95 143
62 97 149
59 94 143
60 95 142
60 94 139
62 96 143
60 95 141
60 95 141
62 97 150
60 95 146
62 97 147
62 98 157
61 96 148
60 95 141
59 93 133
60 94 134
61 96 146
59 93 134
61 96 145
60 95 143
60 94 144
62 97 153
61 96 142
59 93 133
60 94 140
60 94 138
61 96 146
59 94 142
61 95 141
61 96 150
61 94 144
59 94 138
60 95 142
61 97 151
61 96 152
61 95 139
59 93 137
60 94 137
61 95 145
59 93 132
59 92 132
59 93 143
59 93 142
58 92 133
61 96 147
58 92 130
61 95 146
61 95 142
60 94 142
59 92 134
60 93 144
56 88 125
56 87 129
58 89 132
56 88 126
58 90 136
57 87 130
53 82 123
53 81 119
52 80 114
108 124 146
195 208 222
90 90 60
64 66 46
72 73 52
76 78 53
68 70 50
66 70 51
73 78 57
73 78 56
77 81 58
73 77 54
79 84 62
76 81 60
87 91 65
94 99 71
88 92 64
103 106 75
99 103 69
103 106 72
98 101 66
108 110 75
113 114 76
116 117 79
123 123 76
119 121 80
124 123 71
125 126 80
134 134 82
138 135 84
130 130 79
138 137 84
137 136 86
144 142 87
146 144 89
139 138 87
144 141 84
138 136 83
145 144 87
148 145 89
158 154 92
152 149 90
160 155 88
160 156 91
160 155 91
156 153 91
163 158 96
161 157 96
160 156 94
157 154 90
154 150 83
162 157 91
167 162 98
161 158 95
160 156 89
164 160 91
161 157 89
169 164 91
165 161 88
167 162 93
166 161 94
169 163 94
167 162 93
165 160 93
170 165 96
167 162 94
169 163 90
169 163 88
171 166 99
169 163 90
166 162 89
172 166 93
166 161 93
173 168 96
174 167 97
169 164 94
174 167 96
171 166 97
171 166 93
173 166 88
169 163 91
172 166 95
175 168 100
172 167 99
171 164 87
170 164 96
171 165 93
171 165 90
171 165 92
173 167 96
167 161 88
173 167 93
173 167 95
166 160 85
173 166 96
172 165 91
169 162 93
168 162 89
173 165 92
171 164 95
173 166 91
167 160 92
175 168 94
173 166 95
172 166 93
167 161 91
170 163 91
169 162 90
160 154 87
163 158 82
167 161 90
170 163 90
166 161 87
168 161 89
169 162 93
169 161 90
170 164 93
168 162 90
165 159 87
167 161 90
167 161 89
161 154 87
163 157 85
165 160 86
163 157 85
168 162 94
168 161 87
164 157 84
166 159 85
159 154 85
159 154 84
165 158 84
165 158 89
168 161 93
163 156 84
157 152 80
163 156 91
156 150 83
155 149 82
161 155 89
157 151 83
155 149 84
155 151 78
163 157 90
159 154 85
158 151 83
152 146 78
160 154 83
158 152 83
161 154 86
216 233 255
216 233 255
216 233 255
216 233 255
216 233 255
216 233 255
216 233 255
216 233 255
216 233 255
216 233 255
216 233 255
216 233 255
216 233 255
216 233 255
216 233 255
216 233 255
216 233 255
216 233 255
216 233 255
216 233 255
216 233 255
216 233 255
216 233 255
216 233 255
216 233 255
216 233 255
216 233 255
216 233 255
216 233 255
216 233 255
216 233 255
216 233 255
216 233 255
216 233 255
216 233 255
216 233 255
216 233 255
216 233 255
216 233 255
216 233 255
216 233 255
216 233 255
216 233 255
216 233 255
216 233 255
216 233 255
216 233 255
216 233 255
216 233 255
216 233 255
216 233 255
216 233 255
216 233 255
216 233 255
216 233 255
216 233 255
216 233 255
216 233 255
216 233 255
216 233 255
216 233 255
216 233 255
216 233 255
216 233 255
216 233 255
216 233 255
216 233 255
216 233 255
216 233 255
216 233 255
216 233 255
216 233 255
216 233 255
216 233 255
216 233 255
216 233 255
216 233 255
216 233 255
216 233 255
216 233 255
216 233 255
216 233 255
216 233 255
216 233 255
216 233 255
216 233 255
216 233 255
216 232 255
216 232 255
216 232 255
216 232 255
216 232 255
216 232 255
216 232 255
216 232 255
216 232 255
216 232 255
215 232 255
215 232 255
215 232 255
215 232 255
215 232 255
215 232 255
215 232 255
215 232 255
215 232 255
215 232 255
215 232 255
215 232 255
215 232 255
215 232 255
215 232 255
215 232 255
215 232 255
215 232 255
215 232 255
215 232 255
215 232 255
215 232 255
214 232 255
214 232 255
214 232 255
214 232 255
214 232 255
214 231 255
214 231 255
214 231 255
214 231 255
214 231 255
213 231 255
213 231 255
213 231 255
213 231 255
127 150 187
59 93 149
60 96 156
59 95 151
59 93 148
59 94 154
58 92 145
58 94 154
56 90 145
57 92 143
58 93 147
57 92 146
58 92 143
189 207 232
217 233 255
218 234 255
76 106 157
60 95 150
59 93 137
60 95 141
60 95 144
60 95 145
60 95 142
61 97 145
61 96 143
59 94 142
60 95 143
60 95 142
60 94 135
60 94 134
61 96 141
61 96 145
60 94 135
59 95 137
60 95 137
60 95 139
59 93 134
61 96 137
61 96 145
60 95 145
61 96 149
59 94 143
62 97 148
61 97 145
62 97 148
61 96 150
62 97 148
60 95 133
60 96 142
61 97 150
60 95 141
61 96 142
59 93 133
61 96 144
59 94 125
61 96 139
61 96 144
61 96 141
61 96 137
60 95 136
61 96 145
60 95 144
61 96 143
60 95 137
60 95 141
61 96 135
60 95 133
61 96 142
60 95 141
60 95 140
61 96 145
60 95 140
60 95 133
60 95 141
60 95 139
61 96 146
60 95 140
61 95 143
60 95 145
61 95 139
60 95 141
60 94 140
59 93 139
58 92 132
62 97 147
60 94 145
59 92 134
60 95 142
60 95 149
60 94 137
60 94 144
59 93 131
59 93 138
60 94 139
59 93 141
61 96 147
59 93 137
57 90 128
60 94 142
59 93 144
60 94 148
59 91 133
57 88 128
60 93 136
57 89 128
58 90 139
59 92 135
58 91 136
58 91 133
58 89 131
56 88 136
54 84 122
57 87 116
55 84 117
56 87 129
53 81 118
53 82 125
75 96 125
168 178 181
93 92 56
94 93 58
79 82 56
73 74 52
58 62 46
70 74 52
71 75 54
72 78 56
48 57 43
77 82 60
80 84 59
74 80 60
85 89 65
90 93 62
88 92 62
101 104 71
95 100 70
105 106 70
101 105 71
103 105 69
106 107 70
126 126 79
117 118 75
126 126 83
124 123 80
129 127 80
133 132 80
125 125 79
126 127 77
142 140 81
126 125 74
138 136 85
136 135 77
140 137 86
147 143 85
145 142 87
148 144 85
149 146 87
149 145 87
163 159 95
151 148 86
147 145 83
158 153 90
150 148 85
156 151 88
162 158 89
156 152 88
152 148 87
159 155 88
158 154 89
161 157 88
163 159 89
164 159 86
161 157 90
162 157 93
163 158 91
168 162 93
170 164 93
163 159 93
170 164 93
170 164 93
164 159 89
169 163 92
167 161 91
169 163 91
169 163 93
166 161 90
165 159 81
172 165 90
172 166 95
171 164 91
171 165 93
166 161 86
168 161 87
171 165 93
173 166 87
174 167 93
172 166 90
169 163 89
172 166 93
170 164 88
174 167 93
174 167 97
170 164 86
169 164 87
171 163 90
171 165 91
169 164 87
170 163 95
173 167 95
170 163 86
170 163 87
174 167 95
167 161 82
166 159 84
166 161 87
170 163 93
166 160 87
167 162 90
170 163 93
172 165 93
164 158 84
169 162 90
166 160 86
166 160 85
174 167 92
167 161 87
169 163 88
166 159 82
168 162 87
167 161 87
173 165 97
168 163 93
163 157 83
167 160 87
165 159 86
168 162 89
161 155 78
169 162 95
165 158 90
172 165 97
169 162 88
162 156 81
165 158 90
165 159 87
167 160 93
156 151 76
163 156 83
166 160 88
165 159 87
164 157 87
161 155 86
157 150 83
160 155 85
153 148 83
160 154 82
156 151 81
159 153 86
159 153 79
166 159 87
154 148 78
158 152 84
159 153 85
151 146 74
158 152 81
159 153 88
156 149 84
160 154 84
217 233 255
217 233 255
217 233 255
217 233 255
217 233 255
217 233 255
217 233 255
217 233 255
217 233 255
217 233 255
217 233 255
217 233 255
217 233 255
217 233 255
217 233 255
217 233 255
217 233 255
217 233 255
217 233 255
217 233 255
217 233 255
217 233 255
217 233 255
217 233 255
217 233 255
217 233 255
217 233 255
217 233 255
217 233 255
217 233 255
217 233 255
217 233 255
217 233 255
217 233 255
217 233 255
217 233 255
217 233 255
217 233 255
217 233 255
217 233 255
217 233 255
217 233 255
217 233 255
217 233 255
217 233 255
217 233 255
217 233 255
217 233 255
217 233 255
217 233 255
217 233 255
217 233 255
217 233 255
217 233 255
217 233 255
217 233 255
217 233 255
217 233 255
217 233 255
217 233 255
217 233 255
217 233 255
217 233 255
217 233 255
217 233 255
217 233 255
217 233 255
217 233 255
217 233 255
217 233 255
217 233 255
217 233 255
217 233 255
217 233 255
217 233 255
217 233 255
217 233 255
217 233 255
217 233 255
217 233 255
217 233 255
217 233 255
217 233 255
217 233 255
217 233 255
217 233 255
217 233 255
217 233 255
216 233 255
216 233 255
216 233 255
216 233 255
216 233 255
216 233 255
216 233 255
216 233 255
216 233 255
216 233 255
216 233 255
216 233 255
216 233 255
216 233 255
216 233 255
216 233 255
216 233 255
216 233 255
216 233 255
216 233 255
216 233 255
216 232 255
216 232 255
216 232 255
216 232 255
216 232 255
216 232 255
216 232 255
216 232 255
215 232 255
215 232 255
215 232 255
215 232 255
215 232 255
215 232 255
215 232 255
215 232 255
215 232 255
215 232 255
215 232 255
215 232 255
214 232 255
214 232 255
214 232 255
214 231 255
154 175 211
57 92 145
60 95 156
60 95 142
59 95 147
57 92 141
58 93 148
59 93 141
58 93 147
57 91 146
59 94 151
56 90 140
59 94 151
126 148 183
217 233 255
211 227 249
58 92 133
60 95 142
60 96 144
60 95 140
60 95 137
60 95 137
59 95 140
60 95 148
60 95 139
59 94 135
59 94 133
61 96 143
61 96 137
60 95 141
62 97 147
60 94 137
60 95 144
61 96 142
60 95 140
60 95 135
61 96 145
61 95 136
61 96 147
61 96 144
60 95 134
60 95 141
61 96 141
61 95 139
60 95 135
59 94 135
62 97 142
61 97 145
60 95 136
60 95 143
61 96 141
61 96 136
61 96 143
60 95 131
61 96 147
60 95 143
62 97 149
60 95 141
61 95 136
61 95 150
61 96 143
61 96 148
60 95 143
61 96 143
61 96 147
60 95 133
61 96 141
59 93 128
60 94 139
61 96 151
60 95 136
60 95 145
60 94 131
60 96 140
60 95 144
61 96 147
61 96 152
60 94 134
61 96 141
60 94 140
61 96 141
61 95 136
60 94 140
61 95 142
62 97 151
60 94 139
61 95 146
60 94 136
60 94 135
60 95 136
60 95 145
60 93 135
60 94 137
60 95 138
60 94 142
58 91 131
60 93 141
59 93 137
60 94 138
59 93 134
60 94 134
58 91 134
59 91 145
59 92 139
59 93 145
57 89 132
57 89 122
59 92 136
60 93 141
57 88 134
57 90 132
55 85 126
55 85 131
55 84 120
54 83 114
55 84 125
50 78 114
49 75 103
144 151 151
97 97 56
72 74 51
84 83 53
65 66 45
73 75 52
64 68 49
66 71 51
69 74 55
69 75 54
69 74 53
76 81 59
76 81 58
90 94 66
86 91 63
81 85 59
107 109 72
94 96 64
99 102 67
115 117 77
112 114 72
112 113 71
121 120 79
111 112 65
125 125 80
128 127 78
123 124 78
125 125 76
141 138 84
135 134 85
132 132 79
138 137 81
136 135 86
145 142 88
141 139 83
147 143 87
137 136 83
154 150 90
148 144 86
146 144 86
156 151 86
154 150 89
148 146 83
157 153 87
149 146 87
155 152 85
151 148 85
150 146 80
158 153 87
162 157 89
163 158 94
162 157 93
164 160 88
158 154 87
156 152 88
161 156 87
165 160 95
164 159 94
166 160 90
162 158 85
167 161 92
159 156 86
166 162 95
173 167 94
172 165 95
173 166 96
173 166 95
172 166 94
171 164 92
172 166 95
162 156 84
169 163 92
167 161 88
171 165 90
169 163 88
173 166 95
170 164 89
166 161 86
171 164 88
172 166 92
173 166 95
171 165 91
172 166 94
167 162 87
177 170 97
172 165 95
170 163 93
165 160 80
172 165 90
171 164 92
170 164 93
172 166 95
172 165 90
174 167 97
168 162 92
170 163 88
173 166 91
168 163 87
169 163 86
172 166 93
172 165 93
166 160 86
170 163 84
166 160 87
167 160 88
166 160 86
170 163 91
166 160 84
167 161 84
167 161 90
167 161 87
162 157 83
165 159 87
170 163 94
168 162 89
163 157 79
161 155 85
162 155 86
169 163 94
162 156 84
160 154 82
167 161 90
169 163 91
164 158 90
167 160 87
158 152 84
164 157 90
169 163 93
162 156 84
162 157 80
158 152 80
164 158 83
157 152 80
162 156 88
161 155 81
159 153 83
163 158 86
160 154 87
166 159 90
159 153 83
167 161 90
160 154 82
159 153 84
164 157 86
163 157 87
157 150 83
159 153 84
155 150 80
151 145 82
218 234 255
218 233 255
218 233 255
217 233 255
218 233 255
217 233 255
217 233 255
218 233 255
218 233 255
218 233 255
218 233 255
218 233 255
218 233 255
218 233 255
218 233 255
218 234 255
218 233 255
218 234 255
218 234 255
218 234 255
218 234 255
218 234 255
218 234 255
218 234 255
218 233 255
218 234 255
218 234 255
218 234 255
218 234 255
218 234 255
218 234 255
218 234 255
218 234 255
218 234 255
218 234 255
218 234 255
218 234 255
218 234 255
218 234 255
218 234 255
218 234 255
218 234 255
218 234 255
218 234 255
218 233 255
218 234 255
218 233 255
218 234 255
218 234 255
218 233 255
218 234 255
218 233 255
218 233 255
218 233 255
218 233 255
218 233 255
218 233 255
218 233 255
218 233 255
218 233 255
218 233 255
217 233 255
218 233 255
217 233 255
217 233 255
217 233 255
217 233 255
217 233 255
217 233 255
217 233 255
217 233 255
217 233 255
217 233 255
217 233 255
217 233 255
217 233 255
217 233 255
217 233 255
217 233 255
217 233 255
217 233 255
217 233 255
217 233 255
217 233 255
217 233 255
217 233 255
217 233 255
217 233 255
217 233 255
217 233 255
217 233 255
217 233 255
217 233 255
217 233 255
217 233 255
217 233 255
217 233 255
217 233 255
217 233 255
217 233 255
217 233 255
217 233 255
217 233 255
217 233 255
217 233 255
217 233 255
217 233 255
217 233 255
217 233 255
217 233 255
217 233 255
217 233 255
217 233 255
216 233 255
216 233 255
216 233 255
216 233 255
216 233 255
216 233 255
216 233 255
216 233 255
216 233 255
216 233 255
216 233 255
216 233 255
216 233 255
216 232 255
216 232 255
216 232 255
215 232 255
215 232 255
215 232 255
215 232 255
179 198 228
58 92 150
60 95 146
59 94 142
59 94 150
59 93 143
59 94 142
57 91 136
58 92 144
59 93 150
56 90 132
55 89 139
56 89 139
88 115 166
218 233 255
191 208 231
60 95 142
60 95 147
61 96 147
59 95 145
60 95 139
60 95 142
61 96 145
59 94 131
58 93 134
59 93 129
60 95 137
61 96 139
60 95 142
61 96 141
60 95 137
60 95 142
61 95 141
61 96 141
60 95 130
61 97 149
60 95 135
60 95 134
60 95 135
60 95 141
59 94 133
60 95 142
60 95 141
61 96 143
60 95 137
61 96 141
60 95 142
61 96 140
61 96 145
60 95 140
61 96 143
60 95 141
61 96 148
61 95 145
60 95 130
60 95 139
61 96 145
60 95 136
61 96 148
60 95 130
61 96 143
62 97 145
60 95 136
59 94 141
60 95 142
61 96 142
61 96 143
59 94 126
60 95 143
61 96 145
60 94 137
60 95 135
60 94 134
61 95 148
61 96 145
60 95 143
60 94 138
61 96 144
60 95 141
61 96 151
61 96 142
60 95 138
60 95 139
61 95 142
59 94 137
59 93 135
60 94 138
60 94 135
60 94 142
58 92 139
58 93 132
61 95 140
60 95 137
60 94 138
58 91 137
59 93 132
58 91 129
58 92 132
59 93 134
60 94 148
59 92 136
60 94 141
57 89 123
59 92 134
58 91 136
58 91 135
58 92 138
57 88 117
59 92 142
57 88 130
59 91 138
56 87 127
55 86 128
54 84 122
53 82 106
53 82 126
50 77 113
48 73 105
95 97 76
85 83 49
68 69 44
66 69 47
67 69 48
61 64 44
62 67 48
60 64 44
68 73 52
58 63 48
84 88 63
73 77 55
77 81 56
84 89 60
93 95 60
94 96 61
89 91 63
89 93 63
100 102 67
101 102 66
98 101 63
115 116 74
101 104 68
116 117 78
123 124 76
107 109 66
122 122 73
126 125 77
129 127 77
133 131 76
143 140 82
131 129 78
136 134 83
129 128 76
137 134 77
135 134 76
145 142 84
144 141 81
152 148 85
144 143 86
140 138 82
153 150 82
158 153 91
152 149 88
156 151 86
148 146 89
156 151 86
155 152 87
156 153 89
168 162 94
158 154 91
164 158 91
161 156 89
160 156 84
160 155 85
157 153 80
163 158 88
164 158 87
160 155 86
164 160 86
164 159 84
165 161 92
166 160 89
167 162 94
173 167 94
164 160 87
165 160 84
166 161 90
172 165 94
170 164 90
169 163 89
168 162 88
170 164 93
171 165 92
170 164 92
169 163 89
169 162 92
171 164 90
174 167 91
175 168 95
173 166 92
169 163 90
169 163 83
171 165 89
170 164 92
169 163 86
169 162 90
170 164 88
171 164 87
172 165 90
170 163 87
171 164 89
169 163 87
174 167 98
171 165 86
174 167 93
163 158 84
165 160 86
168 162 86
168 162 83
170 164 87
168 162 93
171 165 93
164 158 84
164 158 79
170 163 90
165 159 86
168 161 86
168 162 84
169 163 88
168 163 91
171 164 92
167 161 86
165 160 83
166 160 88
166 161 88
166 162 88
159 153 76
162 156 87
167 160 88
170 164 91
164 158 86
167 161 92
163 157 83
171 164 91
164 158 84
163 157 85
162 155 87
162 157 84
163 156 86
161 155 80
163 157 84
165 159 85
161 155 82
163 157 87
153 148 78
154 148 78
165 158 91
159 154 78
163 155 84
161 155 81
160 154 79
163 156 81
158 152 80
162 156 86
155 149 77
168 161 87
159 153 80
155 148 80
218 234 255
218 234 255
218 234 255
218 234 255
218 234 255
218 234 255
218 234 255
218 234 255
218 234 255
218 234 255
218 234 255
218 234 255
218 234 255
218 234 255
218 234 255
218 234 255
218 234 255
218 234 255
218 234 255
218 234 255
218 234 255
218 234 255
218 234 255
218 234 255
218 234 255
218 234 255
218 234 255
218 234 255
218 234 255
218 234 255
218 234 255
218 234 255
218 234 255
218 234 255
218 234 255
218 234 255
218 234 255
218 234 255
218 234 255
218 234 255
218 234 255
218 234 255
218 234 255
218 234 255
218 234 255
218 234 255
218 234 255
218 234 255
218 234 255
218 234 255
218 234 255
218 234 255
218 234 255
218 234 255
218 234 255
218 234 255
218 234 255
218 234 255
218 234 255
218 234 255
218 234 255
218 234 255
218 234 255
218 234 255
218 234 255
218 234 255
218 234 255
218 234 255
218 234 255
218 234 255
218 234 255
218 234 255
218 234 255
218 234 255
218 234 255
218 234 255
218 234 255
218 234 255
218 234 255
218 234 255
218 234 255
218 234 255
218 234 255
218 234 255
218 234 255
218 234 255
218 234 255
218 234 255
218 234 255
218 234 255
218 234 255
218 234 255
218 234 255
218 234 255
218 234 255
218 234 255
218 234 255
218 234 255
218 234 255
218 234 255
218 233 255
218 234 255
218 233 255
218 233 255
218 233 255
217 233 255
217 233 255
217 233 255
217 233 255
217 233 255
217 233 255
217 233 255
217 233 255
217 233 255
217 233 255
217 233 255
217 233 255
217 233 255
217 233 255
217 233 255
217 233 255
217 233 255
217 233 255
217 233 255
217 233 255
217 233 255
217 233 255
217 233 255
217 233 255
216 233 255
216 233 255
216 233 255
216 233 255
192 209 236
60 95 151
56 90 144
59 94 141
60 95 152
58 93 142
57 91 136
58 93 141
58 93 152
57 92 140
55 88 129
56 89 146
56 89 143
54 87 141
211 227 250
182 199 223
59 94 141
59 94 139
59 94 137
59 94 139
61 96 145
60 95 140
60 95 134
60 95 143
60 95 143
60 95 141
60 95 143
61 96 142
62 97 151
60 95 144
60 95 141
61 96 141
61 96 149
60 94 137
62 97 145
61 96 145
59 94 134
60 95 142
61 96 144
61 96 144
61 96 144
59 93 133
60 95 137
60 95 133
59 94 136
60 95 134
60 94 133
61 96 143
60 95 147
60 95 137
60 95 141
61 96 142
61 96 144
60 94 137
61 96 147
62 97 143
61 95 135
60 95 139
61 97 143
61 95 141
60 95 140
61 96 147
58 92 122
62 97 147
59 94 142
60 95 139
61 96 136
60 95 142
60 95 139
60 94 132
60 95 139
61 96 136
59 94 131
58 92 123
61 96 141
60 94 133
61 97 148
60 95 137
60 95 144
59 93 128
59 93 125
60 94 140
58 93 124
59 92 129
61 95 140
60 94 137
59 92 136
60 95 142
59 93 136
59 93 128
60 93 129
59 93 133
59 94 142
60 95 133
60 93 135
59 94 135
57 90 127
59 93 137
59 93 136
60 94 135
61 95 142
57 90 131
59 92 130
59 92 132
58 90 133
59 93 145
58 90 134
57 89 127
57 88 128
57 89 133
55 87 121
58 90 141
58 88 132
55 86 126
56 86 115
54 83 116
51 78 110
50 76 111
86 88 67
79 78 43
71 71 44
69 70 48
69 69 47
56 60 44
61 65 46
67 71 51
57 60 44
56 64 50
56 63 44
73 77 53
70 76 54
74 80 55
84 88 59
90 92 62
87 91 63
94 96 61
104 107 71
92 96 64
113 115 73
110 113 74
111 111 66
120 119 68
120 120 75
125 123 77
126 126 81
120 120 72
131 129 75
133 132 78
135 132 81
126 125 76
133 132 80
147 143 87
129 129 74
146 142 77
143 141 86
142 139 80
148 145 84
152 149 89
154 151 86
155 151 87
154 151 86
151 147 83
142 140 82
158 154 85
157 152 87
152 149 81
157 153 82
152 148 85
155 152 82
157 153 81
159 154 86
160 155 90
163 158 86
160 156 84
163 159 87
156 152 78
167 162 89
166 160 90
169 164 93
168 162 90
169 163 91
167 161 87
169 163 90
170 164 91
167 161 88
167 161 86
168 162 86
167 162 87
171 165 89
170 164 83
163 159 82
170 165 87
171 165 90
173 166 91
167 162 87
167 161 86
167 162 89
167 161 84
167 162 81
171 165 93
172 165 90
171 165 93
170 165 91
175 168 96
172 165 88
171 163 92
169 162 90
170 164 90
167 162 90
170 164 90
166 161 85
170 165 88
174 167 90
171 164 95
167 161 81
169 164 93
167 161 85
166 160 88
169 163 89
170 163 90
169 162 87
167 160 83
171 164 93
162 155 82
165 158 84
165 158 89
163 158 83
168 162 84
168 162 87
167 160 87
164 159 86
171 163 90
161 155 80
159 153 79
166 160 90
167 160 90
158 152 84
163 158 87
162 156 79
171 164 90
164 157 84
163 157 85
167 160 83
160 154 74
165 159 84
159 152 82
154 149 75
157 152 84
172 165 93
162 155 84
160 154 84
155 150 74
165 159 90
165 159 87
160 154 83
158 152 87
167 160 89
163 156 84
158 152 83
165 159 80
163 157 83
160 154 83
166 159 87
162 155 84
152 146 78
159 153 84
154 147 80
219 234 255
219 234 255
219 234 255
219 234 255
219 234 255
219 234 255
219 234 255
219 234 255
219 234 255
219 234 255
219 234 255
219 234 255
219 234 255
219 234 255
219 234 255
219 234 255
219 234 255
219 234 255
219 234 255
219 234 255
219 234 255
219 234 255
219 234 255
219 234 255
219 234 255
219 234 255
219 234 255
219 234 255
219 234 255
219 234 255
219 234 255
219 234 255
219 234 255
219 234 255
219 234 255
219 234 255
219 234 255
219 234 255
219 234 255
219 234 255
219 234 255
219 234 255
219 234 255
219 234 255
219 234 255
219 234 255
219 234 255
219 234 255
219 234 255
219 234 255
219 234 255
219 234 255
219 234 255
219 234 255
219 234 255
219 234 255
219 234 255
219 234 255
219 234 255
219 234 255
219 234 255
219 234 255
219 234 255
219 234 255
219 234 255
219 234 255
219 234 255
219 234 255
219 234 255
219 234 255
219 234 255
219 234 255
219 234 255
219 234 255
219 234 255
219 234 255
219 234 255
219 234 255
219 234 255
219 234 255
219 234 255
219 234 255
219 234 255
219 234 255
219 234 255
219 234 255
219 234 255
219 234 255
218 234 255
219 234 255
218 234 255
218 234 255
218 234 255
218 234 255
218 234 255
218 234 255
218 234 255
218 234 255
218 234 255
218 234 255
218 234 255
218 234 255
218 234 255
218 234 255
218 234 255
218 234 255
218 234 255
218 234 255
218 234 255
218 234 255
218 234 255
218 234 255
218 234 255
218 234 255
218 234 255
218 234 255
218 234 255
218 234 255
218 234 255
218 234 255
218 234 255
218 234 255
218 234 255
218 234 255
218 234 255
218 234 255
218 233 255
217 233 255
217 233 255
217 233 255
217 233 255
217 233 255
217 233 255
204 220 244
58 93 147
56 90 134
58 92 136
56 90 136
58 93 141
56 90 138
56 90 129
56 90 136
55 89 135
56 90 139
54 87 127
55 88 139
57 90 148
181 198 223
166 183 207
59 94 137
57 91 128
60 95 136
60 94 140
60 95 140
61 96 144
59 94 142
61 95 137
60 94 130
58 92 130
61 96 140
60 95 137
60 95 142
59 94 140
62 97 145
60 96 142
60 95 130
60 95 137
61 96 140
60 95 135
58 92 121
59 93 131
60 95 141
60 95 140
61 96 147
59 94 126
61 96 141
60 95 136
60 95 143
61 96 137
61 96 140
59 94 134
60 95 141
59 93 134
61 96 143
62 97 149
60 95 139
60 95 137
59 94 133
60 95 141
60 95 131
59 92 135
61 96 142
60 95 136
61 96 141
62 97 148
60 96 139
60 94 135
60 95 141
59 94 130
61 96 143
60 94 131
60 95 139
61 95 140
59 94 131
61 96 141
61 95 142
59 94 130
60 94 133
60 95 140
60 95 142
60 95 141
59 93 139
59 94 130
60 95 134
61 95 148
60 95 140
59 94 139
61 96 143
59 93 134
59 93 136
59 93 136
61 95 143
60 94 136
59 92 129
59 93 136
60 94 142
59 93 138
59 92 132
60 94 142
59 93 139
58 91 137
60 93 133
59 92 134
59 92 130
58 91 130
59 92 136
57 90 128
59 92 136
59 92 139
59 93 133
58 91 132
56 87 119
56 88 123
58 90 132
57 88 122
57 88 128
56 85 123
54 83 107
51 80 115
53 81 111
49 75 106
68 75 70
77 76 43
61 62 39
68 69 45
55 58 41
47 51 36
46 51 38
53 59 45
70 74 51
56 62 45
74 80 58
66 72 54
67 73 54
79 84 54
82 85 53
87 91 64
92 95 61
86 89 58
101 103 66
91 95 60
110 110 67
97 101 60
111 112 69
112 113 67
125 124 73
105 107 63
112 112 65
118 117 74
123 123 73
127 126 71
136 135 77
137 134 80
139 137 78
146 143 83
146 143 87
143 141 80
144 141 80
141 138 80
136 134 78
138 136 76
146 143 86
150 147 85
151 147 85
154 150 85
153 150 87
152 148 84
153 149 84
154 149 80
154 150 82
158 154 84
159 154 87
155 150 81
161 156 84
158 153 90
164 158 86
154 151 80
158 155 77
165 159 87
167 161 93
162 157 91
172 166 94
170 163 91
171 165 92
167 162 93
162 157 81
166 160 86
170 164 90
164 159 80
168 162 88
167 162 88
167 162 86
167 162 86
163 159 86
171 164 89
168 162 86
169 163 88
171 164 82
170 163 89
169 163 87
168 162 82
169 163 89
170 164 82
172 165 93
172 165 88
167 161 85
167 161 82
171 165 93
174 167 90
168 162 91
169 163 84
169 163 89
169 164 90
171 166 93
169 163 84
171 164 89
168 162 90
166 161 83
172 166 92
173 167 97
170 163 89
169 162 88
164 159 81
166 160 81
166 160 86
167 160 85
166 160 79
163 157 80
157 152 80
168 162 88
166 160 87
162 157 84
164 158 82
167 161 85
164 158 72
170 163 87
171 164 85
162 156 84
167 160 90
154 149 78
162 157 80
164 158 87
164 158 84
169 162 91
161 155 80
165 160 84
170 162 90
167 160 87
161 155 80
160 155 87
168 161 90
158 153 83
163 156 84
162 156 81
163 158 80
165 158 86
156 150 80
161 155 79
158 152 78
166 159 87
157 150 80
156 150 79
162 156 89
157 152 78
164 158 87
153 146 78
157 151 78
155 148 82
163 156 87
161 156 84
219 235 255
219 235 255
219 234 255
219 234 255
219 234 255
219 234 255
219 234 255
219 234 255
219 235 255
219 234 255
219 234 255
219 235 255
219 235 255
219 235 255
219 234 255
219 235 255
219 235 255
219 235 255
219 235 255
219 235 255
219 235 255
219 235 255
219 235 255
219 235 255
219 235 255
219 235 255
219 235 255
219 235 255
219 235 255
219 235 255
219 235 255
219 235 255
219 235 255
219 235 255
219 235 255
219 235 255
219 235 255
219 235 255
219 235 255
219 235 255
219 235 255
219 235 255
219 235 255
219 235 255
219 235 255
219 235 255
219 235 255
219 235 255
219 235 255
219 235 255
219 235 255
219 235 255
219 235 255
219 234 255
219 235 255
219 235 255
219 234 255
219 235 255
219 234 255
219 235 255
219 234 255
219 234 255
219 234 255
219 234 255
219 234 255
219 234 255
219 234 255
219 234 255
219 234 255
219 234 255
219 234 255
219 234 255
219 234 255
219 234 255
219 234 255
219 234 255
219 234 255
219 234 255
219 234 255
219 234 255
219 234 255
219 234 255
219 234 255
219 234 255
219 234 255
219 234 255
219 234 255
219 234 255
219 234 255
219 234 255
219 234 255
219 234 255
219 234 255
219 234 255
219 234 255
219 234 255
219 234 255
219 234 255
219 234 255
219 234 255
219 234 255
219 234 255
219 234 255
219 234 255
219 234 255
219 234 255
219 234 255
219 234 255
219 234 255
219 234 255
219 234 255
219 234 255
219 234 255
219 234 255
219 234 255
219 234 255
219 234 255
219 234 255
219 234 255
219 234 255
219 234 255
219 234 255
219 234 255
219 234 255
219 234 255
219 234 255
218 234 255
218 234 255
218 234 255
218 234 255
218 234 255
218 234 255
218 234 255
207 223 247
56 90 131
57 91 139
58 92 140
57 91 131
56 90 133
57 92 132
57 92 140
58 92 134
54 87 132
57 91 141
56 90 133
54 87 140
55 88 131
173 190 217
149 167 194
60 94 136
59 93 137
59 93 136
58 93 140
60 95 142
59 93 136
60 94 128
59 93 130
61 95 139
60 95 136
59 94 131
59 94 140
59 94 139
61 96 144
61 96 144
61 96 147
60 95 141
60 94 135
59 94 136
60 95 140
60 95 134
60 94 135
59 94 125
59 94 143
60 95 137
60 95 136
61 95 140
61 96 141
60 95 135
61 96 141
59 94 131
60 95 142
60 94 131
62 97 152
62 98 151
61 95 141
61 96 145
60 95 136
60 95 142
60 95 140
58 93 130
60 94 141
62 97 145
61 96 135
60 95 139
60 95 141
61 96 145
60 95 136
62 97 144
60 95 144
60 94 142
59 93 125
60 94 136
60 95 142
61 95 143
60 95 137
60 95 138
60 95 140
60 95 140
61 96 142
59 93 135
59 94 130
60 94 133
60 95 138
61 95 145
61 96 150
60 94 130
60 95 142
61 96 143
59 93 126
60 94 146
60 95 145
59 93 135
59 92 129
59 94 142
60 94 144
58 91 127
58 91 132
59 92 131
59 92 132
60 94 139
59 93 138
57 90 124
57 90 128
59 92 138
59 91 134
60 94 140
57 89 121
59 92 134
57 89 121
57 89 127
58 91 132
58 90 134
56 88 123
56 87 118
55 86 116
56 86 122
56 86 127
54 84 119
54 84 118
49 76 105
49 74 93
59 68 71
64 64 37
64 65 38
58 58 37
53 57 40
55 59 41
44 51 36
47 53 40
60 66 46
56 61 45
68 72 50
68 73 50
69 74 45
77 80 56
85 90 59
84 87 58
94 95 59
88 92 59
93 96 61
102 102 63
106 106 63
100 103 65
110 111 66
109 109 65
117 116 70
122 121 73
127 126 79
119 118 66
123 123 72
131 132 80
124 125 75
134 133 76
126 125 67
138 136 78
139 137 75
146 143 89
149 146 86
150 146 81
144 142 80
140 137 77
148 145 77
146 143 80
152 148 81
151 148 82
152 149 82
148 145 82
155 151 79
156 151 86
165 159 97
156 152 87
161 156 88
152 149 88
166 161 89
163 158 89
161 155 84
166 161 87
163 158 85
159 154 85
167 161 85
160 155 87
163 159 89
161 156 88
163 158 88
163 158 83
164 159 86
167 161 82
169 164 93
168 162 87
170 163 86
167 162 91
168 163 88
171 164 89
166 161 80
172 165 89
171 165 90
169 163 88
169 162 86
169 162 84
166 161 84
171 165 91
169 163 90
166 160 86
171 164 86
165 160 84
172 165 94
165 159 84
172 165 88
167 162 83
168 162 87
172 166 88
171 164 88
169 164 84
170 163 85
168 161 82
170 163 86
168 161 84
172 165 86
171 164 89
170 163 85
166 159 84
170 163 87
165 159 84
163 158 82
166 160 80
171 163 88
173 166 89
165 159 84
163 158 82
171 164 85
164 158 82
167 161 85
168 161 86
164 158 86
164 157 83
172 164 90
169 163 92
171 164 91
158 153 81
166 159 84
170 162 94
157 151 80
164 158 82
160 153 82
161 155 84
157 150 78
164 158 81
158 152 78
165 158 81
163 157 80
164 158 80
161 154 80
165 158 83
163 156 81
162 156 83
164 158 83
159 153 84
158 152 77
161 154 80
160 154 82
163 156 87
162 155 85
154 148 79
154 149 81
163 156 84
154 148 81
152 146 72
153 148 80
163 156 85
155 148 81
220 235 255
220 235 255
220 235 255
220 235 255
220 235 255
220 235 255
220 235 255
220 235 255
220 235 255
220 235 255
220 235 255
220 235 255
220 235 255
220 235 255
220 235 255
220 235 255
220 235 255
220 235 255
220 235 255
220 235 255
220 235 255
220 235 255
220 235 255
220 235 255
220 235 255
220 235 255
220 235 255
220 235 255
220 235 255
220 235 255
220 235 255
220 235 255
220 235 255
220 235 255
220 235 255
220 235 255
220 235 255
220 235 255
220 235 255
220 235 255
220 235 255
220 235 255
220 235 255
220 235 255
220 235 255
220 235 255
220 235 255
220 235 255
220 235 255
220 235 255
220 235 255
220 235 255
220 235 255
220 235 255
220 235 255
220 235 255
220 235 255
220 235 255
220 235 255
220 235 255
220 235 255
220 235 255
220 235 255
220 235 255
220 235 255
220 235 255
220 235 255
220 235 255
220 235 255
220 235 255
220 235 255
220 235 255
220 235 255
220 235 255
220 235 255
220 235 255
220 235 255
220 235 255
220 235 255
220 235 255
220 235 255
220 235 255
220 235 255
220 235 255
220 235 255
220 235 255
220 235 255
220 235 255
220 235 255
220 235 255
220 235 255
220 235 255
220 235 255
220 235 255
220 235 255
220 235 255
220 235 255
220 235 255
220 235 255
220 235 255
220 235 255
220 235 255
220 235 255
220 235 255
220 235 255
220 235 255
220 235 255
220 235 255
220 235 255
220 235 255
220 235 255
220 235 255
220 235 255
220 235 255
220 235 255
220 235 255
220 235 255
220 235 255
220 235 255
220 235 255
219 235 255
219 235 255
219 235 255
220 235 255
219 235 255
219 235 255
219 235 255
219 234 255
219 234 255
219 234 255
219 234 255
219 234 255
219 234 255
215 230 252
59 94 147
53 86 132
59 93 137
59 94 141
56 90 134
58 92 139
55 89 130
56 90 143
55 89 133
53 86 135
54 87 134
54 87 135
52 84 129
160 176 198
152 171 199
59 94 139
60 94 139
60 95 136
59 94 133
58 92 131
59 94 134
60 96 145
60 95 141
60 95 140
59 93 133
59 94 136
60 94 135
60 95 137
59 94 129
61 96 147
61 96 145
60 95 139
60 95 140
61 95 136
59 93 128
62 97 147
61 96 144
62 97 151
60 95 136
59 94 137
62 97 150
60 94 141
59 94 128
61 96 141
59 93 133
60 94 135
61 96 145
57 91 125
60 95 139
61 95 136
60 94 135
61 95 135
59 94 134
61 96 142
60 94 133
59 93 140
59 94 134
61 96 141
60 94 133
60 94 129
60 96 142
60 94 136
60 94 134
60 94 130
59 93 135
60 94 135
59 94 133
60 95 136
61 96 140
60 94 142
60 94 130
60 94 135
59 94 128
60 95 141
60 95 135
60 95 136
60 94 131
60 94 143
59 93 130
61 95 146
59 94 135
60 94 143
59 93 138
58 91 128
60 94 126
60 94 132
59 92 125
60 94 135
60 95 145
59 93 132
58 92 124
59 93 135
58 91 123
58 91 126
60 94 147
58 91 124
58 92 131
58 92 132
59 93 129
59 92 138
59 92 132
59 92 142
57 90 122
58 91 135
58 90 129
57 88 117
57 89 134
56 88 125
57 89 130
57 88 124
57 88 130
56 86 130
54 84 119
53 81 97
52 80 106
50 77 103
49 75 109
62 71 70
75 74 46
61 61 35
58 61 37
44 48 30
56 60 39
46 51 37
59 64 46
57 62 40
59 64 45
59 66 47
70 74 49
83 87 57
74 80 51
78 82 56
82 84 53
79 83 53
85 89 58
84 88 57
92 94 60
103 104 64
95 98 59
107 108 65
107 109 63
116 116 65
130 129 73
126 125 69
131 128 74
133 132 75
130 130 73
135 134 72
129 127 73
136 134 81
137 135 73
139 136 78
137 135 78
139 137 75
142 139 73
136 134 77
143 140 78
144 141 78
152 148 80
152 149 78
148 145 78
153 149 82
160 155 94
154 150 82
152 148 79
159 154 83
158 153 85
167 160 90
159 154 85
160 156 83
165 160 89
165 159 88
166 161 89
161 155 85
163 157 87
162 157 85
164 158 84
162 156 86
164 158 78
168 163 87
162 156 80
168 161 82
170 164 91
170 163 83
167 161 86
165 160 86
164 158 86
169 163 92
170 164 86
168 163 84
169 163 85
169 163 87
170 164 87
170 163 85
166 161 82
172 165 86
168 162 82
168 162 80
167 162 85
171 165 89
172 165 91
172 164 90
169 162 85
167 163 89
165 160 83
167 161 83
168 162 87
168 162 84
168 162 84
167 162 82
169 163 84
163 157 78
167 161 84
174 168 92
170 164 89
169 163 84
164 158 83
170 163 87
162 157 76
169 162 85
169 163 89
169 163 84
168 161 90
167 160 83
169 162 89
167 161 88
164 157 80
167 161 86
164 158 80
165 158 87
162 155 82
166 159 87
165 159 84
171 164 90
161 155 79
163 158 84
165 159 86
167 161 87
165 159 90
166 159 87
160 154 82
165 158 83
162 157 82
167 160 84
165 159 84
167 160 84
159 152 82
160 154 76
158 151 78
166 159 86
163 157 80
162 156 83
160 154 81
157 151 80
150 144 77
167 161 87
159 153 81
154 148 75
157 151 74
161 154 81
156 150 78
156 150 83
154 149 77
157 151 80
150 144 70
158 150 82
221 235 255
221 235 255
221 235 255
221 235 255
221 235 255
221 235 255
221 235 255
221 235 255
221 235 255
221 235 255
221 235 255
221 235 255
221 235 255
221 235 255
221 235 255
221 235 255
221 235 255
221 235 255
221 235 255
221 235 255
221 235 255
221 235 255
221 235 255
221 235 255
221 235 255
221 235 255
221 235 255
221 235 255
221 235 255
221 235 255
221 235 255
221 235 255
221 235 255
221 235 255
221 235 255
221 235 255
221 235 255
221 235 255
221 235 255
221 235 255
221 235 255
221 235 255
221 235 255
221 235 255
221 235 255
221 235 255
221 235 255
221 235 255
221 235 255
221 235 255
221 235 255
221 235 255
221 235 255
221 235 255
221 235 255
221 235 255
221 235 255
221 235 255
221 235 255
221 235 255
221 235 255
221 235 255
221 235 255
221 235 255
221 235 255
221 235 255
221 235 255
221 235 255
221 235 255
221 235 255
221 235 255
221 235 255
221 235 255
221 235 255
221 235 255
221 235 255
221 235 255
221 235 255
221 235 255
221 235 255
221 235 255
221 235 255
221 235 255
221 235 255
221 235 255
221 235 255
221 235 255
221 235 255
221 235 255
221 235 255
221 235 255
221 235 255
221 235 255
221 235 255
221 235 255
221 235 255
220 235 255
221 235 255
221 235 255
220 235 255
221 235 255
220 235 255
220 235 255
220 235 255
220 235 255
220 235 255
220 235 255
220 235 255
220 235 255
220 235 255
220 235 255
220 235 255
220 235 255
220 235 255
220 235 255
220 235 255
220 235 255
220 235 255
220 235 255
220 235 255
220 235 255
220 235 255
220 235 255
220 235 255
220 235 255
220 235 255
220 235 255
220 235 255
220 235 255
220 235 255
220 235 255
220 235 255
220 235 255
219 234 254
58 92 127
52 83 121
58 92 140
57 90 126
59 94 140
60 94 142
55 88 132
55 88 131
56 89 122
54 87 131
51 83 130
51 82 130
51 82 128
129 148 180
156 173 200
56 90 117
61 96 147
58 92 134
60 95 139
59 94 129
60 94 144
60 95 133
59 94 135
60 95 135
60 95 137
59 94 133
60 95 136
60 95 140
59 94 135
60 94 137
59 93 124
59 94 135
60 95 136
59 93 134
60 96 136
60 95 137
60 95 139
60 95 134
61 96 145
60 95 135
59 94 131
59 94 126
61 96 144
61 96 144
60 94 131
61 96 141
62 97 147
60 95 130
61 96 135
61 95 131
61 96 139
60 94 136
61 95 133
61 95 133
60 95 134
60 94 140
59 93 121
60 94 141
60 95 139
59 94 131
60 95 139
61 95 142
59 94 133
61 96 140
61 96 140
60 94 126
61 96 140
61 95 140
60 95 129
58 92 125
60 94 129
61 95 148
60 94 134
60 95 139
59 93 135
59 93 121
60 95 138
59 93 125
59 94 128
60 94 136
60 94 139
61 95 143
59 93 128
58 92 127
58 92 120
58 91 127
58 93 128
60 95 135
56 89 115
59 92 123
59 92 131
59 93 121
59 93 137
59 91 126
61 96 144
59 92 134
59 93 137
58 91 128
60 93 139
60 94 143
60 93 141
57 88 135
57 90 128
58 90 137
58 91 129
57 89 128
57 90 126
57 88 118
58 89 129
55 87 122
57 89 126
54 85 114
55 85 117
54 83 122
51 79 101
50 75 99
48 73 100
65 74 74
52 51 29
42 43 26
57 58 34
40 42 25
38 42 28
44 49 30
52 60 45
54 61 45
56 62 43
57 62 39
64 70 48
73 77 50
70 76 48
72 77 46
93 95 54
86 90 55
95 96 59
84 88 52
98 100 64
96 98 58
95 96 57
101 102 59
119 118 69
112 112 68
115 115 69
115 116 65
123 123 72
135 132 77
131 129 69
131 130 77
123 123 66
144 141 83
132 130 74
135 133 79
139 136 75
139 136 78
144 140 78
142 139 74
149 144 80
150 145 80
157 151 86
147 143 77
147 143 81
149 145 76
152 149 83
158 153 86
148 144 80
153 149 81
159 154 85
157 152 82
158 152 82
161 156 85
162 158 84
163 158 85
155 151 77
162 156 82
159 154 85
163 158 86
162 156 86
159 154 70
164 158 84
165 158 86
162 157 82
166 160 90
169 162 89
167 161 84
169 163 90
163 157 79
172 165 89
170 163 87
168 162 84
165 160 84
169 162 85
165 160 82
169 163 84
168 162 80
169 163 81
170 164 87
168 163 90
170 164 82
167 161 87
173 166 88
167 162 86
166 160 80
168 162 84
169 163 86
172 165 93
167 161 88
168 162 87
166 159 84
171 163 91
169 163 83
165 159 85
169 162 84
169 162 78
166 160 85
169 162 84
169 163 88
165 159 84
168 162 86
168 160 77
163 156 74
167 160 84
166 159 84
173 166 94
162 157 79
164 158 84
166 160 87
165 159 82
163 157 79
166 160 88
165 158 80
163 157 83
161 155 82
159 153 75
171 163 92
165 158 81
162 155 80
167 160 81
164 158 80
160 154 82
166 159 89
165 158 90
162 157 80
166 158 86
163 158 81
165 158 85
155 149 73
167 160 88
161 155 77
168 160 84
162 156 74
160 154 81
161 155 84
154 148 75
150 144 75
159 153 75
159 153 73
160 153 82
163 156 84
158 153 84
158 151 78
158 152 77
158 152 80
156 151 76
161 155 85
153 148 79
152 146 76
221 236 255
221 236 255
221 236 255
221 236 255
221 236 255
221 236 255
221 236 255
221 236 255
221 236 255
221 236 255
221 236 255
221 236 255
221 236 255
221 236 255
221 235 255
221 236 255
221 236 255
221 236 255
221 236 255
221 236 255
221 236 255
221 236 255
221 236 255
221 236 255
221 236 255
221 236 255
221 236 255
221 236 255
221 236 255
221 236 255
221 236 255
221 236 255
221 236 255
221 236 255
221 236 255
221 236 255
221 236 255
221 236 255
221 236 255
221 236 255
221 236 255
221 236 255
221 236 255
221 236 255
221 236 255
221 236 255
221 236 255
221 236 255
221 236 255
221 236 255
221 236 255
221 236 255
221 236 255
221 236 255
221 236 255
221 236 255
221 236 255
221 236 255
221 236 255
221 236 255
221 236 255
221 236 255
221 236 255
221 236 255
221 236 255
221 236 255
221 236 255
221 236 255
221 236 255
221 236 255
221 236 255
221 236 255
221 236 255
221 236 255
221 236 255
221 236 255
221 236 255
221 236 255
221 236 255
221 236 255
221 236 255
221 236 255
221 236 255
221 236 255
221 236 255
221 236 255
221 236 255
221 236 255
221 236 255
221 236 255
221 236 255
221 236 255
221 236 255
221 236 255
221 236 255
221 236 255
221 236 255
221 236 255
221 236 255
221 236 255
221 236 255
221 236 255
221 236 255
221 235 255
221 236 255
221 236 255
221 236 255
221 236 255
221 236 255
221 236 255
221 236 255
221 235 255
221 236 255
221 235 255
221 236 255
221 236 255
221 236 255
221 236 255
221 236 255
221 235 255
221 236 255
221 236 255
221 236 255
221 236 255
221 236 255
221 236 255
221 236 255
221 236 255
221 236 255
221 236 255
221 236 255
221 236 255
221 236 255
220 235 254
57 90 130
55 87 131
59 93 134
56 90 131
59 93 140
58 92 136
56 90 132
57 91 133
56 90 127
55 88 134
51 83 117
52 84 120
52 84 118
136 153 184
147 166 195
58 93 130
59 94 141
59 94 139
58 92 131
58 92 124
60 95 139
58 92 120
59 93 130
59 94 128
60 95 149
59 92 126
60 95 128
60 95 129
61 96 145
60 95 137
60 94 136
59 94 135
61 96 142
60 95 145
59 93 118
61 96 139
60 95 139
60 95 137
60 94 136
60 94 125
60 94 140
60 94 136
61 95 131
59 93 129
60 94 130
60 95 136
60 95 131
60 95 143
59 93 120
60 95 139
60 95 133
59 94 137
60 94 136
60 94 136
60 95 135
61 96 140
60 95 137
58 92 130
59 94 133
60 95 142
60 94 129
60 94 135
59 93 129
61 96 139
59 94 137
60 94 137
59 94 138
60 94 136
60 94 133
59 94 140
59 92 124
59 94 133
60 95 140
60 95 141
58 93 125
60 94 134
59 94 135
61 95 138
60 94 141
60 93 133
60 94 135
59 94 130
60 95 144
59 92 133
60 94 132
59 92 133
59 93 136
60 95 147
59 93 136
59 93 139
61 94 139
58 92 133
58 92 126
58 92 125
58 91 122
58 91 131
58 90 128
58 91 126
59 92 136
58 91 122
57 90 129
56 88 113
58 90 128
57 89 128
58 91 130
57 88 112
58 91 133
58 90 131
54 84 111
58 90 128
57 88 122
54 83 112
54 83 116
54 83 109
52 80 106
50 76 105
52 79 109
67 77 77
76 75 40
69 69 33
41 43 25
40 45 31
36 41 27
38 44 29
40 49 38
46 51 32
61 66 42
57 63 41
60 66 42
56 63 44
76 81 54
66 73 48
78 81 51
84 87 52
79 84 57
95 98 61
104 105 62
109 111 64
117 117 69
107 107 64
117 118 64
112 112 62
119 118 66
119 119 63
130 128 77
126 125 67
116 115 60
123 122 68
127 126 68
133 130 75
137 135 76
138 136 79
134 132 68
142 139 77
143 140 79
147 143 82
148 145 74
143 140 80
143 141 76
147 143 77
156 151 81
160 155 82
148 144 82
154 150 83
148 144 75
159 153 85
155 150 83
154 149 86
155 151 79
162 156 83
160 155 86
161 156 84
166 160 82
159 154 85
162 156 80
162 157 80
169 163 84
164 158 86
162 156 85
160 155 80
165 160 84
169 163 89
168 163 79
170 162 85
163 156 82
172 165 90
167 161 86
166 160 85
171 164 86
166 161 83
167 162 85
171 164 89
167 161 84
167 161 82
167 161 82
167 161 81
168 161 87
171 164 86
170 163 84
169 163 85
169 162 85
168 163 85
163 159 79
170 164 84
167 161 80
166 159 90
170 164 84
168 162 86
169 163 87
172 165 88
172 165 88
168 161 79
167 160 84
168 161 81
168 162 84
171 164 91
167 160 78
163 157 75
166 160 78
168 161 90
167 161 83
169 162 84
166 160 82
166 160 84
164 158 79
163 157 83
163 157 77
161 155 80
168 161 84
171 163 92
165 159 82
169 162 87
159 154 76
161 155 74
162 156 80
162 156 76
157 151 76
165 159 84
164 158 81
153 147 69
160 154 80
166 159 86
169 162 84
164 157 81
166 159 82
167 160 87
159 153 78
163 156 83
161 154 79
160 154 80
159 154 80
159 153 78
160 154 82
161 154 84
161 154 83
163 157 78
164 157 87
160 153 83
166 158 89
161 155 80
159 152 77
150 145 74
157 152 72
158 152 86
156 150 84
162 156 82
222 236 255
222 236 255
222 236 255
222 236 255
222 236 255
222 236 255
222 236 255
222 236 255
222 236 255
222 236 255
222 236 255
222 236 255
222 236 255
222 236 255
222 236 255
222 236 255
222 236 255
222 236 255
222 236 255
222 236 255
222 236 255
222 236 255
222 236 255
222 236 255
222 236 255
222 236 255
222 236 255
222 236 255
222 236 255
222 236 255
222 236 255
222 236 255
222 236 255
222 236 255
222 236 255
222 236 255
222 236 255
222 236 255
222 236 255
222 236 255
222 236 255
222 236 255
222 236 255
222 236 255
222 236 255
222 236 255
222 236 255
222 236 255
222 236 255
222 236 255
222 236 255
222 236 255
222 236 255
222 236 255
222 236 255
222 236 255
222 236 255
222 236 255
222 236 255
222 236 255
222 236 255
222 236 255
222 236 255
222 236 255
222 236 255
222 236 255
222 236 255
222 236 255
222 236 255
222 236 255
222 236 255
222 236 255
222 236 255
222 236 255
222 236 255
222 236 255
222 236 255
222 236 255
222 236 255
222 236 255
222 236 255
222 236 255
222 236 255
222 236 255
222 236 255
222 236 255
222 236 255
222 236 255
222 236 255
222 236 255
222 236 255
222 236 255
222 236 255
222 236 255
222 236 255
222 236 255
222 236 255
222 236 255
222 236 255
222 236 255
222 236 255
222 236 255
222 236 255
222 236 255
222 236 255
222 236 255
222 236 255
222 236 255
222 236 255
222 236 255
222 236 255
222 236 255
222 236 255
222 236 255
222 236 255
222 236 255
222 236 255
222 236 255
222 236 255
222 236 255
222 236 255
222 236 255
222 236 255
222 236 255
222 236 255
222 236 255
222 236 255
222 236 255
222 236 255
222 236 255
222 236 255
222 236 255
222 236 255
220 234 254
55 88 128
54 86 130
58 92 130
58 92 136
57 91 133
55 88 123
55 88 123
54 86 119
56 89 114
53 85 122
50 81 119
48 77 107
52 83 118
160 176 199
159 177 200
58 92 133
58 92 130
57 91 121
59 92 129
57 91 129
57 91 126
60 94 130
60 95 142
60 94 135
59 93 121
60 94 137
59 93 129
61 96 139
59 94 133
61 95 140
60 95 135
59 94 128
58 93 125
60 94 135
60 95 134
60 94 137
60 95 143
61 95 137
62 98 152
59 94 130
60 94 133
60 95 142
60 94 133
61 96 145
60 95 133
60 95 134
60 94 130
61 95 142
60 95 137
60 94 137
60 95 140
59 94 125
60 95 137
59 93 121
62 96 143
59 93 121
61 96 140
60 95 141
59 94 133
59 94 131
59 93 135
61 96 136
58 92 114
59 93 130
59 92 124
58 91 122
60 95 140
60 95 136
59 94 134
61 96 140
60 94 135
60 94 129
60 95 135
60 95 140
61 96 147
62 96 143
60 95 148
61 97 149
60 95 136
60 94 142
62 96 144
57 91 128
60 94 136
59 93 137
59 92 126
60 94 137
58 92 125
59 93 125
58 91 124
59 93 128
60 94 139
60 94 131
58 92 128
57 90 121
60 94 133
58 92 130
58 91 126
58 92 133
60 94 136
59 92 136
55 87 115
58 90 126
57 90 123
58 91 132
57 90 127
57 89 128
57 90 125
55 86 116
56 87 129
56 86 120
55 86 113
57 88 125
53 82 119
56 86 125
51 79 103
50 77 102
49 75 101
61 70 69
69 68 37
52 54 27
51 52 32
46 48 30
53 57 32
38 44 26
41 47 28
49 54 32
55 61 38
55 59 40
55 60 40
66 72 42
84 85 55
75 80 47
70 75 47
77 80 49
90 93 55
105 105 58
93 95 55
87 90 54
95 97 60
107 109 67
91 95 57
91 94 57
116 115 63
118 118 68
115 115 59
122 121 67
127 125 75
130 129 70
128 127 71
133 131 68
130 129 65
136 133 74
134 131 64
144 141 78
147 142 79
138 135 75
152 148 80
135 133 74
147 144 78
149 146 78
147 143 72
151 148 76
151 147 75
157 152 78
145 141 75
159 155 78
157 153 78
153 150 74
160 154 84
159 154 86
158 153 84
158 154 79
161 156 86
154 150 82
157 152 77
160 154 79
162 157 83
158 153 82
159 153 80
165 159 82
164 159 87
166 160 84
167 161 86
168 162 87
167 161 84
162 157 81
161 156 69
166 160 85
168 162 87
165 159 83
171 164 89
171 164 88
171 165 87
163 157 75
167 162 77
170 163 86
171 164 84
163 158 76
171 165 87
168 162 82
172 165 87
170 164 87
165 159 75
166 160 87
170 164 84
158 153 74
170 163 84
168 162 84
166 160 82
170 162 86
166 160 81
171 165 86
165 159 84
167 161 81
170 162 86
162 158 80
169 162 83
167 160 84
166 159 80
163 157 80
166 160 81
169 161 81
168 161 87
167 160 86
165 159 80
163 157 79
170 163 83
162 155 83
161 155 76
166 160 79
167 160 87
168 160 86
166 159 83
163 157 84
169 161 85
163 156 83
165 158 82
161 155 76
162 156 84
161 155 71
159 153 76
154 148 75
171 165 86
168 161 81
160 153 80
164 158 82
162 155 82
159 153 75
153 148 75
167 160 84
162 156 80
158 151 80
156 150 80
157 151 78
159 154 76
164 158 82
163 157 84
156 151 74
153 147 74
154 148 76
156 151 80
152 147 72
154 148 73
155 150 76
152 146 74
160 154 83
222 236 255
222 236 255
222 236 255
222 236 255
222 236 255
222 236 255
222 236 255
222 236 255
222 236 255
222 236 255
222 236 255
222 236 255
222 236 255
222 236 255
222 236 255
222 236 255
222 236 255
222 236 255
222 236 255
222 236 255
222 236 255
222 236 255
222 236 255
222 236 255
222 236 255
222 236 255
222 236 255
222 236 255
222 236 255
222 236 255
222 236 255
222 236 255
222 236 255
222 236 255
222 236 255
222 236 255
222 236 255
222 236 255
222 236 255
222 236 255
222 236 255
222 236 255
222 236 255
222 236 255
222 236 255
222 236 255
222 236 255
222 236 255
222 236 255
222 236 255
222 236 255
222 236 255
222 236 255
222 236 255
222 236 255
222 236 255
222 236 255
222 236 255
222 236 255
222 236 255
222 236 255
222 236 255
222 236 255
222 236 255
222 236 255
222 236 255
222 236 255
222 236 255
222 236 255
222 236 255
222 236 255
222 236 255
222 236 255
222 236 255
222 236 255
222 236 255
222 236 255
222 236 255
222 236 255
223 236 255
223 236 255
223 236 255
223 236 255
222 236 255
223 236 255
223 236 255
223 236 255
223 236 255
223 236 255
223 236 255
223 236 255
223 236 255
223 236 255
223 236 255
223 236 255
223 236 255
223 236 255
223 236 255
223 236 255
223 236 255
223 236 255
223 236 255
223 236 255
223 236 255
223 236 255
223 236 255
223 236 255
223 236 255
223 236 255
223 236 255
223 236 255
223 236 255
223 236 255
223 236 255
223 236 255
223 236 255
223 236 255
223 236 255
223 236 255
223 236 255
223 236 255
223 236 255
223 236 255
223 236 255
223 237 255
223 236 255
223 237 255
223 237 255
223 237 255
223 237 255
223 237 255
223 237 255
223 237 255
220 234 254
56 90 134
52 84 110
57 90 122
59 93 139
58 92 133
55 89 120
57 91 128
56 90 132
56 90 139
51 82 114
54 86 122
53 86 117
51 82 119
157 173 199
158 175 198
59 94 130
58 92 128
59 94 130
58 92 126
58 92 126
59 93 135
59 93 126
59 94 129
60 95 142
59 94 130
59 94 133
60 95 136
61 96 142
59 93 125
60 95 135
61 96 137
58 92 118
59 94 129
59 93 133
59 93 128
60 94 140
60 95 135
60 95 128
58 92 115
60 95 141
61 96 139
60 94 131
60 94 131
59 94 122
61 95 131
60 94 129
60 95 133
58 92 128
60 94 133
60 94 129
58 92 129
60 95 136
62 97 149
61 95 136
58 92 126
59 94 136
59 94 130
58 92 130
60 95 130
60 95 140
60 95 142
60 95 133
59 93 134
59 93 126
59 93 125
59 93 121
62 97 141
59 94 133
59 93 124
59 93 126
59 93 126
59 93 122
59 94 136
60 95 144
59 93 132
60 95 140
61 96 140
57 91 123
60 94 136
59 93 136
59 94 126
57 91 121
62 97 151
60 94 134
59 94 129
60 94 133
59 93 128
59 92 132
59 93 126
60 94 141
58 92 130
59 94 132
59 93 138
58 92 134
58 90 124
61 95 142
58 91 134
60 93 136
60 94 141
57 90 126
58 92 135
57 90 126
56 87 113
58 91 132
56 87 117
56 87 121
57 88 121
56 87 114
59 92 138
56 88 129
55 85 118
56 87 117
55 84 116
52 80 104
52 80 97
50 78 105
49 76 100
58 68 58
79 77 42
49 50 27
42 46 24
44 46 23
43 47 26
41 47 32
46 51 28
52 57 37
49 57 39
58 63 41
54 62 42
54 61 42
61 69 46
76 80 51
66 71 44
88 90 49
70 75 44
86 90 55
93 95 52
96 98 55
94 96 60
107 107 60
111 111 64
102 103 53
115 114 67
117 118 69
122 121 66
125 124 73
120 118 68
114 113 60
130 128 69
128 127 72
125 125 68
136 134 73
133 130 73
133 132 72
137 134 76
135 133 68
141 137 69
145 141 75
144 140 74
151 147 75
155 150 75
152 148 74
150 146 79
151 148 77
152 148 79
145 142 72
157 153 85
160 155 82
153 149 76
158 153 75
161 155 80
163 158 83
159 154 82
158 154 81
157 152 76
166 159 81
167 160 86
164 158 87
163 157 81
167 160 84
156 151 75
165 159 81
165 159 78
163 157 80
166 161 79
170 164 84
164 159 82
165 160 80
163 158 82
167 161 82
166 160 84
170 164 88
171 164 92
172 165 93
167 161 83
166 161 83
167 161 85
161 155 76
170 164 89
171 163 81
171 163 88
174 166 85
163 158 82
169 163 81
166 160 76
165 159 83
169 162 82
167 160 80
171 164 90
170 163 83
168 161 82
170 163 85
168 161 84
166 160 84
164 158 80
160 153 67
169 162 83
160 154 79
164 158 78
164 158 79
167 160 84
166 160 80
165 159 76
163 157 84
165 158 86
162 157 75
168 160 84
159 154 77
168 161 85
161 156 77
164 158 76
158 153 80
164 157 84
164 157 77
165 158 79
163 155 79
162 156 82
164 157 83
165 159 77
162 155 84
161 156 77
165 159 79
162 155 79
153 147 76
165 160 82
156 150 72
154 149 73
161 154 78
159 153 79
163 157 80
161 155 79
157 152 74
163 157 82
157 152 77
163 156 80
163 157 81
166 159 83
153 148 69
155 149 80
156 152 75
156 150 77
157 152 84
150 144 71
154 148 77
158 152 80
161 155 82
223 237 255
223 237 255
223 237 255
223 237 255
223 237 255
223 237 255
223 237 255
223 237 255
223 237 255
223 237 255
223 237 255
223 237 255
223 237 255
223 237 255
223 237 255
223 237 255
223 237 255
223 237 255
223 237 255
223 236 255
223 237 255
223 237 255
223 237 255
223 237 255
223 237 255
223 237 255
223 237 255
223 237 255
223 237 255
223 237 255
223 237 255
223 236 255
223 237 255
223 237 255
223 237 255
223 237 255
223 237 255
223 237 255
223 237 255
223 237 255
223 237 255
223 236 255
223 237 255
223 237 255
223 236 255
223 237 255
223 237 255
223 237 255
223 237 255
223 237 255
223 237 255
223 237 255
223 237 255
223 237 255
223 237 255
223 237 255
223 237 255
223 237 255
223 237 255
223 237 255
223 237 255
223 237 255
223 237 255
223 237 255
223 237 255
223 237 255
223 237 255
223 237 255
223 237 255
223 237 255
223 237 255
223 237 255
223 237 255
223 237 255
223 237 255
223 237 255
223 237 255
223 237 255
223 237 255
223 237 255
223 237 255
223 237 255
223 237 255
223 237 255
223 237 255
223 237 255
223 237 255
223 237 255
223 237 255
223 237 255
223 237 255
223 237 255
223 237 255
223 237 255
223 237 255
223 237 255
223 237 255
223 237 255
223 237 255
223 237 255
223 237 255
223 237 255
223 237 255
223 237 255
223 237 255
223 237 255
223 237 255
223 237 255
223 237 255
223 237 255
224 237 255
223 237 255
223 237 255
224 237 255
224 237 255
224 237 255
224 237 255
224 237 255
224 237 255
224 237 255
224 237 255
224 237 255
224 237 255
224 237 255
224 237 255
224 237 255
224 237 255
224 237 255
224 237 255
224 237 255
224 237 255
224 237 255
224 237 254
204 219 231
55 88 119
52 84 119
55 87 117
57 90 122
55 88 117
54 87 110
57 91 122
57 90 123
55 88 132
54 86 114
53 85 125
52 83 124
53 85 118
174 189 206
164 180 198
58 92 128
58 92 115
60 94 131
58 92 122
60 95 137
60 94 134
60 95 133
59 92 136
61 95 147
60 95 135
61 96 142
60 95 134
59 93 128
61 96 135
58 92 125
57 91 130
59 93 130
59 93 131
59 93 126
58 92 114
58 92 125
59 94 130
60 94 133
61 96 140
60 95 131
59 93 130
60 94 136
60 94 136
59 93 135
61 95 130
61 96 140
60 94 133
59 94 131
60 95 141
59 93 131
60 94 136
61 95 144
59 94 130
60 94 139
61 96 140
61 96 137
60 95 135
59 94 133
60 94 126
59 93 140
60 95 135
61 96 145
59 92 126
61 96 140
59 93 115
59 93 134
60 94 135
58 91 130
60 95 145
58 92 122
58 92 131
60 95 136
60 94 129
60 94 134
60 93 136
60 94 135
60 95 135
59 93 126
58 91 126
59 93 134
60 94 130
59 93 134
60 94 136
60 94 129
60 94 133
59 92 131
58 91 124
60 94 137
59 93 135
57 89 123
59 92 127
57 89 124
59 93 128
59 93 129
57 91 129
57 90 119
60 94 140
59 93 136
58 92 130
58 90 121
57 89 118
58 91 135
57 90 123
59 92 124
58 91 128
55 87 115
57 90 130
55 87 119
57 88 123
55 85 110
55 85 115
54 84 110
56 86 122
51 78 109
51 78 105
49 75 104
47 72 101
52 63 63
74 73 36
52 51 24
52 53 21
54 53 24
42 44 18
39 44 25
40 48 29
48 53 28
51 58 36
50 55 31
53 58 37
66 70 44
62 69 42
74 78 46
84 88 51
82 86 52
92 93 53
82 87 53
97 99 60
92 95 56
91 94 56
104 105 59
115 114 62
109 109 60
104 106 56
111 110 57
106 107 57
112 112 56
115 115 68
131 128 67
112 112 56
136 133 67
133 130 61
128 127 68
137 135 73
142 139 69
135 133 70
136 134 69
146 142 74
133 132 63
142 139 73
149 146 80
145 142 72
149 145 77
147 143 70
147 144 70
153 149 83
154 150 79
151 147 70
155 149 70
153 149 84
153 149 81
158 153 74
159 154 81
161 156 78
157 151 80
161 155 80
165 158 81
159 155 73
161 156 76
164 158 77
160 156 72
168 161 85
159 154 78
160 155 78
167 160 82
163 158 79
168 162 83
163 158 83
169 163 84
168 161 80
167 160 76
168 162 82
169 163 80
168 162 83
167 160 85
168 161 82
165 159 79
168 161 82
173 166 88
168 161 80
169 162 82
167 160 80
168 161 84
165 158 75
167 161 81
166 160 82
171 164 84
169 162 81
168 161 75
162 155 81
170 163 83
166 160 80
168 162 79
169 162 81
166 160 78
165 159 77
164 159 79
165 158 81
162 156 76
160 155 84
164 158 81
164 159 73
172 165 85
162 156 80
165 159 79
162 155 74
155 150 73
168 161 80
163 156 73
162 156 79
164 157 80
161 155 80
169 161 86
164 158 75
158 152 77
163 157 79
163 158 79
167 161 84
165 159 83
168 161 89
162 155 77
165 159 75
162 155 79
161 155 76
163 156 81
161 156 71
165 158 80
166 159 87
159 153 81
156 151 74
163 156 77
151 145 75
161 155 84
160 154 83
152 148 69
158 152 72
155 149 82
161 155 77
158 151 77
154 148 80
149 144 70
160 154 78
159 153 81
159 152 80
157 150 77
157 151 75
153 148 73
224 237 255
224 237 255
224 237 255
224 237 255
224 237 255
224 237 255
224 237 255
224 237 255
224 237 255
224 237 255
224 237 255
224 237 255
224 237 255
224 237 255
224 237 255
224 237 255
224 237 255
224 237 255
224 237 255
224 237 255
224 237 255
224 237 255
224 237 255
224 237 255
224 237 255
224 237 255
224 237 255
224 237 255
224 237 255
224 237 255
224 237 255
224 237 255
224 237 255
224 237 255
224 237 255
224 237 255
224 237 255
224 237 255
224 237 255
224 237 255
224 237 255
224 237 255
224 237 255
224 237 255
224 237 255
224 237 255
224 237 255
224 237 255
224 237 255
224 237 255
224 237 255
224 237 255
224 237 255
224 237 255
224 237 255
224 237 255
224 237 255
224 237 255
224 237 255
224 237 255
224 237 255
224 237 255
224 237 255
224 237 255
224 237 255
224 237 255
224 237 255
224 237 255
224 237 255
224 237 255
224 237 255
224 237 255
224 237 255
224 237 255
224 237 255
224 237 255
224 237 255
224 237 255
224 237 255
224 237 255
224 237 255
224 237 255
224 237 255
224 237 255
224 237 255
224 237 255
224 237 255
224 237 255
224 237 255
224 237 255
224 237 255
224 237 255
224 237 255
224 237 255
224 237 255
224 237 255
224 237 255
224 237 255
224 237 255
224 237 255
224 237 255
224 237 255
224 237 255
224 237 255
224 237 255
224 237 255
224 237 255
224 237 255
224 237 255
224 237 255
224 237 255
224 237 255
224 237 255
224 237 255
224 237 255
224 237 255
224 237 255
224 237 254
224 237 254
222 235 248
218 232 236
216 231 231
214 229 224
211 227 215
207 224 204
202 219 184
202 219 181
198 216 171
196 215 161
186 207 120
190 210 137
181 203 95
177 199 36
161 185 51
55 88 122
54 86 116
58 92 136
56 88 115
56 90 108
56 89 125
57 90 122
55 88 120
55 87 113
53 85 118
52 83 109
50 80 106
51 82 112
192 207 226
174 190 213
60 95 137
59 93 130
58 92 120
58 92 124
58 92 126
60 95 140
59 94 133
58 93 130
56 90 118
59 94 129
60 94 131
60 95 130
58 93 124
60 94 133
59 94 128
60 95 139
60 94 137
59 93 130
59 94 126
59 93 125
61 96 141
60 94 140
59 93 124
59 94 133
61 95 136
59 93 126
59 94 126
60 95 135
60 94 134
58 91 115
60 94 137
59 93 130
60 94 134
59 93 125
60 94 130
59 94 125
61 96 141
60 94 131
59 93 126
60 94 130
60 94 131
59 93 128
58 92 126
60 95 135
59 93 124
61 95 134
60 94 126
59 93 128
60 94 134
60 94 133
59 94 130
58 92 125
59 94 129
59 93 134
59 93 129
60 94 136
60 94 135
60 94 133
59 93 131
59 93 124
60 94 130
60 94 135
60 94 139
60 94 134
59 92 131
60 94 137
58 92 124
60 94 128
58 91 124
58 92 128
59 93 132
58 92 129
59 92 129
58 92 122
59 92 130
60 93 133
58 92 127
57 90 122
58 91 131
58 90 115
59 93 129
59 92 131
58 91 125
58 90 124
59 92 131
59 93 136
58 91 125
57 88 116
56 87 119
57 88 118
56 87 117
57 88 126
58 91 125
57 88 131
55 85 119
55 86 110
53 82 111
55 85 111
50 77 101
52 79 102
51 77 100
47 71 95
73 79 66
63 61 31
48 49 20
36 39 21
27 30 14
26 34 24
41 47 26
43 47 22
44 50 26
57 60 22
40 49 29
53 60 38
65 70 39
75 78 47
78 82 52
67 73 47
79 82 49
75 79 40
84 86 45
108 109 57
103 104 58
105 106 51
99 101 60
101 103 57
117 117 63
102 103 57
111 111 59
115 114 59
122 122 64
126 125 70
119 118 60
123 122 68
126 124 61
143 138 68
135 133 69
140 137 71
148 145 80
133 132 71
142 139 69
133 131 65
143 139 72
147 144 69
143 140 74
155 151 83
155 149 82
149 146 77
157 153 81
150 146 72
151 147 73
146 143 70
158 152 78
156 152 80
154 151 79
157 153 72
151 146 72
162 156 77
161 155 83
154 149 72
162 156 80
160 154 74
164 158 82
163 158 80
162 157 76
169 162 84
157 151 77
165 159 86
169 161 82
163 157 77
166 160 78
168 161 85
164 158 82
165 158 78
165 159 79
162 157 81
171 164 84
169 163 80
164 158 78
170 163 84
165 159 78
167 160 78
165 159 81
166 160 79
168 160 81
170 163 80
167 160 80
169 163 83
170 163 88
166 159 80
163 156 79
170 163 80
168 162 81
162 156 74
174 166 92
163 157 78
159 152 75
168 160 84
169 162 85
162 156 77
164 157 79
173 166 90
158 152 71
164 158 80
163 157 79
167 160 80
161 156 75
164 157 75
166 160 70
165 158 80
168 161 82
169 162 84
162 156 76
164 158 84
158 151 76
168 161 83
164 157 77
165 158 87
163 156 79
163 158 77
168 161 83
162 155 76
158 152 74
161 155 75
168 160 83
161 155 77
157 151 75
159 152 75
156 149 74
157 151 72
163 157 79
158 151 75
168 161 87
155 150 74
158 152 75
157 151 78
155 149 75
158 152 78
152 147 74
155 149 71
159 154 73
158 152 78
149 144 72
160 154 73
155 148 72
163 156 87
154 148 75
154 148 75
161 155 77
159 152 77
161 155 84
224 237 255
224 237 255
224 237 255
224 237 255
224 237 255
224 237 255
224 237 255
224 237 255
224 237 255
224 237 255
224 237 255
224 237 255
224 237 255
224 237 255
224 237 255
224 237 255
224 237 255
224 237 255
224 237 255
224 237 255
224 237 255
224 237 255
224 237 255
224 237 255
224 237 255
224 237 255
224 237 255
224 237 255
224 237 255
224 237 255
224 237 255
224 237 255
224 237 255
224 237 255
224 237 255
224 237 255
224 237 255
224 237 255
224 237 255
224 237 255
224 237 255
224 237 255
224 237 255
224 237 255
224 237 255
224 237 255
224 237 255
224 237 255
224 237 255
224 237 255
224 237 255
224 237 255
224 237 255
224 237 255
224 237 255
224 237 255
224 237 255
224 237 255
224 237 255
224 237 255
224 237 255
224 237 255
224 237 255
224 237 255
224 237 255
224 237 255
224 237 255
224 237 255
224 237 255
224 237 255
224 237 255
224 237 255
224 237 255
224 237 255
224 237 255
224 237 255
224 237 255
224 237 255
224 237 255
224 237 255
224 237 255
224 237 255
224 237 255
224 237 255
224 237 255
225 237 255
225 237 255
224 237 255
225 237 255
225 237 255
225 237 255
225 237 255
225 237 255
224 237 253
222 236 249
222 236 249
219 233 238
211 227 215
216 230 228
214 229 226
216 230 228
210 225 211
209 225 207
202 219 186
208 224 204
201 218 181
198 216 169
202 219 182
197 215 161
193 212 153
191 211 144
193 212 144
187 207 120
183 205 102
186 207 114
181 203 92
180 202 76
176 199 36
174 197 0
174 197 0
174 197 0
177 199 0
173 197 0
173 197 0
174 198 0
174 198 0
173 197 0
173 197 0
175 198 0
172 197 0
174 198 0
173 197 0
174 198 0
156 179 57
54 85 106
56 88 123
56 89 115
57 90 121
57 90 124
55 88 122
54 87 120
54 86 115
54 86 117
54 86 113
52 83 107
52 83 114
56 87 110
205 219 232
189 203 223
59 94 139
58 92 122
59 93 133
60 94 136
58 92 129
58 92 129
59 93 128
60 94 128
59 93 133
59 93 126
59 94 128
60 95 137
59 94 133
58 93 128
59 93 137
60 94 135
62 96 142
60 95 136
60 94 131
60 94 131
61 95 137
60 94 137
60 95 130
59 93 126
59 93 130
58 92 122
59 94 122
60 94 130
58 92 115
59 93 130
59 94 129
59 93 129
59 93 131
60 94 131
59 92 126
60 95 137
61 96 137
60 95 134
60 95 141
60 94 131
61 96 137
59 93 128
59 93 128
59 94 131
59 93 133
61 95 136
59 94 136
60 94 134
58 91 124
60 95 136
60 94 130
59 93 134
60 94 137
59 93 126
60 94 134
60 93 124
60 94 128
60 95 139
59 93 130
58 92 120
59 93 134
59 93 133
59 93 128
60 94 131
58 91 125
59 93 132
60 94 140
60 94 135
58 92 124
59 93 126
60 94 139
59 93 134
58 92 120
58 90 120
59 93 126
57 89 111
57 90 112
58 92 133
60 94 135
58 91 128
57 90 123
56 89 115
59 93 135
58 90 115
59 91 128
58 90 131
56 88 120
57 89 123
58 90 132
55 85 110
56 88 123
56 87 122
58 89 126
56 87 116
53 83 109
55 86 117
55 85 124
53 81 104
55 84 115
48 73 87
50 77 98
46 69 83
84 88 65
74 73 28
56 56 22
49 50 20
26 32 18
49 52 24
39 44 20
40 47 27
54 59 31
52 57 32
55 59 34
64 67 31
64 69 37
73 77 42
64 69 41
85 87 41
72 76 38
73 76 36
90 92 39
93 94 42
101 102 58
93 95 50
93 95 53
112 112 61
112 111 57
110 110 53
114 113 64
97 98 51
115 115 53
124 122 63
133 130 71
126 124 71
129 127 66
135 133 64
147 143 73
130 128 64
134 131 63
143 139 70
141 137 74
143 140 75
145 141 72
142 139 72
143 139 76
143 140 66
149 145 72
150 145 72
144 141 75
148 143 70
151 147 77
149 144 71
151 147 70
155 149 71
162 155 82
153 149 72
158 153 82
155 149 74
152 147 72
160 154 80
160 155 80
160 154 73
167 160 80
160 155 76
165 159 74
164 157 75
159 155 69
159 154 71
166 160 80
160 155 73
169 162 80
162 156 78
169 163 86
165 160 76
167 159 82
172 165 86
164 158 74
164 159 75
167 161 81
171 165 87
164 159 77
165 160 75
161 156 69
167 161 81
170 164 89
168 162 80
167 161 77
168 162 85
168 161 82
167 161 80
166 160 77
166 160 80
161 155 76
164 158 71
161 155 75
165 159 73
166 160 75
170 163 85
170 163 82
165 158 79
162 156 77
165 159 74
162 157 75
166 160 84
165 158 82
165 157 83
164 159 75
166 160 78
165 159 81
163 156 73
161 155 78
169 161 82
161 154 75
167 161 84
168 161 80
161 155 77
164 157 79
161 155 76
160 154 79
161 154 73
161 156 74
160 153 75
162 156 80
170 162 89
160 154 69
160 153 75
161 154 79
163 157 78
160 154 77
160 153 79
160 154 79
159 153 74
156 150 78
156 150 67
159 152 76
157 151 77
160 153 73
157 150 70
164 157 81
152 146 70
158 151 81
154 148 72
153 148 68
154 148 73
149 142 71
151 146 74
156 149 72
160 154 75
158 151 79
157 151 76
153 147 75
225 238 255
225 238 255
224 237 253
221 235 245
223 236 252
225 238 255
225 238 255
225 238 255
225 238 255
225 238 255
225 238 255
225 238 255
225 238 255
225 238 255
225 238 255
225 238 255
225 238 255
225 238 255
225 238 255
225 238 255
225 238 255
225 238 255
225 238 255
225 238 255
225 238 255
225 237 255
225 237 255
225 237 255
225 237 255
225 237 255
225 237 255
225 237 255
225 237 255
225 238 255
225 238 255
225 238 255
225 238 255
225 238 255
225 238 255
225 237 255
225 238 255
225 238 255
225 237 255
225 238 255
225 238 255
225 237 255
225 238 255
225 238 255
225 238 255
225 238 255
225 238 255
224 237 254
224 237 254
221 234 244
223 236 250
221 235 245
220 234 244
220 234 242
219 233 240
216 230 230
216 230 228
216 230 228
217 232 234
216 230 228
211 227 215
212 227 218
212 228 220
209 225 207
204 221 189
205 222 194
204 221 191
206 222 198
207 223 203
201 218 179
203 220 189
200 217 177
200 217 177
203 220 186
193 212 151
192 212 147
195 213 153
191 211 149
189 209 128
193 212 151
189 209 130
180 202 84
184 205 108
184 205 105
181 203 84
180 202 80
179 201 76
176 198 0
174 198 25
173 197 0
175 198 0
174 198 0
175 198 0
174 198 0
173 197 0
175 198 0
174 197 0
174 197 0
174 197 0
173 197 0
174 197 0
175 198 0
174 198 0
175 198 0
174 198 0
175 198 0
174 197 0
175 198 0
175 198 0
174 198 0
174 198 0
174 198 0
175 198 0
174 197 0
174 198 0
173 197 0
172 197 0
172 197 0
172 196 0
174 197 0
174 198 0
175 198 0
172 197 0
172 196 0
173 197 0
174 197 0
173 197 0
174 198 0
175 198 0
149 173 62
54 86 111
54 86 106
53 85 103
55 88 109
55 88 114
55 88 115
55 88 116
53 85 104
53 85 114
55 88 118
51 83 98
51 81 108
88 115 96
190 210 135
197 212 228
57 91 128
60 95 135
58 92 124
59 94 130
58 92 121
59 94 134
58 92 134
61 96 133
59 94 130
57 90 117
61 96 140
58 93 118
59 94 126
59 93 126
58 92 120
59 93 133
59 93 125
59 94 128
60 95 141
58 92 117
60 95 129
61 95 140
58 93 122
60 95 135
60 95 135
59 93 118
59 94 128
60 94 129
59 93 128
60 94 137
61 96 140
61 96 139
59 94 141
59 93 134
59 93 124
59 94 134
60 95 139
59 94 128
60 95 133
59 94 131
60 95 124
58 92 117
60 94 134
59 93 124
58 92 125
59 93 121
60 94 129
60 95 141
60 95 135
59 93 124
59 94 133
59 93 122
60 95 133
60 94 128
59 94 131
58 92 124
58 92 126
59 94 135
60 95 139
58 92 128
60 94 136
59 92 128
58 91 135
61 96 145
59 93 125
60 95 135
59 92 124
61 95 142
60 94 131
59 93 130
59 92 129
57 90 114
58 91 133
58 91 123
58 91 128
59 93 138
59 93 129
59 93 134
60 94 134
57 90 124
58 91 125
57 90 124
58 90 115
60 93 141
58 91 124
58 90 128
54 85 115
57 89 114
56 88 114
56 87 118
58 90 123
57 89 129
58 91 129
54 84 107
54 84 93
55 85 112
56 86 117
53 81 108
49 76 88
49 76 98
49 75 104
48 72 90
103 105 78
90 87 38
54 54 23
52 54 15
48 51 19
38 42 21
37 43 20
38 44 19
39 44 21
38 44 23
45 50 22
54 58 23
52 56 30
69 73 45
72 76 40
75 78 39
83 86 46
95 96 52
95 96 44
86 89 48
94 96 48
91 93 48
106 107 56
110 109 63
101 103 52
114 113 56
117 117 57
115 115 65
122 120 59
123 121 67
121 120 62
126 124 66
123 123 63
134 131 66
133 131 61
134 133 71
127 125 68
142 138 71
134 131 64
132 129 62
142 138 70
143 139 68
145 140 73
145 141 73
151 147 80
154 149 77
144 139 66
148 144 71
155 150 79
152 147 74
145 140 66
149 146 65
154 150 70
150 146 63
156 151 69
151 147 76
159 154 80
159 154 71
159 153 77
160 154 71
153 148 65
158 153 74
160 155 72
165 159 80
160 155 76
159 155 74
155 150 74
168 162 83
163 157 69
164 159 78
167 160 88
166 160 83
168 162 82
164 158 80
163 158 72
167 161 80
166 160 76
162 156 70
167 160 76
165 159 79
165 159 75
167 162 79
165 158 80
169 162 87
163 156 75
164 159 75
169 162 77
166 160 77
165 159 80
169 162 79
163 156 75
172 165 88
159 153 78
164 158 80
159 153 75
166 160 80
169 163 82
166 159 78
164 158 71
169 161 81
166 160 75
165 158 79
166 160 80
166 159 79
169 161 79
163 157 74
155 150 71
164 158 77
166 161 83
165 158 81
165 159 81
168 161 82
155 150 69
161 154 74
164 157 79
161 155 75
165 158 76
158 152 71
163 157 80
168 161 84
163 156 76
158 153 71
161 155 75
161 154 76
161 154 74
154 148 68
158 152 74
164 158 75
162 155 77
152 147 70
159 153 80
159 153 80
158 151 79
163 156 75
160 154 80
163 156 80
156 150 71
162 156 80
154 148 72
157 150 71
151 145 71
159 152 80
160 154 79
160 154 79
154 148 78
156 150 81
156 149 77
162 156 78
158 151 80
183 204 102
179 201 67
174 198 25
174 197 0
175 198 0
174 197 0
174 198 0
175 198 0
176 199 51
178 201 62
179 202 76
184 205 105
183 204 95
182 204 92
185 206 105
188 208 120
182 204 95
184 205 105
186 207 111
189 209 133
188 208 122
190 210 137
185 206 114
188 208 128
185 205 105
185 206 111
184 206 108
187 208 122
185 206 114
188 208 128
187 207 117
186 207 120
183 204 102
185 206 111
185 206 114
184 205 102
182 203 92
186 207 117
186 207 114
180 202 84
184 205 105
182 203 92
181 203 92
179 201 67
182 204 99
180 202 80
179 201 62
179 200 44
176 199 44
175 198 25
173 197 25
176 198 0
174 198 0
176 199 0
174 198 0
174 198 0
175 198 0
174 197 0
174 198 0
174 198 0
176 198 0
174 198 0
173 197 0
174 197 0
175 198 0
174 197 0
175 198 0
175 198 0
173 197 0
175 198 0
174 198 0
175 198 0
176 199 0
174 198 0
174 198 0
175 198 0
175 198 0
173 197 0
175 198 0
175 198 0
175 198 0
175 198 0
173 197 0
172 196 0
174 197 0
176 199 0
175 198 0
175 198 0
173 197 0
175 198 0
175 198 0
175 198 0
173 197 0
175 198 0
173 197 0
174 197 0
174 198 0
175 198 0
173 197 0
175 198 0
175 198 0
175 198 0
173 197 0
174 198 0
175 198 0
174 197 0
174 198 0
174 197 0
175 198 0
176 198 0
175 198 0
175 198 0
174 197 0
175 198 0
172 196 0
174 197 0
173 196 0
175 198 0
174 198 0
175 198 0
173 197 0
174 197 0
175 198 0
174 198 0
173 197 0
175 198 0
172 195 0
175 198 0
174 197 0
172 195 0
172 196 0
172 196 0
175 198 0
132 156 67
55 88 98
56 89 122
57 90 120
58 91 124
56 89 113
56 88 118
55 88 102
54 86 107
50 80 88
52 84 111
52 84 100
52 83 107
113 137 88
175 198 0
206 221 215
57 91 118
58 91 122
59 93 134
58 91 128
59 93 134
58 92 121
59 93 133
58 92 110
58 92 121
59 93 126
60 95 125
59 93 129
59 93 122
59 94 133
60 95 126
56 89 115
58 92 125
58 92 134
59 94 125
58 92 122
60 95 135
59 93 124
58 92 124
60 94 131
58 93 117
59 93 134
59 94 133
61 96 134
59 93 124
59 93 125
59 94 135
59 93 130
60 95 135
57 91 120
57 91 114
60 94 134
59 93 136
60 94 134
60 94 133
60 95 135
59 93 130
61 95 137
59 94 128
59 93 125
59 94 126
58 92 122
62 96 144
59 94 126
59 93 118
58 91 117
61 95 144
58 92 130
59 93 125
58 92 130
59 94 130
58 92 122
59 93 129
59 92 132
60 94 126
59 94 136
59 93 129
59 92 130
58 91 120
60 94 137
58 92 129
59 92 126
58 91 120
59 92 124
58 92 121
59 92 126
60 94 137
60 94 140
58 91 121
57 90 117
58 91 120
58 92 128
60 93 137
57 89 121
59 93 134
58 91 126
58 91 125
57 90 117
57 89 128
57 89 113
59 92 127
58 91 119
58 91 122
57 89 116
57 89 125
57 89 117
56 87 119
57 89 123
56 89 118
55 86 119
53 83 105
54 83 111
53 82 109
53 82 109
52 81 106
49 74 87
49 73 87
50 76 105
143 148 137
73 72 32
67 68 24
63 63 20
56 58 27
49 52 17
43 47 16
55 60 23
39 44 24
49 55 29
49 56 29
58 63 31
62 65 34
62 67 33
67 70 37
66 71 33
71 76 39
89 91 43
82 83 45
89 91 44
90 93 46
102 103 57
105 105 53
105 105 53
101 101 58
113 111 59
108 109 47
120 119 64
109 108 56
119 116 55
116 114 57
126 125 62
132 130 64
132 131 65
135 133 69
125 121 67
138 135 67
138 135 70
135 133 65
133 130 64
134 132 66
143 140 68
136 134 62
145 141 71
144 140 67
144 140 64
150 147 70
151 147 73
155 150 76
151 147 69
146 143 77
151 147 71
150 145 74
153 148 72
157 152 67
156 150 76
162 155 78
159 153 76
148 145 60
155 151 68
158 153 74
154 149 68
158 152 75
162 157 77
164 158 74
160 153 71
159 153 75
162 157 76
164 158 80
164 158 80
167 161 79
164 159 75
166 160 78
157 152 75
163 157 79
160 154 70
167 160 79
166 159 77
165 159 80
162 156 74
167 161 78
166 160 80
166 159 82
163 156 75
168 162 82
162 156 72
172 165 85
163 157 73
165 159 76
166 159 75
164 158 78
167 161 79
167 160 80
165 158 78
166 159 75
166 159 78
169 162 83
162 156 72
165 159 77
161 155 75
165 158 81
164 158 75
169 162 80
166 159 77
166 159 84
164 158 75
163 156 80
166 160 76
165 158 75
162 156 75
161 154 75
159 153 75
159 153 69
156 150 73
163 157 75
157 151 69
157 151 74
160 153 80
163 156 75
156 150 76
163 157 75
154 148 74
165 158 80
156 150 72
154 148 73
164 157 80
157 151 76
159 152 74
157 151 72
163 156 75
159 153 71
160 153 75
152 147 74
163 157 77
157 150 78
163 156 78
154 148 71
158 152 75
162 155 83
152 147 66
154 148 74
158 153 75
161 154 80
157 150 78
159 152 84
157 151 73
158 151 79
155 149 71
151 145 71
175 198 0
174 198 0
174 197 0
175 198 0
175 198 0
175 198 0
172 197 0
176 199 0
174 198 0
174 198 0
177 199 0
174 197 0
174 198 0
174 198 0
173 197 0
173 197 0
174 197 0
175 198 0
174 198 0
176 199 0
176 198 0
173 197 0
176 198 0
174 198 0
175 198 0
176 198 0
173 197 0
174 197 0
174 198 0
172 197 0
177 199 0
173 197 0
173 197 0
174 198 0
177 199 0
174 197 0
175 198 0
174 198 0
175 198 0
176 198 0
175 198 0
173 197 0
176 199 0
174 197 0
174 198 0
175 198 0
174 197 0
176 198 0
176 199 0
174 197 0
175 198 0
176 199 0
174 198 0
176 199 0
174 198 0
175 198 0
174 198 0
174 198 0
173 197 0
174 198 0
173 197 0
174 198 0
172 197 0
174 198 0
175 198 0
176 198 0
175 198 0
174 198 0
174 197 0
174 198 0
175 198 0
173 197 0
173 197 0
174 198 0
173 197 0
172 197 0
174 197 0
174 198 0
174 198 0
173 197 0
175 198 0
174 198 0
174 198 0
172 196 0
175 198 0
173 197 0
175 198 0
175 198 0
172 197 0
175 198 0
175 198 0
173 197 0
173 196 0
173 197 0
173 197 0
175 198 0
174 197 0
174 197 0
176 199 0
174 198 0
175 198 0
174 198 0
174 198 0
173 197 0
175 198 0
174 197 0
174 198 0
172 196 0
173 197 0
172 197 0
175 198 0
174 198 0
175 198 0
172 197 0
173 197 0
174 198 0
174 198 0
175 198 0
173 197 0
174 197 0
174 198 0
172 196 0
172 196 0
175 198 0
174 197 0
175 198 0
169 194 0
170 193 0
173 197 0
173 196 0
174 197 0
174 197 0
173 195 0
116 140 84
53 85 96
57 91 110
56 88 115
56 89 112
56 88 119
56 89 115
52 84 114
56 88 113
54 86 107
56 88 115
53 85 112
52 84 107
154 178 72
175 198 0
214 229 226
71 100 128
59 93 118
57 90 118
58 92 126
59 93 129
59 93 122
58 92 121
59 94 126
60 94 131
58 92 129
59 93 131
59 94 131
59 94 130
59 93 124
59 93 122
59 93 124
59 94 120
59 94 128
60 94 133
58 92 124
59 93 130
60 94 135
59 93 133
57 91 118
60 94 135
60 94 124
59 93 124
59 93 122
59 93 134
58 92 121
60 95 133
60 94 139
59 93 124
59 94 133
57 91 118
59 93 120
59 93 126
59 93 135
58 92 120
60 94 129
59 92 129
59 93 129
59 94 125
59 94 124
59 93 117
58 92 117
60 94 133
57 90 120
60 94 125
60 95 140
60 95 129
59 93 133
59 93 128
59 93 130
60 95 126
59 93 128
59 94 135
58 92 128
59 93 126
60 94 130
58 92 118
59 93 122
59 93 135
57 90 121
59 94 133
60 94 132
58 92 124
59 93 134
59 92 133
60 94 134
58 92 120
59 92 128
59 92 125
58 91 126
59 92 128
57 89 117
58 91 129
57 90 119
59 93 130
58 91 121
57 90 121
58 90 126
58 91 125
57 89 126
56 88 120
58 91 126
58 91 129
56 88 124
56 88 113
53 82 110
58 91 123
56 87 106
56 87 113
56 87 110
53 83 107
53 83 105
52 81 103
52 81 101
52 79 102
47 72 94
48 73 80
70 88 100
181 190 196
78 77 31
64 63 21
51 52 19
52 52 17
46 49 24
50 53 22
49 54 17
50 53 23
50 55 24
51 57 27
50 56 19
62 65 28
65 71 42
75 78 42
79 81 36
65 70 35
74 76 41
94 95 44
91 93 49
93 93 49
82 84 44
97 99 50
102 102 49
108 109 62
104 106 50
104 105 54
123 121 60
124 122 58
117 116 57
113 113 54
124 122 58
130 128 59
129 126 67
127 125 62
143 139 66
139 136 66
138 135 66
132 130 62
133 130 69
138 135 70
141 139 68
140 137 61
142 139 66
149 145 69
146 142 74
148 145 75
151 147 72
150 145 67
155 150 73
154 148 71
158 152 80
156 150 74
152 147 69
154 150 72
160 154 78
159 154 81
159 154 77
163 155 82
152 148 68
156 151 73
165 159 79
164 158 77
158 153 72
163 157 80
166 160 77
167 160 74
158 152 70
171 163 84
162 155 75
161 156 74
165 159 79
167 160 81
158 152 68
167 159 80
156 150 70
166 160 80
162 156 71
166 160 76
167 159 79
162 156 69
161 155 71
167 159 76
170 163 86
164 158 75
162 155 72
161 156 77
160 154 74
172 164 84
168 161 76
163 157 74
164 158 73
168 162 87
160 153 76
159 153 68
162 156 75
168 161 72
161 156 73
166 160 77
167 160 83
167 160 80
165 158 79
164 158 77
162 156 73
161 155 75
160 154 72
163 157 76
164 159 73
158 152 75
160 153 75
163 156 76
162 155 80
161 155 74
162 155 75
158 152 73
159 154 69
169 161 84
165 158 84
166 159 80
160 154 75
162 155 73
158 151 68
154 148 70
168 161 84
156 150 68
155 148 68
165 159 80
161 155 74
151 145 66
153 148 67
154 148 70
159 152 80
158 153 77
155 148 71
155 149 76
150 144 70
158 151 78
152 145 67
158 151 74
161 154 82
158 152 79
159 152 78
153 148 66
158 151 78
155 150 77
157 150 76
156 150 72
154 149 73
154 148 75
174 198 0
172 197 0
174 198 0
175 198 0
175 198 0
175 198 0
174 198 0
174 197 0
176 198 0
175 198 0
174 198 0
176 199 0
175 198 0
176 199 0
176 198 0
174 198 0
174 198 0
175 198 0
173 197 0
174 197 0
173 197 0
176 199 0
174 197 0
174 198 0
173 197 0
173 197 0
174 197 0
175 198 0
175 198 0
175 198 0
173 197 0
175 198 0
173 197 0
173 197 0
175 198 0
175 198 0
172 197 0
176 199 0
173 197 0
175 198 0
175 198 0
174 198 0
174 198 0
174 198 0
175 198 0
173 197 0
175 198 0
174 198 0
173 197 0
174 198 0
173 197 0
175 198 0
176 199 0
176 199 0
175 198 0
174 198 0
174 197 0
174 198 0
173 197 0
173 197 0
175 198 0
174 198 0
174 197 0
176 199 0
175 198 0
174 197 0
176 199 0
174 198 0
175 198 0
175 198 0
174 197 0
174 198 0
173 197 0
173 197 0
173 197 0
173 197 0
175 198 0
173 197 0
174 197 0
173 197 0
175 198 0
175 198 0
175 198 0
174 198 0
174 198 0
174 198 0
174 197 0
174 198 0
175 198 0
175 198 0
173 197 0
175 197 0
174 198 0
174 197 0
174 198 0
174 197 0
171 195 0
176 199 0
172 196 0
172 196 0
175 198 0
174 198 0
175 198 0
175 198 0
175 198 0
176 199 0
173 197 0
175 197 0
175 198 0
174 198 0
174 197 0
175 198 0
172 196 0
176 199 0
174 197 0
174 196 0
175 198 0
174 197 0
171 195 0
174 197 0
174 197 0
174 198 0
175 198 0
172 195 0
174 198 0
171 195 0
173 197 0
173 195 0
173 197 0
173 196 0
171 195 0
171 194 0
170 194 0
88 112 80
55 87 102
57 91 111
56 89 104
54 86 107
55 87 114
54 86 101
55 88 103
56 88 102
56 88 112
52 83 95
53 85 81
73 102 103
173 196 0
173 197 0
214 229 224
124 143 162
56 89 110
56 88 120
57 91 124
59 93 121
60 95 125
58 91 118
58 91 115
58 93 128
58 93 117
59 93 122
56 90 113
59 93 122
59 93 122
59 93 129
61 96 135
60 94 131
58 93 120
59 93 124
61 95 135
60 94 126
59 93 126
60 94 131
60 94 137
60 94 125
60 95 133
59 93 128
60 94 133
59 94 129
57 91 115
58 92 124
60 95 133
58 93 131
60 95 131
59 93 125
59 93 129
60 94 133
58 92 115
58 93 122
58 92 121
58 92 117
59 94 126
59 92 121
59 94 129
59 93 130
58 92 125
59 93 128
59 93 129
60 94 135
59 93 130
59 93 124
62 96 145
58 92 126
58 92 126
58 92 125
59 93 130
59 93 130
59 92 129
59 92 128
57 89 117
59 92 126
60 95 129
59 93 131
59 92 126
59 94 129
57 90 117
59 93 121
59 93 129
60 94 126
58 91 130
60 94 136
58 90 121
60 93 133
56 88 124
58 91 131
58 91 116
59 92 126
58 91 123
60 94 135
57 89 114
58 91 124
58 91 122
58 91 129
56 88 112
57 90 123
58 90 126
56 88 121
59 92 131
55 86 111
55 86 107
56 88 121
54 84 101
55 86 111
55 84 112
55 85 112
55 85 120
50 77 100
50 78 93
52 80 107
52 80 95
48 74 100
102 115 122
204 214 223
92 89 40
63 62 27
48 51 20
57 57 6
48 50 20
43 49 21
57 61 24
62 63 17
51 55 19
58 62 20
53 61 27
64 67 31
64 69 32
78 81 37
79 81 39
82 85 40
76 80 40
89 91 40
85 89 48
83 86 39
82 84 39
89 92 40
102 101 52
116 115 50
109 109 54
95 98 48
118 118 56
122 121 59
112 112 54
121 119 57
128 126 54
126 124 56
136 132 74
128 125 61
139 134 61
134 132 64
131 128 58
142 138 65
141 138 65
135 132 61
139 135 61
139 136 71
142 138 69
140 136 63
150 146 69
140 136 65
153 148 68
147 144 66
150 145 72
152 147 72
153 149 72
152 148 71
152 147 63
161 155 73
148 143 69
155 150 71
159 154 77
153 149 66
153 148 72
155 149 67
156 150 73
161 155 69
156 151 66
163 156 78
162 157 74
161 155 71
157 152 69
159 153 71
164 157 75
163 157 69
162 156 70
164 158 76
161 155 70
165 159 76
162 156 78
163 158 71
159 154 70
166 159 76
174 166 83
159 154 65
164 158 71
162 156 75
163 157 73
164 159 81
161 156 72
164 157 74
159 153 65
165 158 76
170 163 83
162 155 75
160 155 72
161 156 64
164 159 78
167 160 70
164 157 75
163 157 81
167 160 84
169 161 79
164 158 76
167 160 75
167 160 77
168 162 80
160 154 67
168 161 82
159 153 70
164 157 72
158 153 74
163 156 73
160 154 79
157 151 71
162 156 74
161 154 79
158 152 67
166 160 75
162 156 74
158 152 70
165 158 73
162 155 73
160 154 74
161 155 74
165 159 77
156 151 75
161 154 76
165 158 79
160 153 75
160 153 76
157 151 69
160 154 76
155 149 71
157 151 77
152 146 66
153 147 64
165 157 84
155 149 75
151 145 71
160 153 70
154 148 68
156 149 71
155 149 71
157 151 76
157 150 75
150 145 66
156 149 74
164 158 78
157 150 74
151 145 69
148 141 68
156 149 69
175 198 0
173 197 0
176 199 0
173 197 0
173 197 0
173 197 0
176 199 0
175 198 0
176 199 0
175 198 0
176 199 0
174 198 0
175 198 0
174 197 0
174 198 0
174 197 0
175 198 0
174 198 0
174 198 0
174 197 0
173 197 0
173 197 0
174 198 0
175 198 0
174 197 0
175 198 0
173 197 0
175 198 0
174 197 0
174 198 0
174 197 0
174 198 0
174 198 0
175 198 0
175 198 0
176 199 0
174 197 0
174 197 0
176 199 0
173 197 0
174 197 0
174 198 0
175 198 0
174 198 0
175 198 0
173 197 0
174 198 0
174 198 0
175 198 0
174 198 0
175 198 0
175 198 0
175 198 0
174 197 0
174 197 0
175 198 0
175 198 0
174 198 0
174 197 0
175 198 0
174 198 0
176 199 0
175 198 0
176 199 0
174 197 0
174 198 0
175 198 0
176 198 0
173 197 0
174 198 0
174 198 0
175 198 0
175 198 0
173 197 0
174 198 0
174 197 0
172 197 0
172 196 0
174 198 0
173 196 0
175 198 0
173 196 0
175 198 0
174 197 0
173 196 0
174 198 0
175 198 0
173 197 0
175 198 0
175 198 0
173 197 0
173 197 0
174 198 0
173 197 0
175 198 0
174 198 0
172 196 0
170 194 0
173 196 0
172 197 0
173 196 0
172 197 0
173 197 0
175 198 0
173 197 0
174 197 0
173 197 0
174 197 0
171 195 0
172 197 0
173 196 0
173 197 0
173 197 0
173 197 0
175 198 0
173 197 0
174 197 0
172 196 0
173 196 0
172 196 0
174 197 0
174 197 0
170 193 0
171 195 0
171 194 0
172 197 0
172 195 0
174 197 0
174 197 0
171 195 0
169 193 0
167 190 0
164 188 18
59 90 100
55 88 117
57 90 115
56 89 114
56 89 103
52 84 90
54 85 97
54 86 100
54 86 111
53 85 89
53 84 105
52 84 107
132 155 74
175 198 0
176 199 44
222 235 249
155 171 191
56 89 120
56 89 124
59 92 120
58 92 129
58 92 115
57 90 114
58 91 120
58 91 113
59 92 118
59 92 122
59 94 128
59 93 124
57 91 114
61 95 130
58 92 117
58 92 129
60 94 134
58 92 130
59 94 126
60 94 134
58 92 126
59 93 128
60 94 126
60 94 134
58 92 122
59 93 121
59 93 120
58 92 128
58 91 121
59 93 124
59 93 134
61 95 137
58 92 129
58 93 122
58 92 125
59 93 126
58 92 122
57 91 115
59 93 120
59 92 125
58 91 124
61 95 139
58 92 120
60 95 141
59 93 134
57 90 121
61 95 139
59 93 130
58 92 120
59 94 129
59 93 129
59 93 120
59 93 125
58 91 120
58 92 125
59 93 126
58 91 118
59 93 123
59 93 120
58 92 118
58 91 116
58 91 121
59 93 134
59 93 126
58 92 128
60 94 130
57 89 115
57 91 117
59 93 137
59 93 123
57 90 120
57 90 124
57 89 115
57 90 121
58 92 120
57 90 118
58 91 123
58 91 122
56 88 121
58 90 128
58 91 123
59 92 134
56 87 117
56 88 116
58 90 122
58 91 127
56 87 109
55 87 116
54 85 108
56 86 111
55 86 106
55 85 119
56 87 117
52 81 103
54 84 110
52 81 95
52 81 102
50 77 85
50 75 88
50 76 87
128 141 149
221 233 250
86 85 35
80 78 35
76 76 18
55 57 12
33 36 10
52 53 17
45 49 20
62 64 20
61 63 18
53 57 23
69 71 23
57 64 29
69 72 29
69 73 34
75 77 35
71 75 29
98 98 40
78 78 40
90 91 45
89 90 47
102 102 50
91 93 42
100 102 47
101 102 39
110 109 55
110 109 54
116 116 56
109 109 51
114 113 56
124 122 60
128 127 56
129 127 65
117 115 52
130 128 56
127 125 61
131 128 56
136 132 63
135 133 63
137 133 65
135 132 63
132 129 66
135 132 62
141 137 66
135 132 60
150 145 73
151 147 70
144 140 69
150 146 72
148 143 63
147 144 71
156 151 67
151 147 65
149 144 72
152 147 71
148 143 62
149 144 68
156 151 73
158 153 70
157 152 66
154 149 66
158 152 70
158 152 72
158 152 75
154 148 72
158 152 69
159 153 74
159 152 71
162 155 76
159 153 73
164 158 80
162 156 78
166 159 76
165 158 78
161 155 67
162 156 72
164 157 76
166 159 73
166 159 72
162 155 73
159 154 72
164 158 72
165 158 75
166 159 80
159 154 73
162 155 70
161 155 72
163 156 73
166 160 75
167 160 75
162 157 74
165 158 76
165 158 75
163 157 77
164 157 73
164 159 74
165 158 75
164 158 80
164 158 79
162 155 70
160 154 62
156 151 63
158 153 64
162 156 70
160 155 68
164 157 75
163 157 75
162 155 77
164 157 80
156 150 67
164 157 76
160 153 71
158 152 69
163 156 74
161 155 72
156 149 70
153 148 58
164 158 74
155 149 70
166 158 80
160 155 71
161 155 73
160 154 71
156 150 75
162 155 78
159 154 70
160 154 68
165 158 79
157 150 74
166 159 83
156 149 66
160 154 75
159 152 75
154 148 70
149 144 66
154 147 72
162 156 77
156 150 69
154 148 68
153 146 72
146 141 67
155 148 72
154 147 66
154 148 66
156 150 71
147 142 70
152 146 69
148 142 65
150 144 68
174 198 0
174 198 0
173 197 0
174 198 0
175 198 0
172 197 0
177 199 0
173 197 0
174 198 0
174 197 0
174 198 0
175 198 0
175 198 0
174 198 0
173 197 0
172 197 0
174 198 0
174 197 0
174 198 0
174 197 0
175 198 0
175 198 0
175 198 0
175 198 0
173 197 0
174 197 0
174 198 0
175 198 0
175 198 0
175 198 0
175 198 0
174 198 0
173 197 0
174 198 0
174 198 0
174 197 0
176 199 0
175 198 0
176 198 0
173 197 0
174 198 0
176 199 0
175 198 0
175 198 0
175 198 0
174 197 0
174 198 0
174 198 0
175 198 0
175 198 0
174 197 0
174 197 0
173 197 0
174 197 0
174 197 0
176 199 0
175 198 0
175 198 0
175 198 0
173 197 0
174 198 0
174 198 0
176 199 0
173 197 0
173 197 0
172 197 0
176 198 0
174 197 0
174 197 0
173 197 0
172 196 0
175 198 0
175 198 0
175 198 0
173 196 0
173 196 0
174 197 0
175 198 0
174 198 0
175 198 0
175 198 0
173 197 0
173 197 0
174 197 0
176 199 0
175 198 0
174 197 0
176 199 0
174 197 0
175 198 0
172 197 0
173 196 0
175 198 0
174 198 0
173 197 0
174 197 0
175 198 0
173 197 0
175 198 0
173 196 0
172 196 0
175 198 0
173 197 0
174 197 0
172 196 0
174 198 0
172 196 0
174 197 0
175 198 0
173 197 0
175 198 0
172 196 0
173 197 0
172 196 0
172 196 0
173 197 0
172 195 0
174 197 0
173 197 0
171 195 0
171 195 0
173 196 0
172 196 0
172 196 0
171 194 0
172 196 0
171 195 0
168 191 0
170 194 0
170 194 0
172 196 0
169 192 0
148 171 47
54 86 92
55 88 100
55 87 109
54 86 95
55 88 107
54 86 99
55 87 113
56 90 105
57 91 110
54 86 94
51 82 99
73 101 94
167 191 18
172 196 0
179 202 80
215 229 226
170 187 182
57 90 119
58 91 119
56 89 107
57 91 121
60 95 135
58 92 128
58 91 118
58 93 120
60 95 134
57 90 105
58 91 124
57 90 108
60 94 130
59 93 130
57 91 108
59 94 129
57 91 121
60 94 130
59 94 124
58 92 125
57 91 115
59 93 129
58 92 131
57 90 120
59 94 130
59 93 128
59 94 131
58 92 120
60 94 133
59 93 117
59 93 120
60 95 131
59 93 118
58 92 133
59 93 124
58 92 120
59 93 128
57 91 120
59 93 122
58 92 120
58 92 125
59 93 126
60 95 133
60 94 133
57 91 114
60 94 136
59 93 117
59 92 125
58 92 120
60 95 128
60 94 128
60 94 133
59 93 130
60 95 134
59 93 126
59 93 125
60 95 135
58 92 133
58 92 120
59 93 126
59 93 124
60 94 133
59 93 126
58 92 126
58 92 128
60 94 136
58 92 124
58 91 125
59 93 125
60 94 126
57 89 114
58 92 124
59 93 131
58 91 125
57 89 124
58 92 128
59 92 129
57 90 122
57 90 105
57 90 117
57 89 116
56 87 117
59 92 130
57 88 123
59 91 123
58 90 121
56 88 117
55 86 108
56 87 113
56 87 116
56 87 107
53 83 110
55 84 106
51 80 98
51 80 99
53 81 108
51 77 91
52 80 92
46 71 84
46 70 68
172 186 181
214 229 223
120 125 99
64 65 24
63 62 16
60 60 12
55 56 14
43 49 19
50 52 15
51 54 12
56 59 20
63 65 22
50 55 24
70 72 21
63 66 27
68 72 27
65 68 35
73 78 38
87 88 42
90 92 30
99 100 42
83 85 34
96 96 44
93 94 41
96 97 47
90 92 43
100 101 46
109 109 50
110 110 47
101 103 51
114 112 54
126 124 59
127 123 56
133 130 57
126 124 62
126 124 58
131 128 56
133 129 62
133 131 53
135 133 60
134 131 65
139 135 51
139 135 66
139 136 58
141 137 65
147 143 66
150 146 59
151 146 67
146 142 67
144 139 66
144 140 61
147 143 69
157 150 70
146 141 61
146 141 61
151 146 63
143 139 61
160 153 73
157 152 68
153 148 64
155 149 69
159 153 73
150 147 64
161 155 73
159 153 71
158 151 74
161 155 75
162 156 74
163 157 70
157 151 74
158 153 74
163 156 70
155 149 67
159 155 72
167 160 80
158 153 74
161 155 69
158 153 62
165 158 71
163 157 69
166 159 80
167 160 77
161 155 66
166 159 75
163 158 75
162 155 71
161 154 72
163 157 74
159 154 69
157 150 69
160 154 70
165 158 73
168 160 76
161 156 66
163 157 73
164 158 65
162 155 70
158 153 64
162 155 76
164 158 75
162 155 67
169 161 81
157 151 63
164 158 78
160 154 66
170 162 82
159 152 68
161 155 68
162 156 72
162 156 68
161 155 71
160 153 75
156 149 66
161 154 75
160 153 71
162 156 72
155 150 67
158 152 71
160 154 73
158 151 72
168 161 80
160 155 75
159 153 76
162 156 77
159 153 72
161 155 75
153 147 65
165 159 83
159 152 75
157 151 76
156 151 66
158 152 70
164 157 80
156 150 73
162 157 75
157 151 72
156 150 73
157 151 74
161 155 69
157 151 71
160 153 75
153 146 66
162 156 72
155 150 68
155 149 69
161 154 77
154 148 69
157 151 74
152 147 66
146 141 72
174 198 0
174 197 0
174 197 0
175 198 0
173 197 0
175 198 0
174 198 0
172 197 0
176 198 0
176 199 0
173 197 0
174 198 0
175 198 0
175 198 0
174 198 0
173 197 0
174 198 0
174 198 0
173 197 0
174 198 0
174 197 0
175 198 0
174 197 0
174 198 0
174 197 0
176 199 0
175 198 0
174 197 0
174 197 0
174 198 0
175 198 0
174 197 0
175 198 0
175 198 0
174 197 0
174 198 0
175 198 0
174 197 0
174 198 0
173 197 0
175 198 0
175 198 0
174 198 0
174 197 0
173 197 0
175 198 0
174 198 0
175 198 0
176 199 0
174 198 0
175 198 0
174 197 0
175 198 0
174 198 0
172 197 0
174 198 0
174 197 0
173 197 0
173 197 0
174 198 0
174 198 0
173 197 0
174 197 0
173 197 0
176 198 0
174 198 0
174 197 0
175 198 0
174 198 0
174 198 0
174 197 0
175 198 0
173 197 0
176 199 0
173 197 0
172 196 0
174 197 0
175 198 0
176 198 0
172 196 0
174 197 0
174 197 0
174 198 0
175 198 0
173 197 0
172 196 0
173 197 0
174 198 0
174 197 0
174 197 0
175 198 0
170 194 0
176 198 0
172 196 0
173 197 0
174 198 0
173 197 0
174 197 0
174 197 0
172 196 0
173 197 0
173 195 0
173 196 0
172 196 0
172 195 0
173 196 0
174 197 0
173 197 0
172 194 0
172 196 0
174 197 0
171 195 0
171 194 0
173 196 0
172 195 0
173 195 0
171 194 0
172 196 0
172 196 0
172 195 0
172 195 0
173 196 0
171 195 0
172 195 0
169 193 0
168 191 0
170 193 0
169 193 0
168 192 0
165 189 0
166 190 0
168 191 0
118 142 67
56 89 106
54 85 86
57 90 115
54 86 104
53 85 101
56 89 103
53 85 102
56 88 109
55 87 99
55 87 103
55 87 94
130 153 74
173 197 0
174 197 0
174 197 0
175 198 0
166 189 36
57 91 118
57 90 112
58 92 111
58 92 122
55 88 103
58 91 124
58 92 121
59 92 118
58 92 122
59 94 125
59 93 124
59 93 129
59 93 129
58 92 118
59 94 118
59 93 121
58 92 121
57 91 121
60 95 137
58 93 120
59 93 122
59 94 118
59 92 120
59 93 125
58 92 118
59 93 129
58 92 110
61 95 136
59 93 128
59 93 129
58 92 117
58 91 114
59 93 125
58 91 117
57 90 114
60 94 121
58 92 121
58 92 117
59 93 128
59 93 129
60 94 125
59 93 128
58 92 118
59 93 124
59 94 126
58 92 122
60 94 134
57 91 111
59 92 130
57 90 116
58 92 129
59 92 126
58 92 129
58 92 120
60 94 128
58 92 115
58 91 117
58 91 117
59 93 121
57 90 120
57 90 116
59 92 122
57 91 121
59 93 128
57 89 105
57 90 113
58 92 115
57 89 111
59 92 126
57 90 116
57 90 121
60 93 133
56 89 119
59 92 123
58 91 122
58 91 128
58 91 120
57 88 115
57 90 116
56 88 119
56 88 106
57 88 117
57 89 122
57 90 123
55 87 104
53 83 101
57 89 121
55 87 105
56 88 110
55 86 112
55 86 108
53 83 110
55 86 110
54 84 107
53 81 100
53 81 106
54 83 109
52 80 101
46 70 80
47 71 75
163 186 18
175 198 0
141 152 38
70 70 30
62 62 17
62 62 22
56 56 21
58 58 15
54 57 18
49 52 19
57 59 24
53 56 20
46 51 22
69 72 29
64 68 29
73 75 31
69 74 26
83 84 39
77 80 32
88 90 38
86 87 36
87 89 30
98 99 37
101 101 46
96 97 48
103 102 45
107 107 45
105 105 48
110 110 53
108 107 51
122 120 52
125 123 58
121 119 51
116 115 47
119 117 55
126 124 50
123 122 49
128 127 51
127 126 60
130 127 61
137 134 61
132 130 55
133 131 61
144 139 68
147 144 72
143 139 68
144 139 64
136 132 60
152 147 70
136 132 59
150 145 64
144 139 65
149 144 63
157 151 70
152 147 66
156 152 74
157 152 70
155 149 71
151 146 70
150 146 63
156 151 75
159 154 65
155 151 62
159 153 77
161 155 75
153 149 65
159 153 77
162 156 78
160 154 65
162 156 65
159 153 72
157 151 72
154 150 65
162 156 74
167 161 75
161 155 72
163 157 72
158 153 73
163 156 74
163 157 72
167 161 74
162 156 70
161 154 70
164 158 75
162 156 73
167 160 74
161 155 74
160 154 67
166 159 72
162 154 69
164 158 72
160 153 72
162 156 70
155 150 60
163 156 74
170 163 83
163 157 69
165 158 76
165 157 74
163 156 72
160 154 69
162 155 71
168 161 80
158 153 68
158 152 67
156 150 73
162 156 66
167 160 84
163 156 80
159 154 68
162 157 68
160 154 70
162 156 73
160 154 74
163 156 73
162 155 75
162 155 71
164 156 80
152 145 71
158 151 73
166 159 77
157 151 73
166 159 80
163 156 75
159 154 68
164 157 76
158 151 75
158 151 72
160 153 76
151 146 64
144 138 62
158 150 73
165 158 77
146 141 60
154 148 64
161 154 76
157 150 73
156 150 70
157 150 73
154 147 72
154 148 67
153 147 69
148 141 60
144 139 62
149 142 67
155 149 75
151 145 68
151 145 70
155 148 69
153 147 72
176 199 0
173 197 0
175 198 0
172 196 0
171 195 0
174 197 0
174 198 0
175 198 0
174 198 0
175 198 0
175 198 0
175 198 0
174 197 0
173 197 0
174 197 0
174 197 0
174 197 0
175 198 0
174 198 0
176 199 0
174 197 0
173 197 0
174 197 0
173 197 0
175 198 0
175 198 0
173 197 0
173 197 0
175 198 0
172 196 0
174 198 0
173 197 0
175 198 0
173 197 0
173 197 0
176 199 0
176 199 0
173 197 0
173 197 0
174 198 0
174 198 0
174 198 0
175 198 0
175 198 0
175 198 0
174 198 0
174 198 0
175 198 0
172 196 0
173 197 0
172 196 0
174 197 0
172 196 0
174 197 0
173 196 0
174 198 0
174 198 0
173 197 0
173 197 0
173 197 0
173 197 0
172 196 0
173 197 0
174 198 0
174 198 0
173 197 0
174 198 0
174 198 0
175 198 0
174 197 0
174 198 0
173 196 0
174 198 0
173 197 0
173 196 0
172 196 0
173 197 0
173 197 0
173 197 0
175 198 0
173 196 0
174 197 0
172 196 0
174 198 0
174 197 0
175 198 0
172 196 0
173 196 0
173 196 0
174 198 0
173 196 0
171 195 0
173 197 0
175 198 0
174 198 0
173 197 0
174 198 0
173 197 0
171 195 0
173 197 0
174 197 0
171 195 0
173 196 0
172 197 0
173 196 0
174 197 0
171 195 0
174 197 0
172 195 0
172 195 0
173 197 0
172 196 0
170 193 0
169 193 0
173 196 0
171 196 0
171 195 0
173 196 0
173 196 0
173 196 0
173 196 0
166 190 0
170 194 0
169 192 0
169 192 0
169 194 0
166 189 0
167 191 0
163 188 0
159 182 0
164 188 0
162 185 0
90 115 84
53 84 74
54 86 92
55 87 95
53 85 92
53 85 99
56 89 105
53 84 98
53 85 97
54 86 89
54 87 99
77 104 94
169 191 31
167 191 0
173 197 0
175 198 0
174 198 0
173 197 0
70 100 109
56 89 110
57 90 110
59 93 128
57 90 113
58 92 121
58 91 117
58 92 120
59 93 121
57 90 118
58 92 117
57 90 121
59 93 124
57 91 115
59 93 124
58 92 128
59 93 130
59 93 128
59 93 130
58 92 110
57 91 113
60 94 134
60 94 128
57 91 117
58 92 117
58 92 122
58 93 129
59 93 129
56 90 114
58 92 122
58 91 120
58 93 111
59 93 125
59 93 121
59 93 120
60 94 129
59 93 117
57 91 118
59 93 121
59 94 124
58 92 121
60 94 128
58 92 125
58 91 121
58 92 124
58 92 117
60 94 126
59 94 122
59 93 124
59 93 129
58 91 111
60 94 135
58 91 113
58 92 124
59 93 125
59 94 125
58 92 117
60 94 136
58 92 128
58 91 124
59 93 121
56 89 120
58 92 118
58 92 122
58 92 120
57 91 124
59 92 129
59 93 128
59 92 125
60 94 133
56 88 106
58 92 121
57 89 118
59 92 124
55 88 108
57 90 125
57 90 122
58 90 124
57 90 116
57 90 120
57 89 123
58 90 117
56 87 115
56 88 114
56 88 113
55 87 112
56 88 115
53 82 102
55 86 117
55 86 106
56 87 115
56 87 113
57 89 121
55 85 101
57 87 103
52 80 87
53 81 99
50 76 95
46 70 77
75 97 71
174 198 0
172 196 0
164 183 22
81 79 38
76 74 30
68 68 29
68 67 17
65 65 21
52 57 15
63 64 20
56 58 13
55 58 15
52 57 25
57 60 11
64 68 27
61 65 24
69 73 29
72 75 25
81 83 33
76 78 27
81 82 34
69 72 36
92 94 43
86 87 37
102 102 48
100 101 39
89 90 42
113 111 50
117 113 52
114 112 55
112 110 43
111 110 45
119 118 50
126 124 50
119 117 50
128 125 53
130 128 55
118 116 56
131 128 54
131 128 50
138 134 61
136 132 60
146 141 63
136 132 61
141 138 54
148 142 64
136 132 51
140 136 61
141 138 53
149 145 70
146 141 58
147 142 67
148 143 63
150 144 62
146 142 66
150 145 67
151 147 59
150 145 71
151 147 60
151 146 69
156 150 69
155 150 65
157 152 73
161 155 68
158 153 66
146 142 52
156 149 63
156 151 65
157 153 66
156 150 71
159 153 67
163 156 72
164 158 77
160 154 70
157 152 67
163 156 76
162 157 73
161 154 66
159 153 68
152 147 57
158 152 64
162 156 71
161 154 66
158 151 66
162 156 66
163 157 69
160 153 72
164 157 74
164 158 75
162 156 69
166 160 77
163 156 71
166 159 71
160 155 68
161 155 73
162 156 71
162 155 74
160 154 62
160 153 72
165 158 73
161 154 75
161 155 68
164 158 73
161 155 75
159 152 64
166 159 76
165 158 75
155 149 68
164 158 74
157 151 67
165 158 76
154 149 67
158 152 69
158 153 68
161 154 70
159 152 71
160 154 67
162 155 67
161 154 74
158 154 66
161 155 73
158 152 67
160 153 68
158 152 62
153 147 68
154 149 63
157 151 72
160 154 73
162 155 77
161 155 75
156 150 74
161 154 79
152 146 70
146 140 65
155 149 69
158 151 68
146 141 67
159 151 76
161 153 70
161 154 71
161 155 75
153 147 66
163 155 74
156 149 74
154 148 72
151 145 63
147 142 63
158 152 70
146 141 68
151 145 63
174 198 0
175 198 0
174 197 0
174 197 0
173 197 0
173 197 0
174 198 0
174 197 0
172 196 0
175 198 0
174 198 0
176 198 0
174 197 0
174 198 0
175 198 0
174 197 0
175 198 0
175 198 0
173 197 0
175 198 0
176 199 0
175 198 0
174 198 0
173 197 0
173 197 0
174 197 0
175 198 0
173 197 0
176 198 0
174 197 0
173 197 0
174 197 0
174 197 0
174 198 0
175 198 0
173 197 0
173 197 0
173 197 0
174 198 0
174 197 0
173 197 0
172 196 0
174 197 0
173 197 0
175 198 0
174 197 0
174 198 0
176 199 0
174 197 0
175 198 0
175 198 0
175 198 0
174 197 0
173 197 0
175 198 0
174 198 0
172 196 0
175 198 0
174 197 0
174 198 0
175 198 0
174 198 0
173 197 0
175 198 0
173 197 0
173 197 0
172 196 0
174 197 0
175 198 0
173 197 0
174 198 0
174 197 0
174 197 0
174 197 0
175 198 0
175 198 0
172 196 0
174 197 0
176 199 0
175 198 0
174 197 0
175 198 0
175 198 0
174 197 0
175 198 0
172 196 0
173 196 0
174 197 0
173 197 0
173 197 0
176 199 0
175 198 0
172 195 0
173 197 0
175 198 0
171 195 0
175 198 0
171 195 0
172 196 0
174 198 0
169 194 0
171 195 0
173 197 0
173 196 0
171 194 0
172 196 0
174 197 0
174 197 0
171 194 0
171 195 0
173 196 0
173 196 0
171 194 0
173 196 0
171 194 0
171 194 0
171 195 0
164 188 0
169 193 0
170 193 0
170 194 0
169 193 0
171 194 0
171 194 0
168 192 0
165 188 0
168 192 0
167 191 0
166 189 0
161 184 0
158 181 0
150 173 18
54 87 94
56 88 107
53 85 100
56 89 100
55 87 95
54 86 101
53 84 82
54 86 99
52 84 90
53 85 88
60 89 98
150 172 47
169 193 0
170 193 0
174 198 0
173 197 0
175 198 0
176 198 0
119 143 65
56 89 114
55 88 108
58 92 126
56 89 107
59 92 120
57 91 118
57 91 113
57 91 113
58 92 128
59 93 129
55 87 100
58 92 115
57 91 114
58 92 118
57 91 115
58 92 129
57 91 121
56 89 102
59 93 126
58 92 121
58 92 120
59 93 130
61 95 131
58 92 121
59 93 121
58 92 117
58 92 125
58 92 117
60 94 133
59 93 124
57 90 105
58 91 117
58 92 122
59 93 125
59 92 121
58 91 124
60 94 126
59 93 129
58 92 120
61 95 140
60 94 131
59 93 126
59 94 122
58 92 120
58 92 124
59 93 115
58 92 122
60 94 128
59 93 124
57 90 103
57 90 117
59 93 128
59 93 130
58 92 122
58 91 126
60 94 129
58 91 120
59 92 115
59 92 126
59 92 124
58 91 118
58 91 126
59 92 126
58 91 130
58 92 124
59 92 131
57 90 121
57 91 115
59 93 123
58 92 125
58 91 120
57 90 122
57 90 118
58 91 127
57 90 120
56 88 112
56 88 113
55 87 107
57 90 115
55 86 114
56 87 120
54 85 109
57 89 121
58 91 121
57 90 116
56 88 110
56 87 110
56 87 117
56 86 113
53 82 93
53 83 106
54 83 104
54 83 110
52 81 102
52 81 103
51 79 95
50 77 95
49 75 91
114 133 53
175 198 0
173 196 0
174 197 0
96 102 19
87 85 31
65 66 16
74 72 18
65 63 8
60 61 12
60 62 18
60 63 19
61 62 18
66 69 22
62 65 22
58 60 15
72 73 27
71 73 24
76 79 24
76 78 31
83 83 25
82 84 31
96 96 42
93 94 31
91 92 34
91 90 40
103 101 47
110 109 45
99 99 41
102 103 46
125 122 49
108 106 45
124 121 54
118 116 48
131 129 50
126 123 51
128 127 50
119 116 46
120 118 51
120 118 51
137 134 57
138 134 60
125 122 51
133 131 54
130 127 56
138 134 53
139 136 63
140 136 58
145 140 65
142 138 61
142 138 60
147 143 66
149 144 60
141 137 58
150 145 69
143 139 63
146 142 67
154 149 66
150 146 61
157 153 62
148 144 54
153 147 66
148 142 61
150 145 62
149 144 62
158 152 65
156 151 65
153 148 66
159 152 73
154 148 67
155 150 62
164 156 72
159 153 66
164 157 66
158 152 69
155 150 64
161 155 68
160 155 69
162 155 70
164 157 73
161 155 69
162 156 73
160 154 69
158 151 67
158 152 65
159 153 63
166 159 75
158 152 61
164 156 73
162 156 70
162 155 66
164 158 68
162 157 69
157 152 63
157 151 63
154 149 63
162 156 69
166 159 76
159 152 67
160 154 72
160 154 68
161 155 63
167 160 80
157 151 71
156 150 66
161 154 71
160 154 65
157 150 64
162 155 69
153 148 65
163 156 79
156 149 62
161 155 71
160 153 73
166 160 78
159 153 69
157 151 65
163 156 73
160 153 75
157 151 75
157 151 69
161 155 68
159 153 72
160 153 69
160 153 74
155 148 71
159 153 74
157 151 69
159 154 69
157 152 62
158 152 72
158 152 71
158 151 74
160 154 66
155 148 74
155 149 70
157 151 73
152 146 73
163 157 76
153 146 68
153 147 70
155 148 69
155 148 65
156 149 74
152 145 64
155 149 69
153 147 65
154 148 71
149 142 73
151 144 64
154 148 70
173 197 0
173 197 0
173 196 0
174 198 0
173 197 0
175 198 0
174 198 0
174 197 0
176 199 0
174 198 0
175 198 0
174 198 0
174 198 0
174 198 0
175 198 0
173 197 0
174 198 0
175 198 0
172 197 0
176 198 0
173 197 0
176 199 0
174 197 0
173 197 0
174 197 0
175 198 0
174 197 0
174 198 0
175 198 0
173 197 0
174 198 0
175 198 0
173 197 0
175 198 0
173 196 0
175 198 0
173 197 0
173 197 0
175 198 0
172 197 0
174 197 0
176 198 0
175 198 0
174 198 0
175 198 0
174 197 0
174 197 0
172 196 0
174 198 0
174 198 0
175 198 0
173 197 0
175 198 0
175 198 0
174 198 0
174 197 0
175 198 0
173 197 0
174 197 0
174 198 0
174 197 0
172 196 0
174 198 0
175 198 0
174 197 0
173 196 0
173 196 0
174 197 0
173 197 0
175 198 0
176 198 0
174 197 0
174 197 0
173 197 0
174 198 0
173 197 0
171 195 0
171 195 0
175 198 0
176 198 0
174 198 0
173 196 0
172 196 0
176 199 0
173 197 0
175 198 0
176 199 0
171 195 0
173 196 0
170 195 0
172 195 0
173 197 0
173 197 0
173 197 0
172 197 0
172 196 0
172 196 0
172 196 0
170 194 0
171 194 0
172 195 0
172 196 0
169 193 0
173 196 0
167 191 0
173 196 0
173 197 0
174 197 0
174 197 0
171 195 0
171 194 0
172 195 0
167 191 0
171 195 0
170 194 0
170 193 0
164 188 0
170 195 0
170 194 0
171 196 0
168 192 0
167 190 0
165 188 0
171 195 0
167 191 0
166 190 0
165 189 0
164 187 0
164 187 0
160 183 0
151 173 0
119 142 60
53 85 76
54 86 96
54 85 90
52 84 90
54 85 94
53 85 74
54 85 95
56 89 107
52 82 95
53 85 86
125 149 65
168 192 0
172 195 0
171 194 0
173 196 0
173 196 0
175 198 0
174 197 0
148 171 62
57 90 103
56 90 114
57 90 113
56 89 110
57 90 114
58 91 120
59 93 118
58 92 117
59 93 114
56 90 111
58 92 113
58 92 114
58 91 118
57 90 110
58 92 115
56 89 110
58 93 110
59 92 131
57 90 120
59 94 126
58 92 110
59 93 120
57 91 114
58 92 114
57 90 105
60 94 129
58 91 124
58 91 114
60 94 124
57 90 115
56 89 110
57 91 121
59 93 126
58 91 117
59 93 131
57 91 126
60 94 134
58 92 113
60 95 130
58 92 125
58 91 120
58 92 115
59 93 125
57 90 114
58 92 121
60 94 130
59 93 122
56 89 107
58 92 131
57 91 113
59 93 129
58 92 126
58 91 120
60 94 133
60 94 134
59 93 125
59 92 117
59 93 128
58 92 128
58 91 124
58 92 118
59 93 125
57 89 116
58 91 117
60 93 131
57 90 114
59 93 128
57 90 108
58 92 129
58 91 125
58 90 117
58 91 117
57 89 120
58 91 124
57 89 128
56 89 105
57 89 114
56 89 114
59 92 137
57 89 121
57 90 115
57 89 118
56 87 122
55 86 110
57 88 115
57 89 123
56 87 116
54 85 116
54 83 110
56 88 116
54 84 109
53 82 98
50 78 105
53 81 99
53 81 105
53 81 109
50 76 87
47 72 81
139 160 40
174 198 0
173 196 0
175 198 0
136 148 37
94 91 42
80 78 35
73 72 22
60 60 16
66 64 18
68 69 10
56 56 10
64 66 14
58 61 20
61 65 26
70 74 24
60 63 20
77 80 27
78 78 22
77 79 31
81 81 26
89 89 31
82 83 35
86 88 36
91 92 34
91 94 40
103 103 30
105 104 45
94 94 38
108 108 38
105 104 47
110 109 48
113 112 36
122 120 46
124 120 49
115 113 38
115 114 37
128 126 53
122 120 54
131 128 42
124 121 54
134 132 54
130 127 56
129 126 52
135 132 50
131 129 53
126 124 54
140 136 61
138 134 55
148 143 62
144 140 54
149 144 56
150 145 62
147 142 67
144 141 60
151 145 57
145 140 58
149 143 66
150 146 61
150 144 65
150 144 59
148 143 53
153 148 60
153 149 68
160 153 68
151 146 59
156 151 64
158 152 68
155 149 63
155 149 64
155 150 63
158 152 70
160 155 66
157 152 66
155 150 66
154 149 61
160 153 69
158 152 66
162 156 70
163 156 73
152 147 64
161 155 71
161 154 61
159 155 62
163 156 74
164 158 75
162 155 62
164 157 77
158 153 62
162 156 69
161 154 64
163 156 72
159 153 72
158 152 64
161 155 64
160 153 67
156 151 66
159 152 69
162 154 72
163 157 67
158 151 65
160 154 72
156 150 64
158 152 65
161 155 71
153 147 64
162 154 74
155 149 59
160 154 71
164 157 69
156 149 71
160 153 73
163 156 73
159 152 71
157 151 63
158 151 73
162 155 71
159 152 70
162 156 72
161 154 72
155 148 73
160 153 74
157 151 70
156 151 67
155 149 65
158 151 66
162 154 75
158 153 78
157 151 69
159 153 71
163 157 75
157 151 65
159 153 69
159 153 73
158 152 71
156 150 66
153 148 61
153 146 70
162 154 75
154 147 70
154 148 70
157 149 74
148 141 58
152 146 68
148 143 63
154 148 67
158 152 74
152 146 63
157 151 72
154 147 71
150 143 69
173 197 0
174 198 0
172 196 0
172 196 0
174 197 0
171 196 0
174 197 0
175 198 0
174 197 0
173 197 0
175 198 0
174 197 0
175 198 0
172 196 0
175 198 0
174 197 0
174 197 0
176 199 0
175 198 0
174 198 0
175 198 0
174 198 0
172 197 0
174 198 0
173 196 0
173 197 0
172 196 0
174 198 0
174 198 0
175 198 0
174 198 0
175 198 0
175 198 0
176 199 0
174 198 0
173 197 0
173 197 0
173 197 0
174 197 0
174 198 0
174 198 0
173 197 0
174 198 0
175 198 0
173 197 0
175 198 0
174 198 0
174 198 0
172 196 0
175 198 0
175 198 0
175 198 0
175 197 0
174 197 0
174 197 0
174 197 0
171 196 0
174 198 0
174 198 0
174 197 0
173 196 0
175 198 0
175 198 0
174 197 0
174 198 0
175 198 0
173 197 0
174 197 0
172 196 0
173 196 0
173 197 0
173 197 0
172 196 0
172 196 0
172 196 0
175 198 0
173 197 0
172 196 0
172 196 0
174 197 0
174 197 0
174 198 0
171 195 0
174 197 0
174 197 0
173 197 0
171 195 0
172 196 0
173 196 0
173 197 0
169 194 0
172 196 0
172 196 0
172 196 0
173 196 0
171 195 0
171 194 0
174 197 0
171 194 0
170 194 0
170 194 0
173 197 0
172 196 0
172 195 0
172 196 0
168 192 0
173 196 0
171 195 0
168 192 0
170 194 0
172 195 0
170 194 0
173 196 0
170 193 0
170 193 0
171 194 0
167 192 0
171 194 0
169 193 0
169 193 0
167 191 0
166 190 0
162 186 0
166 190 0
165 188 0
164 187 0
154 178 0
166 188 0
150 174 0
152 175 0
146 168 0
70 98 76
53 85 88
53 85 90
52 83 65
53 85 82
52 84 83
52 84 78
54 86 97
55 87 94
52 84 78
116 140 51
165 188 0
168 192 0
174 197 0
172 196 0
175 198 0
175 198 0
175 198 0
174 198 0
172 195 18
61 92 110
57 90 118
55 87 108
58 91 115
56 90 103
58 91 110
56 89 107
59 93 121
58 92 121
56 90 111
57 91 114
58 90 120
58 92 120
59 94 118
58 92 126
57 90 117
58 92 121
58 93 124
60 94 133
58 91 118
58 91 120
59 93 120
59 93 121
57 91 115
58 92 120
58 92 114
59 93 114
59 93 120
58 92 118
59 93 129
57 90 115
59 92 126
58 91 117
59 92 124
60 95 133
58 91 113
59 93 121
59 92 118
58 92 126
60 95 134
58 92 115
58 92 111
59 93 125
59 94 131
59 93 125
57 90 113
60 95 131
58 91 130
60 94 139
57 90 113
58 92 117
57 89 113
60 94 124
58 92 126
57 90 113
58 91 122
58 92 126
58 91 114
56 88 117
58 91 120
58 91 118
56 89 115
57 89 114
58 92 125
57 89 124
58 92 120
57 90 126
59 93 127
56 90 117
58 91 121
57 90 119
56 88 105
58 91 120
58 92 126
58 90 113
58 90 119
56 88 113
55 86 110
55 86 117
57 89 109
54 86 113
55 86 106
57 89 117
55 86 108
58 90 119
55 86 113
54 85 101
51 79 93
54 84 103
55 85 111
54 84 85
54 83 97
52 80 97
53 83 108
51 80 98
53 81 105
47 72 79
54 74 71
172 195 0
174 197 0
174 197 0
174 198 0
162 184 11
105 101 43
90 88 29
78 77 20
75 74 24
63 63 16
63 65 13
60 61 17
54 56 16
72 73 17
62 66 18
66 68 21
73 75 16
76 77 24
77 78 30
68 71 30
75 76 34
80 81 32
86 89 30
89 90 36
85 87 37
106 105 46
94 94 27
108 109 35
102 102 45
108 107 39
105 103 41
111 109 42
117 116 49
120 118 52
121 119 45
121 119 42
116 115 53
120 118 42
126 124 48
125 124 52
140 137 56
129 126 49
131 129 49
137 133 53
130 128 49
136 131 57
131 127 57
138 133 59
139 135 55
135 131 51
141 136 49
142 139 55
145 141 53
146 141 59
141 137 57
145 141 60
144 139 57
148 144 57
145 141 62
148 144 56
148 144 61
150 146 50
148 144 54
153 148 59
154 149 63
155 148 70
152 146 64
159 152 69
156 150 64
153 148 67
157 151 66
160 153 60
157 151 68
152 147 57
157 151 62
160 155 67
157 153 57
163 156 67
159 154 63
157 152 62
155 149 66
154 149 61
162 155 71
163 156 62
160 153 68
159 152 66
166 159 75
159 155 62
159 153 60
157 152 66
161 155 73
153 147 62
164 157 70
155 150 66
162 156 71
158 152 67
153 147 61
162 155 71
160 153 75
162 156 65
156 150 67
159 153 66
162 156 71
162 155 69
158 152 73
165 159 78
158 152 68
162 157 74
159 153 64
161 156 62
158 152 61
160 154 74
161 154 65
162 156 71
163 156 73
163 154 73
154 148 61
160 153 68
159 153 67
161 155 72
153 147 61
159 153 73
155 149 69
154 149 64
165 158 77
157 149 69
156 149 72
157 149 74
155 149 70
154 147 63
148 142 58
156 150 69
158 152 68
157 151 66
154 148 68
154 147 66
157 153 68
157 150 69
154 148 69
152 147 62
158 152 71
146 139 70
150 144 60
154 148 67
146 141 60
149 142 73
156 150 65
152 145 76
149 143 65
156 150 70
149 143 61
175 198 0
174 197 0
172 196 0
174 197 0
172 195 0
174 197 0
173 197 0
175 198 0
173 197 0
175 198 0
173 196 0
173 197 0
173 197 0
173 197 0
174 198 0
175 198 0
174 197 0
175 198 0
174 197 0
175 198 0
176 199 0
174 198 0
174 197 0
175 198 0
173 197 0
174 197 0
173 197 0
173 197 0
175 198 0
175 198 0
173 197 0
172 197 0
173 197 0
176 199 0
173 197 0
172 197 0
174 197 0
173 197 0
175 198 0
173 197 0
174 198 0
174 198 0
171 195 0
173 197 0
172 196 0
176 199 0
174 197 0
175 198 0
173 196 0
175 198 0
175 197 0
171 196 0
175 198 0
175 198 0
172 196 0
173 197 0
173 197 0
174 198 0
172 196 0
174 198 0
174 198 0
173 197 0
175 198 0
175 198 0
175 198 0
174 197 0
171 195 0
174 197 0
171 195 0
174 198 0
174 197 0
172 196 0
172 196 0
173 197 0
174 196 0
171 195 0
173 197 0
172 196 0
173 197 0
172 197 0
171 194 0
173 196 0
175 197 0
173 196 0
174 198 0
172 196 0
173 196 0
171 194 0
171 194 0
173 196 0
172 196 0
174 197 0
170 194 0
174 197 0
168 191 0
173 197 0
172 195 0
171 195 0
171 194 0
171 195 0
171 195 0
172 196 0
168 191 0
171 195 0
172 196 0
168 192 0
172 195 0
172 195 0
171 195 0
170 193 0
170 194 0
168 192 0
169 193 0
168 192 0
170 193 0
169 193 0
164 188 0
165 189 0
166 189 0
170 193 0
168 192 0
167 191 0
166 189 0
165 188 0
166 189 0
159 182 0
160 183 0
154 177 0
150 173 0
142 164 0
123 144 25
50 80 82
53 84 80
53 84 88
53 84 84
55 88 76
50 80 82
55 87 94
53 84 87
52 83 79
120 143 54
158 181 0
161 184 0
166 190 0
168 192 0
170 195 0
174 197 0
175 198 0
175 198 0
174 198 0
175 198 0
104 129 84
57 90 117
55 89 100
56 89 108
57 90 114
56 89 110
57 90 107
58 91 108
56 89 100
58 92 113
57 91 107
56 90 117
57 91 108
58 92 108
57 91 110
57 91 110
57 90 111
56 89 115
58 92 105
58 92 121
57 90 115
59 93 124
57 90 114
58 92 121
58 91 115
57 90 108
58 92 122
59 93 125
57 91 113
55 88 107
57 91 115
58 92 117
57 91 122
59 93 115
59 93 125
58 93 118
59 93 124
58 92 120
59 92 126
58 91 120
58 91 114
59 93 126
57 90 120
56 89 108
59 93 126
60 94 134
58 91 118
58 91 117
59 93 120
58 92 124
57 91 117
58 92 115
58 92 121
57 90 115
59 93 123
59 93 130
58 92 113
57 90 114
57 90 118
56 88 107
58 91 121
57 90 124
58 91 120
58 91 122
59 92 136
58 90 117
57 91 118
60 93 130
58 90 123
59 92 118
58 91 120
59 92 130
57 88 120
57 89 124
58 91 114
56 88 115
56 88 111
56 87 105
54 85 104
56 88 114
57 88 115
58 91 120
56 88 119
53 84 105
55 87 111
55 86 98
52 81 98
54 84 105
54 84 102
51 80 92
53 83 97
54 83 112
52 81 100
50 78 90
50 78 93
50 77 87
48 74 79
94 115 64
174 197 0
174 197 0
176 199 0
174 198 0
174 198 0
131 140 31
76 74 33
80 78 29
79 79 15
71 72 14
59 61 12
74 75 18
67 67 10
68 69 20
64 67 13
62 64 18
71 73 19
74 76 25
81 82 25
86 87 30
73 75 28
78 80 26
89 90 22
87 88 35
94 94 32
92 92 40
95 95 36
107 107 41
109 107 42
110 109 41
111 109 43
109 107 41
114 112 41
118 117 48
115 112 50
114 113 48
118 116 40
126 124 46
127 124 53
117 115 53
139 135 58
127 124 53
133 130 43
132 128 51
127 124 51
137 133 62
140 136 61
134 132 47
144 139 57
141 137 58
132 128 49
149 143 57
141 137 49
149 144 62
137 133 57
148 144 60
147 140 62
149 145 56
145 141 51
150 145 60
154 148 61
153 148 58
149 143 58
162 155 68
151 145 60
157 150 62
157 150 66
152 147 64
153 147 58
153 147 61
159 152 68
154 148 61
152 147 61
156 151 69
155 148 64
155 149 57
152 146 61
158 153 61
161 154 69
156 150 66
152 146 61
160 154 68
157 150 64
154 148 65
153 148 54
159 153 59
161 154 67
157 151 67
165 158 71
156 150 60
156 151 60
158 152 62
156 151 58
160 153 68
159 153 67
164 156 68
165 158 71
161 155 69
161 155 66
159 153 68
164 157 72
160 153 68
155 149 60
153 147 68
160 154 69
163 157 68
157 151 61
159 153 66
160 154 72
157 151 62
162 154 70
156 151 70
162 155 75
159 153 63
155 149 68
154 149 62
160 153 72
158 152 72
157 150 61
156 149 61
159 152 75
155 149 62
159 153 67
155 149 71
161 153 73
156 150 67
157 150 64
153 147 65
155 148 68
157 152 62
163 156 70
152 146 69
153 147 66
159 153 69
154 149 69
152 147 71
153 146 73
149 143 58
157 152 67
151 145 65
160 152 77
146 141 58
148 142 67
151 145 66
148 142 67
150 145 62
151 145 63
156 150 67
147 140 64
151 144 67
152 146 63
173 196 0
175 198 0
175 198 0
174 198 0
173 197 0
174 197 0
174 197 0
172 196 0
173 197 0
173 197 0
175 198 0
174 198 0
173 196 0
175 198 0
173 197 0
174 197 0
173 196 0
174 197 0
175 198 0
175 198 0
173 197 0
172 197 0
173 197 0
174 197 0
176 198 0
173 197 0
173 197 0
176 199 0
173 197 0
172 196 0
173 197 0
174 197 0
175 198 0
174 198 0
177 199 0
173 197 0
175 197 0
174 197 0
173 197 0
174 197 0
174 198 0
171 195 0
173 196 0
172 196 0
175 198 0
173 197 0
174 197 0
175 198 0
174 197 0
174 198 0
175 198 0
174 198 0
174 197 0
173 197 0
174 197 0
174 197 0
174 197 0
174 197 0
173 197 0
174 197 0
173 197 0
176 199 0
175 198 0
174 197 0
175 198 0
172 196 0
173 197 0
174 197 0
173 197 0
174 197 0
174 197 0
173 196 0
173 197 0
174 197 0
173 197 0
173 197 0
174 198 0
172 196 0
176 199 0
172 197 0
173 197 0
173 196 0
172 196 0
174 197 0
175 197 0
174 196 0
173 196 0
172 195 0
170 194 0
170 194 0
173 196 0
173 196 0
172 196 0
171 195 0
171 194 0
171 195 0
173 197 0
172 195 0
170 194 0
172 195 0
169 193 0
172 196 0
173 196 0
172 196 0
171 195 0
174 197 0
169 193 0
168 192 0
171 194 0
170 194 0
164 187 0
169 192 0
169 192 0
169 192 0
168 191 0
167 191 0
171 195 0
169 192 0
164 187 0
166 190 0
160 184 0
169 192 0
162 187 0
163 187 0
157 180 0
156 178 0
153 176 0
157 180 0
140 162 0
125 145 0
79 103 70
49 79 78
52 84 82
53 84 84
53 84 72
49 79 74
50 81 57
51 81 78
59 89 72
116 137 54
150 171 0
155 178 0
163 187 0
163 187 0
169 192 0
171 195 0
174 197 0
174 197 0
174 197 0
174 197 0
173 197 0
144 168 60
56 89 114
57 90 111
58 91 115
58 91 111
57 91 110
54 87 102
56 89 105
57 90 107
60 95 134
58 91 105
57 90 114
57 91 114
58 91 121
58 91 124
59 93 122
59 93 121
59 93 111
59 93 115
57 90 107
58 91 107
58 92 113
57 91 114
57 90 125
60 94 124
57 90 117
58 91 129
58 91 122
57 90 115
58 91 110
58 91 121
59 93 129
59 93 128
58 92 121
59 93 120
58 92 124
58 92 120
59 93 118
59 93 122
59 93 122
57 90 115
58 91 118
57 90 114
61 95 133
58 92 111
57 91 113
58 91 124
55 88 107
59 92 122
58 92 107
57 90 105
58 91 115
60 94 130
58 92 111
59 92 128
59 93 130
58 91 120
57 90 116
58 91 120
58 91 114
59 93 117
59 92 118
57 90 116
58 91 114
57 90 111
59 93 124
57 89 116
58 90 113
56 89 107
56 88 107
58 91 121
56 88 122
59 92 122
57 89 115
57 89 125
57 89 117
57 89 121
57 90 115
55 86 103
54 85 94
53 84 111
57 89 118
57 89 122
58 91 120
52 81 104
55 85 101
55 85 105
56 87 114
55 85 112
54 85 102
52 81 93
55 85 101
51 79 90
52 81 93
48 73 86
49 76 78
48 73 79
141 162 41
175 198 0
174 197 0
174 197 0
173 197 0
174 196 0
155 171 19
85 84 32
78 78 24
66 67 14
61 60 19
66 65 9
64 65 10
57 60 18
70 70 20
52 55 17
71 73 19
70 73 28
77 79 25
71 74 15
82 83 28
82 84 26
82 83 25
95 94 31
86 88 27
101 100 42
93 92 27
91 92 35
103 103 40
104 103 24
90 92 36
112 111 38
102 102 38
113 112 45
115 114 40
120 117 51
123 120 49
116 114 50
130 127 50
124 122 49
131 129 46
127 125 48
124 121 53
130 128 46
132 128 56
131 129 57
140 136 61
139 134 52
127 124 53
142 138 51
140 136 53
145 139 64
144 140 55
150 144 55
144 138 66
149 143 68
144 140 54
141 138 56
147 142 58
144 139 53
154 148 62
149 143 64
144 140 52
146 141 58
153 147 62
165 158 73
158 151 61
152 145 60
156 150 67
152 146 61
161 155 68
163 157 72
149 144 60
156 151 66
159 152 62
152 147 56
161 154 71
160 153 65
155 149 62
152 146 56
153 149 54
158 152 58
155 151 63
161 155 63
153 148 57
159 154 61
163 156 70
159 152 61
158 151 64
165 157 76
158 152 62
159 152 66
154 149 51
157 152 59
155 150 57
157 151 65
160 153 68
159 153 63
160 153 61
161 155 67
151 145 48
160 152 68
160 153 72
159 153 63
162 156 68
157 151 67
163 156 72
160 153 65
154 147 67
155 149 67
157 151 64
155 150 66
164 157 72
156 150 66
152 146 59
158 150 68
153 148 60
160 154 66
158 151 63
162 155 73
159 152 65
150 144 60
158 151 64
156 150 65
151 144 67
155 149 66
158 152 72
156 150 67
154 147 65
157 151 69
150 144 61
156 150 67
159 151 66
159 153 68
155 148 64
152 146 68
146 141 60
149 143 58
161 155 74
149 143 64
155 149 68
151 146 67
151 145 63
161 154 70
151 145 61
153 146 71
149 142 65
154 148 64
146 140 58
143 138 62
151 145 71
148 143 65
171 195 0
173 197 0
175 198 0
173 197 0
171 195 0
172 196 0
172 196 0
173 197 0
173 197 0
172 196 0
173 197 0
172 196 0
175 198 0
174 197 0
174 198 0
174 198 0
172 196 0
174 197 0
175 198 0
174 197 0
173 197 0
176 199 0
174 197 0
175 198 0
173 197 0
176 199 0
173 197 0
173 196 0
172 196 0
174 198 0
174 197 0
174 198 0
174 198 0
174 197 0
173 197 0
174 198 0
173 196 0
174 198 0
174 198 0
173 197 0
173 196 0
174 198 0
172 196 0
174 197 0
174 197 0
174 197 0
175 198 0
173 197 0
175 198 0
175 198 0
171 195 0
173 196 0
174 197 0
175 198 0
174 198 0
173 197 0
174 197 0
172 196 0
173 197 0
174 197 0
175 197 0
174 197 0
172 196 0
174 197 0
174 198 0
175 198 0
172 196 0
173 197 0
172 196 0
174 197 0
173 196 0
171 194 0
174 198 0
172 195 0
171 196 0
172 195 0
173 197 0
173 197 0
174 197 0
172 196 0
174 197 0
172 195 0
171 195 0
175 198 0
174 197 0
172 195 0
174 197 0
173 196 0
173 196 0
173 197 0
171 196 0
171 195 0
172 196 0
172 196 0
174 197 0
173 197 0
171 196 0
173 196 0
173 196 0
172 196 0
171 194 0
173 195 0
171 195 0
172 195 0
170 193 0
168 192 0
172 195 0
171 195 0
168 191 0
170 193 0
165 189 0
171 195 0
171 194 0
165 188 0
171 194 0
168 191 0
167 190 0
169 192 0
166 190 0
162 186 0
166 189 0
164 187 0
159 181 0
160 182 0
161 182 0
159 182 0
156 178 0
152 176 0
145 165 0
119 138 25
52 83 62
51 82 72
53 84 86
52 83 78
51 82 76
53 84 84
51 82 60
79 103 57
128 149 18
140 162 0
151 174 0
154 177 0
165 188 0
167 190 0
171 194 0
172 196 0
174 197 0
172 197 0
173 197 0
174 197 0
170 195 0
170 194 0
76 103 93
57 90 107
55 88 97
54 86 103
56 89 105
59 93 130
58 91 113
56 90 108
58 92 122
58 92 118
59 93 120
56 90 105
56 88 107
57 91 114
58 92 122
57 89 115
57 91 114
55 88 99
59 93 124
59 93 110
58 91 118
57 91 115
59 93 122
56 89 113
60 95 131
57 90 113
59 92 122
58 91 118
58 91 121
60 94 120
60 94 128
58 92 121
58 91 110
57 92 110
59 93 126
59 92 115
60 93 126
58 91 113
58 91 120
57 91 114
58 91 115
56 89 103
57 91 121
59 93 131
58 92 120
59 92 115
57 90 118
57 91 111
58 91 122
58 92 114
56 89 115
57 90 107
58 91 118
56 88 115
55 88 106
58 91 125
56 89 107
58 91 116
57 90 115
58 91 120
59 92 128
57 90 114
57 91 113
58 91 114
56 89 113
57 90 113
58 91 118
57 89 121
58 92 128
58 91 121
57 90 129
56 88 111
55 87 108
57 90 111
57 90 115
56 88 114
57 89 110
56 88 113
58 90 124
57 89 120
55 86 106
54 84 103
57 89 110
58 90 123
54 85 101
54 84 98
56 87 110
54 84 100
54 84 92
53 83 102
52 81 107
53 83 97
51 78 84
46 70 63
48 73 83
70 91 68
170 193 0
173 196 0
172 195 0
174 198 0
172 196 0
174 196 0
171 194 11
107 114 29
90 88 32
84 82 31
72 73 14
69 70 21
60 60 15
61 62 9
77 76 16
74 72 16
65 67 20
72 71 20
77 79 20
76 77 29
62 65 17
83 81 20
84 84 24
76 79 23
92 92 24
102 100 27
88 88 38
93 93 31
102 101 16
105 102 33
104 104 35
106 104 37
107 106 36
117 114 46
112 111 42
114 112 48
111 109 36
126 123 48
118 116 47
124 122 46
117 115 46
125 123 40
132 129 50
123 120 48
126 122 39
127 124 42
139 135 49
138 134 54
130 129 48
137 134 52
137 133 42
133 130 44
139 134 53
138 134 52
142 138 53
142 137 57
146 143 58
139 134 49
151 147 54
146 141 56
148 143 58
143 139 49
145 141 51
155 150 57
152 146 53
149 142 53
144 141 47
150 145 56
148 144 59
152 147 61
150 144 58
158 152 61
157 151 59
154 147 62
156 150 63
150 145 56
154 149 58
159 152 64
154 148 57
155 149 59
159 154 63
158 151 68
159 152 66
158 152 58
157 151 59
159 153 60
157 151 64
158 152 62
156 151 62
159 153 60
156 150 57
159 153 60
158 152 64
157 150 63
152 146 59
158 152 62
153 148 57
162 155 58
157 151 59
157 150 62
159 153 59
166 158 76
160 154 68
156 150 66
151 145 57
157 150 63
159 152 70
155 148 58
154 147 61
155 151 61
155 150 63
160 156 62
155 149 60
161 154 61
160 153 70
158 152 64
158 151 68
153 148 63
157 151 68
152 146 68
152 146 61
159 152 69
152 145 69
154 148 59
158 151 73
156 150 65
152 146 61
152 146 62
156 149 63
153 148 56
152 147 59
158 152 70
153 148 68
157 151 69
151 145 62
155 150 63
152 145 65
151 145 65
152 145 61
156 151 70
151 146 66
150 143 71
157 151 72
147 141 60
158 152 73
155 149 64
156 148 71
155 148 69
149 144 64
155 149 63
148 143 54
155 148 63
172 196 0
176 198 0
175 198 0
172 196 0
174 198 0
171 195 0
175 197 0
174 197 0
173 197 0
172 196 0
173 197 0
174 198 0
175 198 0
172 196 0
173 197 0
174 198 0
173 197 0
175 197 0
174 197 0
172 196 0
172 196 0
172 197 0
173 197 0
174 196 0
172 196 0
173 197 0
173 197 0
174 198 0
175 198 0
172 197 0
172 196 0
172 197 0
174 198 0
174 197 0
174 198 0
176 199 0
174 198 0
173 197 0
174 198 0
174 197 0
173 197 0
176 198 0
174 197 0
173 197 0
175 198 0
173 197 0
174 197 0
174 198 0
173 197 0
172 196 0
173 197 0
171 195 0
173 197 0
173 197 0
176 198 0
173 197 0
172 196 0
174 198 0
173 197 0
174 198 0
173 197 0
175 198 0
174 198 0
174 197 0
172 195 0
171 194 0
174 197 0
174 197 0
172 196 0
175 197 0
173 197 0
173 196 0
173 197 0
171 194 0
173 196 0
174 198 0
174 197 0
172 196 0
171 194 0
174 197 0
173 197 0
171 195 0
170 195 0
171 194 0
171 195 0
173 196 0
172 195 0
172 195 0
170 193 0
169 194 0
171 194 0
172 195 0
173 196 0
170 194 0
168 192 0
173 196 0
171 194 0
171 195 0
171 195 0
172 196 0
172 196 0
168 191 0
167 191 0
170 192 0
169 192 0
172 194 0
169 191 0
167 190 0
169 192 0
170 194 0
168 192 0
169 192 0
169 193 0
167 190 0
170 193 0
169 193 0
164 188 0
165 189 0
164 186 0
162 185 0
161 184 0
151 174 0
160 182 0
156 179 0
154 177 0
155 177 0
146 168 0
147 169 0
120 139 0
76 98 51
51 81 76
49 79 62
50 80 67
46 75 51
51 81 82
82 103 33
97 119 18
135 155 0
129 150 0
147 170 0
155 179 0
158 181 0
161 185 0
168 191 0
175 197 0
174 198 0
174 197 0
171 195 0
174 197 0
172 195 0
172 196 0
176 199 0
126 150 57
53 85 94
56 88 103
55 87 97
55 88 110
57 90 113
56 90 97
58 92 114
56 89 102
57 91 120
59 93 120
58 91 120
58 91 107
58 91 111
58 91 117
56 90 113
58 91 103
56 89 110
56 89 110
57 91 121
55 87 100
57 90 99
58 92 124
58 91 107
58 92 117
58 92 130
59 93 125
57 90 108
57 90 121
57 91 118
58 92 126
58 91 114
58 91 120
56 89 113
54 87 94
57 91 117
58 92 117
57 90 117
58 92 118
56 88 105
56 89 110
58 92 118
58 92 122
58 92 107
55 88 105
56 89 115
60 94 126
58 91 108
57 90 103
58 92 111
57 90 108
57 90 103
58 92 125
58 92 121
58 91 114
60 94 129
59 93 124
58 92 123
59 92 120
57 90 120
57 89 120
56 88 108
58 91 115
57 89 121
57 89 105
57 90 106
57 89 120
59 92 124
58 91 108
55 86 105
55 86 110
56 88 115
56 89 117
56 88 107
58 91 120
58 90 113
56 89 117
54 85 108
55 86 111
56 87 111
55 87 116
56 87 109
56 88 117
56 87 111
55 86 106
52 81 102
52 82 100
54 83 109
53 83 110
51 80 96
50 77 78
50 78 98
50 77 83
50 77 88
42 66 75
116 136 58
172 194 0
174 197 0
176 198 0
174 196 0
175 198 0
172 195 0
172 195 0
154 170 31
90 88 30
81 80 21
83 82 14
75 75 14
81 80 23
72 71 18
66 67 20
71 73 12
78 78 14
85 82 19
82 81 22
80 81 17
83 85 22
83 82 28
96 95 31
80 81 14
81 82 22
85 85 24
94 93 29
90 90 31
96 95 29
103 101 30
113 109 46
108 107 37
106 106 35
113 110 34
107 107 40
121 118 43
113 112 45
127 124 47
127 123 47
121 117 44
115 113 48
135 132 48
138 134 56
129 126 48
136 132 58
129 127 38
127 123 44
130 125 49
132 128 47
134 130 46
138 133 52
136 132 46
138 135 55
144 139 54
140 135 54
141 136 51
146 141 63
140 136 47
146 141 52
143 139 54
143 138 49
148 143 62
148 142 50
149 144 47
142 137 49
155 149 56
150 145 54
153 148 61
152 146 56
152 147 57
145 139 42
159 152 66
153 147 62
156 150 63
157 151 59
151 144 62
157 151 65
154 148 61
152 146 62
158 150 61
161 154 72
155 148 58
155 149 65
156 150 60
156 150 68
148 142 53
151 147 53
157 151 60
157 150 56
155 150 57
159 152 59
151 146 61
155 149 63
162 156 66
156 150 64
159 153 61
154 147 62
155 150 58
159 152 63
156 150 64
154 148 62
147 141 53
157 151 56
151 145 65
154 148 63
157 151 59
163 155 70
156 151 61
158 152 64
155 148 65
156 149 66
159 152 66
162 155 69
162 155 71
158 151 67
147 141 52
155 149 64
154 148 66
156 151 67
156 149 69
151 144 60
153 148 63
155 150 61
158 151 75
158 151 66
154 148 64
158 152 68
148 141 61
155 149 66
153 148 63
152 146 62
156 150 66
146 140 63
150 145 58
159 152 65
158 151 65
153 147 63
154 149 66
144 138 59
156 149 66
157 151 68
158 151 74
149 144 53
149 142 62
155 149 62
152 145 63
148 142 62
153 146 63
154 148 60
142 136 53
138 132 57
149 142 61
174 197 0
173 197 0
171 195 0
174 198 0
176 199 0
174 197 0
174 197 0
173 197 0
172 196 0
172 196 0
174 198 0
172 196 0
173 197 0
175 198 0
175 198 0
172 196 0
174 197 0
173 197 0
171 196 0
174 197 0
173 197 0
174 197 0
175 198 0
173 196 0
173 197 0
173 197 0
173 197 0
172 197 0
175 198 0
175 198 0
174 198 0
175 198 0
174 197 0
171 194 0
173 196 0
173 197 0
173 197 0
173 197 0
174 197 0
174 198 0
172 196 0
173 197 0
174 198 0
171 195 0
171 195 0
175 198 0
175 198 0
173 197 0
173 197 0
174 198 0
174 197 0
172 195 0
174 198 0
174 198 0
173 197 0
171 195 0
172 196 0
173 197 0
171 195 0
174 197 0
174 198 0
173 197 0
171 195 0
174 198 0
174 197 0
174 197 0
170 194 0
173 197 0
173 196 0
171 194 0
171 194 0
174 197 0
170 194 0
172 195 0
172 195 0
173 197 0
172 196 0
171 195 0
174 197 0
175 197 0
174 197 0
173 196 0
171 195 0
171 194 0
173 197 0
170 194 0
174 197 0
174 197 0
171 195 0
172 195 0
173 196 0
171 195 0
171 194 0
174 196 0
174 197 0
170 193 0
171 193 0
170 194 0
170 193 0
171 194 0
170 193 0
172 195 0
171 193 0
167 191 0
169 192 0
171 195 0
165 188 0
165 188 0
169 192 0
168 191 0
169 192 0
168 191 0
170 193 0
164 187 0
169 192 0
170 193 0
156 178 0
166 189 0
162 184 0
156 179 0
154 177 0
158 180 0
160 182 0
157 180 0
147 170 0
150 172 0
137 158 0
132 152 0
91 107 0
62 80 31
59 79 47
67 87 31
90 108 44
83 100 18
110 128 18
118 137 0
124 144 0
129 148 0
142 163 0
144 166 0
151 173 0
156 178 0
163 186 0
171 195 0
173 196 0
174 197 0
171 194 0
176 199 0
172 196 0
173 196 0
172 196 0
173 196 0
165 189 25
59 91 99
56 89 94
56 88 108
56 89 100
57 90 107
55 87 108
57 90 117
56 89 103
57 90 110
57 90 108
57 91 107
56 89 103
57 91 114
58 92 110
57 90 113
57 91 102
57 91 113
57 90 103
57 90 108
57 90 111
59 93 118
59 92 111
58 92 107
57 90 105
59 93 125
57 90 110
58 91 115
58 91 121
58 91 111
56 89 110
57 91 115
58 92 126
56 89 103
58 92 111
56 89 108
57 90 125
57 90 114
58 91 121
58 91 118
58 92 120
56 89 108
57 90 120
57 91 105
59 92 120
57 89 107
57 90 110
57 91 103
57 91 110
58 92 125
56 88 105
58 91 118
57 90 110
57 90 131
59 92 124
58 91 118
58 92 124
59 92 125
56 89 103
58 92 122
57 90 118
58 92 126
57 90 117
57 91 115
57 90 118
58 92 115
57 89 113
57 89 116
57 90 114
56 88 110
57 90 112
57 89 110
56 87 109
57 89 113
58 91 117
55 87 102
53 84 103
57 89 118
56 87 109
56 88 118
56 87 120
56 87 110
54 84 109
54 84 92
54 84 105
53 82 100
54 84 96
50 78 93
53 83 96
51 80 91
53 82 110
51 79 100
50 77 77
48 73 87
43 65 71
166 188 0
174 197 0
173 196 0
172 195 0
175 198 0
172 194 0
170 193 0
172 196 0
170 194 0
98 101 25
84 82 28
84 82 31
58 58 9
77 76 21
68 68 23
75 73 20
68 67 17
66 66 14
57 58 15
70 72 18
81 79 13
73 74 19
70 71 16
71 73 18
82 83 21
95 95 28
89 88 28
94 93 19
94 93 31
111 108 31
101 99 39
105 103 33
111 108 42
102 102 24
106 105 30
112 111 40
111 110 40
116 114 42
111 109 31
119 117 47
129 126 49
124 120 41
127 124 45
123 121 40
122 120 38
128 124 50
126 124 53
131 128 47
140 136 41
140 134 55
132 129 46
136 132 47
123 120 39
129 125 45
132 129 50
141 137 48
148 142 57
136 132 51
139 134 48
145 141 48
136 133 53
148 144 54
148 144 53
149 143 55
150 144 55
145 141 55
148 142 56
146 142 49
148 142 53
153 147 54
149 144 50
146 140 49
149 144 61
151 146 54
160 153 67
157 152 61
152 146 60
156 150 57
160 154 67
147 142 54
159 153 62
156 150 62
159 153 60
152 146 56
151 145 61
161 154 65
157 150 64
150 145 58
159 153 59
154 148 62
159 152 61
157 152 63
154 148 60
154 148 56
157 149 62
158 153 65
159 153 60
161 155 68
154 148 62
154 148 63
152 147 60
159 153 61
156 150 63
162 155 66
153 147 59
152 146 61
158 151 67
155 149 63
155 149 67
158 152 68
150 144 57
155 150 67
157 151 70
156 150 67
161 154 75
158 150 70
154 148 66
159 153 69
152 147 62
152 144 65
159 152 61
156 150 64
152 146 61
158 151 64
156 149 67
160 154 64
152 146 63
159 152 75
149 143 53
155 148 65
152 146 61
151 145 63
154 147 66
153 146 67
152 145 65
152 146 60
158 151 65
148 141 63
145 139 63
158 151 74
152 147 61
151 144 63
151 145 63
145 139 64
146 140 54
154 149 57
155 147 65
149 142 63
147 142 58
148 142 66
151 144 66
145 139 59
150 144 57
173 197 0
176 199 0
175 198 0
172 196 0
171 195 0
174 197 0
173 196 0
174 196 0
172 196 0
174 197 0
174 197 0
172 196 0
170 194 0
172 196 0
172 197 0
173 196 0
173 197 0
173 197 0
174 198 0
173 196 0
175 198 0
174 197 0
173 196 0
174 197 0
172 196 0
175 198 0
174 197 0
174 197 0
173 197 0
173 197 0
172 195 0
174 198 0
173 197 0
174 197 0
172 196 0
173 197 0
171 195 0
174 198 0
175 198 0
173 197 0
175 198 0
174 197 0
173 197 0
175 198 0
173 197 0
175 198 0
172 196 0
174 198 0
175 198 0
175 198 0
172 196 0
173 196 0
172 196 0
175 198 0
173 196 0
173 197 0
173 196 0
174 197 0
174 197 0
173 197 0
173 196 0
174 197 0
173 197 0
173 196 0
172 195 0
171 195 0
173 196 0
173 197 0
174 197 0
174 198 0
174 197 0
173 196 0
173 196 0
172 196 0
170 194 0
173 196 0
173 196 0
175 198 0
173 197 0
173 196 0
172 196 0
173 197 0
172 195 0
171 195 0
170 193 0
171 194 0
173 196 0
171 194 0
172 196 0
173 196 0
170 193 0
175 197 0
170 193 0
171 194 0
169 192 0
172 195 0
176 198 0
170 194 0
169 192 0
171 194 0
171 193 0
171 194 0
166 190 0
172 195 0
172 195 0
168 191 0
172 195 0
170 191 0
169 191 0
169 192 0
166 189 0
168 191 0
166 189 0
167 189 0
153 176 0
162 184 0
167 189 0
167 190 0
159 182 0
156 178 0
158 180 0
153 175 0
149 170 0
154 175 0
147 168 0
137 159 0
140 161 0
108 126 0
86 100 0
79 94 0
93 108 0
99 114 0
99 116 0
101 117 0
100 117 0
127 146 0
139 160 0
137 157 0
139 161 0
151 173 0
154 177 0
153 176 0
169 193 0
172 196 0
175 198 0
172 196 0
174 196 0
171 195 0
174 197 0
172 194 0
173 196 0
172 196 0
172 195 0
115 140 76
56 90 103
55 88 102
55 87 94
54 87 100
57 89 117
57 91 118
57 90 107
59 94 129
56 89 100
58 91 117
56 89 107
57 90 118
60 94 130
58 91 108
57 91 103
58 91 107
57 90 113
57 90 113
58 91 117
56 89 105
55 88 102
57 90 105
57 91 107
57 90 120
57 91 107
56 89 107
58 92 117
59 92 114
57 91 113
56 89 111
58 92 124
55 87 102
58 92 121
57 90 114
58 91 102
59 93 126
59 93 122
59 93 126
57 90 113
57 91 111
57 90 111
58 92 118
56 89 102
57 90 110
55 87 99
58 91 114
56 89 118
56 89 113
57 90 110
59 93 126
57 91 111
59 93 125
57 90 114
57 89 113
58 92 122
56 89 110
57 90 118
58 92 124
56 88 107
57 90 114
57 90 118
56 89 110
57 89 112
58 91 119
57 90 108
59 92 125
56 88 115
58 92 122
57 89 116
56 88 107
55 86 99
55 86 111
58 91 118
54 86 101
55 87 105
55 86 99
54 86 106
52 83 99
56 88 107
54 84 106
56 88 116
58 89 114
55 85 103
52 81 102
53 83 91
53 82 98
52 81 81
52 79 90
51 79 93
50 78 90
46 72 70
45 70 70
113 133 56
171 194 0
171 195 0
170 193 0
171 195 0
171 194 0
173 195 0
171 193 0
174 198 0
174 197 0
154 172 29
86 84 33
79 78 29
92 90 34
68 68 12
76 76 23
82 81 16
70 68 20
83 82 22
75 75 13
62 63 13
78 78 10
85 85 18
78 80 27
96 93 30
93 92 23
82 83 23
97 97 28
93 92 22
93 93 24
93 93 25
96 96 24
104 103 28
105 103 32
108 105 32
110 108 32
114 113 32
117 114 39
113 111 39
119 116 46
119 116 36
125 121 42
125 122 42
119 116 37
115 113 41
131 129 45
137 134 44
131 126 50
126 122 35
129 125 45
131 127 36
130 127 42
130 127 44
136 132 37
132 129 47
134 129 47
129 125 44
147 141 54
142 137 56
137 132 42
133 128 42
143 138 49
146 141 51
142 137 52
146 140 55
147 142 55
148 143 51
151 145 56
148 143 53
148 142 60
143 139 52
150 144 58
153 147 61
154 149 53
146 142 46
155 149 50
149 144 55
155 149 61
154 148 58
150 145 51
155 148 60
157 151 57
158 152 62
157 151 59
148 143 53
157 150 64
150 145 61
155 148 57
147 143 53
154 147 56
156 149 59
157 151 58
158 151 65
159 152 65
149 143 54
157 151 60
159 152 65
159 152 65
158 152 63
160 153 68
154 148 62
156 151 61
158 151 65
157 150 69
157 151 57
155 148 60
158 151 63
157 152 62
156 150 70
156 148 71
159 153 67
157 151 58
161 153 72
157 150 67
150 144 51
152 146 49
155 149 60
154 147 54
158 151 61
156 150 56
152 146 62
156 150 66
151 145 62
149 142 56
152 146 59
157 151 61
146 141 49
154 148 60
157 151 68
154 148 58
156 150 66
157 149 65
149 144 65
153 146 62
154 148 59
151 146 60
150 144 68
156 149 69
151 145 58
145 138 59
144 138 60
147 142 59
142 137 51
151 144 68
158 151 71
157 149 65
138 134 57
153 146 61
156 150 69
149 142 65
149 143 62
153 146 65
151 145 62
152 146 68
173 197 0
173 196 0
172 197 0
174 197 0
174 197 0
170 194 0
172 197 0
174 197 0
174 196 0
171 196 0
170 195 0
172 196 0
170 194 0
175 198 0
173 197 0
173 197 0
174 198 0
174 198 0
173 197 0
173 197 0
170 195 0
173 196 0
174 197 0
175 198 0
170 194 0
173 197 0
175 198 0
175 197 0
174 198 0
172 196 0
173 197 0
176 198 0
175 198 0
171 195 0
172 197 0
173 197 0
172 196 0
174 197 0
172 196 0
174 197 0
175 198 0
176 198 0
174 197 0
174 197 0
169 193 0
174 197 0
173 196 0
175 197 0
172 195 0
174 197 0
175 198 0
175 198 0
172 195 0
174 197 0
173 197 0
175 198 0
171 194 0
172 196 0
174 198 0
173 197 0
172 196 0
173 196 0
174 197 0
172 195 0
175 198 0
175 198 0
173 196 0
173 197 0
171 195 0
175 198 0
171 195 0
173 197 0
174 196 0
172 194 0
172 196 0
172 196 0
170 194 0
173 196 0
173 196 0
175 197 0
174 197 0
172 196 0
170 193 0
170 194 0
174 196 0
171 194 0
172 195 0
173 195 0
173 195 0
176 198 0
173 195 0
171 194 0
167 191 0
170 193 0
171 194 0
168 191 0
170 192 0
170 193 0
170 193 0
174 196 0
170 193 0
172 195 0
173 195 0
170 192 0
167 190 0
171 193 0
169 192 0
169 193 0
166 188 0
166 188 0
171 193 0
171 192 0
163 185 0
161 183 0
163 185 0
163 186 0
163 184 0
161 183 0
155 176 0
161 182 0
158 181 0
161 182 0
158 180 0
153 174 0
143 164 0
140 161 0
116 134 0
114 131 0
101 117 0
105 120 0
105 121 0
94 110 0
101 117 0
122 140 0
114 132 0
136 156 0
134 154 0
148 170 0
146 169 0
150 172 0
155 178 0
164 187 0
168 191 0
173 196 0
175 198 0
168 191 0
171 195 0
170 194 0
174 197 0
172 195 0
174 197 0
169 193 0
173 197 0
160 184 36
54 86 88
55 87 92
55 87 100
54 86 100
57 91 113
57 90 95
57 90 100
56 89 105
58 91 114
57 90 117
56 89 107
56 89 103
55 88 100
57 90 105
55 88 100
58 91 117
58 92 115
56 89 103
57 91 107
58 92 128
56 88 102
57 90 124
58 92 115
57 90 117
58 92 115
57 91 115
56 89 97
57 90 100
59 93 121
58 92 115
57 91 115
58 91 110
56 90 105
58 92 120
56 88 113
57 91 117
57 90 108
56 89 99
57 89 113
57 90 117
57 90 122
58 92 122
57 91 110
57 90 113
59 93 120
55 88 105
57 90 103
56 89 103
58 91 115
57 90 117
57 90 121
57 90 110
58 91 114
58 91 121
56 88 103
57 89 108
57 90 117
58 91 124
58 91 113
57 91 120
58 91 116
57 90 121
56 88 122
57 90 116
55 87 103
56 88 114
57 90 113
55 88 99
54 85 98
56 88 120
57 89 116
56 88 102
53 83 94
57 88 110
57 89 127
56 88 113
55 86 95
52 83 93
54 86 89
52 81 89
54 83 101
53 82 109
54 83 102
54 83 103
53 82 98
51 80 94
51 80 88
48 76 88
48 75 78
50 77 85
46 71 67
50 72 67
159 181 19
173 196 0
171 194 0
171 193 0
167 190 0
172 194 0
172 195 0
173 195 0
169 192 0
170 193 0
172 195 0
113 119 28
83 82 19
75 73 28
75 74 21
74 73 18
81 81 22
80 79 18
78 78 9
77 77 18
72 72 16
80 80 16
84 83 12
75 75 17
79 80 14
88 88 22
91 88 20
90 89 20
85 87 23
92 92 29
98 96 29
92 92 33
100 98 31
104 102 23
103 101 34
95 95 34
105 103 27
108 106 36
116 113 38
117 114 37
116 114 33
122 120 41
123 120 38
119 117 40
114 112 35
124 120 43
121 118 39
125 122 41
135 132 40
128 125 44
133 130 45
134 131 45
130 126 38
130 126 34
133 130 45
142 137 47
134 131 40
139 134 53
147 141 58
145 141 53
139 135 42
143 137 57
145 139 45
146 141 45
147 141 53
156 150 58
151 146 58
148 143 57
151 146 59
155 148 58
150 144 52
152 145 58
143 139 46
149 144 56
148 143 49
154 147 62
150 144 45
153 148 57
151 144 56
148 143 54
157 150 63
159 152 61
147 141 49
155 149 60
145 140 49
148 142 49
153 147 59
155 148 59
152 146 60
153 148 60
148 144 51
152 146 54
155 149 61
156 151 57
146 141 59
153 146 57
164 157 65
150 144 54
154 148 57
150 144 52
157 150 59
154 149 53
157 151 62
152 146 53
157 150 59
158 151 61
155 149 60
151 146 57
158 151 53
155 149 60
155 149 59
150 143 56
157 151 60
154 148 60
154 149 62
150 145 57
151 146 60
163 157 66
158 152 58
145 141 49
148 143 59
146 142 52
160 153 66
161 154 68
149 143 53
155 149 65
151 145 60
158 151 60
156 150 70
152 146 61
150 143 60
149 142 62
153 146 67
155 149 57
150 143 60
151 145 59
157 150 68
155 148 68
149 143 64
153 147 62
154 148 66
147 141 61
152 145 60
150 144 64
146 140 59
149 143 58
148 141 68
150 143 60
137 132 54
148 142 64
144 139 51
144 138 61
145 139 56
142 136 57
173 197 0
173 196 0
172 195 0
173 196 0
174 198 0
173 196 0
174 197 0
172 196 0
173 196 0
171 196 0
176 199 0
172 195 0
174 198 0
173 197 0
174 197 0
174 197 0
174 197 0
173 197 0
174 197 0
174 197 0
172 196 0
174 197 0
172 197 0
175 198 0
172 195 0
175 197 0
173 197 0
173 196 0
174 197 0
173 197 0
173 196 0
174 197 0
175 198 0
174 197 0
171 195 0
173 197 0
171 195 0
172 196 0
171 195 0
173 197 0
176 199 0
173 196 0
172 196 0
173 197 0
175 198 0
173 197 0
173 196 0
173 196 0
173 197 0
172 196 0
171 195 0
174 197 0
172 196 0
175 198 0
173 196 0
173 197 0
171 195 0
173 196 0
173 196 0
172 196 0
175 197 0
175 198 0
174 197 0
172 195 0
175 197 0
174 197 0
172 196 0
175 197 0
171 195 0
174 197 0
174 197 0
170 193 0
174 197 0
172 196 0
170 194 0
176 198 0
173 197 0
175 197 0
171 195 0
169 193 0
175 197 0
173 196 0
172 195 0
173 195 0
174 197 0
174 196 0
169 191 0
172 195 0
173 195 0
172 195 0
174 196 0
172 195 0
171 194 0
173 194 0
170 193 0
174 197 0
169 191 0
175 197 0
169 191 0
172 195 0
169 191 0
169 192 0
170 192 0
171 193 0
167 189 0
166 188 0
166 188 0
167 188 0
162 184 0
160 183 0
166 187 0
162 182 0
159 180 0
168 189 0
163 184 0
163 185 0
165 186 0
161 182 0
154 176 0
150 172 0
160 181 0
140 162 0
156 178 0
148 170 0
131 151 0
135 155 0
105 121 0
100 117 0
109 126 0
107 126 0
127 145 0
116 135 0
109 127 0
126 145 0
122 141 0
130 150 0
147 167 0
132 153 0
146 169 0
149 172 0
157 179 0
169 192 0
173 196 0
171 195 0
171 195 0
174 197 0
172 196 0
174 197 0
171 195 0
172 196 0
168 192 0
172 196 0
172 196 0
170 194 0
111 136 78
56 88 108
55 88 102
56 88 99
56 88 103
57 90 108
58 91 125
56 88 107
55 87 105
57 90 94
58 91 114
54 86 94
57 91 110
56 89 110
57 90 115
57 91 108
54 87 102
57 90 108
56 89 103
57 90 105
56 90 97
58 92 114
57 90 117
57 90 117
57 90 103
58 91 114
59 93 124
56 89 111
58 92 124
59 93 126
58 92 117
58 91 120
58 91 124
58 91 118
57 90 113
57 90 125
57 91 102
57 91 108
57 90 108
55 88 95
58 91 115
57 90 105
56 89 105
58 92 114
56 88 111
57 90 114
58 91 117
57 90 114
57 90 110
58 91 115
58 91 121
56 88 108
57 91 108
58 91 123
56 89 107
57 90 108
55 87 110
56 89 117
56 89 108
56 88 120
56 88 108
57 90 120
55 86 99
56 88 109
57 89 110
56 88 120
56 88 113
55 87 106
58 91 118
58 90 119
55 86 105
58 91 120
54 85 89
54 86 107
55 86 102
55 85 112
57 88 109
56 88 113
53 84 108
56 87 110
52 82 95
53 84 107
52 81 86
53 84 94
53 81 90
50 77 89
50 79 88
52 81 85
50 77 86
50 76 94
48 74 83
115 134 28
172 195 0
174 196 0
171 194 0
170 192 0
171 194 0
171 194 0
172 196 0
171 194 0
170 193 0
169 192 0
171 194 0
159 179 22
98 94 38
85 83 29
85 83 22
74 73 23
67 67 14
74 76 12
74 72 9
70 71 5
62 64 15
78 77 14
82 81 20
84 84 15
82 82 11
84 84 18
92 90 22
95 92 22
93 93 16
97 97 28
97 95 30
104 103 29
102 101 21
108 105 29
109 107 31
89 88 24
114 111 37
108 108 27
115 112 25
118 116 40
106 104 30
116 113 42
109 107 32
123 121 42
118 115 45
117 115 37
126 124 38
126 122 48
120 118 38
132 129 36
137 133 42
127 123 37
130 127 50
134 129 50
135 129 49
135 131 45
134 131 49
142 138 42
134 129 37
139 135 50
141 136 49
141 137 49
136 133 46
147 141 54
145 141 46
143 138 47
150 144 50
146 140 53
152 146 57
145 141 47
139 136 43
146 140 48
147 141 57
143 138 42
147 142 44
149 143 49
144 140 47
154 149 54
147 142 44
152 146 48
150 143 54
148 142 51
148 143 53
151 144 57
158 151 61
151 145 56
155 150 53
153 147 53
151 145 51
151 146 62
157 150 64
156 150 60
149 144 54
158 151 62
149 143 54
150 144 51
157 151 61
164 157 66
158 152 63
157 151 56
156 148 59
155 149 60
150 144 53
159 153 65
152 147 57
149 144 49
156 150 64
153 148 58
148 143 56
154 148 62
159 153 58
157 151 60
149 143 59
157 150 60
154 147 63
158 152 66
151 145 60
150 144 49
160 152 66
160 153 63
156 149 67
152 146 62
152 145 62
158 152 62
155 148 59
149 142 53
152 146 59
151 146 54
152 147 53
155 147 64
150 144 63
153 146 63
157 149 67
146 140 56
153 148 59
152 146 58
143 138 57
149 143 62
148 142 60
142 136 52
153 146 58
154 147 63
148 142 58
146 139 63
148 143 58
150 143 58
147 140 56
150 144 59
145 139 58
153 146 68
150 143 63
143 137 56
146 139 57
146 140 57
173 196 0
175 198 0
172 196 0
170 194 0
174 198 0
174 197 0
174 197 0
173 196 0
172 196 0
174 196 0
171 194 0
172 195 0
173 196 0
172 195 0
171 195 0
172 195 0
173 196 0
173 197 0
173 197 0
174 198 0
175 197 0
173 197 0
173 197 0
173 197 0
173 197 0
175 198 0
173 196 0
173 196 0
173 196 0
172 196 0
174 197 0
172 197 0
173 197 0
172 196 0
174 198 0
175 198 0
174 197 0
173 197 0
174 198 0
174 197 0
176 198 0
172 196 0
171 195 0
172 196 0
175 198 0
170 194 0
173 197 0
174 197 0
173 196 0
175 198 0
173 195 0
172 196 0
170 193 0
173 196 0
175 198 0
172 195 0
173 197 0
172 195 0
173 196 0
172 195 0
173 196 0
174 197 0
173 196 0
172 195 0
173 196 0
170 192 0
175 198 0
174 197 0
174 196 0
174 197 0
174 197 0
174 197 0
176 198 0
176 198 0
171 194 0
170 193 0
174 197 0
175 198 0
169 192 0
173 196 0
172 195 0
171 192 0
171 193 0
173 196 0
175 197 0
169 192 0
174 196 0
176 198 0
175 197 0
172 194 0
167 189 0
171 193 0
169 192 0
174 195 0
174 196 0
171 193 0
174 195 0
170 192 0
168 190 0
173 195 0
172 193 0
169 191 0
165 187 0
167 189 0
172 194 0
163 184 0
168 190 0
168 190 0
164 185 0
162 184 0
164 186 0
163 184 0
165 187 0
166 188 0
158 180 0
165 186 0
157 179 0
162 183 0
155 175 0
155 175 0
154 176 0
142 163 0
147 168 0
143 164 0
126 146 0
111 128 0
119 137 0
123 142 0
116 133 0
116 134 0
110 129 0
119 137 0
120 139 0
121 141 0
125 146 0
138 158 0
134 155 0
139 161 0
151 173 0
156 179 0
160 184 0
168 192 0
171 194 0
170 194 0
173 196 0
171 195 0
168 192 0
167 191 0
173 196 0
175 198 0
170 194 0
170 193 0
168 192 0
171 195 0
162 185 25
60 91 99
55 88 88
56 88 97
52 82 90
54 85 95
57 90 94
56 89 103
56 89 100
54 86 107
56 88 107
55 87 103
57 90 90
56 88 107
56 89 102
56 89 110
56 89 113
59 92 122
57 90 103
56 90 110
58 91 117
56 90 105
56 89 111
56 89 102
58 92 126
58 91 121
57 90 111
54 86 102
57 90 117
57 91 100
57 90 115
58 92 114
56 89 100
55 87 103
57 90 110
58 92 115
55 88 88
58 92 111
57 90 108
57 90 124
56 89 110
59 93 126
56 89 103
55 87 100
57 90 122
55 88 110
55 88 95
57 90 111
56 89 107
58 91 120
58 91 111
55 87 108
55 88 105
55 88 100
58 92 124
56 89 107
57 90 107
55 87 102
56 89 110
54 86 97
57 89 111
56 89 111
55 87 108
55 86 107
57 89 114
53 84 105
56 88 118
55 87 99
55 88 97
55 87 94
54 85 110
54 85 102
56 88 121
54 85 97
54 84 107
55 87 107
57 88 122
53 83 92
52 82 92
52 81 89
57 90 114
55 86 112
54 84 100
53 82 111
52 82 100
54 84 98
52 81 92
49 76 86
50 78 68
47 72 68
54 79 78
158 181 19
172 195 0
168 192 0
170 193 0
166 187 0
173 194 0
168 190 0
169 193 0
169 192 0
168 191 0
173 195 0
169 192 0
168 192 0
146 159 28
85 83 22
90 88 28
91 86 32
85 83 19
75 74 16
82 79 12
77 76 8
67 65 18
75 75 16
85 84 17
68 68 14
77 77 25
89 87 22
79 78 19
97 96 24
97 95 21
88 87 18
94 91 31
109 107 24
103 101 27
100 99 25
96 95 25
101 99 31
98 97 25
113 110 34
104 103 32
106 104 32
116 114 40
124 120 38
114 111 37
107 105 35
126 121 43
125 122 45
125 122 42
129 124 49
124 121 33
131 128 40
130 126 50
124 119 43
132 127 45
128 125 39
135 131 37
137 132 45
134 130 48
136 130 45
133 128 49
131 128 39
136 130 42
142 137 45
145 139 45
146 141 54
137 133 44
144 139 47
144 138 51
147 140 51
142 137 47
137 133 41
149 143 47
144 140 46
145 141 44
145 139 57
134 132 33
145 140 41
156 149 59
154 147 53
154 149 50
142 137 56
142 136 47
143 137 43
148 143 51
152 146 58
151 145 54
147 142 42
149 143 59
157 150 61
150 144 53
156 148 53
150 145 52
158 152 57
155 149 59
151 145 56
151 145 44
155 149 60
155 149 66
149 143 44
156 150 58
154 149 52
148 142 51
156 149 59
157 150 58
153 147 56
157 150 64
156 150 60
154 147 61
155 148 59
148 142 56
158 151 59
156 150 61
149 142 59
154 147 54
146 141 51
153 148 57
148 143 59
151 144 57
154 147 61
153 147 62
147 142 49
150 144 56
154 148 62
145 140 57
150 144 59
156 148 60
157 150 64
150 144 59
150 144 56
149 142 60
151 145 65
149 144 44
149 143 51
153 145 61
156 150 62
150 144 57
148 143 56
147 140 59
145 138 57
145 140 56
150 143 59
151 144 60
157 151 64
150 144 66
150 144 58
147 141 60
139 133 57
156 149 63
144 139 53
149 144 64
156 149 64
154 148 64
147 141 56
149 143 58
147 139 61
172 196 0
173 197 0
173 197 0
173 197 0
173 197 0
174 197 0
173 197 0
172 195 0
173 196 0
174 197 0
169 194 0
172 196 0
168 192 0
173 197 0
173 196 0
172 196 0
175 198 0
171 194 0
174 197 0
173 197 0
171 195 0
173 197 0
174 197 0
175 198 0
172 195 0
173 196 0
173 197 0
174 197 0
175 197 0
174 197 0
173 197 0
175 198 0
172 196 0
174 197 0
174 197 0
173 196 0
174 197 0
174 197 0
173 197 0
174 197 0
174 198 0
175 198 0
172 195 0
172 195 0
174 197 0
173 197 0
173 197 0
174 197 0
173 196 0
176 199 0
174 198 0
173 196 0
175 198 0
172 196 0
174 197 0
172 195 0
174 198 0
174 197 0
175 197 0
172 196 0
174 197 0
175 198 0
171 193 0
172 196 0
175 197 0
173 197 0
173 196 0
175 196 0
175 197 0
173 195 0
172 194 0
172 195 0
169 192 0
173 196 0
173 195 0
174 196 0
172 195 0
173 195 0
174 195 0
172 195 0
175 197 0
176 198 0
174 195 0
172 194 0
174 196 0
174 197 0
173 195 0
176 197 0
172 195 0
174 195 0
175 197 0
172 193 0
174 195 0
171 193 0
170 191 0
171 193 0
173 194 0
173 195 0
171 192 0
167 189 0
168 190 0
166 186 0
171 192 0
176 197 0
171 191 0
173 194 0
168 189 0
163 184 0
168 189 0
167 188 0
167 189 0
160 181 0
156 178 0
163 184 0
160 181 0
159 180 0
150 172 0
154 175 0
155 176 0
147 168 0
154 175 0
142 163 0
141 161 0
123 142 0
121 141 0
116 135 0
123 141 0
119 137 0
124 142 0
110 129 0
120 139 0
118 136 0
131 151 0
141 161 0
144 165 0
139 159 0
133 154 0
143 165 0
158 180 0
159 182 0
165 189 0
171 195 0
171 194 0
173 196 0
171 194 0
173 197 0
169 192 0
171 194 0
171 194 0
170 194 0
168 192 0
169 193 0
170 194 0
170 193 0
169 193 0
118 144 84
55 87 94
55 87 110
56 89 102
55 88 90
58 91 111
57 90 108
57 91 117
56 89 102
57 90 110
56 89 105
56 89 100
54 86 100
55 87 103
57 90 108
56 89 118
57 91 108
57 90 114
58 92 113
56 88 100
58 91 120
55 87 102
58 91 117
55 88 100
57 89 107
56 89 102
57 90 111
55 88 103
58 91 114
54 85 94
57 90 113
57 90 110
57 90 110
57 90 115
57 89 115
57 90 103
57 90 117
58 92 125
56 88 108
58 91 118
56 89 113
56 88 103
57 89 99
57 90 103
59 93 117
57 90 103
56 88 100
57 90 113
58 91 111
56 89 110
55 87 110
56 89 113
57 89 120
55 86 103
58 92 121
55 87 97
56 89 108
55 88 102
55 86 112
55 87 95
56 89 108
55 86 95
57 90 101
57 90 110
56 88 113
55 86 106
56 89 108
55 87 105
54 85 90
55 87 107
54 85 105
56 88 108
54 85 108
54 86 99
54 84 106
55 86 103
54 86 95
55 86 103
52 81 96
54 85 99
53 83 97
52 82 97
53 83 100
51 79 88
51 79 93
51 79 88
53 81 102
48 74 79
47 72 85
123 143 33
168 191 0
167 190 0
166 188 0
165 187 0
167 189 0
171 194 0
171 194 0
169 192 0
172 195 0
168 191 0
169 193 0
167 191 0
171 193 0
167 190 11
109 109 26
81 78 20
81 79 24
91 88 26
87 84 23
87 84 16
79 78 3
80 79 16
67 70 9
78 79 18
89 88 18
68 68 16
85 85 16
83 83 18
89 87 24
87 88 22
98 95 11
95 95 25
89 88 23
102 98 24
96 97 22
106 103 33
108 106 23
107 104 34
98 97 26
112 109 35
108 107 30
111 109 25
105 103 14
115 113 36
115 112 25
120 117 29
125 122 41
133 127 37
116 115 32
128 124 34
136 132 45
120 118 33
136 131 40
123 120 32
129 126 39
134 129 42
128 124 42
139 134 46
140 135 38
126 122 40
140 135 45
142 136 51
141 136 48
139 134 46
136 132 37
145 140 50
145 138 53
142 138 47
132 128 40
146 141 49
142 136 56
150 144 51
147 141 46
150 144 48
143 137 47
142 137 42
148 144 42
148 143 49
150 144 51
146 139 53
146 140 56
142 139 47
147 143 42
150 143 53
152 145 54
151 145 48
153 148 52
147 140 47
153 147 57
150 144 54
151 145 51
157 151 53
154 150 52
157 150 59
153 147 49
149 144 51
149 143 51
150 146 47
149 144 48
144 139 49
157 151 61
152 145 57
144 139 52
144 138 48
147 141 54
154 146 54
150 144 54
150 144 60
155 149 53
159 151 60
154 147 56
154 146 59
157 151 61
142 136 58
159 152 66
147 141 51
152 146 62
149 143 59
152 145 61
146 140 51
148 143 52
154 147 62
154 148 63
151 145 59
151 144 53
149 142 59
148 143 52
145 139 57
150 144 58
148 142 54
151 145 62
151 145 61
149 142 54
153 145 67
145 139 57
151 145 59
150 144 58
147 142 52
153 146 64
148 142 57
149 143 58
142 137 52
146 140 57
152 146 62
143 137 52
142 136 53
148 142 62
157 151 64
154 147 68
157 151 66
149 142 59
150 145 62
151 144 62
154 149 63
149 142 62
175 198 0
173 196 0
173 197 0
175 198 0
170 195 0
171 195 0
173 196 0
173 197 0
173 196 0
173 197 0
172 197 0
169 193 0
169 193 0
171 195 0
173 196 0
173 197 0
171 195 0
170 194 0
173 196 0
173 197 0
172 196 0
171 195 0
173 196 0
174 197 0
169 193 0
173 196 0
173 196 0
173 197 0
174 197 0
172 196 0
172 196 0
172 195 0
174 198 0
173 197 0
174 197 0
175 198 0
174 197 0
175 197 0
172 195 0
174 197 0
173 196 0
174 197 0
175 198 0
173 196 0
175 198 0
174 197 0
172 196 0
175 198 0
171 195 0
173 196 0
175 198 0
172 195 0
175 198 0
172 194 0
174 197 0
170 193 0
173 196 0
174 197 0
173 196 0
172 195 0
171 195 0
173 195 0
173 196 0
174 197 0
173 195 0
173 196 0
167 191 0
173 196 0
173 196 0
171 194 0
176 198 0
174 196 0
174 196 0
171 194 0
174 197 0
174 196 0
175 196 0
174 196 0
171 193 0
176 197 0
175 197 0
174 196 0
174 196 0
173 194 0
174 195 0
174 195 0
172 194 0
174 195 0
175 196 0
173 194 0
173 195 0
167 189 0
172 193 0
174 195 0
174 195 0
172 194 0
173 195 0
168 189 0
171 192 0
173 194 0
170 191 0
172 192 0
173 194 0
169 191 0
161 182 0
168 189 0
171 191 0
163 183 0
170 190 0
169 189 0
164 185 0
161 181 0
162 183 0
159 179 0
161 182 0
158 178 0
158 178 0
152 174 0
149 169 0
144 164 0
140 162 0
144 164 0
135 155 0
131 151 0
124 143 0
130 149 0
114 132 0
120 140 0
130 150 0
114 131 0
122 141 0
123 142 0
141 162 0
123 143 0
144 165 0
140 161 0
146 167 0
146 168 0
157 179 0
159 183 0
171 194 0
171 194 0
170 194 0
170 194 0
172 195 0
171 195 0
170 193 0
165 188 0
166 189 0
168 192 0
172 194 0
171 195 0
170 193 0
167 191 0
170 193 0
167 191 0
62 93 95
56 88 113
56 89 99
56 88 102
55 88 100
54 86 94
57 90 102
56 89 107
56 89 94
57 90 110
56 89 97
55 88 110
53 85 100
57 90 113
55 88 102
57 90 99
56 89 105
55 87 110
56 89 105
58 92 124
57 89 114
56 89 108
56 89 107
57 90 111
56 89 111
56 88 92
55 88 103
58 92 115
55 88 107
58 92 117
55 87 107
58 91 120
56 89 99
57 90 103
57 90 118
57 90 110
57 90 108
57 90 111
57 90 111
57 90 114
58 92 122
56 89 108
58 91 114
57 90 103
53 84 95
56 89 117
56 89 108
58 92 115
56 89 105
55 88 97
55 87 105
57 90 111
55 87 103
55 86 108
55 87 111
55 87 101
57 89 111
55 87 107
54 85 108
56 88 104
56 88 113
55 87 107
55 87 110
56 89 110
54 86 96
57 90 108
54 85 100
53 84 101
54 85 101
55 87 110
56 88 119
53 83 94
55 86 108
57 88 114
55 86 105
55 85 105
52 81 90
53 82 93
55 85 98
53 81 93
49 76 73
52 81 90
52 80 98
51 80 86
50 78 91
50 79 91
45 70 82
70 92 68
164 186 0
173 196 0
165 188 0
167 189 0
166 188 0
169 192 0
166 188 0
172 194 0
168 190 0
171 194 0
167 189 0
170 192 0
166 189 0
170 192 0
171 194 0
156 176 11
93 91 32
82 78 31
88 85 26
86 85 16
85 81 25
69 69 11
77 76 18
81 79 5
80 76 8
74 74 14
85 83 8
85 83 21
91 89 12
91 90 13
90 87 18
81 81 14
83 84 18
101 98 30
97 95 16
104 102 22
90 88 23
109 106 31
92 89 21
104 101 23
119 117 31
116 112 28
117 114 18
116 113 26
123 120 34
120 116 35
108 105 31
112 109 22
134 131 42
125 123 37
129 125 38
133 129 37
121 118 35
118 114 37
135 131 31
129 125 40
132 129 42
136 132 47
132 128 50
130 126 39
136 130 41
132 128 30
134 130 37
135 131 44
149 143 53
142 137 47
134 130 48
142 136 45
137 133 45
147 142 49
143 137 49
151 146 46
146 141 47
145 140 49
138 134 49
140 134 47
149 144 53
145 140 51
149 143 53
148 143 53
145 140 49
148 143 45
150 144 54
154 146 54
148 141 49
148 142 49
146 140 48
148 141 52
151 146 54
152 146 51
154 149 49
147 142 49
144 137 47
146 141 47
150 144 54
154 147 56
158 151 63
157 150 61
155 149 58
149 143 57
151 145 53
155 149 57
153 148 62
144 137 44
155 148 62
158 152 54
159 151 61
148 143 48
152 146 59
157 150 56
149 144 56
152 147 48
151 144 61
159 152 64
145 140 49
148 142 54
153 147 60
152 146 57
151 145 54
154 149 52
156 149 65
147 141 56
149 142 54
152 146 56
153 148 49
154 147 64
151 144 59
154 147 62
150 145 58
153 147 58
147 141 56
148 142 51
148 142 59
154 149 63
156 150 59
150 144 51
145 140 57
150 144 58
153 147 69
153 147 62
148 142 66
148 143 57
147 141 56
144 139 45
143 137 47
152 146 63
151 145 61
152 146 63
145 140 53
141 135 56
152 145 62
144 139 52
146 140 54
148 141 58
144 139 57
137 131 56
171 195 0
172 197 0
173 195 0
173 197 0
174 197 0
172 195 0
174 197 0
174 197 0
174 197 0
173 196 0
172 195 0
175 198 0
173 196 0
173 197 0
173 196 0
171 195 0
175 198 0
171 194 0
174 197 0
173 197 0
173 197 0
175 198 0
170 194 0
171 195 0
170 193 0
174 198 0
173 196 0
173 196 0
173 196 0
173 196 0
172 196 0
175 198 0
175 198 0
173 197 0
173 196 0
172 195 0
171 195 0
176 199 0
174 197 0
174 197 0
174 197 0
173 196 0
171 195 0
172 195 0
176 198 0
174 196 0
171 195 0
174 196 0
170 194 0
173 195 0
171 194 0
175 197 0
174 197 0
174 196 0
174 197 0
175 198 0
174 196 0
173 196 0
173 196 0
172 195 0
171 194 0
172 195 0
174 197 0
176 198 0
176 198 0
174 197 0
176 198 0
173 196 0
174 197 0
177 199 0
172 194 0
174 196 0
176 198 0
173 195 0
175 197 0
173 194 0
172 193 0
174 196 0
174 195 0
174 195 0
171 193 0
173 194 0
175 197 0
173 194 0
175 196 0
174 195 0
173 193 0
169 191 0
174 195 0
172 192 0
170 191 0
169 191 0
174 195 0
176 196 0
172 194 0
169 190 0
172 193 0
170 191 0
167 187 0
171 191 0
172 193 0
172 191 0
167 188 0
170 191 0
169 189 0
167 188 0
166 187 0
159 180 0
164 185 0
159 178 0
160 180 0
161 181 0
163 183 0
154 174 0
154 174 0
151 171 0
151 172 0
158 178 0
146 167 0
152 172 0
148 168 0
136 155 0
122 143 0
126 145 0
123 143 0
118 138 0
135 154 0
134 154 0
125 144 0
125 144 0
133 153 0
125 145 0
128 149 0
128 150 0
135 155 0
145 165 0
145 167 0
153 174 0
158 180 0
167 191 0
170 194 0
170 193 0
166 189 0
169 192 0
169 192 0
168 192 0
168 192 0
172 195 0
171 194 0
171 195 0
169 193 0
167 191 0
167 191 0
170 193 0
166 190 0
166 189 0
141 164 44
53 84 80
52 84 88
55 87 94
56 89 102
56 88 97
54 86 97
56 88 97
54 86 97
55 88 102
56 89 103
54 87 100
58 91 114
55 87 105
55 87 99
58 91 105
58 91 111
56 89 113
57 90 115
56 90 105
55 87 102
57 90 110
55 87 103
55 88 95
55 87 100
58 92 111
54 86 100
56 89 103
57 90 110
56 89 102
57 90 110
55 88 110
58 91 117
55 87 97
55 87 103
56 88 97
58 92 115
56 88 105
58 91 111
58 91 122
55 88 107
57 90 113
56 89 105
56 88 107
56 88 99
57 90 113
58 91 117
58 91 120
57 89 118
56 88 110
55 87 108
56 87 102
54 85 102
56 88 114
58 92 123
56 89 107
53 84 99
55 87 107
54 86 105
55 86 97
58 90 126
54 85 96
55 86 100
55 86 102
55 87 100
57 89 113
54 86 101
54 86 106
54 85 99
54 84 92
54 86 97
57 88 109
53 84 94
55 86 108
55 85 106
52 83 93
55 86 96
54 84 95
52 82 98
52 81 94
55 85 107
51 80 94
49 77 83
51 79 88
49 74 89
49 77 79
46 69 59
135 156 37
168 191 0
166 187 0
167 189 0
171 194 0
167 188 0
173 195 0
164 187 0
167 189 0
164 185 0
169 191 0
168 190 0
168 190 0
163 186 0
167 189 0
171 193 0
167 190 0
136 147 25
99 96 29
83 81 23
74 72 21
79 77 21
90 87 24
74 75 12
87 84 13
71 70 13
91 90 19
75 74 17
79 78 18
92 91 18
93 89 21
95 93 13
81 81 14
99 97 24
95 94 21
100 98 5
93 91 30
96 95 20
98 93 21
107 105 26
101 99 27
106 104 21
112 109 26
116 113 28
115 112 36
122 118 41
113 110 32
117 113 29
117 114 33
117 115 27
120 115 21
127 122 37
124 120 35
127 124 32
131 128 35
135 131 32
118 116 31
134 129 42
125 119 40
137 133 51
134 130 35
130 125 25
128 123 34
132 129 37
130 127 36
132 127 42
138 134 39
137 131 45
143 137 47
144 139 50
133 128 45
135 130 45
148 142 48
146 140 48
137 131 41
151 145 51
145 141 42
141 136 47
140 135 37
143 138 45
141 137 42
147 141 39
151 145 59
149 143 54
151 146 51
142 137 34
147 141 47
149 144 49
146 141 52
151 146 52
156 150 56
150 144 48
152 146 47
148 143 49
155 148 52
151 146 49
153 148 53
147 140 53
154 149 58
151 146 54
149 143 48
155 148 56
155 148 58
155 148 54
157 151 51
151 146 44
148 142 58
153 146 56
147 139 53
153 147 56
150 143 48
152 146 57
150 145 51
147 141 45
155 149 56
150 144 52
151 145 52
152 146 53
153 145 54
148 142 53
157 150 60
155 149 59
144 139 53
145 140 39
153 146 62
150 145 52
154 149 53
153 147 65
156 151 60
143 138 53
148 143 59
141 136 54
146 141 57
149 143 53
147 141 48
144 137 54
151 144 66
153 146 64
152 145 64
144 139 51
152 146 60
146 140 53
151 144 67
145 139 60
152 146 62
144 138 53
149 143 63
149 143 53
138 131 51
147 142 57
141 136 48
143 138 60
141 137 49
140 133 52
146 140 57
150 144 57
139 134 49
175 198 0
171 195 0
173 196 0
172 195 0
175 198 0
175 197 0
173 197 0
171 194 0
172 195 0
170 194 0
171 195 0
172 196 0
173 196 0
174 197 0
173 196 0
171 195 0
171 194 0
172 197 0
173 196 0
169 193 0
171 195 0
173 196 0
173 196 0
172 196 0
172 195 0
174 197 0
172 195 0
174 197 0
172 195 0
176 198 0
172 196 0
172 196 0
171 193 0
173 196 0
173 196 0
175 198 0
171 195 0
173 197 0
173 196 0
172 195 0
174 197 0
173 196 0
173 195 0
173 197 0
174 197 0
173 196 0
172 195 0
176 198 0
173 196 0
174 197 0
175 198 0
175 197 0
175 198 0
175 198 0
175 197 0
173 196 0
173 196 0
173 195 0
174 196 0
173 196 0
171 194 0
176 198 0
175 197 0
175 197 0
171 194 0
175 197 0
176 198 0
174 196 0
173 194 0
176 197 0
177 199 0
173 195 0
175 197 0
173 194 0
173 195 0
173 194 0
177 198 0
176 197 0
168 190 0
177 198 0
174 195 0
172 193 0
175 197 0
174 195 0
173 194 0
174 194 0
174 196 0
173 194 0
171 192 0
174 195 0
169 189 0
172 192 0
171 191 0
174 193 0
171 191 0
172 191 0
172 192 0
173 193 0
167 187 0
168 188 0
170 190 0
165 185 0
170 189 0
167 187 0
158 178 0
165 184 0
176 196 0
167 186 0
161 183 0
163 183 0
156 175 0
160 180 0
157 177 0
161 181 0
166 186 0
157 177 0
153 173 0
154 175 0
143 163 0
148 169 0
147 168 0
136 156 0
139 158 0
133 152 0
129 148 0
144 164 0
131 149 0
126 144 0
144 164 0
125 145 0
136 155 0
143 162 0
150 170 0
145 167 0
147 169 0
139 162 0
153 175 0
154 177 0
164 187 0
169 193 0
170 193 0
171 195 0
168 191 0
170 193 0
166 189 0
169 193 0
167 191 0
165 189 0
169 192 0
168 191 0
168 191 0
168 191 0
168 191 0
163 187 0
165 189 0
167 190 0
165 188 0
108 132 60
57 90 100
52 84 76
56 88 105
54 86 86
56 90 90
55 87 100
54 87 92
57 91 107
56 88 103
56 89 110
55 87 102
57 90 100
56 89 115
54 86 99
57 90 107
54 86 94
54 86 102
55 87 108
54 86 88
55 87 100
56 89 110
56 89 102
56 89 113
57 90 121
54 86 103
56 88 102
55 88 94
55 87 94
56 88 102
53 85 103
57 90 110
56 89 110
56 88 107
57 91 110
55 87 103
56 89 114
55 87 101
55 87 108
58 91 118
56 89 107
56 89 120
56 89 118
55 87 103
56 88 105
58 92 118
59 92 121
55 87 105
57 91 114
56 88 105
59 92 122
56 88 125
55 87 107
55 87 103
55 88 109
55 87 97
56 88 110
55 87 100
57 90 114
53 83 94
56 89 107
55 88 105
55 87 103
56 87 103
53 84 102
54 85 100
55 87 102
53 84 105
51 81 84
53 84 90
55 86 102
53 84 100
56 88 126
55 87 103
53 82 94
52 82 75
52 82 96
52 80 88
52 81 93
53 82 99
52 82 101
49 77 81
50 77 88
46 70 60
47 72 82
102 122 67
165 189 0
164 185 0
158 180 0
164 186 0
166 188 0
166 188 0
168 190 0
163 185 0
163 183 0
167 189 0
166 187 0
160 181 0
163 184 0
163 183 0
168 191 0
165 185 0
169 191 0
164 185 0
111 116 21
89 86 30
72 71 19
86 84 21
84 82 16
83 80 8
76 75 22
83 82 8
87 84 3
87 87 11
87 85 12
86 84 16
91 90 16
81 79 20
86 83 24
98 96 18
95 93 28
104 101 18
87 86 18
100 97 33
105 101 11
98 98 18
112 108 31
99 96 24
118 114 23
98 96 24
111 108 27
114 111 32
117 113 30
118 115 30
118 116 29
123 120 37
125 120 42
121 117 36
126 121 37
118 115 25
134 129 33
130 126 35
120 118 28
129 125 42
123 118 35
124 120 36
128 124 34
128 126 32
140 134 39
127 123 36
138 132 37
129 125 42
135 130 39
138 133 39
137 134 36
140 133 40
138 132 46
141 137 39
139 135 40
145 139 47
145 139 44
143 137 41
144 139 37
151 145 51
141 135 49
144 138 44
146 141 39
147 142 42
143 138 42
156 150 58
147 141 51
146 142 42
150 143 53
150 144 44
149 143 54
147 141 48
149 144 34
151 145 49
147 141 42
150 143 52
148 142 41
147 141 53
149 142 44
146 140 44
151 143 54
152 146 60
147 142 41
151 145 48
145 140 48
151 145 49
152 145 54
148 143 54
146 140 52
152 146 58
151 143 58
153 144 61
150 142 48
150 144 47
149 143 48
140 135 45
155 148 61
153 146 57
148 142 48
152 144 60
148 142 45
149 144 52
151 145 56
145 139 58
148 142 57
150 143 58
151 145 54
151 144 59
147 142 52
155 148 66
145 138 58
151 145 52
149 142 60
154 147 58
142 138 44
149 144 58
149 143 54
143 139 49
152 145 56
146 140 54
147 141 52
136 132 51
146 140 57
140 134 51
153 147 63
146 139 57
147 141 67
143 138 54
138 131 52
141 135 54
145 139 54
144 138 57
137 130 53
137 130 57
147 141 61
145 139 54
141 134 57
148 140 60
137 131 49
176 199 0
173 197 0
172 196 0
174 197 0
173 196 0
169 192 0
172 195 0
173 196 0
172 196 0
175 198 0
175 198 0
172 195 0
171 195 0
173 196 0
175 198 0
172 195 0
171 194 0
173 196 0
172 196 0
173 196 0
174 198 0
173 196 0
172 195 0
172 196 0
171 195 0
172 194 0
171 194 0
172 196 0
173 197 0
173 197 0
171 194 0
174 197 0
173 197 0
172 195 0
175 198 0
173 196 0
173 196 0
174 197 0
173 196 0
174 197 0
173 197 0
175 198 0
174 196 0
172 195 0
172 194 0
170 194 0
172 195 0
173 196 0
171 194 0
176 198 0
175 197 0
173 196 0
174 197 0
170 193 0
177 199 0
174 195 0
171 194 0
176 198 0
171 194 0
171 194 0
169 192 0
175 196 0
177 199 0
175 197 0
174 196 0
172 194 0
174 196 0
175 195 0
176 197 0
172 194 0
177 198 0
176 197 0
174 195 0
174 195 0
177 198 0
174 195 0
177 197 0
175 196 0
175 195 0
172 193 0
178 198 0
177 198 0
175 196 0
175 195 0
174 195 0
171 191 0
177 197 0
174 195 0
170 192 0
169 188 0
177 196 0
168 188 0
172 192 0
169 190 0
164 184 0
171 191 0
174 193 0
168 187 0
169 189 0
170 190 0
176 195 0
172 192 0
167 187 0
171 190 0
160 180 0
167 187 0
163 183 0
161 181 0
157 177 0
164 184 0
159 179 0
152 172 0
149 168 0
157 176 0
160 180 0
151 171 0
139 160 0
146 167 0
138 158 0
143 163 0
142 162 0
137 158 0
129 149 0
140 160 0
132 152 0
134 153 0
134 154 0
134 153 0
143 163 0
139 160 0
131 151 0
147 167 0
144 165 0
142 163 0
147 169 0
149 171 0
148 170 0
160 184 0
167 190 0
170 193 0
168 191 0
170 193 0
169 192 0
169 193 0
170 194 0
170 193 0
167 191 0
167 191 0
163 186 0
165 189 0
166 190 0
166 189 0
162 187 0
165 189 0
162 185 0
160 184 0
168 191 0
163 186 18
66 95 86
53 84 88
54 86 95
55 88 88
54 86 84
55 87 99
58 91 103
54 86 97
56 89 108
53 85 88
55 88 97
55 87 100
56 88 115
56 89 95
56 88 107
56 89 108
56 89 105
56 89 107
54 86 84
55 88 105
56 89 105
60 94 124
54 86 97
56 88 97
58 91 111
56 90 107
57 90 115
56 89 100
58 91 118
56 89 110
57 90 115
58 91 114
56 89 110
55 87 97
58 92 115
56 88 103
56 88 111
58 91 113
55 88 92
53 84 90
57 90 117
57 89 103
55 87 88
56 89 111
57 90 117
55 87 99
57 89 105
55 87 103
54 86 102
56 89 105
54 86 100
55 88 107
53 85 87
55 88 99
55 87 95
54 85 111
56 88 100
56 88 105
56 88 107
56 88 110
55 87 106
54 85 108
55 87 99
55 86 113
53 84 96
54 86 99
53 83 94
54 86 104
53 83 102
53 83 101
53 82 101
51 81 78
54 84 94
54 85 93
52 81 77
53 84 93
53 83 96
52 81 99
53 82 92
49 76 80
48 76 78
50 78 78
47 73 71
61 83 64
157 179 18
161 182 0
160 181 0
161 184 0
161 183 0
163 185 0
161 182 0
167 189 0
165 187 0
160 181 0
164 186 0
166 188 0
164 186 0
167 190 0
166 188 0
169 189 0
162 184 0
164 185 0
164 185 0
159 177 0
109 107 30
86 82 20
87 82 23
78 75 21
93 88 24
76 73 11
91 88 22
76 73 8
76 73 8
86 85 14
89 86 11
83 82 20
86 84 8
93 88 14
96 95 14
90 88 18
89 86 19
96 92 19
106 103 25
107 105 24
99 97 21
105 103 16
103 102 9
111 108 24
121 116 23
109 107 18
120 116 25
122 117 29
120 116 18
123 119 23
115 112 24
105 102 19
110 105 20
112 109 21
122 119 30
108 104 24
124 120 29
135 130 40
132 126 34
138 132 43
131 125 32
133 128 30
135 128 36
136 131 42
124 120 34
137 132 44
132 126 38
132 129 24
128 123 38
136 130 42
141 137 38
143 137 44
139 134 39
140 135 42
148 142 45
139 134 32
136 131 47
146 139 42
142 137 39
136 130 34
140 135 38
143 138 44
137 132 37
149 144 49
143 136 45
147 142 41
144 138 41
145 139 41
144 139 34
147 142 42
143 137 49
149 141 57
145 141 49
148 141 49
146 141 44
144 138 49
145 138 47
146 139 56
150 144 48
152 146 51
151 144 52
159 151 62
140 136 39
148 142 56
150 144 51
144 140 34
147 141 45
143 138 39
156 148 62
152 146 52
147 142 51
148 143 52
147 142 49
149 144 66
146 142 51
149 143 47
147 142 47
145 138 42
151 145 54
146 141 56
155 149 58
153 145 60
149 143 51
148 142 56
147 141 52
146 140 52
149 144 51
149 142 52
143 139 47
150 145 52
144 138 51
152 145 60
145 140 51
140 134 53
150 144 52
146 141 45
149 141 54
147 139 57
148 143 52
147 143 52
148 141 54
147 141 57
141 135 51
148 142 52
148 141 52
146 139 64
146 138 51
152 145 59
146 140 60
138 133 51
143 138 49
144 138 56
150 142 63
142 136 56
141 135 54
149 142 60
140 134 53
141 135 56
174 197 0
174 197 0
171 195 0
172 195 0
171 196 0
172 195 0
172 196 0
166 190 0
173 197 0
173 197 0
172 196 0
173 196 0
170 193 0
174 197 0
172 195 0
169 193 0
170 191 0
172 196 0
169 193 0
170 193 0
173 197 0
173 196 0
174 197 0
171 194 0
172 196 0
171 194 0
174 197 0
175 198 0
175 197 0
173 196 0
172 196 0
172 196 0
173 196 0
173 196 0
171 194 0
175 198 0
173 196 0
176 198 0
174 196 0
173 196 0
174 197 0
174 196 0
173 195 0
176 198 0
172 195 0
171 195 0
173 196 0
175 197 0
172 194 0
174 196 0
173 196 0
177 198 0
173 195 0
177 198 0
173 195 0
175 197 0
174 196 0
175 196 0
173 195 0
176 197 0
176 197 0
175 197 0
175 197 0
175 197 0
173 195 0
173 195 0
173 194 0
173 195 0
173 195 0
174 196 0
171 193 0
174 194 0
174 194 0
177 196 0
174 195 0
173 194 0
175 196 0
174 195 0
173 193 0
172 193 0
171 191 0
174 194 0
173 193 0
176 195 0
175 194 0
174 194 0
172 191 0
173 193 0
171 190 0
173 192 0
168 187 0
169 190 0
170 191 0
172 192 0
169 189 0
168 188 0
168 187 0
166 187 0
163 183 0
162 181 0
163 183 0
168 188 0
161 180 0
163 182 0
163 183 0
158 179 0
161 181 0
162 181 0
160 179 0
163 183 0
152 172 0
147 168 0
151 171 0
154 174 0
158 179 0
149 168 0
150 170 0
151 172 0
139 160 0
143 164 0
132 151 0
134 153 0
126 146 0
139 159 0
141 160 0
137 156 0
137 157 0
135 155 0
142 160 0
128 149 0
143 162 0
150 170 0
146 166 0
141 163 0
145 167 0
153 174 0
160 183 0
168 192 0
166 190 0
162 185 0
167 191 0
168 191 0
170 192 0
166 190 0
167 191 0
170 193 0
165 188 0
164 188 0
161 183 0
162 186 0
163 186 0
171 195 0
163 187 0
168 191 0
163 187 0
160 184 0
162 186 0
166 189 0
154 177 25
54 86 95
54 87 92
54 86 94
52 84 82
54 85 94
53 84 76
54 86 88
54 86 84
51 82 82
53 85 88
55 87 84
55 86 108
55 87 97
56 88 95
57 90 111
57 90 111
56 89 102
55 88 100
56 89 107
55 88 102
54 86 88
57 90 113
56 88 103
56 89 97
55 87 97
54 86 102
56 88 99
56 88 94
55 88 102
55 88 113
56 89 107
57 89 108
56 89 105
53 85 94
55 87 99
54 85 100
57 90 99
56 88 113
54 87 97
56 89 103
55 87 94
57 90 108
57 90 99
55 87 107
56 88 110
54 85 107
55 87 107
56 87 111
57 90 114
57 89 122
55 87 108
55 88 92
55 85 99
57 89 107
57 89 111
52 82 92
53 84 99
54 86 94
53 85 99
55 87 97
55 88 101
56 88 103
55 86 110
53 84 96
56 87 111
53 84 101
54 84 100
55 86 102
52 83 100
52 82 102
53 83 101
56 87 104
54 85 98
53 84 86
55 86 107
51 79 94
48 76 81
50 78 90
51 79 84
50 78 90
48 75 90
44 67 61
143 165 26
161 181 0
159 180 0
165 185 0
158 178 0
156 178 0
161 182 0
151 171 0
164 186 0
154 174 0
166 187 0
165 187 0
163 183 0
165 185 0
165 186 0
161 182 0
167 187 0
160 181 0
160 181 0
162 184 0
161 181 0
157 175 16
94 91 25
87 84 20
79 74 12
94 91 29
85 83 14
91 88 18
79 78 16
91 88 14
88 86 14
92 89 14
89 87 14
98 96 13
92 90 9
79 79 14
91 91 22
98 94 11
93 90 14
106 102 25
101 98 12
101 98 16
100 96 19
104 101 18
98 94 11
103 100 26
117 112 12
114 109 31
108 105 16
115 111 26
119 116 30
115 112 26
115 113 18
108 105 19
126 121 35
118 116 28
122 118 34
124 121 28
116 114 29
131 126 37
129 126 30
129 126 20
122 118 28
134 130 34
131 130 28
138 133 36
136 132 34
126 121 33
133 127 45
138 133 32
134 129 38
124 119 30
133 129 29
139 134 41
134 130 31
132 126 30
137 132 45
140 135 40
139 135 36
147 141 44
145 138 41
144 140 45
138 132 39
149 142 49
141 136 34
140 133 48
145 140 47
144 139 37
144 140 40
148 142 41
151 146 54
145 140 45
147 142 41
143 138 45
154 148 54
147 140 47
144 139 39
144 138 47
147 140 49
142 135 44
143 137 45
151 145 56
150 144 47
147 141 45
147 142 49
143 138 42
153 146 53
148 143 53
148 143 53
153 146 53
147 142 44
157 151 58
147 141 41
145 140 47
148 142 44
155 149 59
151 144 54
157 150 63
148 142 49
151 145 52
140 135 34
143 138 42
147 141 54
145 139 53
143 138 53
150 143 47
148 142 54
142 136 48
141 136 48
146 140 57
143 137 51
144 140 49
149 143 53
154 148 57
149 143 54
152 146 53
145 139 53
151 145 57
154 146 62
147 141 41
154 147 60
144 140 47
150 143 62
134 129 44
148 142 56
147 139 58
140 133 45
150 144 59
141 135 48
150 142 65
143 137 47
145 139 58
146 140 58
150 144 48
151 144 60
141 136 48
145 139 54
134 128 51
146 140 53
172 195 0
173 197 0
172 195 0
174 197 0
173 196 0
172 196 0
173 196 0
172 196 0
171 194 0
173 197 0
171 195 0
174 197 0
170 194 0
174 197 0
173 197 0
172 196 0
171 194 0
170 194 0
170 193 0
175 197 0
172 195 0
172 196 0
171 194 0
173 196 0
170 194 0
174 198 0
173 196 0
169 194 0
172 195 0
171 195 0
172 195 0
175 198 0
172 196 0
173 196 0
173 196 0
170 194 0
175 198 0
173 196 0
173 196 0
173 196 0
171 195 0
172 195 0
176 198 0
177 198 0
174 196 0
174 197 0
171 194 0
173 195 0
170 192 0
172 195 0
173 195 0
174 196 0
171 194 0
175 197 0
174 195 0
175 197 0
177 198 0
175 197 0
173 195 0
176 198 0
175 196 0
176 196 0
177 197 0
177 198 0
177 197 0
176 197 0
176 196 0
175 195 0
173 193 0
174 195 0
174 195 0
172 192 0
175 195 0
171 191 0
171 191 0
174 195 0
169 190 0
174 194 0
174 194 0
171 192 0
173 192 0
168 189 0
172 191 0
172 192 0
173 192 0
172 191 0
172 193 0
171 191 0
166 186 0
169 189 0
171 191 0
174 193 0
166 186 0
164 183 0
164 184 0
167 187 0
168 188 0
163 183 0
158 177 0
164 184 0
167 187 0
158 177 0
165 184 0
159 178 0
158 177 0
159 178 0
161 181 0
166 186 0
156 175 0
160 180 0
152 171 0
152 171 0
150 171 0
151 171 0
151 171 0
153 173 0
141 161 0
130 152 0
147 167 0
143 163 0
137 157 0
143 163 0
129 150 0
130 151 0
140 161 0
129 149 0
149 169 0
140 160 0
132 152 0
142 163 0
145 165 0
150 171 0
149 169 0
142 164 0
155 176 0
157 180 0
167 190 0
167 191 0
166 189 0
167 191 0
166 189 0
167 189 0
165 188 0
162 185 0
168 192 0
165 188 0
172 195 0
165 189 0
162 185 0
167 191 0
163 187 0
165 189 0
165 188 0
162 186 0
159 183 0
168 191 0
164 187 0
166 189 0
159 182 0
121 144 47
51 82 78
53 84 76
52 82 84
54 85 80
55 87 94
54 86 92
53 85 92
55 87 97
56 88 95
53 85 88
56 89 108
52 83 94
53 85 97
57 89 114
56 89 86
54 86 95
55 88 95
56 89 99
58 92 120
57 91 108
55 87 105
55 86 92
57 90 121
54 86 100
57 90 105
57 90 113
56 88 107
56 89 102
55 87 99
56 88 108
57 90 97
54 87 99
55 88 107
53 84 92
57 90 110
55 87 103
55 87 92
56 88 103
56 88 107
56 89 92
55 88 102
56 88 110
56 90 108
57 90 110
55 88 97
53 85 99
56 89 100
55 87 99
54 86 100
56 89 115
53 84 86
53 84 94
55 87 102
55 87 99
53 84 88
54 86 100
55 87 107
55 86 106
54 85 101
52 83 90
54 85 90
54 85 98
53 84 92
54 85 87
53 83 94
53 84 92
54 85 96
56 87 96
52 82 86
53 82 96
53 83 101
52 80 91
52 82 90
51 80 94
52 81 83
47 74 69
51 80 81
50 78 89
47 73 70
49 76 77
124 143 42
156 177 0
154 174 0
152 173 0
163 183 0
154 175 0
156 178 0
154 175 0
157 179 0
158 179 0
159 181 0
164 184 0
163 184 0
159 180 0
161 182 0
160 181 0
160 180 0
158 176 0
161 181 0
163 184 0
158 179 0
167 189 0
163 183 0
144 157 11
95 91 28
83 79 24
70 67 18
82 79 19
78 77 0
80 78 24
91 89 20
83 82 11
92 90 8
85 83 5
94 91 11
96 93 8
91 89 11
88 86 20
103 100 0
86 85 14
89 87 14
105 102 14
108 104 21
105 102 12
97 96 11
111 107 25
109 105 18
111 109 24
104 100 18
103 98 16
112 110 14
116 113 18
107 103 22
119 114 25
121 118 25
126 121 37
122 119 29
123 118 26
130 124 30
126 120 36
124 121 20
122 117 37
127 125 34
130 127 29
134 130 28
120 117 36
126 121 32
130 125 31
132 128 35
137 133 38
134 128 34
140 135 37
135 130 44
135 130 36
140 135 36
143 138 37
139 135 40
133 127 30
142 136 41
141 136 37
140 134 44
140 134 37
139 135 37
135 130 37
138 133 44
135 131 36
139 133 34
137 132 32
150 143 48
146 141 49
155 149 53
150 145 52
135 131 30
150 143 48
150 144 45
146 140 44
148 141 51
148 142 51
140 133 45
147 141 45
141 136 42
148 143 47
148 141 51
137 131 39
145 139 47
144 138 56
148 141 44
147 141 44
146 141 52
149 143 42
146 141 36
152 145 49
142 136 42
141 136 42
145 140 45
157 150 54
145 138 44
149 143 52
146 140 47
140 135 45
150 143 53
146 139 52
148 142 51
141 134 52
151 144 57
148 142 54
143 137 47
149 142 54
149 143 53
144 138 57
147 140 53
146 139 54
148 143 51
150 144 48
150 143 58
147 140 47
150 143 54
150 144 57
153 146 61
137 130 48
145 139 57
148 143 56
150 142 66
139 134 45
144 138 53
146 140 58
150 144 54
139 133 47
149 143 54
150 144 57
148 141 61
145 139 60
140 135 47
138 131 52
148 142 58
145 138 65
141 134 51
141 136 53
142 135 54
136 131 48
172 195 0
174 198 0
173 197 0
171 195 0
172 195 0
170 194 0
171 194 0
171 195 0
168 192 0
170 194 0
172 195 0
171 194 0
171 195 0
172 195 0
174 197 0
172 196 0
170 194 0
171 194 0
172 195 0
172 196 0
172 196 0
171 194 0
172 195 0
171 194 0
171 195 0
175 198 0
172 195 0
171 194 0
173 195 0
174 196 0
173 197 0
175 198 0
172 196 0
173 196 0
172 195 0
173 195 0
175 197 0
171 194 0
173 196 0
174 196 0
172 195 0
172 194 0
173 196 0
176 198 0
174 197 0
175 196 0
171 193 0
173 195 0
175 197 0
173 196 0
176 197 0
175 197 0
176 197 0
172 194 0
172 194 0
176 197 0
176 197 0
173 194 0
173 194 0
175 196 0
174 195 0
176 197 0
175 195 0
175 197 0
176 196 0
173 193 0
173 194 0
176 196 0
175 195 0
177 197 0
173 193 0
176 196 0
173 192 0
173 194 0
173 192 0
176 196 0
170 190 0
174 195 0
170 190 0
166 186 0
168 187 0
163 184 0
174 193 0
171 191 0
165 185 0
166 185 0
164 184 0
168 187 0
168 188 0
165 185 0
161 181 0
163 182 0
166 185 0
169 188 0
168 188 0
169 188 0
161 180 0
160 180 0
165 185 0
162 181 0
166 185 0
166 184 0
165 185 0
155 173 0
158 177 0
157 177 0
152 171 0
159 179 0
151 171 0
155 175 0
150 171 0
148 167 0
149 169 0
140 159 0
144 164 0
144 164 0
149 170 0
148 169 0
148 168 0
143 163 0
153 173 0
131 151 0
145 165 0
144 164 0
134 154 0
145 165 0
140 159 0
136 157 0
132 152 0
151 172 0
130 150 0
154 175 0
157 177 0
142 162 0
155 177 0
162 186 0
167 191 0
167 190 0
161 184 0
166 188 0
167 190 0
168 191 0
167 190 0
162 185 0
165 188 0
159 182 0
168 191 0
160 184 0
165 188 0
165 188 0
162 185 0
162 186 0
165 188 0
165 189 0
158 182 0
160 184 0
155 178 0
163 186 0
165 189 0
159 182 0
98 123 60
52 83 92
52 82 70
54 85 72
55 88 100
54 86 99
55 87 90
54 86 92
56 89 107
53 84 80
56 89 97
53 85 90
53 84 88
55 87 99
54 86 95
52 83 102
54 85 94
55 87 100
55 87 97
56 88 99
55 87 97
54 86 100
54 86 84
56 88 110
55 88 97
56 89 107
56 89 105
53 84 97
55 87 100
55 87 100
55 87 88
55 87 103
55 87 94
56 88 115
56 88 102
54 86 97
55 87 94
55 87 100
57 89 102
52 83 88
54 86 86
55 87 102
56 89 103
55 88 117
56 88 95
55 87 108
57 90 107
56 89 101
56 88 105
52 82 86
56 88 108
54 86 103
53 84 92
54 86 102
55 87 107
54 84 99
56 87 107
54 85 108
54 85 94
55 87 103
53 83 99
54 85 92
52 82 90
54 85 101
54 86 99
54 85 94
51 81 90
51 82 83
53 84 92
49 77 83
48 77 70
52 81 93
51 79 95
51 80 90
49 76 83
49 77 80
48 74 75
50 78 75
47 72 64
103 122 49
148 168 0
157 178 0
155 174 0
153 174 0
149 170 0
155 175 0
158 179 0
153 173 0
160 181 0
154 171 0
156 176 0
163 184 0
156 176 0
158 178 0
161 177 0
158 176 0
152 169 0
152 172 0
160 180 0
157 177 0
159 177 0
162 182 0
159 179 0
161 180 0
128 138 18
93 89 25
88 82 22
90 86 19
94 90 21
82 78 11
70 70 19
72 70 14
80 79 14
86 83 19
96 92 0
93 91 18
96 93 11
92 90 11
85 83 16
96 94 8
79 76 14
98 95 14
103 100 16
111 108 18
98 96 21
99 96 11
99 98 11
105 103 19
120 117 18
110 107 14
108 106 18
114 111 16
106 103 28
125 122 25
111 108 29
114 109 19
120 115 33
116 113 31
125 120 29
117 113 31
132 127 41
127 122 33
126 120 34
133 129 35
131 125 35
135 129 21
133 130 35
126 122 32
132 129 28
132 127 35
131 126 32
138 134 32
132 128 31
140 136 39
138 134 32
131 128 31
135 130 37
144 139 34
134 130 37
136 130 36
137 132 34
141 136 36
134 128 41
144 138 37
133 128 36
148 143 36
140 135 42
142 137 34
146 139 45
146 141 37
147 140 49
140 135 30
149 144 47
140 134 44
135 131 34
146 141 41
144 140 41
149 143 48
151 146 37
145 139 41
142 137 45
149 143 42
144 139 44
150 144 41
149 143 45
142 136 47
145 141 47
145 141 39
146 140 48
147 141 49
142 136 49
144 139 45
153 147 52
149 143 41
149 144 49
154 146 49
146 140 41
145 139 48
145 140 42
148 142 37
154 147 52
151 143 47
140 135 39
150 143 58
148 141 53
146 140 42
143 137 47
142 136 48
145 139 44
145 140 51
150 144 52
144 137 48
139 134 49
142 136 48
140 133 45
140 135 41
149 141 56
142 136 45
144 138 56
151 146 56
148 142 53
142 135 52
148 141 57
151 145 61
145 140 51
148 142 56
139 133 53
147 141 57
146 140 53
145 138 58
152 145 52
140 134 52
145 139 59
140 134 57
142 135 58
140 135 51
137 131 44
143 138 59
142 135 51
127 122 48
174 197 0
173 196 0
172 195 0
173 197 0
172 196 0
174 197 0
172 195 0
169 193 0
168 192 0
171 194 0
172 196 0
174 197 0
173 197 0
168 192 0
169 194 0
172 195 0
172 195 0
172 196 0
171 194 0
172 195 0
166 190 0
172 195 0
169 193 0
169 193 0
168 191 0
171 195 0
173 195 0
171 195 0
173 196 0
173 196 0
172 194 0
171 195 0
171 194 0
171 194 0
173 196 0
172 195 0
172 194 0
169 193 0
174 196 0
173 196 0
173 195 0
174 196 0
177 199 0
174 195 0
176 198 0
175 197 0
173 195 0
173 195 0
174 197 0
173 194 0
174 196 0
175 197 0
177 198 0
176 197 0
175 196 0
174 196 0
175 196 0
175 196 0
176 197 0
173 194 0
174 195 0
179 198 0
174 194 0
175 195 0
172 192 0
176 196 0
175 195 0
174 194 0
174 194 0
172 193 0
175 196 0
172 192 0
172 192 0
169 189 0
175 194 0
176 195 0
164 183 0
173 192 0
170 189 0
168 189 0
162 181 0
169 188 0
170 189 0
166 185 0
173 192 0
168 187 0
170 188 0
167 186 0
164 184 0
163 184 0
162 181 0
165 185 0
166 184 0
165 184 0
163 182 0
163 182 0
161 181 0
157 176 0
168 187 0
164 183 0
157 178 0
160 179 0
156 176 0
160 179 0
156 176 0
164 183 0
154 173 0
159 179 0
152 172 0
145 164 0
147 168 0
145 166 0
149 168 0
145 165 0
145 166 0
148 169 0
150 171 0
149 171 0
138 159 0
135 155 0
138 158 0
141 161 0
142 163 0
141 161 0
138 158 0
143 164 0
140 161 0
148 168 0
135 156 0
149 170 0
146 167 0
149 170 0
149 171 0
150 172 0
158 181 0
165 189 0
166 189 0
165 187 0
165 188 0
161 185 0
169 192 0
165 188 0
164 187 0
166 189 0
163 186 0
158 181 0
160 183 0
167 190 0
166 188 0
164 187 0
156 180 0
162 185 0
163 186 0
165 189 0
156 180 0
155 178 0
160 182 0
159 182 0
156 180 0
157 180 0
160 184 25
83 107 65
53 85 80
53 84 86
51 82 76
53 85 84
56 88 94
54 86 76
52 84 86
53 85 82
54 86 80
55 87 94
54 86 99
55 87 97
55 87 72
54 85 86
54 86 92
57 89 110
56 89 97
55 88 90
55 88 105
55 87 90
55 86 105
53 85 94
57 89 103
56 89 107
55 87 100
54 86 92
55 87 88
56 88 102
55 87 100
57 89 105
54 86 94
55 87 107
53 85 92
56 89 110
54 87 90
56 89 108
55 87 103
56 89 103
57 90 110
55 87 108
55 87 111
53 83 78
52 83 88
55 86 99
55 87 99
54 85 103
58 90 118
55 86 95
55 86 107
55 87 96
53 84 102
54 86 99
55 87 95
55 87 100
53 83 94
54 85 100
54 85 94
55 86 92
53 84 94
52 81 94
51 81 90
48 76 72
51 81 88
53 83 92
52 82 87
52 82 81
52 83 95
52 81 86
55 86 107
50 79 93
50 78 89
49 76 81
51 80 74
48 76 75
48 75 67
45 68 68
95 114 56
148 168 0
157 176 0
152 171 0
153 173 0
149 168 0
154 174 0
154 172 0
154 174 0
161 182 0
158 179 0
156 176 0
155 175 0
157 177 0
152 172 0
154 172 0
157 176 0
155 174 0
159 177 0
154 171 0
156 175 0
160 180 0
161 180 0
159 176 0
155 173 0
164 184 0
155 175 0
127 136 25
86 81 19
88 83 19
93 90 25
86 83 19
77 76 16
80 77 16
91 86 8
82 80 0
92 88 8
96 91 17
95 91 14
84 84 14
90 87 14
93 90 14
90 86 11
103 98 11
101 98 8
111 107 16
96 94 16
113 109 18
103 101 18
106 102 19
105 101 19
111 108 22
112 109 21
112 108 21
114 110 16
104 99 24
108 103 19
117 114 22
115 112 18
124 121 21
121 118 16
115 111 26
123 117 22
117 113 26
134 130 21
125 120 30
126 121 28
129 124 41
129 124 25
126 122 32
124 121 28
131 126 41
127 123 22
133 128 34
132 127 33
135 129 42
140 134 32
135 130 35
134 129 32
124 118 26
140 135 36
139 131 45
144 138 39
137 133 36
142 137 37
139 136 37
144 137 51
145 139 44
140 133 36
138 132 42
136 131 34
134 129 30
144 138 49
141 135 44
145 138 51
149 143 52
150 144 49
145 138 42
144 137 47
144 138 49
140 134 36
143 138 36
139 134 39
142 136 41
143 137 41
144 139 47
143 139 41
144 137 45
145 139 49
143 138 39
148 143 44
142 136 48
137 132 22
139 133 47
140 134 47
140 134 45
143 138 44
148 142 41
138 132 37
156 149 61
147 140 52
137 131 47
143 139 42
147 141 51
143 137 44
144 137 44
146 140 37
143 137 39
141 137 44
146 140 48
135 131 39
146 141 52
147 141 48
142 137 48
139 133 44
148 142 48
139 133 41
146 140 47
151 144 54
142 135 47
149 142 57
143 137 49
144 138 48
139 134 45
154 148 57
145 139 48
146 138 49
143 136 49
149 143 53
144 137 53
138 134 47
143 137 52
147 142 52
139 133 53
143 136 57
145 138 59
142 136 51
149 142 54
145 139 53
133 126 49
148 141 56
139 134 58
173 197 0
173 197 0
170 194 0
172 196 0
172 195 0
174 197 0
171 194 0
172 195 0
171 196 0
172 196 0
171 195 0
172 196 0
171 195 0
173 196 0
169 194 0
167 191 0
171 195 0
168 191 0
172 195 0
169 193 0
170 194 0
170 194 0
172 195 0
170 193 0
169 193 0
170 194 0
167 190 0
173 196 0
173 196 0
172 195 0
172 195 0
172 195 0
172 195 0
174 197 0
172 195 0
171 193 0
176 198 0
172 195 0
174 197 0
176 198 0
170 192 0
172 195 0
172 195 0
173 196 0
175 197 0
173 194 0
175 196 0
180 200 0
175 197 0
177 198 0
171 192 0
177 198 0
173 195 0
173 194 0
173 194 0
175 196 0
174 195 0
175 196 0
172 194 0
176 196 0
178 198 0
174 194 0
171 193 0
171 192 0
174 194 0
176 196 0
173 192 0
174 193 0
169 189 0
174 193 0
174 193 0
172 192 0
168 189 0
173 192 0
172 192 0
170 190 0
167 187 0
170 189 0
168 188 0
165 184 0
171 190 0
168 188 0
164 184 0
163 183 0
164 183 0
163 183 0
160 180 0
161 180 0
161 180 0
156 175 0
161 180 0
165 184 0
162 181 0
153 172 0
154 174 0
162 180 0
154 174 0
158 179 0
155 175 0
161 181 0
156 176 0
159 179 0
155 175 0
152 171 0
160 179 0
157 177 0
152 172 0
150 169 0
147 166 0
145 164 0
154 173 0
152 172 0
149 170 0
159 181 0
152 174 0
136 157 0
146 167 0
144 164 0
148 169 0
147 168 0
142 163 0
141 162 0
136 157 0
145 165 0
141 162 0
147 167 0
144 164 0
147 168 0
145 165 0
152 172 0
152 173 0
151 173 0
152 174 0
164 186 0
162 185 0
167 190 0
159 182 0
166 189 0
167 190 0
162 185 0
160 184 0
155 179 0
165 188 0
161 184 0
159 183 0
163 186 0
156 180 0
158 181 0
159 182 0
159 182 0
161 184 0
155 178 0
164 187 0
161 183 0
156 178 0
160 182 0
158 180 0
152 173 0
156 178 0
160 183 0
156 180 0
150 173 18
76 101 67
53 84 76
54 85 100
54 85 80
54 86 95
53 84 92
54 86 94
55 86 99
54 85 100
55 87 102
53 85 76
54 86 99
55 88 111
53 85 100
53 84 88
52 83 84
54 86 95
54 86 99
55 87 99
56 89 99
55 88 108
54 86 97
54 85 95
55 88 97
53 85 86
57 90 103
55 87 88
55 87 100
56 88 102
53 85 95
53 85 92
55 87 99
55 86 102
56 89 100
54 85 94
54 85 86
55 88 95
55 86 100
55 87 100
55 87 102
57 90 117
55 87 103
53 84 90
53 84 95
55 87 102
54 85 103
51 81 95
54 85 99
54 85 90
55 87 102
53 83 104
52 83 94
55 86 89
51 80 90
55 86 92
51 81 85
52 82 88
53 82 85
54 85 90
53 83 103
54 84 102
53 83 90
52 82 82
52 82 99
53 83 88
51 81 86
54 84 94
49 77 86
52 82 99
50 79 80
53 82 95
48 75 84
50 78 83
49 76 79
46 72 66
81 101 60
133 151 0
149 168 0
146 167 0
149 169 0
154 175 0
142 161 0
156 176 0
149 167 0
148 166 0
155 173 0
145 164 0
151 170 0
152 170 0
151 171 0
153 172 0
153 172 0
157 176 0
153 171 0
158 176 0
155 174 0
153 172 0
156 174 0
160 177 0
158 177 0
159 178 0
158 174 0
157 174 0
152 168 0
127 137 16
105 97 30
90 86 19
79 76 18
86 83 19
80 75 17
84 82 8
72 68 8
90 88 11
84 81 8
92 90 16
98 95 3
88 85 12
90 86 11
89 87 3
92 90 11
89 87 0
99 96 8
102 97 8
98 96 14
103 99 22
99 95 14
115 112 19
109 105 19
110 106 16
108 103 14
110 107 20
105 103 18
111 106 24
114 110 25
123 120 24
118 114 21
123 118 22
117 113 19
119 115 33
126 121 28
129 125 31
124 121 22
118 114 25
124 120 32
120 117 24
130 124 41
123 118 30
133 128 25
126 123 26
131 125 32
133 128 25
130 125 32
124 120 28
133 128 18
138 133 30
136 131 37
138 133 37
137 131 41
139 135 22
130 126 28
134 127 39
134 129 34
133 129 30
138 132 38
140 134 37
141 135 45
137 132 34
141 135 37
143 137 41
138 132 34
145 138 25
145 141 45
141 135 36
141 135 41
145 139 45
139 133 47
135 131 32
141 136 36
145 139 49
143 138 37
138 133 32
138 133 36
151 145 47
141 135 39
138 132 48
141 135 48
145 138 41
145 139 51
139 133 42
146 141 44
140 134 48
147 141 48
143 137 49
144 137 49
143 139 45
143 138 44
140 133 42
147 143 42
142 137 45
148 142 42
139 133 45
148 141 44
143 137 44
146 140 51
140 135 37
143 136 48
141 135 41
142 136 39
144 139 51
142 136 56
142 137 42
144 139 49
150 144 48
141 135 39
150 144 53
147 141 44
138 130 51
147 140 56
149 142 60
146 140 57
147 140 54
145 138 45
138 131 45
143 138 48
147 140 59
140 134 57
143 137 52
141 135 54
145 138 51
139 133 48
146 140 48
146 139 59
145 139 52
140 135 47
145 139 60
138 132 49
135 130 52
140 134 47
171 195 0
174 197 0
171 195 0
174 197 0
171 195 0
171 195 0
171 194 0
170 193 0
170 195 0
173 196 0
172 196 0
170 194 0
172 196 0
171 194 0
172 196 0
171 195 0
174 197 0
170 194 0
173 197 0
169 192 0
169 193 0
173 195 0
168 192 0
171 194 0
170 193 0
170 192 0
170 193 0
170 194 0
170 193 0
172 195 0
173 195 0
171 194 0
168 192 0
172 195 0
172 195 0
172 195 0
171 194 0
174 196 0
174 196 0
174 196 0
171 194 0
173 196 0
173 195 0
174 196 0
176 197 0
175 197 0
175 197 0
173 195 0
174 195 0
174 196 0
174 195 0
173 195 0
177 197 0
174 195 0
174 195 0
174 194 0
177 197 0
176 196 0
176 197 0
175 195 0
173 194 0
176 195 0
171 191 0
175 196 0
171 191 0
171 191 0
175 195 0
177 197 0
171 191 0
172 190 0
171 189 0
173 193 0
172 190 0
170 189 0
169 188 0
169 189 0
167 186 0
166 186 0
165 185 0
163 183 0
164 184 0
166 186 0
162 181 0
167 187 0
160 180 0
164 183 0
158 177 0
162 182 0
158 177 0
161 180 0
158 177 0
159 179 0
157 178 0
157 177 0
158 177 0
158 177 0
160 178 0
150 169 0
154 173 0
159 178 0
154 174 0
160 178 0
159 179 0
153 172 0
151 171 0
147 166 0
149 170 0
148 168 0
145 166 0
151 172 0
151 172 0
152 173 0
149 170 0
150 171 0
137 157 0
155 176 0
158 178 0
144 164 0
153 174 0
146 167 0
136 157 0
137 157 0
144 165 0
138 159 0
140 161 0
132 153 0
149 170 0
147 166 0
147 168 0
155 175 0
139 160 0
145 166 0
164 186 0
162 184 0
163 186 0
167 189 0
166 190 0
166 189 0
161 184 0
167 189 0
162 185 0
165 188 0
164 187 0
169 191 0
160 183 0
160 182 0
159 182 0
156 179 0
166 189 0
159 182 0
160 182 0
155 178 0
155 178 0
158 181 0
163 185 0
149 173 0
162 184 0
154 177 0
151 175 0
155 177 0
152 175 0
152 175 0
140 163 0
73 99 70
53 84 88
52 83 88
56 89 102
53 85 88
52 83 74
54 85 88
55 87 92
56 88 100
53 84 82
55 87 94
51 81 78
54 85 92
53 84 82
54 86 95
52 83 86
55 87 97
55 87 102
55 87 102
54 86 94
55 87 88
54 86 88
55 88 94
53 84 92
55 88 103
55 87 99
55 87 97
55 87 102
55 87 107
56 88 107
56 89 105
53 85 95
55 87 102
54 86 97
53 85 88
52 83 82
55 88 88
55 87 103
53 85 92
54 86 100
55 87 103
54 86 97
55 87 100
52 83 94
55 87 103
54 85 99
52 83 90
52 83 94
55 87 108
55 86 108
55 86 108
53 84 86
55 86 104
54 85 101
54 86 97
52 82 80
52 83 80
53 83 82
51 82 84
51 81 92
52 83 85
50 80 75
49 77 90
51 80 83
54 85 104
50 78 83
51 81 87
50 77 68
53 82 82
48 75 84
49 76 79
47 73 69
47 74 72
70 90 64
135 156 31
139 159 0
145 165 0
146 165 0
145 164 0
138 156 0
149 169 0
146 165 0
145 162 0
137 154 0
143 162 0
147 164 0
150 170 0
147 165 0
144 161 0
149 165 0
147 165 0
149 166 0
145 161 0
152 171 0
153 173 0
149 165 0
154 171 0
154 172 0
147 165 0
155 172 0
155 171 0
152 170 0
153 169 0
157 175 0
125 133 16
87 82 19
93 87 25
89 84 11
80 77 11
88 86 8
99 95 8
84 79 21
87 83 14
84 81 9
90 87 0
90 86 8
90 88 11
91 89 11
87 82 8
92 88 0
96 91 8
105 102 11
114 111 11
99 96 18
105 101 22
104 100 18
102 98 0
111 106 19
119 115 16
101 99 11
111 107 18
118 115 14
119 113 30
115 110 22
118 114 16
112 109 11
119 115 22
121 116 16
120 114 25
121 117 18
124 120 20
126 120 25
131 126 40
129 124 33
132 125 32
120 114 29
135 130 31
136 129 34
135 129 30
124 118 28
126 122 32
120 116 21
132 126 25
136 131 34
130 126 30
129 124 28
141 136 34
133 128 36
137 131 30
135 129 44
131 127 34
143 137 37
140 134 44
133 129 36
132 126 25
137 131 34
141 135 30
139 133 42
140 134 37
136 131 30
141 136 39
140 134 32
141 135 39
142 137 36
142 135 39
135 130 36
144 138 48
142 137 45
142 136 42
135 130 28
144 138 44
142 137 37
150 144 49
140 134 45
139 133 42
143 136 45
146 140 47
143 137 47
143 138 42
143 137 42
152 147 45
151 146 45
137 131 41
147 139 48
141 136 42
148 143 39
148 143 49
142 136 44
141 135 45
149 141 56
145 139 42
144 138 44
150 143 54
133 128 42
140 136 41
138 134 37
145 138 49
137 132 37
140 134 42
141 134 49
139 133 47
153 145 58
142 136 44
142 137 47
141 135 48
145 140 49
137 131 45
145 140 52
148 141 51
139 132 47
142 135 53
145 139 53
139 133 48
135 129 42
146 140 47
139 132 48
146 140 49
151 144 60
136 129 49
140 134 57
149 143 58
139 133 47
150 143 61
145 139 59
142 136 51
138 132 53
136 129 51
173 197 0
168 192 0
172 195 0
171 195 0
171 195 0
173 197 0
173 196 0
170 193 0
173 196 0
172 195 0
171 193 0
171 194 0
171 194 0
170 193 0
172 195 0
171 194 0
171 193 0
174 197 0
169 193 0
173 196 0
170 193 0
173 196 0
172 195 0
171 194 0
171 194 0
173 196 0
168 191 0
171 194 0
172 195 0
171 194 0
172 195 0
173 195 0
172 195 0
171 193 0
174 196 0
174 196 0
175 197 0
175 197 0
171 193 0
172 194 0
171 193 0
175 196 0
174 196 0
175 197 0
173 194 0
172 193 0
175 197 0
176 197 0
173 195 0
175 196 0
175 196 0
175 196 0
171 192 0
174 195 0
173 194 0
177 197 0
172 193 0
173 194 0
172 193 0
173 194 0
173 193 0
172 191 0
173 193 0
169 188 0
173 193 0
174 194 0
173 192 0
176 195 0
170 190 0
171 191 0
173 192 0
172 190 0
172 192 0
169 189 0
170 190 0
164 184 0
167 186 0
164 182 0
160 180 0
166 185 0
165 184 0
159 178 0
161 182 0
157 176 0
154 174 0
163 183 0
160 180 0
157 177 0
153 173 0
164 184 0
159 177 0
159 178 0
155 175 0
157 176 0
155 174 0
157 177 0
153 172 0
156 176 0
157 176 0
158 178 0
149 168 0
156 175 0
162 181 0
151 170 0
153 172 0
147 166 0
148 169 0
144 165 0
151 172 0
151 172 0
147 167 0
153 175 0
147 168 0
153 172 0
152 173 0
148 170 0
151 173 0
148 168 0
135 154 0
141 162 0
142 162 0
132 153 0
141 162 0
136 156 0
151 172 0
136 156 0
144 165 0
137 158 0
150 170 0
150 171 0
155 177 0
162 184 0
161 184 0
168 191 0
164 187 0
164 187 0
165 188 0
155 178 0
155 178 0
164 187 0
164 186 0
163 186 0
165 187 0
159 182 0
162 185 0
159 181 0
157 180 0
157 180 0
156 178 0
155 177 0
160 182 0
158 181 0
147 169 0
158 180 0
156 179 0
155 177 0
158 180 0
149 172 0
153 175 0
149 171 0
160 183 0
150 171 0
141 163 0
142 164 18
79 103 67
52 83 82
53 85 82
51 81 70
55 87 86
52 83 82
55 86 82
55 86 90
51 81 76
54 86 103
54 85 92
54 87 94
54 85 95
55 88 95
52 83 86
53 84 88
51 81 80
52 83 90
54 86 99
57 90 102
55 87 103
55 87 97
54 86 99
55 86 100
53 84 84
52 83 80
53 84 94
54 85 95
53 85 86
57 90 114
53 85 94
53 84 105
52 83 82
54 85 86
55 87 99
57 89 113
53 84 92
53 84 86
53 84 84
53 84 99
54 85 90
53 83 82
54 86 97
53 85 92
55 86 97
54 84 97
53 84 92
54 85 102
52 83 90
56 88 118
53 84 100
52 81 89
52 82 92
52 83 83
51 82 82
51 81 78
52 81 85
52 82 86
54 85 90
50 79 92
52 82 85
49 77 88
49 78 80
51 80 81
52 82 81
52 82 83
49 77 89
48 76 68
48 75 78
46 72 57
47 74 67
65 85 45
140 157 18
138 157 0
145 165 0
136 155 0
142 160 0
140 157 0
143 162 0
143 163 0
143 162 0
141 161 0
144 162 0
141 159 0
141 159 0
147 165 0
141 158 0
145 160 0
149 168 0
157 175 0
144 161 0
154 174 0
144 160 0
151 166 0
141 157 0
145 162 0
155 173 0
151 167 0
148 164 0
148 161 0
160 179 0
153 169 0
153 168 0
158 175 0
130 140 16
76 71 22
82 78 11
96 92 22
90 87 18
96 91 14
72 70 11
89 85 16
89 85 16
96 93 8
101 95 16
99 97 14
90 86 11
94 92 8
96 92 0
107 103 16
101 97 8
107 103 8
113 109 11
93 90 0
115 108 11
109 106 14
110 107 16
103 99 0
106 102 16
108 104 21
108 102 21
120 115 18
110 107 0
118 114 24
113 109 22
111 106 25
116 112 14
111 106 16
121 116 26
110 105 11
123 117 25
123 120 16
113 109 25
117 114 19
130 123 30
130 125 19
128 122 25
133 129 19
131 124 24
122 117 18
134 129 25
132 126 30
130 127 22
128 123 32
137 130 34
133 128 35
141 135 34
131 127 32
140 135 39
136 130 28
123 119 22
137 131 32
128 124 25
131 126 34
133 129 25
134 127 39
142 136 30
140 133 41
140 136 36
139 133 30
135 130 34
140 134 44
144 138 45
140 134 28
137 132 34
136 131 34
138 133 39
145 140 39
143 138 32
141 134 39
145 137 48
139 134 32
143 138 36
143 136 34
139 134 44
141 135 37
139 135 30
146 141 39
139 134 34
147 142 39
138 133 37
140 134 44
141 135 45
149 141 52
138 134 36
146 141 45
140 135 45
145 137 49
140 134 41
143 137 47
149 143 49
136 131 41
151 144 47
143 136 47
144 137 51
144 137 47
134 129 39
141 135 45
148 142 59
144 137 51
138 132 48
141 134 53
146 139 49
142 135 45
140 134 52
146 139 54
143 138 52
140 134 49
137 132 42
149 143 53
144 137 44
135 130 44
140 134 51
145 140 58
142 136 47
135 130 48
142 135 52
142 137 51
144 136 49
138 132 49
133 127 45
139 133 49
144 138 42
139 132 44
140 134 57
134 130 41
174 197 0
170 194 0
172 195 0
170 193 0
173 196 0
174 197 0
174 197 0
175 198 0
172 196 0
174 197 0
172 196 0
173 196 0
172 194 0
174 197 0
173 196 0
170 194 0
173 197 0
173 196 0
174 197 0
172 196 0
171 194 0
171 194 0
172 196 0
173 196 0
168 191 0
172 195 0
172 195 0
173 197 0
172 195 0
170 194 0
170 194 0
171 195 0
172 196 0
173 196 0
172 195 0
176 197 0
171 193 0
173 196 0
175 197 0
175 197 0
173 195 0
173 195 0
175 196 0
174 196 0
172 194 0
173 195 0
171 193 0
174 195 0
173 195 0
173 195 0
173 194 0
172 193 0
171 192 0
174 195 0
176 196 0
176 196 0
174 195 0
172 192 0
169 189 0
172 193 0
172 192 0
171 191 0
172 193 0
171 192 0
171 191 0
169 190 0
174 193 0
175 194 0
170 190 0
173 193 0
171 190 0
172 191 0
168 188 0
169 188 0
163 182 0
166 186 0
165 186 0
163 183 0
165 185 0
158 176 0
162 182 0
162 182 0
158 178 0
156 176 0
161 180 0
158 179 0
161 180 0
163 181 0
157 177 0
158 178 0
158 177 0
158 178 0
158 178 0
155 175 0
154 173 0
158 177 0
157 176 0
157 175 0
165 184 0
159 178 0
147 166 0
151 170 0
152 171 0
161 180 0
155 174 0
147 168 0
147 168 0
150 172 0
157 179 0
143 164 0
158 180 0
152 173 0
149 170 0
145 165 0
144 165 0
145 165 0
153 174 0
150 170 0
143 163 0
139 159 0
141 162 0
148 168 0
141 160 0
148 168 0
151 172 0
145 167 0
146 166 0
157 176 0
151 171 0
148 168 0
164 186 0
164 187 0
170 192 0
167 189 0
159 182 0
158 181 0
153 175 0
166 188 0
164 186 0
164 186 0
155 178 0
159 181 0
149 171 0
162 185 0
158 180 0
161 184 0
161 183 0
164 185 0
157 179 0
153 176 0
157 180 0
160 182 0
157 180 0
156 178 0
155 178 0
152 173 0
142 165 0
150 172 0
150 172 0
144 167 0
152 175 0
150 173 0
146 167 0
146 168 0
151 173 18
65 92 62
51 82 74
53 84 80
53 85 99
53 85 84
53 83 92
53 84 95
54 85 105
53 84 92
50 80 78
51 81 84
52 83 94
53 85 94
51 82 78
55 87 92
56 88 103
53 84 95
54 86 84
53 84 80
53 84 90
50 80 92
55 87 92
54 86 103
55 87 100
53 84 84
55 87 92
53 85 92
53 85 92
54 85 95
54 85 88
53 84 80
55 86 103
55 87 97
53 84 86
54 86 100
54 85 96
52 83 84
51 82 78
53 84 84
54 85 99
54 85 92
54 86 102
55 87 107
53 85 105
54 85 102
51 80 85
54 84 91
52 82 86
53 83 74
54 85 86
54 86 92
52 82 89
52 82 94
51 81 92
53 83 90
52 82 82
53 84 94
53 83 94
51 81 87
54 85 104
50 77 96
48 77 81
50 77 86
49 78 83
49 76 78
49 76 72
49 76 75
47 73 73
46 72 68
78 95 37
133 151 0
144 161 0
144 162 0
136 155 0
143 163 0
144 160 0
141 159 0
136 154 0
134 150 0
138 156 0
141 158 0
146 163 0
149 166 0
141 158 0
145 164 0
144 160 0
147 163 0
146 163 0
145 162 0
149 165 0
147 162 0
139 155 0
153 171 0
149 167 0
143 157 0
149 164 0
142 158 0
151 168 0
148 162 0
150 167 0
152 168 0
153 167 0
149 161 0
149 164 0
131 138 19
82 78 21
91 88 19
84 79 23
96 92 25
81 76 8
86 83 0
90 87 0
93 90 14
86 81 0
87 84 18
97 90 11
109 104 11
95 91 11
104 100 3
98 93 16
95 90 8
94 90 14
104 102 18
103 99 1
103 99 0
101 99 8
113 107 14
106 101 18
111 107 11
108 102 0
126 120 22
105 99 8
119 113 14
110 106 8
118 114 18
118 113 22
120 115 14
105 101 14
112 108 19
121 115 11
130 123 19
127 122 18
124 118 19
120 116 24
128 122 34
119 114 19
131 126 25
126 121 25
129 124 29
135 131 31
130 126 22
133 129 16
131 126 28
123 117 22
130 124 19
137 130 34
136 129 37
133 128 25
126 122 22
137 132 28
133 128 28
137 132 41
141 134 36
126 123 25
145 139 36
139 134 30
138 132 34
137 131 34
134 128 25
143 138 37
136 131 34
140 134 30
137 132 34
140 135 41
133 127 25
144 139 34
143 137 42
137 131 22
136 131 39
138 131 39
139 133 32
139 134 34
138 132 42
140 133 39
139 134 42
142 134 45
152 144 49
144 138 49
138 133 37
139 131 42
148 141 48
137 133 41
145 138 51
144 139 41
140 134 42
130 125 32
144 138 41
141 136 42
144 139 37
142 136 42
133 127 39
134 128 39
141 134 48
140 135 39
149 142 56
139 133 41
141 135 45
158 151 57
142 136 42
139 132 47
136 129 39
139 133 45
143 137 53
138 133 39
138 132 51
136 131 39
142 136 42
140 134 45
139 133 41
141 134 47
136 130 49
142 137 51
142 135 53
137 130 47
142 137 42
142 136 53
143 136 51
139 133 49
137 132 48
146 140 52
138 133 49
133 127 48
130 125 45
134 128 47
128 123 45
174 198 0
171 195 0
169 194 0
175 198 0
172 196 0
172 195 0
174 197 0
168 192 0
174 197 0
171 195 0
174 197 0
173 197 0
173 196 0
171 195 0
174 197 0
170 194 0
173 197 0
170 193 0
172 195 0
173 196 0
173 197 0
171 194 0
171 193 0
170 194 0
170 194 0
170 193 0
172 196 0
172 195 0
169 192 0
172 195 0
172 196 0
169 192 0
168 191 0
170 193 0
174 197 0
174 196 0
175 197 0
171 193 0
169 191 0
172 194 0
173 195 0
168 191 0
175 196 0
176 197 0
173 195 0
175 195 0
173 194 0
174 196 0
170 191 0
176 196 0
176 197 0
171 192 0
171 192 0
172 191 0
173 192 0
173 193 0
174 194 0
177 197 0
172 191 0
176 195 0
174 194 0
170 190 0
174 195 0
175 195 0
172 192 0
170 190 0
174 193 0
171 191 0
167 187 0
167 188 0
168 187 0
172 191 0
167 187 0
166 184 0
166 186 0
169 187 0
162 182 0
166 186 0
162 180 0
163 183 0
161 181 0
163 183 0
161 181 0
158 178 0
156 176 0
155 174 0
161 180 0
163 183 0
158 178 0
157 176 0
160 179 0
158 177 0
153 172 0
161 180 0
159 179 0
154 173 0
163 182 0
160 179 0
157 176 0
161 180 0
157 177 0
148 167 0
153 173 0
148 168 0
154 175 0
153 174 0
149 171 0
152 172 0
143 166 0
157 178 0
162 184 0
150 171 0
149 171 0
141 162 0
144 165 0
148 168 0
145 165 0
145 167 0
151 171 0
151 172 0
155 177 0
146 166 0
152 173 0
151 171 0
148 168 0
142 163 0
158 177 0
156 176 0
161 182 0
156 178 0
161 183 0
170 192 0
160 182 0
159 181 0
152 174 0
164 187 0
160 182 0
160 182 0
154 176 0
155 177 0
152 174 0
159 181 0
160 183 0
164 186 0
156 178 0
154 175 0
158 181 0
152 174 0
156 178 0
157 179 0
151 173 0
160 182 0
159 181 0
155 177 0
158 180 0
147 168 0
148 170 0
147 169 0
156 179 0
154 177 0
157 179 0
158 179 0
142 164 0
146 169 0
129 151 0
137 157 25
99 120 47
51 81 80
51 82 70
50 80 74
49 78 70
52 83 84
54 86 86
52 82 84
53 84 80
54 86 97
54 86 95
52 82 88
55 87 99
51 82 90
52 83 88
52 83 86
52 83 90
53 84 88
51 81 82
53 85 95
52 82 88
51 82 80
54 85 92
52 83 82
54 85 95
52 83 78
51 82 90
53 84 95
52 82 84
54 86 92
52 82 68
51 81 82
52 83 84
55 87 99
52 82 99
52 82 94
55 86 102
52 82 88
52 82 88
54 86 95
54 85 103
55 87 92
50 80 76
54 85 102
51 82 97
54 85 107
54 86 102
52 83 95
48 76 72
54 85 96
55 86 90
54 84 92
51 80 92
52 81 92
54 85 94
51 80 87
52 81 85
50 79 82
51 81 88
51 80 94
48 75 81
50 78 82
47 74 75
50 78 79
46 73 59
44 68 63
47 72 63
75 95 37
128 144 0
132 150 0
142 159 0
128 146 0
133 150 0
134 151 0
133 151 0
143 161 0
139 155 0
138 153 0
140 155 0
139 155 0
136 152 0
138 155 0
134 149 0
146 163 0
143 159 0
139 153 0
137 154 0
143 158 0
145 161 0
152 168 0
148 163 0
145 160 0
138 152 0
141 156 0
149 166 0
139 153 0
149 163 0
139 152 0
145 158 0
144 159 0
143 158 0
152 168 0
146 158 0
144 158 0
120 127 11
90 87 25
88 81 11
88 84 18
91 85 16
92 85 19
92 89 14
96 90 16
78 74 8
89 84 11
98 94 2
99 93 0
96 93 3
102 97 8
102 98 8
110 103 0
101 97 0
108 103 0
101 97 11
111 105 3
102 97 11
100 95 0
102 99 14
103 100 16
107 104 0
108 104 11
113 108 11
107 103 0
113 108 16
116 112 25
110 106 8
114 111 16
114 109 14
111 108 11
117 113 11
127 122 25
114 109 22
126 121 22
112 108 16
127 123 25
118 113 19
122 116 19
123 117 11
131 126 19
128 123 25
123 117 30
122 118 16
128 121 32
134 129 22
128 121 30
134 128 28
138 133 25
134 129 28
125 121 22
135 130 32
131 126 30
129 125 19
133 128 30
139 132 36
139 133 36
137 132 37
139 135 41
142 135 34
139 134 41
131 127 30
135 132 22
136 132 25
147 139 52
144 137 34
137 131 39
134 128 32
143 137 45
135 129 28
135 130 28
139 133 36
141 135 41
140 134 39
139 133 39
131 126 37
149 141 49
147 139 45
148 142 45
141 136 36
148 141 49
140 134 48
143 136 52
138 133 41
137 132 34
144 138 42
142 136 48
141 135 36
145 139 49
143 138 44
139 134 39
152 147 52
134 128 34
146 140 54
134 129 30
142 137 44
138 131 45
145 139 47
148 141 49
148 141 48
139 133 48
140 133 49
139 133 37
147 139 49
141 136 48
134 128 39
138 133 48
143 136 48
146 139 48
142 136 47
134 130 37
143 137 45
143 137 49
136 128 49
139 133 45
145 139 51
129 123 52
135 130 37
135 130 42
142 136 44
135 129 45
138 132 56
145 139 44
135 129 42
137 131 51
126 121 42
146 140 56
175 198 0
171 194 0
170 194 0
173 196 0
172 195 0
173 195 0
171 194 0
172 195 0
171 194 0
173 197 0
170 194 0
173 196 0
172 195 0
171 194 0
172 195 0
174 197 0
173 196 0
170 193 0
170 194 0
168 192 0
171 194 0
170 194 0
169 192 0
173 197 0
172 194 0
167 190 0
174 197 0
171 193 0
169 192 0
169 191 0
173 196 0
168 192 0
171 194 0
171 195 0
170 193 0
169 191 0
169 193 0
168 191 0
172 194 0
174 196 0
172 195 0
173 195 0
170 192 0
175 197 0
169 191 0
173 195 0
172 193 0
172 193 0
174 195 0
174 194 0
175 196 0
171 193 0
175 196 0
175 195 0
174 194 0
175 195 0
170 190 0
176 196 0
176 196 0
175 195 0
172 192 0
174 195 0
172 191 0
173 193 0
175 195 0
174 193 0
172 192 0
171 190 0
171 191 0
168 188 0
167 186 0
167 186 0
165 184 0
166 186 0
159 179 0
165 184 0
166 185 0
160 179 0
168 187 0
168 187 0
160 179 0
159 179 0
157 176 0
163 182 0
161 180 0
167 185 0
162 181 0
164 184 0
156 175 0
159 180 0
159 178 0
160 179 0
154 174 0
156 175 0
156 175 0
160 180 0
161 181 0
163 182 0
159 178 0
162 182 0
155 176 0
156 177 0
142 164 0
152 173 0
155 177 0
147 169 0
156 178 0
150 172 0
151 171 0
145 165 0
158 179 0
153 174 0
147 168 0
157 178 0
149 170 0
148 169 0
146 165 0
149 169 0
153 173 0
144 164 0
147 168 0
145 164 0
150 170 0
150 170 0
149 169 0
153 173 0
153 174 0
153 174 0
161 182 0
164 186 0
167 190 0
161 183 0
165 187 0
157 178 0
161 183 0
157 179 0
166 187 0
163 184 0
162 185 0
160 183 0
150 172 0
150 173 0
159 180 0
152 175 0
158 180 0
159 180 0
154 176 0
152 174 0
154 175 0
155 177 0
145 166 0
157 179 0
145 168 0
149 172 0
152 174 0
156 178 0
154 175 0
145 166 0
138 160 0
145 168 0
153 174 0
140 162 0
142 164 0
137 159 0
145 167 0
128 149 0
140 161 0
101 124 40
47 76 54
50 80 72
51 82 65
52 82 80
48 77 65
52 83 92
51 82 74
50 80 92
51 82 65
51 82 86
52 82 90
54 85 84
52 83 94
52 83 90
52 83 86
51 81 88
51 82 86
52 83 80
53 84 95
52 82 86
52 82 82
54 85 92
54 86 86
53 83 92
53 85 94
53 85 90
53 84 95
53 85 83
55 86 103
51 81 80
52 82 90
52 82 85
55 87 95
54 85 82
52 82 82
55 87 97
52 82 86
50 80 74
51 82 78
53 83 94
52 83 100
53 83 90
52 83 92
55 86 99
51 81 86
54 85 92
51 81 82
53 83 93
53 84 107
53 83 82
52 82 90
51 80 79
52 81 97
50 79 86
50 79 88
49 77 77
54 85 86
49 78 82
52 81 92
51 78 83
46 71 66
46 72 73
46 72 72
47 73 75
91 109 51
124 141 0
128 144 0
131 148 0
122 138 0
122 139 0
133 148 0
135 152 0
137 154 0
140 158 0
124 141 0
137 153 0
133 148 0
132 148 0
125 140 0
128 144 0
136 153 0
143 156 0
143 161 0
132 145 0
147 163 0
145 160 0
138 152 0
144 160 0
139 154 0
134 148 0
137 148 0
143 156 0
137 152 0
143 157 0
147 160 0
135 147 0
143 155 0
146 162 0
145 158 0
146 158 0
143 155 0
143 157 0
145 157 0
127 136 11
95 93 22
90 84 16
87 84 11
88 83 11
91 86 12
79 76 0
88 82 14
91 88 0
92 87 0
91 86 11
89 85 3
94 88 8
100 96 8
101 98 16
95 92 8
90 85 0
109 104 0
100 96 0
101 95 0
104 99 16
104 100 0
108 105 11
103 99 8
100 96 16
107 104 11
111 107 8
107 103 8
114 112 16
116 110 11
102 100 11
123 118 12
122 118 11
117 114 11
116 112 19
112 108 0
111 106 11
122 118 22
119 113 16
120 115 19
119 115 16
127 123 19
122 117 30
125 121 16
130 123 16
128 122 19
125 120 19
128 122 25
135 130 28
133 127 36
126 122 30
135 130 32
121 117 19
130 126 22
115 111 19
131 126 19
135 130 22
135 130 36
132 126 30
136 130 28
135 129 32
131 126 25
138 133 32
136 131 32
132 127 34
135 129 32
137 132 30
138 132 34
136 131 30
138 133 36
135 130 32
130 124 32
138 132 37
139 132 45
143 137 44
136 131 39
136 131 36
142 137 45
138 131 39
142 134 42
129 125 34
136 130 30
139 134 41
138 132 44
144 137 41
140 134 39
141 136 39
139 134 30
135 130 28
142 136 36
147 141 44
141 135 37
139 134 41
138 134 39
139 134 41
140 135 45
146 140 51
140 135 42
143 138 42
135 129 39
132 126 42
148 141 47
138 131 41
141 135 39
143 137 52
137 130 44
140 134 51
139 134 45
133 128 30
140 135 47
133 126 42
142 137 47
133 127 44
137 131 45
135 129 42
129 124 41
134 127 44
137 131 45
139 134 48
133 127 42
133 128 37
145 138 57
146 140 57
141 136 54
128 123 37
138 132 56
140 134 36
139 133 45
134 128 45
174 197 0
174 196 0
170 194 0
174 197 0
172 196 0
171 193 0
171 194 0
171 195 0
172 195 0
171 194 0
173 195 0
171 194 0
172 196 0
173 197 0
171 194 0
173 196 0
172 194 0
172 196 0
175 197 0
172 195 0
170 193 0
166 189 0
172 195 0
171 193 0
171 194 0
171 193 0
171 194 0
167 191 0
171 194 0
171 193 0
169 191 0
170 193 0
166 190 0
168 191 0
175 197 0
171 194 0
172 194 0
166 189 0
168 191 0
168 191 0
170 192 0
171 193 0
174 196 0
173 195 0
174 196 0
172 194 0
177 198 0
175 196 0
176 196 0
176 196 0
175 195 0
177 197 0
173 193 0
174 195 0
176 197 0
173 193 0
171 191 0
173 194 0
174 194 0
172 192 0
173 194 0
170 190 0
173 193 0
170 190 0
167 186 0
167 185 0
169 189 0
169 189 0
169 188 0
169 189 0
172 192 0
166 185 0
169 188 0
167 187 0
169 188 0
161 180 0
164 184 0
165 184 0
164 184 0
164 185 0
166 185 0
162 182 0
165 185 0
162 182 0
161 181 0
157 177 0
165 184 0
162 182 0
158 178 0
162 181 0
161 181 0
157 177 0
166 185 0
159 177 0
159 179 0
160 180 0
155 175 0
153 173 0
154 175 0
151 173 0
155 177 0
155 177 0
153 174 0
160 182 0
152 172 0
153 175 0
152 174 0
149 170 0
153 173 0
148 168 0
153 174 0
148 169 0
153 173 0
152 172 0
145 166 0
147 167 0
152 171 0
146 166 0
147 167 0
149 168 0
146 166 0
147 166 0
150 170 0
154 174 0
151 171 0
154 175 0
157 177 0
165 185 0
166 189 0
159 181 0
161 182 0
162 184 0
160 181 0
162 185 0
163 185 0
160 181 0
159 180 0
149 170 0
157 178 0
153 174 0
158 180 0
150 172 0
149 171 0
152 173 0
148 170 0
156 178 0
152 174 0
151 173 0
149 171 0
152 173 0
150 172 0
144 165 0
141 162 0
143 164 0
149 171 0
140 161 0
142 163 0
139 160 0
135 156 0
141 163 0
147 167 0
148 169 0
143 164 0
145 165 0
142 163 0
131 153 0
137 158 0
133 154 0
98 119 31
58 87 60
50 79 67
52 83 78
49 79 74
53 84 84
51 82 82
51 81 82
54 85 88
52 83 84
52 84 86
53 83 99
51 81 90
52 83 80
53 84 92
53 84 94
52 83 72
54 86 103
53 84 86
52 83 90
53 84 88
52 83 92
51 81 88
53 84 90
55 87 103
52 83 94
53 85 94
50 80 80
50 80 78
54 85 94
54 85 92
51 83 74
50 80 84
51 82 84
52 83 86
55 86 107
56 88 102
51 81 92
52 83 84
53 84 94
55 87 99
52 82 92
50 80 78
53 83 90
54 85 99
51 81 86
54 85 94
49 77 77
52 82 84
51 80 78
52 83 95
52 82 92
49 78 74
49 77 82
49 78 77
48 75 81
50 79 87
49 78 72
47 74 63
46 73 75
47 75 65
47 74 71
57 81 78
89 106 36
126 143 0
115 131 0
118 132 0
124 137 0
131 148 0
128 143 0
131 147 0
126 143 0
132 148 0
138 154 0
135 151 0
133 149 0
131 145 0
135 151 0
131 145 0
131 145 0
128 143 0
135 151 0
135 147 0
137 149 0
130 145 0
131 144 0
146 161 0
142 154 0
135 148 0
140 155 0
137 152 0
144 158 0
137 151 0
136 148 0
131 145 0
135 148 0
133 142 0
137 148 0
145 157 0
134 145 0
139 150 0
136 149 0
142 155 0
146 157 0
134 141 0
108 106 32
76 70 19
93 87 19
85 82 16
87 83 16
83 77 0
77 73 11
88 84 0
90 87 8
95 91 11
88 83 11
89 85 0
100 95 8
96 92 0
107 102 0
109 104 11
105 100 0
98 92 11
96 89 0
108 101 11
108 103 11
101 96 14
110 105 0
113 108 11
108 103 11
118 113 19
117 112 8
99 96 3
114 110 11
122 117 16
122 114 8
124 119 21
117 112 16
112 107 14
119 115 14
120 115 19
118 111 16
120 114 19
118 115 8
125 119 19
131 125 22
124 119 16
119 115 11
117 112 11
122 116 25
129 125 29
129 123 28
124 119 19
129 124 16
127 122 28
127 124 11
133 126 28
138 130 32
133 127 28
138 133 28
131 127 19
130 124 30
136 131 32
127 121 25
127 122 34
135 130 16
132 126 28
128 122 19
139 133 41
126 122 16
133 127 19
132 126 36
139 133 36
136 132 36
137 132 37
140 133 36
140 135 41
143 137 36
136 131 37
132 125 37
139 134 42
140 134 36
142 136 36
133 129 36
144 138 47
133 129 45
139 134 42
141 134 37
138 133 36
142 136 30
131 126 34
138 133 36
139 132 41
141 135 37
142 136 32
140 133 41
147 141 44
137 131 44
141 134 42
141 135 48
141 135 47
138 132 39
139 134 37
138 131 36
136 129 42
141 135 47
145 138 45
146 138 56
137 131 48
138 131 47
140 133 45
141 135 45
136 131 45
137 130 45
134 128 45
142 136 53
132 126 44
130 125 48
135 129 52
137 131 42
132 126 42
145 138 58
131 126 42
144 137 51
127 122 44
135 129 47
126 120 41
133 128 42
134 128 49
122 117 36
138 131 49
125 121 44
171 195 0
173 196 0
174 198 0
173 197 0
172 196 0
172 195 0
171 195 0
173 196 0
172 196 0
172 196 0
173 196 0
174 197 0
171 194 0
172 196 0
170 193 0
172 195 0
171 194 0
171 195 0
172 195 0
171 194 0
170 193 0
170 193 0
168 192 0
167 191 0
173 195 0
171 194 0
168 192 0
171 194 0
169 192 0
169 193 0
172 195 0
169 193 0
167 191 0
168 192 0
168 192 0
171 194 0
169 193 0
171 194 0
172 195 0
172 195 0
170 193 0
168 191 0
169 192 0
170 192 0
168 190 0
173 195 0
172 193 0
174 195 0
174 195 0
176 197 0
168 189 0
172 194 0
173 193 0
173 195 0
171 191 0
172 193 0
176 198 0
172 193 0
174 195 0
173 193 0
169 190 0
171 191 0
174 194 0
172 192 0
173 192 0
169 190 0
168 188 0
172 191 0
173 192 0
172 191 0
168 187 0
169 189 0
170 191 0
168 188 0
165 186 0
172 192 0
164 183 0
170 189 0
166 186 0
165 183 0
166 186 0
168 188 0
162 182 0
165 184 0
164 184 0
167 186 0
167 186 0
162 182 0
166 186 0
159 178 0
159 179 0
159 179 0
158 178 0
159 179 0
160 180 0
158 179 0
161 182 0
155 177 0
151 172 0
157 179 0
148 169 0
151 172 0
149 170 0
152 173 0
157 178 0
163 184 0
157 178 0
160 181 0
155 176 0
150 172 0
157 177 0
153 173 0
150 171 0
157 179 0
151 170 0
147 167 0
149 169 0
143 164 0
149 169 0
151 171 0
147 167 0
156 177 0
147 167 0
157 177 0
148 169 0
157 177 0
164 185 0
165 186 0
164 186 0
156 178 0
157 178 0
160 181 0
164 186 0
159 181 0
157 179 0
152 174 0
155 177 0
157 179 0
157 179 0
156 177 0
153 175 0
156 177 0
148 170 0
149 171 0
154 175 0
152 173 0
150 173 0
144 165 0
143 165 0
140 162 0
154 176 0
148 170 0
147 169 0
149 170 0
146 167 0
145 165 0
134 156 0
139 161 0
141 162 0
140 160 0
136 157 0
134 155 0
139 159 0
147 168 0
136 156 0
137 158 0
134 154 0
128 148 0
127 147 0
113 134 18
64 89 72
44 72 44
49 79 74
49 79 65
50 79 72
53 84 90
49 79 65
50 81 74
52 83 82
51 82 84
52 84 84
51 82 65
51 82 82
48 77 72
53 85 84
49 78 74
52 82 76
53 84 88
53 85 97
51 82 78
54 85 95
54 85 99
53 84 97
52 83 74
53 85 90
51 81 86
49 78 62
51 82 80
51 81 88
51 81 84
53 85 92
51 81 90
54 85 102
50 80 78
50 79 80
52 83 92
53 85 99
50 80 84
51 81 92
50 79 88
52 83 82
50 80 80
51 81 90
53 84 94
50 80 74
51 81 78
49 77 81
51 81 94
50 79 81
49 78 74
51 80 90
49 77 84
46 72 78
50 79 79
46 73 70
50 78 76
47 74 70
48 75 61
44 69 70
50 72 42
102 118 18
116 131 0
115 132 0
109 124 0
121 134 0
128 143 0
131 148 0
118 132 0
121 136 0
124 140 0
120 136 0
118 132 0
118 132 0
127 145 0
125 141 0
128 142 0
134 149 0
124 137 0
129 145 0
129 141 0
135 153 0
135 149 0
137 151 0
124 138 0
138 150 0
125 137 0
132 144 0
141 157 0
135 149 0
129 142 0
135 150 0
137 146 0
146 158 0
140 151 0
134 143 0
142 155 0
130 140 0
141 155 0
131 142 0
137 148 0
132 142 0
137 146 0
135 144 0
136 146 0
101 106 18
93 87 22
84 79 11
85 77 11
82 77 22
90 83 16
92 87 0
97 92 11
82 78 11
90 84 8
89 86 11
98 93 0
94 90 0
90 87 11
106 100 0
100 95 14
100 94 0
97 93 0
106 102 8
97 92 0
103 98 8
96 91 0
112 106 11
102 97 11
111 107 0
112 106 0
118 112 0
113 106 11
115 110 8
100 98 8
113 109 0
126 120 18
121 115 19
117 112 16
120 114 0
116 111 8
127 121 11
124 118 16
125 121 16
118 115 11
122 117 19
118 114 19
131 124 30
118 114 19
121 117 16
128 122 28
133 128 22
130 125 19
127 120 22
122 119 11
125 120 25
130 125 25
124 122 19
129 125 28
133 127 30
131 126 25
133 127 28
136 128 36
131 125 22
132 126 16
134 129 28
125 121 16
137 131 32
133 128 19
136 129 34
132 126 30
143 136 41
131 125 28
141 137 37
132 126 36
138 131 34
137 131 32
137 131 39
134 128 25
139 133 25
128 122 28
141 136 41
130 125 34
139 133 39
135 130 22
138 132 39
137 131 30
142 136 47
128 122 34
136 130 39
137 130 36
138 131 45
131 125 30
131 125 25
143 136 42
138 132 30
134 130 36
136 129 36
138 131 39
135 129 37
147 141 47
142 135 42
142 137 42
136 131 32
132 127 41
129 123 37
135 129 51
144 137 45
141 134 42
138 132 39
133 126 44
136 130 37
139 134 34
137 131 37
137 130 44
142 135 49
138 132 45
133 127 39
139 133 45
134 130 48
133 127 36
137 131 48
144 138 56
131 125 42
138 133 48
142 136 51
144 137 48
138 130 42
123 117 36
130 125 48
132 127 45
172 196 0
173 197 0
170 194 0
174 197 0
173 196 0
171 194 0
173 196 0
173 196 0
170 194 0
170 193 0
172 194 0
171 195 0
169 193 0
170 194 0
171 194 0
173 195 0
168 190 0
171 194 0
171 195 0
168 190 0
172 195 0
170 194 0
169 192 0
174 197 0
172 195 0
170 194 0
172 195 0
170 193 0
169 192 0
172 195 0
168 191 0
166 189 0
172 194 0
169 193 0
172 195 0
170 193 0
171 193 0
170 193 0
169 192 0
169 192 0
171 194 0
167 190 0
167 190 0
171 194 0
165 187 0
169 193 0
168 191 0
170 193 0
169 192 0
171 193 0
172 193 0
173 195 0
168 189 0
169 190 0
171 192 0
170 190 0
173 194 0
174 194 0
171 192 0
173 194 0
177 197 0
170 190 0
172 191 0
173 193 0
169 190 0
172 192 0
168 188 0
168 188 0
167 186 0
173 193 0
168 188 0
172 191 0
171 190 0
170 190 0
172 192 0
170 189 0
161 180 0
164 183 0
167 186 0
168 187 0
169 188 0
168 188 0
166 186 0
162 182 0
160 180 0
166 186 0
158 179 0
162 180 0
166 186 0
159 181 0
157 178 0
156 178 0
163 185 0
154 176 0
157 179 0
153 173 0
151 172 0
158 179 0
163 185 0
151 172 0
157 178 0
153 174 0
158 178 0
157 178 0
154 175 0
162 182 0
154 174 0
154 175 0
148 169 0
149 169 0
150 171 0
154 174 0
146 167 0
149 169 0
151 171 0
152 171 0
157 178 0
148 168 0
147 167 0
148 168 0
149 169 0
150 171 0
155 176 0
161 182 0
159 180 0
161 182 0
158 178 0
156 176 0
157 178 0
152 172 0
157 179 0
160 180 0
155 176 0
152 172 0
156 177 0
159 180 0
152 172 0
152 173 0
148 169 0
155 176 0
148 169 0
154 175 0
147 169 0
149 170 0
149 170 0
143 164 0
144 165 0
157 178 0
141 162 0
154 174 0
145 166 0
149 171 0
151 171 0
148 169 0
137 159 0
145 166 0
144 165 0
142 162 0
137 159 0
130 151 0
136 157 0
131 150 0
138 158 0
134 154 0
139 160 0
130 150 0
133 153 0
121 140 0
119 138 0
132 152 0
130 149 0
95 115 47
51 79 67
49 79 62
49 78 76
48 77 65
48 77 62
50 80 70
49 79 74
49 79 70
53 83 86
48 77 65
54 85 94
49 78 78
50 80 90
50 80 70
51 82 82
51 80 84
48 77 60
50 80 72
51 82 74
52 82 80
52 82 78
49 78 74
54 85 97
52 82 76
51 81 82
51 81 90
50 80 82
55 86 94
53 84 84
54 85 90
51 81 86
48 77 72
51 81 80
49 78 76
49 78 76
53 84 90
50 79 72
54 86 90
52 82 86
52 82 88
51 80 86
49 79 74
49 79 72
49 78 67
49 78 65
52 82 78
48 75 75
49 78 78
47 75 72
49 76 75
47 74 83
47 74 72
48 76 73
45 72 54
40 63 51
46 70 54
87 104 36
120 134 0
106 121 0
96 112 0
110 124 0
118 133 0
123 137 0
122 137 0
118 132 0
125 138 0
123 138 0
122 136 0
131 146 0
124 136 0
126 141 0
136 151 0
127 143 0
129 145 0
141 153 0
123 136 0
126 139 0
119 133 0
134 148 0
123 136 0
130 144 0
139 153 0
127 139 0
117 130 0
131 144 0
135 147 0
109 118 0
127 137 0
137 149 0
140 153 0
136 149 0
137 148 0
133 146 0
131 143 0
132 143 0
140 152 0
141 150 0
124 133 0
144 153 0
130 137 0
142 151 0
139 151 0
135 142 0
115 117 11
81 77 21
84 79 16
92 87 11
77 71 11
84 80 0
90 83 0
71 67 0
90 84 0
85 80 0
98 92 11
95 89 0
100 95 0
87 82 0
109 103 11
100 95 8
103 97 0
115 108 0
99 95 0
99 96 0
104 98 0
96 93 0
102 96 0
108 103 0
99 94 0
103 97 0
104 101 14
116 111 0
113 108 11
117 111 19
110 107 14
110 103 11
116 111 11
106 102 8
112 107 0
115 109 16
120 114 18
124 118 19
124 117 11
132 126 32
118 112 11
123 115 25
127 123 11
126 120 14
121 117 25
124 120 25
122 117 19
128 121 30
126 121 22
129 124 16
123 118 19
129 124 16
130 125 28
128 123 16
120 116 11
123 117 25
134 127 25
131 126 28
130 126 30
133 127 30
142 136 22
136 130 37
132 126 28
123 116 34
128 123 30
136 131 25
131 125 36
141 136 30
135 130 30
129 124 22
134 128 32
135 129 34
134 128 34
126 121 25
137 130 36
132 126 28
141 134 39
141 135 32
134 126 41
145 140 37
136 129 39
136 131 30
133 128 30
136 129 37
135 129 48
131 124 28
140 134 47
132 126 32
146 140 41
138 132 49
135 128 41
137 131 22
132 127 32
133 127 36
137 129 48
126 121 34
137 131 44
139 133 45
131 126 28
140 134 42
142 135 37
138 132 36
145 139 39
130 125 44
149 143 47
139 133 42
138 132 47
134 128 42
135 128 45
134 128 45
128 123 39
138 132 34
137 131 45
140 134 52
131 124 45
135 129 44
141 134 41
139 134 42
127 122 34
136 129 47
137 131 49
138 132 41
132 126 37
134 128 48
141 135 52
172 194 0
175 198 0
171 194 0
169 192 0
175 198 0
175 198 0
171 195 0
172 196 0
169 192 0
168 192 0
169 193 0
172 195 0
172 194 0
170 193 0
174 198 0
173 196 0
173 195 0
174 196 0
169 192 0
170 193 0
170 192 0
169 192 0
172 195 0
173 197 0
171 194 0
169 193 0
172 195 0
168 191 0
169 193 0
173 195 0
171 194 0
169 192 0
167 190 0
171 195 0
169 190 0
171 194 0
171 193 0
169 192 0
172 194 0
172 195 0
172 195 0
169 192 0
166 190 0
167 189 0
168 191 0
172 194 0
170 191 0
171 194 0
170 193 0
170 192 0
167 190 0
167 189 0
168 190 0
172 194 0
170 191 0
177 197 0
174 195 0
172 193 0
172 193 0
168 188 0
172 192 0
173 193 0
171 190 0
168 189 0
172 192 0
170 191 0
172 192 0
168 188 0
173 193 0
168 189 0
168 188 0
172 192 0
169 189 0
173 192 0
168 188 0
173 193 0
166 186 0
162 182 0
162 181 0
166 186 0
160 180 0
166 187 0
159 179 0
162 183 0
159 180 0
156 176 0
161 182 0
155 177 0
157 179 0
157 179 0
161 182 0
156 177 0
161 182 0
165 186 0
153 174 0
160 181 0
154 176 0
150 171 0
159 182 0
159 180 0
144 165 0
160 180 0
154 176 0
145 165 0
150 169 0
153 174 0
159 179 0
159 179 0
156 176 0
150 171 0
152 172 0
150 170 0
161 182 0
146 166 0
154 174 0
151 172 0
152 172 0
145 165 0
153 172 0
148 167 0
145 165 0
155 175 0
156 176 0
164 184 0
161 182 0
158 178 0
156 176 0
157 179 0
155 176 0
159 180 0
156 177 0
161 182 0
162 183 0
149 168 0
152 172 0
159 179 0
153 173 0
151 171 0
157 179 0
157 177 0
158 178 0
159 180 0
154 175 0
151 172 0
142 163 0
153 174 0
145 165 0
147 168 0
144 165 0
138 159 0
146 167 0
148 170 0
150 170 0
144 165 0
140 161 0
136 157 0
143 163 0
148 169 0
142 163 0
132 152 0
148 167 0
129 149 0
142 162 0
136 156 0
118 138 0
133 152 0
138 159 0
132 152 0
128 147 0
120 140 0
115 133 0
112 131 0
114 132 31
86 107 40
46 75 65
50 80 70
48 76 67
52 83 84
50 80 80
47 76 72
50 80 76
50 80 70
50 80 78
49 78 72
50 80 72
48 77 70
50 80 72
50 80 80
52 83 88
50 80 76
52 84 90
51 81 74
52 82 78
48 78 70
48 77 74
50 79 76
48 78 74
53 84 92
51 81 88
53 84 84
51 81 74
51 81 78
50 79 86
50 79 84
50 80 84
53 84 86
52 83 82
54 86 96
51 80 78
50 79 84
50 80 82
49 77 80
49 79 75
50 80 82
49 79 76
47 75 67
48 76 74
53 83 94
51 81 90
51 81 92
49 77 72
48 76 70
47 74 75
46 72 78
47 74 68
44 70 66
58 78 67
88 100 0
105 119 0
106 120 0
106 120 0
106 121 0
122 136 0
102 118 0
113 127 0
109 121 0
110 126 0
119 133 0
123 137 0
126 139 0
122 136 0
120 133 0
113 127 0
127 143 0
110 126 0
118 132 0
114 126 0
120 134 0
132 147 0
130 145 0
124 137 0
129 142 0
125 136 0
122 134 0
129 142 0
134 147 0
124 138 0
129 142 0
120 132 0
127 140 0
129 142 0
119 128 0
127 136 0
128 137 0
131 139 0
130 139 0
133 146 0
125 133 0
130 138 0
134 143 0
136 145 0
131 138 0
126 132 0
126 131 0
127 134 0
134 141 0
126 131 16
93 90 16
83 77 11
84 76 14
81 76 19
75 72 8
82 78 0
94 88 0
86 81 11
89 83 8
94 89 0
75 71 8
93 87 0
102 94 8
107 101 0
98 91 11
101 94 0
96 91 0
102 96 0
103 98 0
109 103 0
109 104 0
101 97 11
106 100 0
117 109 0
113 108 0
117 111 0
108 104 0
107 103 0
112 107 0
110 105 16
120 115 25
112 107 11
120 114 0
116 112 0
111 107 0
116 111 0
122 117 16
123 116 19
111 107 0
116 110 19
119 114 22
125 120 16
126 123 0
120 114 16
122 117 11
122 116 19
124 120 22
127 122 16
130 124 22
128 123 22
129 124 19
127 123 22
127 121 25
132 126 30
125 121 25
132 125 22
131 126 19
119 112 11
135 129 30
133 128 28
131 125 28
127 122 22
122 114 11
129 124 19
125 119 19
137 130 32
127 119 25
136 129 37
137 132 32
128 122 28
137 131 39
133 126 36
141 135 34
127 123 16
140 133 32
135 129 34
131 125 32
136 129 36
134 129 25
134 128 36
135 129 34
142 135 44
136 130 25
131 124 32
136 129 36
137 130 39
135 128 37
121 116 22
136 129 41
141 134 41
136 129 42
131 125 34
135 127 39
133 128 37
143 138 39
144 136 37
134 129 36
137 130 34
132 127 36
136 131 42
143 137 42
135 129 42
119 114 37
128 123 36
141 135 39
137 131 37
133 128 39
130 125 36
132 126 37
138 133 36
132 124 51
137 130 51
135 128 48
130 125 42
135 130 48
140 134 51
132 126 44
138 132 44
129 125 41
135 129 44
128 122 34
136 130 52
133 127 51
170 193 0
176 198 0
171 194 0
172 195 0
173 196 0
171 195 0
172 195 0
171 194 0
173 196 0
170 193 0
172 196 0
174 197 0
170 194 0
172 195 0
169 193 0
171 193 0
171 193 0
170 192 0
173 196 0
173 197 0
169 192 0
171 194 0
169 192 0
174 196 0
172 196 0
172 195 0
169 192 0
172 194 0
174 197 0
170 193 0
167 191 0
170 193 0
170 193 0
171 194 0
173 195 0
173 194 0
168 191 0
168 190 0
171 193 0
169 191 0
169 191 0
169 192 0
169 192 0
168 190 0
166 190 0
174 197 0
166 188 0
168 192 0
167 190 0
171 193 0
162 185 0
171 192 0
163 185 0
166 189 0
170 192 0
165 188 0
169 191 0
168 189 0
171 193 0
167 188 0
168 190 0
168 191 0
166 187 0
166 187 0
170 191 0
170 191 0
170 191 0
165 186 0
167 187 0
165 186 0
166 187 0
169 189 0
165 186 0
169 189 0
167 187 0
168 189 0
166 187 0
169 190 0
165 186 0
164 185 0
161 183 0
164 186 0
161 183 0
160 181 0
161 184 0
162 183 0
161 183 0
154 174 0
157 179 0
160 182 0
158 180 0
158 180 0
159 179 0
171 192 0
160 181 0
156 178 0
151 171 0
153 174 0
160 181 0
155 175 0
150 170 0
158 178 0
153 173 0
155 175 0
159 178 0
153 174 0
153 174 0
154 174 0
150 170 0
150 170 0
159 180 0
155 175 0
145 165 0
151 172 0
150 170 0
147 166 0
155 174 0
151 171 0
151 170 0
148 170 0
154 174 0
156 176 0
163 183 0
161 181 0
163 183 0
162 182 0
157 177 0
159 179 0
155 176 0
162 182 0
151 171 0
152 173 0
151 173 0
155 176 0
157 178 0
151 171 0
150 170 0
148 169 0
147 167 0
151 171 0
151 172 0
146 166 0
153 175 0
140 161 0
145 165 0
151 173 0
151 171 0
145 166 0
142 163 0
143 163 0
152 173 0
146 167 0
139 160 0
137 158 0
150 170 0
142 163 0
142 162 0
143 163 0
137 156 0
133 154 0
135 157 0
132 152 0
126 146 0
128 147 0
122 142 0
126 145 0
133 152 0
125 145 0
132 151 0
118 137 0
125 143 0
117 136 0
118 137 0
111 128 0
100 118 0
52 79 72
44 70 44
49 78 78
50 80 80
52 83 54
50 79 78
50 79 78
51 82 86
53 84 86
48 77 70
48 77 67
52 83 82
50 80 78
51 82 80
50 79 72
48 78 76
50 79 84
52 83 82
51 81 70
48 78 67
50 80 84
50 80 72
50 80 78
51 82 86
52 82 94
50 80 82
50 81 84
49 78 80
48 78 57
50 79 82
51 81 54
50 80 85
48 77 84
49 78 84
49 79 74
50 79 62
49 77 82
49 78 74
46 72 74
49 77 72
50 78 78
45 71 68
49 77 76
50 80 76
48 76 70
45 72 77
44 69 72
43 68 72
43 68 60
50 71 62
81 95 36
99 112 0
105 117 0
91 103 0
94 106 0
103 116 0
92 101 0
113 125 0
105 119 0
109 122 0
111 124 0
122 136 0
123 138 0
111 126 0
119 133 0
107 119 0
116 127 0
118 131 0
126 140 0
116 129 0
124 139 0
121 135 0
115 128 0
125 140 0
116 130 0
117 127 0
129 143 0
129 140 0
131 143 0
123 135 0
127 140 0
125 138 0
127 139 0
121 133 0
122 132 0
128 139 0
117 126 0
132 143 0
133 144 0
117 125 0
123 131 0
132 143 0
124 133 0
116 126 0
113 119 0
135 143 0
130 137 0
125 132 0
119 128 0
130 137 0
130 138 0
129 136 0
128 135 0
106 108 16
83 76 28
86 79 11
78 72 11
79 74 0
102 95 0
82 76 11
87 80 8
93 87 0
80 75 0
92 86 0
82 76 0
93 87 0
102 96 0
99 94 0
98 92 0
108 103 8
109 101 0
103 95 3
101 98 0
112 105 0
110 103 0
113 107 8
110 105 0
106 102 11
106 100 11
110 106 11
115 110 0
114 109 0
118 111 16
99 93 0
110 105 8
122 116 0
124 116 0
116 110 0
129 123 0
112 108 16
119 114 0
115 108 11
120 112 11
118 113 11
114 109 19
118 112 16
120 115 19
122 116 0
124 118 19
108 103 0
127 121 19
129 123 19
130 126 22
131 125 25
131 126 16
133 127 28
136 130 30
137 130 22
131 125 22
130 125 25
128 122 19
128 122 32
132 126 28
117 113 22
130 123 28
130 125 32
131 125 25
133 128 22
132 126 36
128 123 32
133 125 34
134 128 30
129 123 28
127 119 30
131 126 36
138 132 37
136 131 28
136 130 30
133 127 36
129 123 36
132 127 32
132 125 34
131 125 19
129 123 34
135 128 34
138 133 28
135 129 36
133 128 36
143 136 39
134 127 41
134 128 44
128 123 34
132 125 41
135 128 39
140 134 39
131 125 28
132 127 36
133 127 37
138 132 39
137 131 42
134 129 41
130 123 36
147 140 49
133 126 37
140 133 36
131 125 42
132 125 36
133 128 36
140 135 39
134 129 32
133 127 44
139 134 47
128 122 41
132 126 34
131 123 47
130 123 44
132 126 37
138 132 45
123 118 36
133 127 36
130 124 41
131 125 41
131 124 44
137 131 44
141 135 52
172 195 0
171 194 0
171 195 0
173 196 0
171 195 0
173 196 0
171 194 0
173 196 0
174 197 0
172 196 0
174 196 0
169 193 0
168 192 0
173 196 0
172 195 0
174 196 0
170 193 0
172 195 0
170 193 0
173 195 0
172 194 0
172 196 0
170 193 0
173 196 0
170 192 0
175 198 0
170 193 0
169 192 0
173 196 0
172 195 0
172 194 0
172 194 0
168 190 0
169 191 0
173 195 0
174 195 0
169 193 0
167 189 0
171 193 0
170 193 0
167 190 0
169 192 0
171 194 0
172 194 0
167 189 0
166 188 0
168 190 0
167 189 0
166 189 0
169 191 0
165 188 0
168 191 0
163 186 0
165 187 0
169 192 0
169 191 0
167 190 0
164 187 0
168 191 0
169 192 0
163 185 0
169 191 0
165 187 0
165 187 0
164 186 0
168 190 0
167 190 0
167 189 0
165 187 0
166 188 0
164 186 0
167 190 0
159 180 0
163 184 0
165 187 0
161 184 0
163 185 0
158 179 0
164 185 0
159 181 0
161 182 0
158 180 0
168 189 0
159 181 0
160 181 0
165 186 0
166 186 0
164 185 0
161 182 0
159 179 0
152 173 0
163 183 0
161 183 0
158 179 0
150 171 0
157 178 0
157 178 0
157 178 0
151 172 0
161 182 0
162 182 0
153 174 0
158 179 0
142 163 0
157 178 0
152 172 0
154 175 0
149 170 0
149 169 0
155 176 0
146 165 0
151 171 0
154 174 0
151 171 0
148 168 0
158 177 0
154 173 0
146 165 0
159 179 0
160 180 0
153 172 0
164 184 0
153 173 0
162 183 0
156 176 0
157 178 0
160 181 0
154 174 0
160 179 0
158 179 0
157 177 0
149 170 0
144 165 0
154 175 0
157 178 0
151 172 0
156 175 0
153 174 0
150 170 0
145 165 0
151 172 0
146 167 0
141 163 0
147 168 0
147 168 0
156 176 0
146 168 0
136 156 0
145 166 0
139 161 0
140 161 0
139 160 0
139 160 0
152 171 0
143 165 0
139 159 0
130 151 0
139 160 0
130 150 0
135 155 0
129 149 0
124 145 0
130 149 0
131 151 0
130 151 0
130 149 0
106 125 0
127 147 0
121 139 0
128 147 0
115 134 0
109 128 0
125 143 0
101 119 0
113 130 0
118 135 0
85 103 31
55 79 51
47 75 72
49 78 70
46 74 57
48 76 72
48 76 80
48 77 72
48 77 74
45 73 62
48 76 70
49 78 76
51 81 94
52 82 78
51 81 76
49 78 78
46 74 62
47 75 72
48 77 72
49 78 65
53 83 88
49 79 72
49 79 70
49 77 90
45 73 62
46 73 75
50 80 90
47 76 80
52 82 88
48 77 72
50 80 80
49 78 62
50 79 78
48 76 76
50 79 76
47 76 72
49 77 74
48 77 70
49 78 70
46 74 77
46 73 65
43 68 60
44 70 70
46 73 57
46 73 79
40 65 60
46 68 57
81 95 31
97 110 0
84 94 0
107 119 0
88 99 0
102 113 0
112 126 0
106 118 0
109 122 0
94 109 0
95 109 0
100 114 0
115 128 0
111 124 0
113 126 0
116 129 0
112 125 0
115 127 0
123 137 0
115 127 0
115 127 0
119 132 0
118 131 0
131 145 0
130 145 0
121 133 0
126 138 0
118 131 0
136 148 0
127 137 0
120 132 0
123 134 0
113 126 0
123 136 0
132 144 0
135 150 0
117 125 0
120 128 0
124 134 0
128 138 0
128 134 0
137 147 0
119 127 0
122 130 0
122 129 0
117 122 0
123 131 0
122 131 0
122 126 0
122 130 0
122 128 0
129 134 0
129 137 0
130 134 0
119 123 0
119 118 0
118 122 0
90 87 16
83 78 8
90 83 11
84 78 16
87 83 0
91 86 0
95 89 11
85 78 0
91 85 8
94 88 0
99 92 0
95 86 0
94 88 0
105 99 11
90 83 0
99 92 0
93 90 0
103 97 0
112 106 0
93 88 0
113 108 0
99 93 0
114 106 0
110 103 0
107 101 8
107 100 0
116 110 0
116 111 0
112 108 0
114 108 8
116 109 0
116 110 11
120 115 8
109 104 11
115 108 0
109 104 11
110 104 0
125 119 11
121 115 16
119 114 0
115 109 0
119 114 0
126 120 11
122 116 22
123 117 0
137 132 25
122 118 11
124 118 16
129 122 28
119 114 19
125 120 16
126 121 16
131 126 22
123 117 22
137 130 25
121 114 19
127 121 25
127 120 30
123 117 19
125 120 25
129 121 22
121 114 30
132 126 37
124 119 11
121 113 22
129 122 25
132 126 32
140 133 22
136 129 32
142 137 30
128 122 22
125 119 30
131 125 30
129 123 22
138 129 36
135 127 34
130 124 28
131 124 32
133 127 42
125 119 19
132 125 25
131 125 30
131 122 36
129 122 30
134 128 30
129 123 37
141 134 44
137 131 37
130 126 37
135 129 41
128 123 32
138 133 42
140 133 44
136 131 42
135 130 45
132 127 34
129 122 30
129 122 41
140 133 44
136 130 41
134 128 52
125 120 34
132 124 34
138 133 37
135 129 39
139 134 42
135 129 41
132 127 45
138 132 37
130 125 41
124 117 42
135 129 39
134 129 45
137 129 54
132 126 39
137 131 37
122 117 42
138 132 42
133 127 39
127 121 44
171 196 0
174 196 0
175 197 0
172 195 0
175 197 0
170 193 0
176 199 0
172 196 0
173 196 0
174 196 0
170 194 0
169 192 0
172 195 0
170 192 0
171 194 0
171 194 0
169 193 0
170 193 0
169 192 0
169 192 0
169 192 0
172 194 0
175 197 0
173 195 0
169 192 0
172 194 0
172 195 0
174 196 0
169 191 0
169 192 0
172 195 0
167 190 0
171 193 0
169 192 0
172 194 0
169 193 0
171 193 0
171 193 0
169 192 0
168 192 0
169 191 0
171 194 0
167 190 0
173 196 0
167 191 0
172 195 0
168 191 0
169 190 0
169 191 0
173 196 0
168 191 0
163 185 0
167 189 0
174 196 0
172 195 0
169 190 0
160 183 0
168 189 0
163 186 0
166 188 0
169 191 0
172 194 0
167 189 0
169 191 0
166 188 0
162 183 0
166 187 0
170 192 0
167 189 0
166 188 0
164 186 0
167 189 0
155 177 0
160 181 0
161 182 0
169 191 0
163 184 0
157 178 0
163 185 0
167 189 0
163 185 0
160 182 0
166 187 0
161 183 0
162 183 0
158 179 0
159 180 0
156 178 0
159 181 0
156 178 0
161 182 0
160 180 0
157 177 0
163 184 0
157 178 0
153 174 0
162 183 0
160 181 0
160 180 0
159 180 0
156 176 0
150 170 0
158 178 0
153 172 0
153 173 0
153 172 0
147 168 0
146 168 0
156 176 0
157 177 0
145 166 0
154 175 0
153 173 0
154 173 0
153 173 0
151 171 0
148 168 0
150 170 0
160 179 0
163 182 0
161 181 0
150 170 0
156 175 0
162 182 0
156 175 0
160 180 0
157 177 0
148 168 0
153 174 0
159 180 0
159 179 0
156 177 0
159 180 0
157 177 0
152 172 0
156 176 0
160 180 0
152 173 0
149 168 0
144 164 0
156 177 0
147 168 0
148 169 0
142 163 0
135 156 0
146 168 0
147 168 0
136 157 0
143 164 0
146 166 0
144 164 0
148 167 0
137 157 0
134 154 0
143 165 0
141 161 0
141 161 0
134 154 0
128 147 0
124 144 0
134 153 0
127 146 0
126 146 0
118 138 0
131 149 0
114 134 0
112 131 0
111 128 0
117 135 0
128 146 0
101 119 0
118 136 0
112 130 0
112 130 0
112 129 0
118 135 0
103 121 0
92 107 0
90 107 31
44 68 47
43 69 60
43 70 62
45 73 51
46 74 62
49 78 62
48 76 70
47 76 74
48 77 72
49 78 78
46 74 62
47 76 51
48 77 67
48 77 62
51 81 88
46 75 74
47 75 60
48 76 76
49 78 74
48 78 70
50 80 88
49 78 70
50 79 72
52 82 86
50 80 84
49 78 74
49 77 74
48 77 76
46 73 78
49 78 74
49 78 82
46 74 78
46 73 67
47 75 82
44 70 63
47 74 78
44 70 67
45 71 72
47 75 67
43 68 67
43 67 57
42 63 37
63 77 32
80 91 0
87 97 0
92 104 0
82 94 0
88 98 0
98 111 0
96 106 0
109 122 0
107 120 0
92 105 0
107 116 0
107 120 0
108 122 0
97 107 0
107 122 0
114 127 0
91 103 0
92 105 0
119 131 0
118 132 0
115 128 0
123 138 0
111 124 0
123 137 0
119 133 0
118 131 0
118 131 0
134 147 0
127 139 0
127 141 0
129 143 0
114 129 0
118 130 0
111 123 0
109 120 0
121 133 0
105 117 0
123 133 0
107 113 0
121 131 0
123 135 0
121 131 0
120 130 0
119 127 0
127 137 0
128 138 0
113 116 0
129 134 0
117 121 0
114 116 0
123 126 0
121 126 0
118 122 0
118 120 0
129 132 0
126 130 0
112 114 0
127 130 0
117 121 0
94 94 11
80 72 16
83 76 19
87 81 11
81 77 11
81 72 0
92 85 11
90 83 11
85 78 0
85 77 0
99 91 0
86 78 8
92 87 8
93 88 0
92 86 0
102 97 0
94 88 0
96 92 0
109 102 0
108 102 0
104 99 0
108 100 0
101 95 8
116 112 0
115 107 0
106 101 0
112 106 0
113 107 0
120 113 0
122 115 11
113 109 0
118 112 0
119 113 11
104 98 0
112 106 12
110 104 0
113 106 0
124 119 0
124 119 11
123 118 11
126 120 16
124 118 11
128 122 0
120 113 0
123 118 11
133 127 22
123 118 16
127 121 11
124 118 11
116 108 16
121 115 19
117 111 11
125 119 11
130 123 25
120 114 25
114 109 11
122 117 25
127 122 19
130 124 16
131 126 30
124 117 16
128 121 22
133 127 25
135 129 19
134 127 30
130 124 28
131 124 28
125 120 30
129 124 36
125 120 36
124 118 30
134 128 34
132 125 30
138 130 22
131 125 39
124 116 34
122 115 32
132 126 25
125 119 19
128 124 22
130 124 30
124 119 28
132 125 36
125 119 19
141 133 44
129 123 32
132 126 28
122 117 30
139 134 34
133 127 36
128 121 41
136 129 42
143 136 41
127 122 30
124 118 34
129 124 34
132 126 37
133 125 42
133 127 44
138 131 47
137 130 41
116 111 32
138 132 47
131 126 36
135 129 42
145 138 52
138 133 37
133 126 42
135 130 32
125 119 37
123 117 30
136 129 51
136 129 54
132 126 44
134 129 47
125 119 41
121 115 34
120 116 37
128 123 42
174 196 0
172 195 0
172 195 0
173 195 0
174 197 0
176 198 0
174 197 0
169 191 0
171 195 0
172 194 0
175 198 0
169 192 0
170 192 0
172 194 0
171 194 0
172 195 0
171 194 0
172 194 0
171 194 0
172 194 0
170 193 0
173 197 0
173 196 0
170 192 0
170 193 0
174 197 0
172 194 0
169 192 0
171 193 0
172 195 0
169 192 0
170 193 0
168 190 0
169 191 0
174 196 0
172 194 0
172 194 0
169 192 0
170 192 0
171 193 0
173 196 0
168 190 0
169 192 0
172 194 0
171 194 0
169 192 0
170 193 0
167 190 0
167 189 0
169 191 0
166 187 0
169 191 0
168 190 0
167 189 0
168 189 0
169 191 0
168 190 0
169 191 0
167 190 0
172 193 0
168 190 0
165 187 0
168 189 0
164 185 0
165 186 0
165 187 0
163 184 0
169 191 0
163 185 0
163 185 0
166 187 0
170 191 0
159 180 0
163 185 0
164 185 0
165 187 0
164 185 0
163 184 0
164 185 0
162 184 0
160 181 0
159 180 0
162 182 0
159 180 0
167 188 0
166 187 0
159 179 0
168 189 0
160 181 0
157 178 0
157 178 0
151 172 0
154 175 0
159 180 0
162 182 0
161 181 0
155 175 0
161 181 0
162 181 0
156 176 0
153 174 0
161 182 0
151 171 0
154 174 0
160 179 0
152 172 0
158 178 0
156 176 0
152 172 0
151 171 0
154 174 0
147 166 0
153 171 0
155 175 0
149 169 0
150 170 0
157 176 0
160 180 0
163 182 0
156 175 0
157 176 0
154 173 0
158 177 0
157 176 0
151 171 0
148 169 0
150 170 0
150 170 0
156 175 0
157 176 0
149 169 0
147 167 0
155 175 0
147 167 0
143 162 0
150 169 0
142 162 0
156 175 0
153 173 0
145 166 0
156 177 0
144 165 0
140 159 0
145 165 0
142 163 0
141 161 0
141 161 0
142 162 0
149 169 0
139 160 0
137 157 0
142 163 0
139 160 0
138 159 0
134 154 0
133 153 0
132 151 0
138 158 0
132 152 0
132 152 0
129 148 0
130 149 0
132 151 0
125 144 0
129 148 0
122 141 0
125 143 0
120 138 0
118 136 0
122 140 0
112 128 0
117 135 0
106 124 0
115 133 0
102 119 0
104 121 0
98 114 0
99 114 0
88 103 0
94 109 0
77 93 0
68 86 31
42 69 54
43 70 47
42 68 51
46 74 72
48 76 78
45 72 62
46 73 70
44 71 60
48 76 60
47 74 78
47 76 67
49 79 70
46 74 57
48 76 72
47 76 78
49 78 65
46 74 72
48 76 72
46 73 60
44 71 67
45 72 74
43 69 67
47 75 65
45 73 72
43 68 67
48 76 72
43 69 44
45 72 72
43 69 67
46 73 57
46 74 65
45 70 70
43 68 65
40 63 55
44 70 62
43 68 60
52 70 44
73 86 25
75 86 0
85 96 0
80 90 0
83 92 0
79 92 0
95 106 0
96 108 0
85 95 0
96 108 0
95 108 0
95 108 0
92 106 0
105 117 0
102 114 0
102 115 0
98 112 0
110 124 0
109 120 0
113 127 0
112 124 0
117 130 0
112 125 0
109 124 0
105 118 0
122 133 0
110 125 0
116 130 0
124 136 0
116 131 0
118 131 0
114 128 0
120 134 0
116 126 0
113 123 0
126 137 0
119 130 0
111 121 0
123 136 0
126 140 0
126 137 0
119 127 0
116 124 0
115 122 0
119 126 0
117 122 0
105 113 0
115 120 0
125 135 0
119 126 0
108 112 0
123 129 0
125 131 0
110 116 0
114 119 0
124 128 0
125 132 0
115 120 0
124 131 0
117 121 0
112 115 0
112 113 0
124 126 0
112 115 0
85 80 0
80 73 16
71 67 0
82 76 11
77 70 11
83 77 8
91 84 16
87 77 0
95 87 0
91 87 0
90 85 0
96 87 8
95 89 0
100 94 0
87 82 0
95 89 0
98 92 0
95 89 0
97 92 0
106 100 0
98 93 0
105 98 0
112 105 0
103 98 0
97 91 0
113 107 0
114 107 0
119 112 8
122 116 0
108 103 0
111 103 0
119 114 0
118 111 0
111 108 0
115 109 0
123 115 11
117 110 11
111 106 11
119 113 11
120 114 0
119 112 16
118 111 0
124 120 11
128 120 16
120 113 11
126 120 16
118 113 11
123 116 16
125 117 16
119 114 19
128 121 11
116 110 11
127 123 25
120 113 19
115 111 25
126 120 25
123 117 25
131 123 25
123 118 25
124 118 22
125 118 22
126 122 25
124 120 19
127 122 19
133 127 30
127 121 22
129 122 36
130 124 22
130 125 22
127 121 34
132 126 28
125 119 32
127 121 25
130 125 30
130 124 32
128 122 32
136 130 34
137 131 39
129 122 30
127 122 28
124 119 36
135 127 34
132 126 32
135 128 30
125 121 34
132 126 32
134 127 32
134 128 36
127 121 22
135 131 41
121 115 25
126 120 30
136 128 37
132 125 36
131 124 37
127 121 32
120 113 25
132 125 41
122 118 37
132 125 37
137 131 34
137 130 42
122 117 30
127 121 39
133 128 34
127 121 42
122 118 25
131 125 39
126 119 42
128 123 41
125 119 32
130 124 47
124 117 37
117 111 41
132 125 42
126 120 36
136 130 48
173 197 0
170 194 0
172 196 0
172 195 0
174 196 0
173 196 0
174 196 0
171 193 0
170 194 0
173 196 0
170 194 0
173 195 0
171 194 0
170 193 0
171 194 0
173 196 0
174 197 0
172 195 0
171 194 0
171 194 0
173 196 0
172 194 0
170 193 0
171 194 0
169 192 0
170 193 0
175 197 0
169 192 0
167 190 0
170 192 0
169 191 0
172 194 0
170 193 0
170 193 0
168 191 0
172 194 0
173 195 0
170 192 0
163 186 0
169 191 0
171 193 0
168 191 0
173 196 0
169 191 0
170 192 0
170 192 0
175 197 0
169 191 0
169 190 0
169 190 0
172 194 0
166 189 0
167 189 0
168 191 0
166 188 0
159 182 0
168 190 0
168 190 0
168 191 0
169 191 0
164 186 0
165 187 0
167 189 0
165 186 0
164 187 0
168 189 0
157 178 0
167 190 0
168 189 0
166 186 0
166 187 0
164 185 0
169 190 0
161 181 0
163 185 0
166 188 0
156 178 0
161 183 0
160 181 0
160 181 0
158 181 0
163 185 0
164 187 0
167 187 0
163 184 0
164 185 0
160 180 0
162 183 0
157 177 0
162 182 0
159 180 0
153 173 0
151 171 0
166 187 0
154 174 0
155 175 0
162 182 0
158 178 0
164 184 0
152 173 0
155 176 0
160 180 0
154 173 0
152 172 0
155 175 0
164 185 0
154 173 0
154 173 0
148 169 0
158 177 0
158 178 0
152 172 0
158 177 0
150 170 0
162 182 0
157 177 0
155 176 0
155 175 0
155 174 0
156 175 0
160 179 0
157 177 0
156 176 0
156 175 0
150 169 0
147 167 0
157 176 0
147 166 0
153 173 0
154 174 0
152 172 0
143 163 0
150 169 0
149 170 0
152 171 0
153 173 0
153 174 0
149 170 0
144 165 0
143 164 0
144 164 0
146 166 0
150 170 0
146 166 0
147 168 0
150 170 0
152 173 0
144 165 0
139 159 0
138 158 0
127 147 0
143 163 0
140 160 0
137 158 0
129 149 0
131 152 0
131 152 0
135 156 0
139 159 0
133 153 0
125 144 0
130 151 0
124 142 0
125 144 0
117 135 0
116 135 0
117 136 0
121 138 0
125 143 0
105 123 0
117 134 0
108 125 0
107 123 0
99 116 0
94 108 0
107 125 0
99 115 0
102 118 0
86 101 0
96 110 0
89 104 0
91 105 0
91 103 18
68 84 40
69 87 47
44 68 47
45 73 62
46 73 60
45 72 72
43 69 44
45 72 54
47 75 62
45 71 60
46 73 78
46 74 70
48 77 62
44 71 62
45 71 70
45 72 74
46 73 67
45 72 70
48 76 67
45 72 60
46 74 65
46 73 76
46 74 72
45 71 72
46 73 72
43 69 60
47 74 72
45 72 65
43 68 62
43 69 51
43 68 51
40 64 57
49 68 47
55 68 31
66 77 0
56 64 0
76 83 0
82 95 0
93 105 0
77 87 0
88 98 0
91 101 0
88 100 0
76 86 0
92 104 0
89 100 0
104 114 0
99 109 0
90 101 0
91 102 0
109 122 0
96 108 0
110 121 0
101 112 0
116 127 0
108 120 0
101 114 0
115 128 0
120 134 0
104 115 0
113 125 0
110 125 0
106 118 0
121 135 0
119 134 0
116 127 0
118 132 0
121 132 0
126 138 0
106 118 0
119 131 0
117 127 0
122 135 0
120 129 0
123 132 0
120 130 0
108 116 0
124 134 0
115 124 0
108 118 0
116 127 0
115 123 0
112 123 0
126 134 0
117 126 0
113 121 0
115 124 0
119 128 0
118 122 0
116 123 0
108 113 0
115 120 0
110 114 0
110 114 0
109 114 0
115 118 0
116 119 0
112 115 0
113 115 0
110 111 0
113 114 0
108 108 11
97 93 0
82 76 19
87 79 16
90 83 14
89 82 11
92 85 0
85 79 0
80 73 0
91 84 11
93 82 0
92 87 0
100 93 0
88 83 0
90 81 0
100 92 0
92 86 0
97 89 0
106 97 0
106 100 0
98 90 0
104 96 0
106 98 0
108 104 0
102 96 0
117 111 0
105 100 0
115 107 0
117 109 0
106 100 0
119 112 0
113 107 0
118 112 0
110 103 0
108 102 0
122 116 16
115 110 0
116 108 11
131 123 19
116 110 16
122 117 11
108 102 11
131 123 22
113 106 0
115 110 16
122 115 16
126 118 16
117 111 11
123 117 16
119 111 11
123 117 25
121 117 16
119 113 11
127 121 16
123 117 16
121 113 16
122 117 16
120 115 28
125 120 28
124 116 19
131 123 28
132 126 28
124 118 19
123 117 16
132 126 25
120 113 19
124 119 11
129 123 34
132 123 30
131 125 32
128 120 28
128 121 32
125 119 28
132 126 32
129 122 30
135 128 28
125 120 22
122 117 19
134 128 39
133 128 25
137 130 30
131 123 34
139 131 37
138 132 42
130 125 39
135 127 39
124 116 36
122 116 28
130 123 36
127 120 39
126 120 41
127 122 36
123 117 32
130 124 36
132 126 25
139 132 45
131 125 34
126 121 32
128 122 36
129 123 39
130 124 41
128 122 34
125 120 34
127 122 32
128 122 32
128 120 41
121 114 32
137 131 41
133 127 44
133 126 44
128 123 34
119 113 28
124 117 42
123 116 41
116 112 32
123 117 41
173 194 0
174 197 0
173 195 0
174 197 0
172 195 0
173 195 0
172 195 0
176 197 0
171 193 0
171 194 0
170 193 0
171 193 0
172 195 0
172 194 0
175 197 0
174 196 0
172 195 0
172 194 0
173 195 0
170 193 0
173 195 0
170 192 0
171 194 0
171 194 0
173 195 0
174 196 0
174 196 0
171 194 0
170 193 0
171 193 0
169 192 0
175 197 0
170 192 0
173 196 0
170 192 0
172 194 0
172 193 0
171 193 0
169 192 0
173 194 0
173 195 0
170 191 0
173 195 0
170 193 0
168 190 0
170 192 0
170 192 0
169 191 0
169 191 0
173 195 0
171 193 0
167 190 0
171 193 0
169 192 0
168 190 0
171 193 0
169 191 0
168 190 0
165 188 0
169 191 0
168 188 0
165 187 0
167 188 0
166 187 0
170 192 0
166 188 0
166 187 0
168 190 0
163 184 0
168 188 0
165 186 0
165 186 0
167 188 0
158 180 0
168 188 0
160 181 0
164 185 0
169 189 0
166 186 0
161 182 0
163 184 0
160 180 0
157 178 0
166 186 0
162 183 0
163 184 0
160 180 0
162 182 0
159 179 0
157 177 0
161 183 0
161 182 0
156 177 0
156 176 0
165 184 0
150 170 0
148 168 0
152 171 0
154 175 0
156 177 0
157 176 0
159 179 0
165 183 0
155 175 0
156 176 0
158 178 0
147 167 0
152 172 0
153 171 0
145 164 0
153 173 0
150 170 0
146 165 0
157 177 0
159 178 0
155 175 0
144 163 0
154 174 0
160 180 0
159 179 0
160 181 0
162 182 0
161 180 0
151 171 0
156 176 0
155 175 0
149 169 0
144 165 0
149 169 0
147 167 0
149 169 0
149 169 0
154 174 0
143 163 0
154 174 0
142 162 0
141 161 0
140 161 0
144 163 0
144 163 0
146 166 0
138 158 0
150 170 0
149 170 0
145 166 0
144 164 0
136 156 0
136 157 0
147 168 0
136 157 0
126 146 0
132 153 0
131 152 0
143 163 0
137 157 0
127 147 0
138 157 0
135 155 0
128 147 0
132 151 0
126 148 0
123 142 0
132 151 0
132 150 0
118 136 0
122 140 0
122 141 0
117 135 0
123 141 0
112 128 0
107 125 0
109 126 0
101 118 0
113 130 0
99 114 0
98 113 0
105 121 0
97 111 0
94 110 0
90 105 0
89 104 0
82 96 0
81 93 0
81 94 0
67 78 0
67 79 0
67 79 18
45 63 25
46 63 36
43 69 44
42 68 54
41 66 51
42 68 57
45 72 72
43 69 67
41 66 54
46 73 82
43 70 57
43 70 62
43 69 54
41 66 51
45 71 65
44 71 60
45 72 70
43 69 65
40 64 60
43 69 60
41 66 47
38 61 51
35 57 47
38 61 44
50 68 44
50 65 31
60 72 25
62 72 18
61 71 0
71 79 0
76 84 0
74 83 0
62 72 0
70 78 0
87 98 0
75 85 0
81 94 0
88 98 0
95 106 0
112 123 0
96 108 0
103 115 0
106 119 0
104 117 0
100 111 0
86 97 0
112 125 0
104 115 0
103 115 0
100 112 0
110 122 0
113 127 0
95 106 0
114 125 0
112 124 0
115 128 0
110 122 0
101 112 0
116 129 0
112 124 0
108 120 0
124 136 0
118 132 0
126 141 0
124 135 0
133 145 0
112 122 0
127 138 0
122 134 0
118 130 0
120 130 0
117 126 0
114 121 0
117 128 0
120 131 0
120 130 0
112 121 0
115 126 0
125 134 0
119 128 0
119 125 0
105 110 0
117 125 0
114 122 0
106 113 0
117 121 0
113 119 0
109 113 0
103 105 0
112 112 0
107 110 0
109 112 0
112 113 0
117 119 0
104 107 0
102 103 0
116 116 0
108 107 0
103 101 0
110 107 14
80 73 0
87 78 0
74 68 0
83 75 11
97 90 0
93 84 0
89 83 0
95 87 0
78 70 8
91 85 0
100 94 0
91 85 8
97 90 0
97 91 0
94 88 8
108 100 0
101 92 0
93 86 0
103 95 0
88 79 0
104 97 0
109 103 0
103 97 0
109 102 0
111 105 0
99 93 0
109 101 0
116 109 0
110 103 0
113 107 0
117 109 0
112 104 0
114 109 11
119 112 0
115 109 0
114 108 0
115 109 11
118 113 0
117 110 11
127 120 16
121 113 11
121 112 16
128 121 11
117 111 11
114 108 16
118 110 0
126 120 22
116 111 19
123 119 25
117 111 19
113 106 16
134 127 11
127 120 19
126 119 22
125 118 19
111 106 22
125 118 22
111 106 16
127 121 22
126 118 30
125 119 32
121 116 16
131 125 30
132 125 32
125 119 28
128 120 16
126 119 34
128 123 22
124 118 30
135 129 28
134 128 28
133 126 37
126 119 22
121 115 25
127 121 28
125 117 28
134 127 36
131 125 36
123 118 34
133 125 36
131 125 30
131 125 42
139 133 42
133 125 42
132 125 41
129 123 28
124 118 36
132 126 39
128 121 32
136 129 37
128 123 39
125 118 42
123 117 32
130 123 37
126 117 37
131 124 41
132 126 28
134 128 41
134 127 34
125 119 25
132 125 37
118 112 32
134 127 42
126 120 36
124 116 34
125 120 34
133 127 44
122 116 36
125 119 37
125 117 41
111 105 32
126 119 32
125 118 34
172 196 0
174 197 0
173 196 0
174 197 0
173 196 0
174 197 0
174 197 0
172 196 0
174 197 0
172 195 0
171 193 0
171 193 0
173 195 0
170 194 0
172 195 0
173 195 0
171 194 0
172 195 0
174 196 0
172 194 0
173 195 0
173 196 0
171 194 0
173 195 0
173 196 0
168 190 0
170 194 0
171 193 0
166 188 0
167 189 0
171 194 0
171 193 0
172 194 0
168 190 0
170 192 0
171 194 0
172 194 0
171 193 0
170 192 0
170 192 0
171 193 0
173 195 0
167 190 0
168 189 0
173 194 0
170 192 0
170 192 0
172 194 0
166 188 0
171 192 0
167 188 0
168 190 0
175 197 0
167 189 0
168 191 0
170 192 0
171 193 0
162 184 0
172 194 0
173 194 0
169 190 0
169 191 0
165 186 0
167 188 0
166 188 0
168 190 0
170 191 0
169 191 0
164 186 0
169 191 0
161 183 0
160 182 0
165 186 0
163 185 0
160 181 0
169 190 0
166 188 0
161 182 0
164 185 0
166 187 0
164 185 0
163 184 0
160 181 0
166 186 0
162 183 0
165 185 0
161 182 0
158 179 0
159 179 0
164 184 0
162 182 0
155 176 0
161 182 0
160 180 0
160 179 0
161 181 0
160 180 0
162 181 0
156 176 0
164 184 0
157 177 0
154 174 0
164 184 0
152 171 0
149 169 0
157 177 0
156 176 0
151 171 0
157 177 0
156 175 0
143 163 0
155 174 0
152 171 0
161 181 0
146 165 0
154 174 0
149 168 0
160 180 0
153 173 0
148 168 0
148 167 0
156 175 0
149 168 0
155 175 0
148 167 0
145 164 0
155 174 0
153 173 0
145 165 0
143 163 0
146 167 0
159 179 0
154 174 0
147 167 0
145 165 0
145 166 0
147 167 0
147 168 0
148 168 0
147 167 0
143 162 0
135 156 0
141 161 0
139 160 0
145 166 0
138 158 0
135 155 0
141 161 0
133 154 0
148 169 0
130 149 0
143 163 0
140 159 0
138 158 0
128 148 0
140 160 0
139 160 0
128 147 0
127 147 0
118 137 0
118 138 0
124 143 0
120 138 0
134 153 0
127 146 0
116 134 0
127 145 0
108 126 0
119 137 0
110 128 0
117 136 0
109 127 0
114 130 0
112 129 0
103 120 0
102 117 0
80 97 0
90 106 0
102 118 0
98 113 0
95 108 0
91 105 0
83 96 0
76 90 0
94 106 0
83 95 0
76 88 0
65 74 0
55 64 0
67 79 18
57 71 25
47 62 25
50 68 18
60 79 57
38 57 40
34 55 40
40 64 40
42 66 60
38 62 36
39 63 51
41 67 60
43 68 60
39 63 62
42 66 62
42 60 36
47 64 40
41 59 44
43 58 40
58 69 25
50 59 0
67 75 0
73 81 0
55 63 0
75 84 0
76 83 0
74 85 0
75 86 0
58 67 0
92 101 0
86 97 0
75 86 0
75 85 0
86 97 0
86 95 0
95 106 0
87 99 0
92 101 0
100 110 0
93 105 0
105 118 0
92 104 0
92 104 0
104 115 0
105 117 0
105 117 0
105 118 0
115 129 0
120 133 0
104 116 0
104 114 0
99 109 0
121 135 0
106 119 0
116 129 0
108 121 0
113 122 0
120 133 0
117 129 0
123 136 0
122 135 0
115 128 0
126 141 0
120 130 0
119 132 0
128 141 0
112 123 0
118 128 0
126 138 0
122 130 0
104 112 0
124 134 0
124 135 0
109 118 0
114 123 0
117 126 0
117 127 0
119 126 0
118 124 0
119 127 0
113 118 0
108 112 0
119 123 0
119 126 0
112 117 0
111 118 0
116 121 0
117 118 0
108 111 0
111 115 0
99 100 0
105 108 0
103 105 0
97 96 0
107 109 0
101 98 0
111 111 0
107 105 0
101 101 0
94 91 11
72 67 0
84 75 0
76 70 0
93 84 11
82 75 0
85 77 0
91 82 8
98 91 0
99 93 0
89 82 0
100 92 0
93 86 0
103 94 0
96 88 0
97 90 0
109 102 0
103 96 0
109 101 0
106 101 0
97 92 0
104 97 0
107 98 0
110 102 0
108 99 0
103 96 0
123 114 0
102 97 0
101 95 0
114 107 0
109 103 0
113 107 0
116 107 16
127 119 0
115 109 0
116 107 11
118 112 0
121 115 11
116 106 0
113 106 11
125 120 0
123 116 0
118 112 16
114 108 16
120 113 19
125 118 16
118 109 16
128 122 22
123 116 16
120 114 16
129 122 11
121 114 16
129 122 22
120 114 19
120 115 11
128 122 19
121 113 11
122 114 28
121 116 22
127 121 19
133 126 22
124 118 37
128 121 19
126 119 32
121 115 28
126 120 30
125 118 30
129 121 34
128 120 30
127 120 39
120 115 16
121 115 28
125 119 36
125 119 19
127 121 36
125 118 34
121 116 19
127 121 30
129 123 25
131 125 28
132 126 30
123 116 28
124 116 32
127 121 30
126 121 34
124 119 34
125 119 25
133 126 37
134 127 47
129 123 32
128 122 36
125 119 34
133 126 34
117 113 32
120 114 28
130 123 32
134 128 39
127 120 37
125 119 36
123 118 30
130 124 36
135 129 39
122 118 39
124 118 39
121 115 32
131 125 42
128 123 32
128 121 44
124 117 41
123 118 36
121 115 41
119 113 34
174 197 0
174 197 0
177 198 0
171 193 0
171 193 0
175 198 0
173 196 0
172 194 0
173 196 0
175 198 0
173 195 0
174 196 0
171 195 0
171 195 0
172 195 0
171 193 0
173 196 0
172 195 0
172 195 0
173 196 0
172 193 0
169 192 0
174 196 0
172 195 0
172 194 0
169 191 0
172 195 0
172 194 0
168 190 0
173 195 0
165 188 0
174 197 0
168 190 0
170 193 0
170 192 0
175 196 0
173 195 0
170 191 0
171 192 0
169 191 0
167 189 0
170 193 0
172 194 0
169 191 0
166 188 0
166 188 0
167 189 0
170 191 0
167 190 0
172 193 0
173 194 0
171 192 0
165 187 0
168 190 0
169 191 0
173 193 0
163 184 0
169 190 0
166 187 0
167 188 0
164 185 0
171 192 0
172 193 0
164 186 0
171 191 0
160 181 0
170 191 0
159 180 0
164 186 0
170 192 0
164 186 0
165 186 0
163 184 0
162 183 0
162 183 0
162 182 0
168 189 0
161 182 0
164 185 0
160 181 0
167 187 0
160 180 0
162 183 0
159 178 0
163 185 0
160 180 0
162 183 0
158 177 0
164 185 0
162 182 0
152 173 0
160 180 0
160 180 0
164 183 0
164 184 0
154 174 0
158 177 0
158 179 0
161 180 0
163 182 0
153 173 0
153 172 0
155 175 0
147 166 0
161 181 0
159 178 0
157 177 0
153 172 0
154 173 0
158 177 0
162 180 0
156 176 0
157 176 0
159 178 0
153 172 0
155 173 0
151 171 0
147 167 0
153 173 0
161 181 0
151 171 0
159 178 0
159 178 0
156 177 0
154 174 0
150 169 0
157 177 0
145 166 0
148 168 0
136 157 0
154 175 0
151 171 0
146 165 0
136 158 0
150 171 0
145 166 0
143 163 0
131 152 0
142 163 0
134 152 0
143 163 0
145 165 0
138 158 0
145 165 0
143 163 0
150 171 0
140 161 0
143 164 0
134 155 0
138 157 0
141 160 0
139 159 0
137 158 0
134 154 0
140 160 0
130 149 0
129 149 0
127 147 0
123 142 0
133 152 0
134 153 0
130 149 0
128 147 0
128 147 0
125 144 0
130 148 0
122 141 0
112 129 0
105 123 0
106 123 0
104 122 0
107 125 0
109 126 0
100 117 0
108 125 0
96 112 0
103 119 0
104 120 0
84 100 0
97 112 0
87 102 0
84 98 0
93 108 0
97 111 0
80 92 0
65 78 0
64 77 0
63 74 0
75 87 0
74 86 0
75 86 0
59 70 0
58 70 0
73 83 0
50 60 0
54 65 0
64 73 0
64 73 0
55 64 0
54 63 25
45 54 0
53 63 18
53 62 0
41 50 0
56 63 0
55 65 0
55 64 0
51 60 0
56 66 0
59 69 0
72 80 0
62 72 0
75 83 0
81 92 0
68 78 0
63 73 0
83 92 0
68 80 0
73 85 0
87 99 0
81 91 0
75 87 0
76 89 0
106 117 0
96 109 0
89 101 0
87 100 0
101 112 0
103 116 0
95 106 0
101 114 0
92 105 0
100 114 0
112 126 0
96 108 0
108 121 0
108 121 0
108 122 0
115 130 0
112 124 0
106 118 0
121 134 0
118 133 0
107 120 0
116 129 0
104 118 0
109 122 0
114 126 0
124 137 0
121 136 0
117 130 0
117 131 0
118 129 0
123 135 0
122 135 0
113 125 0
125 137 0
128 139 0
116 124 0
118 128 0
119 130 0
113 122 0
116 124 0
120 131 0
98 104 0
108 116 0
115 122 0
114 121 0
113 119 0
120 126 0
120 126 0
106 109 0
117 124 0
124 130 0
116 119 0
116 120 0
106 112 0
110 113 0
116 120 0
103 106 0
108 112 0
103 104 0
112 115 0
116 117 0
106 107 0
97 96 0
90 90 0
109 105 0
88 85 0
86 83 0
96 90 0
85 74 19
86 76 11
93 81 16
87 78 0
95 85 0
82 75 0
94 84 0
103 95 0
71 63 0
95 89 11
97 87 0
94 85 0
94 85 0
91 85 0
109 100 0
108 101 0
106 100 0
103 96 0
104 94 0
97 89 0
107 100 0
109 102 0
107 101 0
107 97 0
118 111 0
113 107 0
112 105 0
112 104 0
111 102 0
113 107 0
120 113 0
116 110 0
118 110 11
115 107 11
120 113 11
120 113 0
113 106 16
117 110 11
121 116 0
115 108 16
120 113 0
114 108 11
118 111 11
122 116 16
119 112 11
124 118 19
117 112 16
126 120 22
121 114 19
117 109 0
132 124 28
118 110 19
119 113 16
125 117 19
124 118 28
128 121 11
125 117 30
127 120 25
124 117 19
123 116 28
121 115 25
128 122 25
120 113 25
130 123 25
119 113 19
115 107 16
128 123 28
119 113 19
128 121 25
119 111 30
125 120 28
124 117 32
126 119 28
121 114 30
126 119 30
134 128 36
128 121 25
120 115 19
130 123 28
126 120 37
129 121 32
123 115 30
133 125 32
124 116 32
120 113 36
126 120 32
129 122 28
130 124 30
132 126 36
127 120 32
100 94 25
135 129 41
131 126 37
129 124 34
110 103 28
121 114 25
127 119 37
125 118 36
126 119 36
124 118 36
126 121 30
128 123 34
122 115 36
130 123 41
121 113 42
123 117 34
122 116 41
117 110 36
125 117 42
173 196 0
174 197 0
173 196 0
173 196 0
176 198 0
175 198 0
173 196 0
172 194 0
171 194 0
174 196 0
171 194 0
171 194 0
172 195 0
175 197 0
172 194 0
171 193 0
174 196 0
171 193 0
171 194 0
171 193 0
174 196 0
171 194 0
174 197 0
171 194 0
173 195 0
174 196 0
171 193 0
173 195 0
172 194 0
169 191 0
170 192 0
174 196 0
168 191 0
169 191 0
171 195 0
172 195 0
171 193 0
171 193 0
171 193 0
168 190 0
169 192 0
167 188 0
171 193 0
170 192 0
168 190 0
170 192 0
165 186 0
170 192 0
170 192 0
170 192 0
168 190 0
173 194 0
167 188 0
172 192 0
173 195 0
175 195 0
170 191 0
174 196 0
167 188 0
168 189 0
168 190 0
171 192 0
163 185 0
166 187 0
168 188 0
172 193 0
160 181 0
171 192 0
163 184 0
166 187 0
167 187 0
163 184 0
171 193 0
161 182 0
172 193 0
168 188 0
166 188 0
166 187 0
166 186 0
161 182 0
165 186 0
169 190 0
165 186 0
159 181 0
164 184 0
162 181 0
159 179 0
162 182 0
156 176 0
158 178 0
162 182 0
157 178 0
162 182 0
160 180 0
163 182 0
156 175 0
166 185 0
164 183 0
154 174 0
156 175 0
150 170 0
157 176 0
159 177 0
147 166 0
154 174 0
154 173 0
160 178 0
156 175 0
155 175 0
161 181 0
163 184 0
159 178 0
158 178 0
150 170 0
154 174 0
153 172 0
156 175 0
152 171 0
154 173 0
151 171 0
152 172 0
147 166 0
151 171 0
155 174 0
150 169 0
150 170 0
151 171 0
153 173 0
152 171 0
155 175 0
152 171 0
154 174 0
154 175 0
147 167 0
147 168 0
146 165 0
139 161 0
132 153 0
153 174 0
143 164 0
147 167 0
143 163 0
149 169 0
141 161 0
147 169 0
153 173 0
149 169 0
144 164 0
133 153 0
140 161 0
144 165 0
134 155 0
136 156 0
132 152 0
137 157 0
132 152 0
128 148 0
123 144 0
131 150 0
134 151 0
116 135 0
121 141 0
128 146 0
123 142 0
118 138 0
119 137 0
125 144 0
105 125 0
115 133 0
112 129 0
120 138 0
106 123 0
110 126 0
107 123 0
107 124 0
105 122 0
105 122 0
97 113 0
100 116 0
94 109 0
101 116 0
102 116 0
97 112 0
84 97 0
86 100 0
80 93 0
92 104 0
86 99 0
75 88 0
74 86 0
61 72 0
81 92 0
56 68 0
56 67 0
66 77 0
63 74 0
69 78 0
46 56 0
62 74 0
62 71 0
74 84 0
48 60 0
57 68 0
58 70 0
55 65 0
71 81 0
46 53 0
57 66 0
57 67 0
61 71 0
78 90 0
78 88 0
64 75 0
59 68 0
72 82 0
75 87 0
83 92 0
85 96 0
90 102 0
89 101 0
86 96 0
91 102 0
84 96 0
80 94 0
94 103 0
91 103 0
85 97 0
90 101 0
102 116 0
94 106 0
91 101 0
96 108 0
93 107 0
101 115 0
111 124 0
98 109 0
103 115 0
114 126 0
111 126 0
111 123 0
113 126 0
115 129 0
107 119 0
118 132 0
126 139 0
110 123 0
108 121 0
123 136 0
115 127 0
110 124 0
121 135 0
115 125 0
122 135 0
106 117 0
119 131 0
120 132 0
116 126 0
111 124 0
125 135 0
111 122 0
110 122 0
122 133 0
126 138 0
127 137 0
116 125 0
126 135 0
126 135 0
125 132 0
108 113 0
111 121 0
113 120 0
118 126 0
107 113 0
99 104 0
106 112 0
114 119 0
101 103 0
111 115 0
104 105 0
108 112 0
106 109 0
114 117 0
104 108 0
101 102 0
95 95 0
106 109 0
89 87 0
99 97 0
99 97 0
88 84 0
92 88 0
99 97 0
91 85 11
80 73 11
82 72 0
69 61 0
77 69 0
81 75 0
91 83 0
99 90 11
96 87 0
81 72 0
92 85 0
94 85 0
91 84 0
98 90 0
94 86 0
102 94 0
98 91 0
98 90 0
97 90 0
102 96 0
105 95 0
97 90 0
108 101 0
97 90 0
103 96 0
108 102 0
108 100 0
105 99 0
112 104 0
114 108 0
110 104 0
105 98 0
111 103 0
108 100 0
123 116 0
108 101 11
115 108 0
112 105 0
124 118 22
110 104 11
110 104 0
118 110 0
117 112 11
109 103 0
116 110 11
127 121 11
117 111 11
124 119 19
121 115 16
119 114 16
119 112 11
120 114 11
125 119 19
115 108 19
119 111 19
121 115 19
125 119 30
126 119 22
112 105 19
118 111 28
125 118 19
124 118 19
122 114 30
116 111 16
119 112 22
122 115 25
131 123 22
116 111 16
128 121 22
124 116 34
124 116 30
128 118 25
127 122 25
120 114 22
126 120 30
120 114 25
126 121 36
117 110 28
122 115 25
120 114 30
129 122 36
126 119 28
116 110 16
128 122 37
127 120 30
131 122 34
121 115 34
131 124 34
127 119 36
129 124 36
111 106 37
106 101 30
134 127 41
133 126 39
128 121 36
122 116 28
130 124 42
124 117 44
121 114 34
125 117 42
129 120 39
126 119 39
126 119 32
124 118 36
113 106 36
124 117 37
133 127 52
122 116 42
174 197 0
173 196 0
173 195 0
173 196 0
174 198 0
175 197 0
174 197 0
171 194 0
174 196 0
172 196 0
172 195 0
176 198 0
173 196 0
173 195 0
173 196 0
170 193 0
174 196 0
173 196 0
171 192 0
173 195 0
173 194 0
175 197 0
173 195 0
170 192 0
171 194 0
175 196 0
176 197 0
171 193 0
170 192 0
175 197 0
170 192 0
175 197 0
169 191 0
173 195 0
167 189 0
175 195 0
173 196 0
170 192 0
171 193 0
171 193 0
173 195 0
171 192 0
172 194 0
172 194 0
174 195 0
165 186 0
175 196 0
172 193 0
170 192 0
172 193 0
170 192 0
172 194 0
172 193 0
171 192 0
172 193 0
169 190 0
167 188 0
167 190 0
170 191 0
171 192 0
169 190 0
171 193 0
173 194 0
166 188 0
169 190 0
169 190 0
164 185 0
166 187 0
171 191 0
168 188 0
159 179 0
162 183 0
166 187 0
165 185 0
165 186 0
167 186 0
174 195 0
168 188 0
167 187 0
170 190 0
160 181 0
163 183 0
169 190 0
157 177 0
166 185 0
166 186 0
160 182 0
158 178 0
160 179 0
159 179 0
160 180 0
153 174 0
158 178 0
155 174 0
165 185 0
159 179 0
167 187 0
161 181 0
159 178 0
148 168 0
158 178 0
152 171 0
152 171 0
152 171 0
156 176 0
159 178 0
152 172 0
158 178 0
158 177 0
158 177 0
159 179 0
155 175 0
163 183 0
150 169 0
160 179 0
158 178 0
154 174 0
145 164 0
162 183 0
153 173 0
156 175 0
152 172 0
154 173 0
152 171 0
145 165 0
152 171 0
148 168 0
152 172 0
141 161 0
146 167 0
146 166 0
147 167 0
145 166 0
146 167 0
138 158 0
148 169 0
145 165 0
154 174 0
151 172 0
138 158 0
145 165 0
150 170 0
144 164 0
142 162 0
141 162 0
140 161 0
141 161 0
135 155 0
140 161 0
142 162 0
135 156 0
134 154 0
138 159 0
132 152 0
140 161 0
129 149 0
143 163 0
139 158 0
134 154 0
122 141 0
136 155 0
124 144 0
123 143 0
116 135 0
126 145 0
121 140 0
126 146 0
113 131 0
116 134 0
119 136 0
111 129 0
114 131 0
111 128 0
104 121 0
101 118 0
119 136 0
108 124 0
101 117 0
110 126 0
97 112 0
95 111 0
96 112 0
95 110 0
89 102 0
88 102 0
83 96 0
87 100 0
86 99 0
72 84 0
88 101 0
83 96 0
76 89 0
65 78 0
73 83 0
75 87 0
88 98 0
63 74 0
70 81 0
77 89 0
65 74 0
73 85 0
72 82 0
70 82 0
79 91 0
66 78 0
75 86 0
70 81 0
84 95 0
51 58 0
87 100 0
65 77 0
70 81 0
66 77 0
77 90 0
81 93 0
68 79 0
83 93 0
95 107 0
77 86 0
74 86 0
89 99 0
90 102 0
96 108 0
98 109 0
82 93 0
97 108 0
80 93 0
112 126 0
111 125 0
92 106 0
105 120 0
106 118 0
104 117 0
107 120 0
101 114 0
101 113 0
107 121 0
109 122 0
116 128 0
124 137 0
111 122 0
107 121 0
112 125 0
115 127 0
113 124 0
114 129 0
118 130 0
114 125 0
116 128 0
121 133 0
120 134 0
115 128 0
125 138 0
111 121 0
120 131 0
114 127 0
112 123 0
120 131 0
116 127 0
124 135 0
112 123 0
120 129 0
113 123 0
121 130 0
113 122 0
115 121 0
119 127 0
116 125 0
112 121 0
122 131 0
109 115 0
115 121 0
108 115 0
108 113 0
110 115 0
119 124 0
105 109 0
108 112 0
114 115 0
100 102 0
108 109 0
112 113 0
106 111 0
98 100 0
110 111 0
99 98 0
93 94 0
101 101 0
102 100 0
97 96 0
97 95 0
99 97 0
102 103 0
95 91 0
78 75 0
80 73 0
83 73 0
87 78 0
86 81 0
79 71 0
90 80 8
86 76 0
84 77 0
86 77 0
94 85 0
97 89 0
103 93 0
92 85 0
102 95 0
100 90 0
109 99 0
96 89 0
100 90 0
98 90 0
101 93 0
107 99 0
111 104 0
104 96 0
111 103 0
114 106 11
101 93 0
111 104 0
113 106 0
114 107 11
120 112 11
116 109 0
113 105 19
113 105 11
115 109 0
110 103 0
111 106 11
114 106 11
118 110 0
118 111 0
116 110 16
112 103 16
118 109 16
118 112 11
109 104 0
114 108 22
124 119 16
120 114 22
124 116 19
121 114 16
116 107 22
116 111 25
121 111 16
119 112 22
119 112 19
126 117 25
121 114 11
125 119 19
129 122 28
121 114 30
124 118 19
127 119 19
118 110 25
117 109 16
125 118 36
120 114 19
118 112 0
123 116 25
122 116 32
128 120 25
125 118 25
122 116 32
120 112 22
125 117 30
120 115 30
126 121 36
129 121 34
129 122 30
120 113 39
130 124 30
117 110 28
126 120 34
122 113 36
118 112 30
124 118 30
133 125 32
112 107 25
132 124 37
123 115 37
127 121 36
136 129 42
120 115 32
122 115 32
128 121 39
121 113 34
127 121 39
122 117 30
120 115 25
122 115 34
124 116 52
131 125 44
122 115 48
110 104 25
118 113 32
119 113 44
111 103 37
173 196 0
171 194 0
173 196 0
173 195 0
174 196 0
174 197 0
173 195 0
172 195 0
175 197 0
172 195 0
173 194 0
170 192 0
170 192 0
173 195 0
173 196 0
173 196 0
174 196 0
172 194 0
172 195 0
171 193 0
173 195 0
173 195 0
175 198 0
173 194 0
173 196 0
175 197 0
175 197 0
171 193 0
173 196 0
174 195 0
173 195 0
173 194 0
170 192 0
170 192 0
171 192 0
173 195 0
171 193 0
171 192 0
172 194 0
173 194 0
173 194 0
169 189 0
171 192 0
172 194 0
173 196 0
171 191 0
167 189 0
172 193 0
175 196 0
169 190 0
172 193 0
170 192 0
169 190 0
174 195 0
170 190 0
170 192 0
167 189 0
168 189 0
170 191 0
170 190 0
173 192 0
170 191 0
165 187 0
165 187 0
165 186 0
167 188 0
165 186 0
161 181 0
168 188 0
168 189 0
162 183 0
171 191 0
170 191 0
169 189 0
165 185 0
164 184 0
166 187 0
161 181 0
161 182 0
165 185 0
165 185 0
162 183 0
160 179 0
156 176 0
164 184 0
160 180 0
155 174 0
162 182 0
158 177 0
166 185 0
163 183 0
162 182 0
162 183 0
167 188 0
161 181 0
155 174 0
152 172 0
164 183 0
157 176 0
161 181 0
154 174 0
161 180 0
162 181 0
157 176 0
150 170 0
158 177 0
156 175 0
149 169 0
150 169 0
154 173 0
157 177 0
148 169 0
149 169 0
160 180 0
154 174 0
155 174 0
157 176 0
140 159 0
156 175 0
155 175 0
149 170 0
143 163 0
151 170 0
150 171 0
146 166 0
156 176 0
156 176 0
145 164 0
147 167 0
147 167 0
146 165 0
141 160 0
143 163 0
152 172 0
140 159 0
154 173 0
147 167 0
147 167 0
149 170 0
155 175 0
148 169 0
139 159 0
145 165 0
138 158 0
146 166 0
144 163 0
143 165 0
140 161 0
144 165 0
136 156 0
138 158 0
139 158 0
144 164 0
133 153 0
139 159 0
125 144 0
130 150 0
129 149 0
125 146 0
127 147 0
121 141 0
128 148 0
133 152 0
122 141 0
124 142 0
126 144 0
118 136 0
115 134 0
114 132 0
116 135 0
122 139 0
119 136 0
117 134 0
110 128 0
105 122 0
105 122 0
111 129 0
104 120 0
113 130 0
98 113 0
110 126 0
93 108 0
96 113 0
96 111 0
100 115 0
91 105 0
86 100 0
94 109 0
89 102 0
72 86 0
81 95 0
76 89 0
88 99 0
76 87 0
97 109 0
73 85 0
84 97 0
66 77 0
87 98 0
84 96 0
77 88 0
54 65 0
74 85 0
73 84 0
71 82 0
68 80 0
81 94 0
83 95 0
79 92 0
72 83 0
70 83 0
74 85 0
83 95 0
82 95 0
79 90 0
91 101 0
83 96 0
81 93 0
95 107 0
86 98 0
95 107 0
106 120 0
102 113 0
89 102 0
86 101 0
96 109 0
92 105 0
101 115 0
91 105 0
101 115 0
101 114 0
114 128 0
115 129 0
107 121 0
105 119 0
105 117 0
108 122 0
105 120 0
109 121 0
107 120 0
108 122 0
113 127 0
123 136 0
115 130 0
107 121 0
116 130 0
112 124 0
130 143 0
113 125 0
119 132 0
110 122 0
112 125 0
121 132 0
116 129 0
119 131 0
120 132 0
112 123 0
113 125 0
114 123 0
108 118 0
113 123 0
124 134 0
124 133 0
128 139 0
108 118 0
114 121 0
121 128 0
127 135 0
114 122 0
115 121 0
117 127 0
106 109 0
114 117 0
119 127 0
115 120 0
107 115 0
101 106 0
111 116 0
112 114 0
108 111 0
114 121 0
115 115 0
106 107 0
109 111 0
107 109 0
99 100 0
101 101 0
94 96 0
102 103 0
93 93 0
97 96 0
86 82 0
91 92 0
90 84 0
73 70 0
87 82 0
74 67 0
71 65 0
65 59 11
79 71 0
85 75 11
82 72 0
90 77 0
81 74 0
88 82 0
84 76 0
92 82 0
86 78 0
104 96 0
91 84 0
98 88 0
92 83 0
107 97 0
93 84 11
99 91 0
96 89 0
105 97 0
106 99 11
100 93 0
96 90 0
104 98 0
102 92 0
102 96 0
102 96 0
107 100 0
104 94 11
115 106 0
118 112 0
108 100 0
117 111 0
109 101 11
108 101 0
117 109 11
119 112 16
114 107 16
115 107 11
126 117 11
110 103 16
121 115 16
116 108 16
107 100 16
118 112 25
122 115 22
118 111 16
117 109 16
113 106 19
122 116 16
119 112 11
113 107 16
124 115 19
115 109 11
119 112 32
116 108 22
127 120 25
123 117 11
133 125 39
131 124 28
126 119 22
119 113 19
124 117 19
124 117 19
118 111 22
130 122 25
118 111 22
129 122 25
131 124 30
118 111 34
107 99 16
125 116 34
127 121 30
126 118 30
114 109 19
116 110 30
129 122 34
118 112 30
115 109 28
129 123 32
121 115 28
125 118 36
115 109 30
117 110 25
124 119 32
126 119 36
122 114 28
121 114 25
121 116 19
113 107 30
122 117 32
131 122 47
124 118 41
117 111 32
111 105 34
114 108 37
118 111 37
107 100 30
119 114 34
110 103 32
114 108 19
125 119 39
115 111 34
174 197 0
173 196 0
174 196 0
175 197 0
172 195 0
176 198 0
174 197 0
175 198 0
175 197 0
176 198 0
174 196 0
172 194 0
173 196 0
169 192 0
172 194 0
175 196 0
170 193 0
169 191 0
171 194 0
170 192 0
173 195 0
172 193 0
172 195 0
172 194 0
174 196 0
174 196 0
173 194 0
170 192 0
170 191 0
172 194 0
173 195 0
173 195 0
169 190 0
174 196 0
172 193 0
174 195 0
170 191 0
168 188 0
171 193 0
174 195 0
172 193 0
174 196 0
170 192 0
168 190 0
174 196 0
173 194 0
176 197 0
167 189 0
175 196 0
168 190 0
169 191 0
171 193 0
169 190 0
172 193 0
172 193 0
172 193 0
166 188 0
168 190 0
170 191 0
168 189 0
170 191 0
171 193 0
170 190 0
165 186 0
166 187 0
171 190 0
167 188 0
167 188 0
167 188 0
170 191 0
165 186 0
172 191 0
170 189 0
168 189 0
171 191 0
165 185 0
169 189 0
162 182 0
167 188 0
166 186 0
165 185 0
166 186 0
166 186 0
165 186 0
165 184 0
165 184 0
161 181 0
164 184 0
160 180 0
157 177 0
164 184 0
158 176 0
158 178 0
164 183 0
159 178 0
158 177 0
155 174 0
162 182 0
156 176 0
158 178 0
160 179 0
158 177 0
153 172 0
153 172 0
155 175 0
154 173 0
151 171 0
154 175 0
152 171 0
149 168 0
157 176 0
158 178 0
158 178 0
142 161 0
138 156 0
152 171 0
150 170 0
160 179 0
151 170 0
158 178 0
150 170 0
143 163 0
153 173 0
158 177 0
149 169 0
146 166 0
152 173 0
145 165 0
143 163 0
148 169 0
140 160 0
143 164 0
144 165 0
146 165 0
146 166 0
148 169 0
138 158 0
155 176 0
156 176 0
148 169 0
147 167 0
139 160 0
134 154 0
148 169 0
142 163 0
147 168 0
146 167 0
137 157 0
139 159 0
139 159 0
141 161 0
127 147 0
145 166 0
127 148 0
133 153 0
127 147 0
132 152 0
135 155 0
137 157 0
129 149 0
131 150 0
137 157 0
127 146 0
122 140 0
125 144 0
130 149 0
117 136 0
123 142 0
115 133 0
121 139 0
118 135 0
123 141 0
114 132 0
108 125 0
101 118 0
110 127 0
104 121 0
103 121 0
108 125 0
96 111 0
109 127 0
97 114 0
107 122 0
100 116 0
99 116 0
88 102 0
92 107 0
86 101 0
89 104 0
96 110 0
85 100 0
77 92 0
83 94 0
79 93 0
75 87 0
88 101 0
85 98 0
87 102 0
80 93 0
82 92 0
67 78 0
75 89 0
83 96 0
75 87 0
69 83 0
86 98 0
93 105 0
77 90 0
80 92 0
81 92 0
91 104 0
96 108 0
93 107 0
79 92 0
90 104 0
75 87 0
97 111 0
94 108 0
95 106 0
94 107 0
102 116 0
100 112 0
99 115 0
90 104 0
99 113 0
89 101 0
90 104 0
105 119 0
87 101 0
100 112 0
111 125 0
113 127 0
98 109 0
114 128 0
106 121 0
110 126 0
115 129 0
110 123 0
115 129 0
120 134 0
96 109 0
111 126 0
120 136 0
104 117 0
104 116 0
112 126 0
116 130 0
125 139 0
118 133 0
116 131 0
120 135 0
113 124 0
114 125 0
121 135 0
115 128 0
121 132 0
117 131 0
119 131 0
121 135 0
113 126 0
122 131 0
116 127 0
123 133 0
118 127 0
115 125 0
126 138 0
125 133 0
124 133 0
128 139 0
121 133 0
110 118 0
111 120 0
117 123 0
112 118 0
119 128 0
118 123 0
116 122 0
102 108 0
120 125 0
112 117 0
121 125 0
114 114 0
103 106 0
115 118 0
101 104 0
113 114 0
103 104 0
101 101 0
104 106 0
95 93 0
97 95 0
89 87 0
90 86 0
107 106 0
98 94 0
100 99 0
74 70 0
83 77 0
78 72 0
74 68 0
66 55 0
66 59 0
78 69 0
73 65 0
81 72 0
91 83 0
96 85 0
87 74 0
90 83 0
91 80 0
103 95 0
101 91 0
98 91 0
103 92 0
104 98 11
96 89 0
94 86 0
101 89 0
99 92 0
94 86 0
107 98 0
112 101 0
107 100 0
95 87 0
108 100 11
102 95 0
107 99 0
114 106 0
111 104 0
112 105 16
109 103 0
106 99 0
105 97 11
106 99 0
113 106 11
110 104 11
114 109 11
106 100 16
113 105 11
112 104 11
115 107 16
115 107 0
117 110 11
113 105 19
114 106 19
116 108 16
129 120 22
117 109 19
125 116 11
121 113 25
113 104 16
107 99 16
114 108 22
122 115 16
122 115 22
116 109 16
119 110 25
122 115 11
119 112 28
126 119 30
114 107 28
121 114 25
119 112 28
124 119 30
117 110 16
119 114 19
120 114 25
124 117 30
130 122 41
112 107 22
125 119 25
127 120 32
120 114 30
120 113 28
122 117 28
104 97 19
126 119 36
119 112 28
112 105 28
124 116 34
120 113 32
122 116 32
122 116 32
126 118 36
122 117 30
119 113 32
109 103 30
115 107 34
116 110 25
108 103 30
116 110 34
123 116 36
122 115 28
123 118 37
121 115 36
117 110 36
115 108 36
115 110 34
111 106 19
127 129 28
171 194 0
171 195 0
170 194 0
174 197 0
170 194 0
172 195 0
173 196 0
174 196 0
175 197 0
172 194 0
174 196 0
171 193 0
173 194 0
173 195 0
172 195 0
170 192 0
172 194 0
175 197 0
173 195 0
175 198 0
173 195 0
175 196 0
174 195 0
176 198 0
172 194 0
171 193 0
174 196 0
170 192 0
170 193 0
172 194 0
172 195 0
170 192 0
171 193 0
167 188 0
173 194 0
173 195 0
176 197 0
170 192 0
170 191 0
173 194 0
173 193 0
168 190 0
175 196 0
173 194 0
173 193 0
172 193 0
172 193 0
169 189 0
171 191 0
169 190 0
172 194 0
171 191 0
169 190 0
169 190 0
165 187 0
172 192 0
172 192 0
171 191 0
176 197 0
170 190 0
172 192 0
165 186 0
171 192 0
171 192 0
174 194 0
170 189 0
165 185 0
169 189 0
169 190 0
173 193 0
170 189 0
171 191 0
171 190 0
168 188 0
160 180 0
172 192 0
162 182 0
163 183 0
167 187 0
157 176 0
172 192 0
165 184 0
165 185 0
173 192 0
165 185 0
163 184 0
158 177 0
167 187 0
165 184 0
160 179 0
159 179 0
160 181 0
156 176 0
160 179 0
161 180 0
161 181 0
159 179 0
156 175 0
156 175 0
152 171 0
160 178 0
155 175 0
159 177 0
154 173 0
161 179 0
156 177 0
156 176 0
158 177 0
145 165 0
158 177 0
153 172 0
151 169 0
156 175 0
154 173 0
161 181 0
153 173 0
154 175 0
152 171 0
159 179 0
150 170 0
156 177 0
152 172 0
151 171 0
148 167 0
152 173 0
148 169 0
143 163 0
143 163 0
142 162 0
152 171 0
147 166 0
148 169 0
149 170 0
154 175 0
150 170 0
139 159 0
139 159 0
140 160 0
143 163 0
137 157 0
149 169 0
150 172 0
149 169 0
150 171 0
147 168 0
137 157 0
138 159 0
144 165 0
145 166 0
138 158 0
128 149 0
134 155 0
131 151 0
140 160 0
133 153 0
135 155 0
134 154 0
137 156 0
135 155 0
129 148 0
125 145 0
129 146 0
124 144 0
115 135 0
124 143 0
120 138 0
122 140 0
121 141 0
120 139 0
116 134 0
125 143 0
114 132 0
111 129 0
115 133 0
109 126 0
105 123 0
117 134 0
107 124 0
114 132 0
114 130 0
107 124 0
118 135 0
111 126 0
105 120 0
93 109 0
109 124 0
102 119 0
87 103 0
83 99 0
98 114 0
104 119 0
94 109 0
91 105 0
89 103 0
92 106 0
91 106 0
85 98 0
76 92 0
82 95 0
79 93 0
80 94 0
90 102 0
87 99 0
89 100 0
87 102 0
96 110 0
96 111 0
82 96 0
77 89 0
92 107 0
86 100 0
80 92 0
90 101 0
90 102 0
95 107 0
85 96 0
101 115 0
98 112 0
101 114 0
84 98 0
97 109 0
102 115 0
98 113 0
94 108 0
107 119 0
110 125 0
91 105 0
100 114 0
102 113 0
103 116 0
107 119 0
111 124 0
110 124 0
109 122 0
107 120 0
119 134 0
107 121 0
117 131 0
112 124 0
116 133 0
112 126 0
115 127 0
110 124 0
131 145 0
125 139 0
113 126 0
118 133 0
127 141 0
113 127 0
122 136 0
116 129 0
124 137 0
132 144 0
117 130 0
114 126 0
121 132 0
116 129 0
121 134 0
123 133 0
115 128 0
127 139 0
124 135 0
127 137 0
121 134 0
113 122 0
124 137 0
110 118 0
113 122 0
112 121 0
120 129 0
120 126 0
120 129 0
129 137 0
129 136 0
114 117 0
121 129 0
105 110 0
114 121 0
111 117 0
117 123 0
110 116 0
111 115 0
98 101 0
121 125 0
110 111 0
108 111 0
119 119 0
109 106 0
90 91 0
99 101 0
110 111 0
99 101 0
103 101 0
101 98 0
92 91 0
94 95 0
102 100 0
91 89 0
85 83 0
89 84 0
71 67 0
86 79 0
81 73 11
79 71 0
86 76 0
86 75 0
88 77 0
87 78 0
83 74 0
91 82 0
92 81 0
87 78 0
77 68 0
99 91 0
94 84 0
82 73 0
99 90 0
104 93 0
102 93 0
106 97 0
106 97 0
105 96 0
101 94 0
92 86 11
100 90 0
110 99 0
105 97 11
109 103 0
110 103 16
105 97 11
104 97 0
105 97 11
113 105 0
110 103 0
108 99 0
107 99 11
106 97 0
111 103 11
113 106 16
111 103 0
121 112 16
109 103 11
119 112 11
109 102 11
117 108 11
105 98 0
101 95 11
109 104 11
117 110 19
124 115 11
123 115 25
119 111 19
112 107 19
114 107 11
118 110 28
125 116 25
121 113 11
115 107 19
120 111 19
125 118 28
130 122 36
112 105 22
111 104 19
120 114 28
128 122 30
125 118 22
114 107 22
116 110 22
114 106 16
123 116 32
122 114 32
127 119 39
117 109 28
105 98 22
125 119 28
120 111 30
118 111 22
116 111 28
118 111 28
116 109 19
129 121 42
120 114 36
113 106 16
107 102 22
117 109 41
117 110 22
114 108 34
114 108 32
124 117 36
116 109 28
118 113 25
123 117 37
123 116 41
123 115 36
120 114 37
111 106 39
129 128 36
142 149 28
166 182 19
167 187 0
174 197 0
175 198 0
172 196 0
173 196 0
172 195 0
172 196 0
174 197 0
171 195 0
174 197 0
175 198 0
174 196 0
176 198 0
173 196 0
172 193 0
176 198 0
176 198 0
174 196 0
176 197 0
173 196 0
173 194 0
169 191 0
176 198 0
176 197 0
177 198 0
176 197 0
172 193 0
173 194 0
169 191 0
174 196 0
173 194 0
174 196 0
171 193 0
175 196 0
173 195 0
169 191 0
173 194 0
169 190 0
172 193 0
171 194 0
173 194 0
170 192 0
165 186 0
169 190 0
173 194 0
170 190 0
168 189 0
171 191 0
170 191 0
173 194 0
173 194 0
171 192 0
168 187 0
174 195 0
170 191 0
171 192 0
172 192 0
170 190 0
167 188 0
169 189 0
170 190 0
169 189 0
167 188 0
172 192 0
169 190 0
164 184 0
159 179 0
166 186 0
171 191 0
166 186 0
166 187 0
165 185 0
170 190 0
162 182 0
164 185 0
170 191 0
163 182 0
169 188 0
167 187 0
161 182 0
164 184 0
166 185 0
164 184 0
162 182 0
161 179 0
168 188 0
168 187 0
160 180 0
164 183 0
158 177 0
162 182 0
165 185 0
160 180 0
158 179 0
161 179 0
162 182 0
154 174 0
159 178 0
152 173 0
159 177 0
147 166 0
161 181 0
150 169 0
158 178 0
154 174 0
164 184 0
153 172 0
151 170 0
164 185 0
152 171 0
160 179 0
150 170 0
160 180 0
158 176 0
154 174 0
150 170 0
155 174 0
151 171 0
152 171 0
151 171 0
151 171 0
155 175 0
152 171 0
149 169 0
147 167 0
153 173 0
151 170 0
156 176 0
145 165 0
150 171 0
145 165 0
153 175 0
146 168 0
149 170 0
151 172 0
142 162 0
148 169 0
150 171 0
137 156 0
146 166 0
146 166 0
147 169 0
138 158 0
147 169 0
144 164 0
148 168 0
141 162 0
140 160 0
141 162 0
135 155 0
138 158 0
151 172 0
132 152 0
134 155 0
136 157 0
141 160 0
134 155 0
133 153 0
125 144 0
130 149 0
128 148 0
129 148 0
137 156 0
136 155 0
129 149 0
128 147 0
117 135 0
126 146 0
112 131 0
117 136 0
134 152 0
114 133 0
124 142 0
121 139 0
117 135 0
103 120 0
127 145 0
125 142 0
109 127 0
107 126 0
110 126 0
112 128 0
111 129 0
103 120 0
93 110 0
91 107 0
102 117 0
90 106 0
109 125 0
111 127 0
104 120 0
96 111 0
103 118 0
96 112 0
88 103 0
101 118 0
88 103 0
91 106 0
97 111 0
104 118 0
101 116 0
95 110 0
81 96 0
88 102 0
91 105 0
104 120 0
100 114 0
85 97 0
88 101 0
101 116 0
79 91 0
98 113 0
85 99 0
91 106 0
93 108 0
89 104 0
108 123 0
87 102 0
99 113 0
87 101 0
101 116 0
106 119 0
103 118 0
93 106 0
95 110 0
102 116 0
102 114 0
101 115 0
104 117 0
102 117 0
97 111 0
110 123 0
117 131 0
110 124 0
112 123 0
109 124 0
116 130 0
110 123 0
100 112 0
118 130 0
113 127 0
105 119 0
118 132 0
109 123 0
131 145 0
108 121 0
126 141 0
122 134 0
122 135 0
120 133 0
131 146 0
126 140 0
122 137 0
114 128 0
115 129 0
122 137 0
116 128 0
127 139 0
119 130 0
118 130 0
122 135 0
128 141 0
125 139 0
125 135 0
123 132 0
123 132 0
120 131 0
120 130 0
132 144 0
111 119 0
127 137 0
121 131 0
116 125 0
113 118 0
108 117 0
119 124 0
120 126 0
114 121 0
111 117 0
106 112 0
121 126 0
115 119 0
118 123 0
111 117 0
100 105 0
114 119 0
96 96 0
101 105 0
120 124 0
103 103 0
102 105 0
108 108 0
105 104 0
100 103 0
106 108 0
101 101 0
104 102 0
108 106 0
99 95 0
92 85 0
95 93 0
94 91 0
81 79 0
85 77 0
88 86 0
83 77 0
78 65 0
67 59 0
79 70 0
92 82 0
90 80 0
79 69 0
95 86 0
84 75 0
86 77 0
86 77 0
92 84 0
104 95 0
89 81 0
100 89 0
103 95 0
99 91 0
103 92 0
90 81 0
103 94 0
109 99 0
105 97 11
102 94 0
111 103 16
103 96 0
108 100 11
108 98 11
107 99 0
104 97 0
103 95 16
101 91 0
109 101 0
110 103 0
105 98 16
112 105 0
100 91 11
102 94 0
110 103 11
111 103 0
120 113 16
104 98 11
111 105 16
115 108 16
122 114 19
110 101 19
111 104 19
108 100 11
104 98 19
102 94 11
114 106 28
115 107 19
121 115 16
128 120 34
124 114 32
113 107 16
112 105 11
119 110 25
119 111 28
120 111 32
123 116 22
114 108 0
114 106 19
117 110 30
119 111 16
121 113 11
109 102 16
120 114 30
128 119 36
116 109 28
113 107 25
125 118 34
120 112 32
106 99 28
118 111 30
117 109 28
106 100 16
131 124 37
131 123 30
122 114 39
114 107 22
118 112 32
111 105 34
115 109 36
114 106 34
116 111 32
116 110 32
105 99 25
111 105 34
112 104 32
118 117 25
137 144 34
160 177 11
170 189 0
167 184 0
169 191 0
167 186 0
172 196 0
173 197 0
174 197 0
176 198 0
174 197 0
172 195 0
174 197 0
173 196 0
171 194 0
173 196 0
172 195 0
176 198 0
174 195 0
174 196 0
175 197 0
175 198 0
177 198 0
176 198 0
171 193 0
173 195 0
175 196 0
174 196 0
171 193 0
174 195 0
175 196 0
175 197 0
173 194 0
172 193 0
173 194 0
175 195 0
173 195 0
176 197 0
172 194 0
175 196 0
171 193 0
172 193 0
172 193 0
176 196 0
172 194 0
174 195 0
176 196 0
169 190 0
169 189 0
170 191 0
170 191 0
173 194 0
168 189 0
171 191 0
174 195 0
173 194 0
174 193 0
170 191 0
166 187 0
171 192 0
168 189 0
173 194 0
170 190 0
168 188 0
171 190 0
170 191 0
171 191 0
172 192 0
168 189 0
169 190 0
168 188 0
169 189 0
170 190 0
170 191 0
168 188 0
167 187 0
163 185 0
166 187 0
165 186 0
172 191 0
164 184 0
163 183 0
167 187 0
162 182 0
165 185 0
161 180 0
164 185 0
171 190 0
161 181 0
159 180 0
169 189 0
158 177 0
158 177 0
161 181 0
164 183 0
162 181 0
158 177 0
158 177 0
156 175 0
159 179 0
164 183 0
160 180 0
155 174 0
155 175 0
160 179 0
159 177 0
154 173 0
155 175 0
157 176 0
159 179 0
160 179 0
150 170 0
156 175 0
158 179 0
162 181 0
147 166 0
160 180 0
150 170 0
154 175 0
148 169 0
156 176 0
148 168 0
156 176 0
155 174 0
149 168 0
142 162 0
160 180 0
153 172 0
152 172 0
149 170 0
151 171 0
149 169 0
137 158 0
146 168 0
149 168 0
156 176 0
146 166 0
146 167 0
150 170 0
152 172 0
145 165 0
144 165 0
148 169 0
141 162 0
149 170 0
149 170 0
139 160 0
139 161 0
139 160 0
133 153 0
143 164 0
141 161 0
137 158 0
144 166 0
137 158 0
137 158 0
126 145 0
137 157 0
136 155 0
136 156 0
138 158 0
144 163 0
127 148 0
137 157 0
133 152 0
141 161 0
132 152 0
126 145 0
124 143 0
127 147 0
118 137 0
116 136 0
122 140 0
131 150 0
133 153 0
123 143 0
114 133 0
125 144 0
111 130 0
116 134 0
112 132 0
113 130 0
115 133 0
109 126 0
117 135 0
117 134 0
112 129 0
117 135 0
103 120 0
102 119 0
101 117 0
104 121 0
95 112 0
92 108 0
110 126 0
102 118 0
108 123 0
100 116 0
98 113 0
103 118 0
109 124 0
87 102 0
86 101 0
97 112 0
84 98 0
109 126 0
98 112 0
87 100 0
103 118 0
98 113 0
95 110 0
101 117 0
106 121 0
82 94 0
94 109 0
106 120 0
86 100 0
100 115 0
106 121 0
98 112 0
109 123 0
100 116 0
99 114 0
106 122 0
90 105 0
95 110 0
95 109 0
103 118 0
101 114 0
110 125 0
111 124 0
103 115 0
104 117 0
112 126 0
123 137 0
102 116 0
111 126 0
103 117 0
103 118 0
106 119 0
114 129 0
115 129 0
112 126 0
107 122 0
124 137 0
102 117 0
125 141 0
111 124 0
110 125 0
122 138 0
119 134 0
114 127 0
121 136 0
119 132 0
121 136 0
117 131 0
123 136 0
117 131 0
119 131 0
129 142 0
111 125 0
116 131 0
123 136 0
118 130 0
118 131 0
129 140 0
118 130 0
113 126 0
123 134 0
122 133 0
121 133 0
118 129 0
122 131 0
130 143 0
125 135 0
112 119 0
119 127 0
119 126 0
128 140 0
122 130 0
117 122 0
110 116 0
117 126 0
113 120 0
114 122 0
123 129 0
116 123 0
109 115 0
106 109 0
113 118 0
120 125 0
109 116 0
94 96 0
113 116 0
112 115 0
108 110 0
107 107 0
114 117 0
104 106 0
96 96 0
109 109 0
95 93 0
104 105 0
93 90 0
93 93 0
84 83 0
97 97 0
93 87 0
83 80 0
93 90 0
80 73 0
88 85 0
69 63 0
79 73 0
82 73 0
76 68 0
74 65 0
71 63 0
69 61 0
72 63 0
87 76 0
83 73 0
94 83 0
79 68 0
91 79 0
97 89 0
92 85 0
81 73 0
93 85 11
91 81 0
95 87 11
101 93 0
99 90 0
101 93 0
103 94 16
104 95 0
106 97 11
115 104 11
114 106 0
106 97 0
112 105 19
100 92 0
104 95 11
107 99 11
108 99 11
97 90 11
117 108 11
100 94 0
92 84 16
102 94 11
115 107 19
109 102 11
122 115 11
113 107 16
110 104 0
114 107 11
115 107 19
108 102 11
113 105 19
111 104 28
110 103 11
114 106 16
118 110 25
108 102 0
122 113 19
115 107 16
109 101 19
107 102 19
113 106 30
115 107 32
105 97 16
110 102 16
113 104 25
121 114 22
117 110 19
126 118 22
120 113 30
105 97 28
112 104 32
106 99 19
117 112 25
113 106 34
115 108 37
105 99 25
110 102 19
117 110 30
117 109 32
102 95 28
113 107 30
125 118 34
117 108 32
111 104 22
123 116 37
113 106 36
107 100 32
114 106 32
126 124 32
150 160 28
153 168 11
167 185 0
168 187 0
169 187 0
168 188 0
167 186 0
169 189 0
167 186 0
173 197 0
174 197 0
172 196 0
174 197 0
171 195 0
174 197 0
174 197 0
174 197 0
174 196 0
173 196 0
175 198 0
176 198 0
172 195 0
175 197 0
172 194 0
174 196 0
173 195 0
172 194 0
171 193 0
177 198 0
171 192 0
171 192 0
174 195 0
173 194 0
172 193 0
170 192 0
171 193 0
176 197 0
174 196 0
173 192 0
177 197 0
175 196 0
172 192 0
173 194 0
168 188 0
176 196 0
173 193 0
171 192 0
177 197 0
174 195 0
173 193 0
170 191 0
173 195 0
171 191 0
172 192 0
174 195 0
168 188 0
171 191 0
174 194 0
173 193 0
173 194 0
174 194 0
171 191 0
174 195 0
169 189 0
174 194 0
170 190 0
173 193 0
175 195 0
171 191 0
169 189 0
165 185 0
169 189 0
166 187 0
170 189 0
170 191 0
165 185 0
166 186 0
167 187 0
167 187 0
167 186 0
167 188 0
161 181 0
163 183 0
167 187 0
174 194 0
162 181 0
161 181 0
170 190 0
167 186 0
163 181 0
167 186 0
170 189 0
160 180 0
158 177 0
161 180 0
162 182 0
156 175 0
159 178 0
162 182 0
153 172 0
159 178 0
165 185 0
160 180 0
157 176 0
161 178 0
149 169 0
155 174 0
154 174 0
154 174 0
161 180 0
160 179 0
155 175 0
154 174 0
156 176 0
154 175 0
155 175 0
153 172 0
157 177 0
158 177 0
154 174 0
154 173 0
154 173 0
159 179 0
158 177 0
156 176 0
153 174 0
155 174 0
151 171 0
156 176 0
154 174 0
144 164 0
150 171 0
145 165 0
160 180 0
152 172 0
153 174 0
151 172 0
149 169 0
153 173 0
144 164 0
149 169 0
140 161 0
145 165 0
147 168 0
142 163 0
146 167 0
152 173 0
145 166 0
142 163 0
137 157 0
145 165 0
147 167 0
144 165 0
145 165 0
140 161 0
141 161 0
139 160 0
142 164 0
146 168 0
140 161 0
133 155 0
143 164 0
138 159 0
134 154 0
125 145 0
131 152 0
135 155 0
132 152 0
128 147 0
130 150 0
123 143 0
128 147 0
124 143 0
125 145 0
132 151 0
126 146 0
127 147 0
121 141 0
124 142 0
124 144 0
126 146 0
131 149 0
111 130 0
121 139 0
115 135 0
115 134 0
115 133 0
123 141 0
115 134 0
118 135 0
107 124 0
109 126 0
99 117 0
105 122 0
109 127 0
107 125 0
111 128 0
104 120 0
112 130 0
111 128 0
102 120 0
102 118 0
92 108 0
106 122 0
109 124 0
108 124 0
101 117 0
93 107 0
104 120 0
92 106 0
96 112 0
95 110 0
101 118 0
88 103 0
95 112 0
109 125 0
108 124 0
102 117 0
97 112 0
94 109 0
107 122 0
99 116 0
88 103 0
109 125 0
106 120 0
105 121 0
95 110 0
107 122 0
109 123 0
96 111 0
107 121 0
95 108 0
103 117 0
120 135 0
101 115 0
112 126 0
93 104 0
113 128 0
112 126 0
112 127 0
103 118 0
110 126 0
107 122 0
100 111 0
105 119 0
112 127 0
113 126 0
111 125 0
120 134 0
118 133 0
117 132 0
116 130 0
121 135 0
115 129 0
122 137 0
119 131 0
123 136 0
140 156 0
122 136 0
117 132 0
133 146 0
122 136 0
119 133 0
127 139 0
129 142 0
126 140 0
124 137 0
117 128 0
125 137 0
117 131 0
130 144 0
113 123 0
118 128 0
128 140 0
112 120 0
122 133 0
115 126 0
120 133 0
112 120 0
128 138 0
114 124 0
109 117 0
113 121 0
120 131 0
115 124 0
116 126 0
121 128 0
116 125 0
122 128 0
107 113 0
121 129 0
124 131 0
114 116 0
117 124 0
106 112 0
119 126 0
116 120 0
113 116 0
121 126 0
122 126 0
111 113 0
97 99 0
113 115 0
112 114 0
117 115 0
109 108 0
112 112 0
103 105 0
87 81 0
103 102 0
90 83 0
109 105 0
90 87 0
101 97 0
97 99 0
83 78 0
82 75 0
89 85 0
81 75 0
78 72 0
64 59 0
77 70 0
63 53 0
73 64 0
87 75 0
84 72 0
85 74 0
88 75 0
88 79 0
81 70 0
84 75 0
97 87 0
92 82 0
95 87 0
85 76 0
98 85 0
98 90 0
91 82 0
103 92 0
109 100 0
113 104 0
103 93 0
106 98 11
103 93 16
106 98 0
105 96 11
108 100 16
108 98 11
109 99 19
100 93 0
116 107 16
99 91 11
102 93 0
110 103 11
100 91 19
109 101 16
109 102 16
107 99 11
112 104 16
119 109 22
108 100 0
108 99 30
110 103 0
110 101 11
111 104 11
113 106 19
118 110 0
117 111 19
117 109 19
109 102 16
107 98 16
114 106 0
110 103 22
114 106 32
110 102 22
109 103 25
117 109 25
109 101 22
112 104 22
111 105 30
121 114 19
108 102 22
111 106 30
114 106 25
119 112 34
111 102 32
113 107 32
111 104 32
110 101 28
119 113 32
103 96 30
116 109 32
102 95 34
105 99 16
117 111 28
109 104 30
136 136 32
133 144 22
165 183 11
164 182 0
162 180 0
167 186 0
170 189 0
166 184 0
164 184 0
168 186 0
171 191 0
170 190 0
165 186 0
174 197 0
173 196 0
173 196 0
175 198 0
173 196 0
176 198 0
176 198 0
173 197 0
173 196 0
174 197 0
175 198 0
172 195 0
171 194 0
174 197 0
175 197 0
175 197 0
173 195 0
172 194 0
174 196 0
173 194 0
174 195 0
172 194 0
173 194 0
176 197 0
175 196 0
172 194 0
175 196 0
173 195 0
173 195 0
173 193 0
168 190 0
174 194 0
174 195 0
174 195 0
174 194 0
175 196 0
172 192 0
173 193 0
173 194 0
173 194 0
174 194 0
170 190 0
177 197 0
175 197 0
174 194 0
170 191 0
172 193 0
177 197 0
171 192 0
170 191 0
170 191 0
168 188 0
172 192 0
172 193 0
172 192 0
176 196 0
171 191 0
170 190 0
169 190 0
166 186 0
166 186 0
163 184 0
172 192 0
169 189 0
168 188 0
165 186 0
167 187 0
164 185 0
165 186 0
169 188 0
167 188 0
168 187 0
166 185 0
168 188 0
167 185 0
171 189 0
162 182 0
166 185 0
167 187 0
165 184 0
162 182 0
165 183 0
165 184 0
163 182 0
159 178 0
159 179 0
163 183 0
164 183 0
162 181 0
161 182 0
160 180 0
164 184 0
164 183 0
160 179 0
160 179 0
158 177 0
161 180 0
158 177 0
157 177 0
155 173 0
156 175 0
155 175 0
149 167 0
160 180 0
150 169 0
156 177 0
157 176 0
153 173 0
150 170 0
150 170 0
156 176 0
145 166 0
152 171 0
153 172 0
160 179 0
150 170 0
149 170 0
153 174 0
158 178 0
151 171 0
155 175 0
149 169 0
149 168 0
149 170 0
148 169 0
143 162 0
141 161 0
152 173 0
149 170 0
149 170 0
148 168 0
144 164 0
151 172 0
156 176 0
143 164 0
153 174 0
147 168 0
157 178 0
138 159 0
147 168 0
142 163 0
139 160 0
143 163 0
140 160 0
143 163 0
136 157 0
140 161 0
136 156 0
134 155 0
151 171 0
143 163 0
135 156 0
133 153 0
137 157 0
133 154 0
132 153 0
135 155 0
130 151 0
139 158 0
138 159 0
136 157 0
134 154 0
116 137 0
134 154 0
136 157 0
135 153 0
134 153 0
125 144 0
115 134 0
125 144 0
115 134 0
110 129 0
117 137 0
116 135 0
122 142 0
125 144 0
119 137 0
112 131 0
130 149 0
121 139 0
109 126 0
120 138 0
114 132 0
111 130 0
106 122 0
108 125 0
110 127 0
129 147 0
102 119 0
103 119 0
113 129 0
109 126 0
106 123 0
103 121 0
99 115 0
96 113 0
93 109 0
111 126 0
85 102 0
98 114 0
92 107 0
90 106 0
104 118 0
120 136 0
99 115 0
112 128 0
101 116 0
106 122 0
100 117 0
90 105 0
96 111 0
120 136 0
110 125 0
109 123 0
112 126 0
112 128 0
107 123 0
111 127 0
111 127 0
108 123 0
105 120 0
113 129 0
102 116 0
104 116 0
106 119 0
120 136 0
106 124 0
108 123 0
122 136 0
117 132 0
104 117 0
117 132 0
119 133 0
107 122 0
114 127 0
123 140 0
112 125 0
114 129 0
113 128 0
122 137 0
127 142 0
120 133 0
121 135 0
129 144 0
124 137 0
133 150 0
131 146 0
116 130 0
132 147 0
107 122 0
108 124 0
130 145 0
118 132 0
119 132 0
126 138 0
123 134 0
120 133 0
128 142 0
124 137 0
131 146 0
128 140 0
120 130 0
125 139 0
114 125 0
123 134 0
133 145 0
117 128 0
132 143 0
126 139 0
139 150 0
115 126 0
123 132 0
124 135 0
129 140 0
130 141 0
110 118 0
129 137 0
131 139 0
125 133 0
129 139 0
112 121 0
114 124 0
113 121 0
123 129 0
117 122 0
116 123 0
112 119 0
118 122 0
114 120 0
114 118 0
124 128 0
113 115 0
118 122 0
109 114 0
104 105 0
117 116 0
114 115 0
109 106 0
100 101 0
100 98 0
102 100 0
104 100 0
106 105 0
94 93 0
94 90 0
93 87 0
90 87 0
84 77 0
84 77 0
79 76 0
90 85 0
85 82 0
82 77 0
76 67 0
76 70 0
68 60 0
74 67 0
82 72 0
84 74 0
88 78 11
84 74 0
82 70 0
87 78 0
93 82 0
87 77 0
88 78 0
92 83 0
97 87 0
97 87 0
100 89 11
98 87 0
106 97 0
96 85 11
100 91 0
99 91 0
100 93 11
101 92 11
99 91 11
101 93 0
101 92 11
103 94 11
109 100 0
107 99 22
112 104 11
114 106 22
98 88 22
102 94 0
98 90 11
109 102 16
109 101 19
124 115 28
117 110 28
102 95 25
117 108 19
123 114 28
98 90 0
110 102 30
103 94 22
109 103 19
106 98 30
102 94 11
106 99 11
112 103 25
117 111 22
114 106 22
109 101 22
108 101 22
102 95 22
109 102 25
111 102 16
103 96 19
111 102 34
106 97 32
122 113 30
114 106 30
112 105 30
100 92 30
115 106 28
111 101 25
105 98 19
109 101 25
111 104 30
119 114 34
130 134 19
137 148 0
156 171 11
167 183 0
164 181 0
165 180 0
164 181 0
163 179 0
166 183 0
167 187 0
169 187 0
168 186 0
167 185 0
164 181 0
170 189 0
168 188 0
167 184 0
173 196 0
174 197 0
174 196 0
170 193 0
174 196 0
172 195 0
174 196 0
174 197 0
174 197 0
172 195 0
173 196 0
175 198 0
172 194 0
173 196 0
170 192 0
174 196 0
173 196 0
175 197 0
174 196 0
175 196 0
171 194 0
174 196 0
177 197 0
174 195 0
177 198 0
175 197 0
175 196 0
176 197 0
175 195 0
175 196 0
176 196 0
175 196 0
172 193 0
175 195 0
178 197 0
171 191 0
172 193 0
169 190 0
172 193 0
172 193 0
177 197 0
175 196 0
172 192 0
170 191 0
173 193 0
170 190 0
173 193 0
169 190 0
175 194 0
168 188 0
173 193 0
171 191 0
168 189 0
172 192 0
177 196 0
172 193 0
170 189 0
170 190 0
172 192 0
164 184 0
172 190 0
168 187 0
172 192 0
170 190 0
169 187 0
163 184 0
165 184 0
167 187 0
166 186 0
171 190 0
167 187 0
168 188 0
167 186 0
170 190 0
168 188 0
164 184 0
168 187 0
167 186 0
162 182 0
161 180 0
160 179 0
164 184 0
158 177 0
161 180 0
159 177 0
153 174 0
159 179 0
162 181 0
163 181 0
161 179 0
164 184 0
163 183 0
165 185 0
161 181 0
161 180 0
159 177 0
161 181 0
157 177 0
160 179 0
155 174 0
157 177 0
157 177 0
163 183 0
149 169 0
160 179 0
160 180 0
154 174 0
160 180 0
153 174 0
155 174 0
152 173 0
162 182 0
152 172 0
153 173 0
153 174 0
146 166 0
152 172 0
154 174 0
148 168 0
157 178 0
148 169 0
159 180 0
149 169 0
152 172 0
146 166 0
147 168 0
155 178 0
146 166 0
143 164 0
149 169 0
151 172 0
155 176 0
146 168 0
147 167 0
154 174 0
144 166 0
158 179 0
151 172 0
147 167 0
139 160 0
145 166 0
143 164 0
142 164 0
145 166 0
137 158 0
147 167 0
134 155 0
134 154 0
135 155 0
140 160 0
135 157 0
138 158 0
146 166 0
149 169 0
130 151 0
141 161 0
143 164 0
127 148 0
122 142 0
141 162 0
138 158 0
134 154 0
141 162 0
126 146 0
139 158 0
127 146 0
135 154 0
126 145 0
124 143 0
130 150 0
125 143 0
117 136 0
125 144 0
120 140 0
125 144 0
116 135 0
117 135 0
121 140 0
111 130 0
113 132 0
111 130 0
118 136 0
106 123 0
112 129 0
119 137 0
122 139 0
114 131 0
120 139 0
109 125 0
119 136 0
113 129 0
105 122 0
123 141 0
119 137 0
111 128 0
115 131 0
116 134 0
101 118 0
109 127 0
106 124 0
109 126 0
113 128 0
113 130 0
105 121 0
110 127 0
97 112 0
109 123 0
112 128 0
104 120 0
109 126 0
103 119 0
105 121 0
105 120 0
105 121 0
110 124 0
117 133 0
123 140 0
103 119 0
107 122 0
111 127 0
113 131 0
97 112 0
122 138 0
111 126 0
109 125 0
122 136 0
112 129 0
110 126 0
109 123 0
114 128 0
115 129 0
110 125 0
109 125 0
124 140 0
128 143 0
121 135 0
117 134 0
131 144 0
125 142 0
122 137 0
115 129 0
117 129 0
128 144 0
129 145 0
118 133 0
125 141 0
124 140 0
127 140 0
124 139 0
122 136 0
128 142 0
122 136 0
119 135 0
120 131 0
130 146 0
136 150 0
121 135 0
130 143 0
122 134 0
123 136 0
120 133 0
130 144 0
122 134 0
127 138 0
130 142 0
126 137 0
120 133 0
129 144 0
124 137 0
121 133 0
114 124 0
117 130 0
120 128 0
129 139 0
125 133 0
125 138 0
132 144 0
118 128 0
112 120 0
129 138 0
123 134 0
116 125 0
126 134 0
127 134 0
127 134 0
119 126 0
122 125 0
119 126 0
125 130 0
112 115 0
122 128 0
112 115 0
124 128 0
126 130 0
112 117 0
124 128 0
113 116 0
109 111 0
116 114 0
103 105 0
115 116 0
112 112 0
110 106 0
105 103 0
103 101 0
107 103 0
112 111 0
107 106 0
92 84 0
92 86 0
98 90 0
100 95 0
91 83 0
101 101 0
85 80 0
89 82 0
80 76 0
83 76 0
95 89 0
74 70 0
73 64 0
85 74 0
74 63 0
80 69 0
81 70 0
90 80 0
92 84 11
91 81 11
97 88 0
95 85 0
89 79 11
97 85 11
96 88 16
106 97 11
95 86 0
94 84 11
95 87 11
94 86 0
109 99 11
107 97 0
98 89 0
100 89 11
98 87 0
104 94 16
105 97 19
95 88 0
103 94 16
101 95 19
101 92 11
100 92 11
97 89 19
108 99 19
110 101 11
100 92 0
100 92 19
102 93 16
118 109 16
102 94 16
99 90 32
105 98 19
107 100 19
101 94 11
110 101 16
111 104 0
103 94 25
110 100 28
104 97 22
120 109 37
104 94 22
109 101 22
105 97 28
104 96 22
107 101 28
110 103 28
102 94 30
105 98 30
101 94 19
110 104 28
123 125 19
127 128 30
141 151 19
156 169 0
156 171 0
161 176 0
162 175 0
163 178 0
156 172 0
163 180 0
165 181 0
161 178 0
160 174 0
169 186 0
166 186 0
167 185 0
165 184 0
164 182 0
168 186 0
164 184 0
166 185 0
167 183 0
174 196 0
173 196 0
174 197 0
174 198 0
171 194 0
173 197 0
173 195 0
175 197 0
173 196 0
173 195 0
173 196 0
175 198 0
172 194 0
172 194 0
173 196 0
175 197 0
176 198 0
173 196 0
175 197 0
175 197 0
174 196 0
174 196 0
170 192 0
174 197 0
175 197 0
176 197 0
173 194 0
176 197 0
177 198 0
174 195 0
173 194 0
170 190 0
175 195 0
173 195 0
177 197 0
174 194 0
177 198 0
170 191 0
174 195 0
172 192 0
172 192 0
176 195 0
168 188 0
172 192 0
174 193 0
175 195 0
172 192 0
174 194 0
173 192 0
169 190 0
170 191 0
169 189 0
169 189 0
171 191 0
171 191 0
171 190 0
171 191 0
170 190 0
170 190 0
168 188 0
171 191 0
172 191 0
165 184 0
166 187 0
169 189 0
166 186 0
165 184 0
164 183 0
167 187 0
169 188 0
166 186 0
167 187 0
160 179 0
168 187 0
161 180 0
165 184 0
164 184 0
157 175 0
157 176 0
165 186 0
165 184 0
160 179 0
163 183 0
166 186 0
161 181 0
161 181 0
162 181 0
161 180 0
158 179 0
156 175 0
166 185 0
163 182 0
158 177 0
158 177 0
161 179 0
160 180 0
158 178 0
165 185 0
153 173 0
154 173 0
162 181 0
153 173 0
157 176 0
159 179 0
160 180 0
152 173 0
159 180 0
162 183 0
160 180 0
147 167 0
161 181 0
155 175 0
149 169 0
158 177 0
150 169 0
143 163 0
157 178 0
147 167 0
155 175 0
153 174 0
151 171 0
152 172 0
153 174 0
154 175 0
147 167 0
150 171 0
149 170 0
147 168 0
150 170 0
150 170 0
153 176 0
147 168 0
146 167 0
149 170 0
150 171 0
158 180 0
132 153 0
148 168 0
154 175 0
136 157 0
150 170 0
142 163 0
142 163 0
140 161 0
139 159 0
146 167 0
140 160 0
138 159 0
137 158 0
140 160 0
136 156 0
141 161 0
139 159 0
146 167 0
140 160 0
136 157 0
132 152 0
131 151 0
140 161 0
135 156 0
133 154 0
133 154 0
134 155 0
132 152 0
134 153 0
134 155 0
131 151 0
135 155 0
140 159 0
118 138 0
127 144 0
125 145 0
128 148 0
137 157 0
121 140 0
130 149 0
120 139 0
121 139 0
126 145 0
117 136 0
124 143 0
116 135 0
130 150 0
127 146 0
108 126 0
119 138 0
114 132 0
114 131 0
120 138 0
118 136 0
121 139 0
116 135 0
122 140 0
112 129 0
113 129 0
110 128 0
115 133 0
113 130 0
126 144 0
119 137 0
109 127 0
109 127 0
102 119 0
116 134 0
110 127 0
118 135 0
106 122 0
120 138 0
110 128 0
108 123 0
109 125 0
108 125 0
119 134 0
108 124 0
104 121 0
101 117 0
110 126 0
123 140 0
113 129 0
98 116 0
118 135 0
114 130 0
112 128 0
108 124 0
105 121 0
112 128 0
128 142 0
117 133 0
102 118 0
113 129 0
120 137 0
113 127 0
112 128 0
115 128 0
123 140 0
113 128 0
124 141 0
115 130 0
123 138 0
119 136 0
109 124 0
127 143 0
127 142 0
111 127 0
125 142 0
118 134 0
116 132 0
124 139 0
122 137 0
130 143 0
132 149 0
123 138 0
116 129 0
126 140 0
117 133 0
121 134 0
122 136 0
124 138 0
125 138 0
122 136 0
120 132 0
129 144 0
133 146 0
126 142 0
134 146 0
118 130 0
123 137 0
127 137 0
122 134 0
121 133 0
132 145 0
127 139 0
120 127 0
126 134 0
125 133 0
129 137 0
123 134 0
117 127 0
118 126 0
129 140 0
112 120 0
118 125 0
115 122 0
122 131 0
122 132 0
119 123 0
122 130 0
110 115 0
122 128 0
124 130 0
119 124 0
122 127 0
117 119 0
113 119 0
114 117 0
107 112 0
114 116 0
112 113 0
112 112 0
108 110 0
107 109 0
115 116 0
102 101 0
116 116 0
105 103 0
107 104 0
113 111 0
104 102 0
96 91 0
103 102 0
115 113 0
99 95 0
91 87 0
92 85 0
97 92 0
97 92 0
103 101 0
82 73 0
84 74 0
88 82 0
98 92 0
99 94 0
90 82 0
90 84 0
92 86 0
92 84 0
80 69 0
83 72 0
83 73 0
86 75 0
80 68 0
89 79 11
93 86 0
85 75 11
97 87 11
87 79 0
99 88 0
89 77 0
90 82 11
89 80 11
105 94 11
95 87 11
102 91 11
96 87 19
97 88 11
92 82 0
107 98 16
104 95 0
91 81 16
94 84 11
104 96 16
110 102 16
105 96 11
103 93 22
107 100 22
102 94 11
116 106 0
97 88 11
106 99 16
98 91 22
106 98 22
115 108 25
105 97 11
102 95 16
106 99 32
102 95 11
105 97 19
116 108 16
104 95 19
108 101 19
103 96 19
104 98 19
109 109 0
124 125 16
142 147 25
142 149 16
160 172 11
157 169 0
159 171 0
165 178 0
162 175 0
157 169 0
160 175 0
164 178 0
165 181 0
162 176 0
164 180 0
169 187 0
161 178 0
166 181 0
161 176 0
163 179 0
160 178 0
168 185 0
164 182 0
167 185 0
168 187 0
167 183 0
170 189 0
168 186 0
174 197 0
172 195 0
175 197 0
172 196 0
173 196 0
172 196 0
175 197 0
176 198 0
175 197 0
171 194 0
172 195 0
175 197 0
173 195 0
173 195 0
175 198 0
175 197 0
172 195 0
175 197 0
175 196 0
173 195 0
172 194 0
172 194 0
176 197 0
175 197 0
174 196 0
175 197 0
176 197 0
176 197 0
175 196 0
173 195 0
173 194 0
171 192 0
176 195 0
172 192 0
172 193 0
173 194 0
178 198 0
179 199 0
172 192 0
170 190 0
175 195 0
175 195 0
172 191 0
170 190 0
173 193 0
173 193 0
175 194 0
170 191 0
175 194 0
172 191 0
173 193 0
169 188 0
172 193 0
163 183 0
173 193 0
169 189 0
165 185 0
171 190 0
168 187 0
171 192 0
168 189 0
161 180 0
171 190 0
166 185 0
168 188 0
167 186 0
167 186 0
168 187 0
164 183 0
170 190 0
166 185 0
171 189 0
163 182 0
165 185 0
167 187 0
165 184 0
158 177 0
159 178 0
165 185 0
164 183 0
161 180 0
162 181 0
162 180 0
166 185 0
163 182 0
164 185 0
159 178 0
167 187 0
160 180 0
165 185 0
162 181 0
160 180 0
164 183 0
166 185 0
164 184 0
164 184 0
154 175 0
159 178 0
155 175 0
152 172 0
155 174 0
162 181 0
154 174 0
158 177 0
156 176 0
160 180 0
158 177 0
158 178 0
155 176 0
156 176 0
162 183 0
150 170 0
160 180 0
157 177 0
156 176 0
160 180 0
147 166 0
145 165 0
156 177 0
153 174 0
155 176 0
156 177 0
152 173 0
147 168 0
147 169 0
160 181 0
152 173 0
141 161 0
152 173 0
148 169 0
156 177 0
150 171 0
150 171 0
150 171 0
141 162 0
147 167 0
151 172 0
147 169 0
148 169 0
145 166 0
146 168 0
149 170 0
147 168 0
150 171 0
146 168 0
150 172 0
149 171 0
142 163 0
136 156 0
139 159 0
143 164 0
142 162 0
135 155 0
134 155 0
129 150 0
144 165 0
140 161 0
140 160 0
138 158 0
131 152 0
131 150 0
129 149 0
132 153 0
127 147 0
137 158 0
128 148 0
138 157 0
134 152 0
133 153 0
119 138 0
132 152 0
134 153 0
124 143 0
122 141 0
130 150 0
128 147 0
132 150 0
125 144 0
126 145 0
125 144 0
123 143 0
131 149 0
114 132 0
118 136 0
102 121 0
116 134 0
116 135 0
126 144 0
118 136 0
118 136 0
103 123 0
107 126 0
109 126 0
123 141 0
110 128 0
125 142 0
105 122 0
111 129 0
116 133 0
117 135 0
107 123 0
102 119 0
103 120 0
108 125 0
109 126 0
109 125 0
123 140 0
121 138 0
119 137 0
115 132 0
104 120 0
110 128 0
116 132 0
105 122 0
115 133 0
105 122 0
109 124 0
116 133 0
118 132 0
116 132 0
123 138 0
118 134 0
105 120 0
115 131 0
119 137 0
122 138 0
116 133 0
125 142 0
132 148 0
121 136 0
120 135 0
116 133 0
111 127 0
125 140 0
117 135 0
135 151 0
117 132 0
111 127 0
124 139 0
130 149 0
122 137 0
119 135 0
135 152 0
118 132 0
122 137 0
123 138 0
124 139 0
120 136 0
114 129 0
132 149 0
121 134 0
119 132 0
119 137 0
126 139 0
128 141 0
130 144 0
120 132 0
122 136 0
126 143 0
133 146 0
127 142 0
129 144 0
126 138 0
125 137 0
127 142 0
131 145 0
130 143 0
132 144 0
119 132 0
121 134 0
122 132 0
111 123 0
132 143 0
128 141 0
120 131 0
121 131 0
133 143 0
137 149 0
123 134 0
126 136 0
125 134 0
120 130 0
120 129 0
128 136 0
123 131 0
111 119 0
118 127 0
128 137 0
123 130 0
119 126 0
130 138 0
129 138 0
117 122 0
121 129 0
130 138 0
112 117 0
119 124 0
113 117 0
113 117 0
120 123 0
110 108 0
104 107 0
117 118 0
116 115 0
119 117 0
109 109 0
115 118 0
103 102 0
111 109 0
105 104 0
109 107 0
114 114 0
107 107 0
96 94 0
103 101 0
106 104 0
104 103 0
96 94 0
98 96 0
105 99 0
97 89 0
98 94 0
102 96 0
100 96 0
87 81 0
103 99 0
93 86 0
101 95 0
97 89 0
115 109 0
96 91 0
94 87 0
93 86 11
97 86 0
102 96 0
84 76 0
95 86 11
99 88 11
83 72 0
98 88 11
97 86 16
95 85 11
98 88 11
98 88 19
96 87 22
91 83 11
77 69 16
94 85 16
93 85 16
105 95 16
102 94 11
88 78 16
111 102 16
98 91 11
111 102 0
94 85 16
103 94 16
104 95 19
95 85 11
113 104 16
109 102 25
99 90 22
103 96 16
113 109 19
110 108 0
123 120 19
126 126 22
133 135 16
128 130 11
148 154 11
156 165 11
157 168 0
156 170 0
152 164 0
146 156 0
160 171 0
159 171 0
159 172 0
157 168 0
157 169 0
153 164 0
162 176 0
160 172 0
157 170 0
161 173 0
155 168 0
166 181 0
162 176 0
166 181 0
156 172 0
164 182 0
166 182 0
162 178 0
163 178 0
165 183 0
167 184 0
162 178 0
164 181 0
164 180 0
164 182 0
177 199 0
174 197 0
172 194 0
173 195 0
174 196 0
171 194 0
172 195 0
173 196 0
173 195 0
176 198 0
175 197 0
175 197 0
176 198 0
174 197 0
173 195 0
173 195 0
176 198 0
175 197 0
176 198 0
177 199 0
173 196 0
174 195 0
175 196 0
173 195 0
172 193 0
175 195 0
174 195 0
177 198 0
173 193 0
175 196 0
175 196 0
175 196 0
177 197 0
174 195 0
174 195 0
176 197 0
175 195 0
173 194 0
176 196 0
173 193 0
174 195 0
170 191 0
173 194 0
172 193 0
173 193 0
172 192 0
173 192 0
175 195 0
177 197 0
171 192 0
173 194 0
174 194 0
168 187 0
169 189 0
168 188 0
171 190 0
171 191 0
170 190 0
167 185 0
169 189 0
169 188 0
168 188 0
167 186 0
167 187 0
164 183 0
163 183 0
163 182 0
162 182 0
162 182 0
166 184 0
166 185 0
161 181 0
162 182 0
164 184 0
169 190 0
164 184 0
160 179 0
164 183 0
166 186 0
163 182 0
161 181 0
168 187 0
163 183 0
163 183 0
162 181 0
162 181 0
160 180 0
163 182 0
161 182 0
162 181 0
162 181 0
161 181 0
164 183 0
161 180 0
154 174 0
156 176 0
165 184 0
158 177 0
156 176 0
154 173 0
160 180 0
156 177 0
160 180 0
156 175 0
155 175 0
152 172 0
153 173 0
156 176 0
157 178 0
156 176 0
156 176 0
155 176 0
154 173 0
151 171 0
152 172 0
148 169 0
154 175 0
151 171 0
151 172 0
152 174 0
156 177 0
156 177 0
138 158 0
143 164 0
147 168 0
154 174 0
153 174 0
156 177 0
153 174 0
146 166 0
145 165 0
149 171 0
144 165 0
150 172 0
146 167 0
149 170 0
143 164 0
146 167 0
144 165 0
145 166 0
148 169 0
140 161 0
150 170 0
143 163 0
145 166 0
146 167 0
138 158 0
143 164 0
137 158 0
138 159 0
139 160 0
134 155 0
140 161 0
141 162 0
135 157 0
141 162 0
145 166 0
134 156 0
139 161 0
127 148 0
136 158 0
142 163 0
132 152 0
136 156 0
129 148 0
145 166 0
130 149 0
126 146 0
125 144 0
125 145 0
122 142 0
134 154 0
133 154 0
126 147 0
123 142 0
138 158 0
120 140 0
107 125 0
137 158 0
128 148 0
132 151 0
115 135 0
131 150 0
126 146 0
122 142 0
128 146 0
115 133 0
119 137 0
128 147 0
119 138 0
121 138 0
112 129 0
122 140 0
120 137 0
118 136 0
117 134 0
127 146 0
107 125 0
117 135 0
109 126 0
118 135 0
112 129 0
109 126 0
118 135 0
105 122 0
111 129 0
118 134 0
113 129 0
112 129 0
109 126 0
109 126 0
112 128 0
115 132 0
119 135 0
113 129 0
113 130 0
119 136 0
105 122 0
115 132 0
120 138 0
118 134 0
119 134 0
103 122 0
114 130 0
121 139 0
116 132 0
124 140 0
117 132 0
124 142 0
122 140 0
111 127 0
122 137 0
114 133 0
117 133 0
118 135 0
122 138 0
130 145 0
119 135 0
122 141 0
108 123 0
121 138 0
127 141 0
123 139 0
132 150 0
124 140 0
117 133 0
142 158 0
123 141 0
126 141 0
123 137 0
127 142 0
123 138 0
139 156 0
122 137 0
132 147 0
126 142 0
120 135 0
125 139 0
135 153 0
128 143 0
121 135 0
124 139 0
130 146 0
117 131 0
133 147 0
128 142 0
136 151 0
125 138 0
119 131 0
121 134 0
127 136 0
120 132 0
136 148 0
126 137 0
115 123 0
140 151 0
128 137 0
120 131 0
123 133 0
125 137 0
131 142 0
117 124 0
133 141 0
126 137 0
129 138 0
128 136 0
113 122 0
128 137 0
121 129 0
119 125 0
117 125 0
128 138 0
126 132 0
126 135 0
126 135 0
122 127 0
117 121 0
118 124 0
119 119 0
118 122 0
121 123 0
118 121 0
111 114 0
126 128 0
123 127 0
112 114 0
117 120 0
117 117 0
115 117 0
119 120 0
133 134 0
105 105 0
115 115 0
114 113 0
99 95 0
117 111 0
107 102 0
105 99 0
95 91 0
98 97 0
107 102 0
104 98 0
106 101 0
98 94 0
94 89 0
104 99 0
100 96 0
107 98 0
103 99 0
113 113 0
103 100 0
116 110 0
102 97 0
108 101 0
106 102 0
106 103 0
100 94 0
106 101 0
112 110 0
107 104 0
96 92 0
108 104 11
114 112 11
117 112 11
109 106 0
115 112 11
120 114 11
117 113 0
109 106 11
110 106 16
110 105 11
115 113 0
127 126 11
120 118 11
130 131 11
116 116 19
128 129 11
134 135 11
137 138 16
140 144 11
135 138 0
141 144 0
143 151 0
146 153 0
144 152 0
145 151 0
148 152 0
150 155 0
150 156 0
151 162 0
151 160 0
152 161 0
154 161 0
160 172 0
157 168 0
159 174 0
162 175 0
159 170 0
154 168 0
153 166 0
160 174 0
158 169 0
161 173 0
165 183 0
161 172 0
158 172 0
158 170 0
160 172 0
160 175 0
156 171 0
162 176 0
166 182 0
165 184 0
164 179 0
165 181 0
161 178 0
163 180 0
168 186 0
161 178 0
163 179 0
174 197 0
173 196 0
174 196 0
173 196 0
171 194 0
175 198 0
173 196 0
175 197 0
171 194 0
173 195 0
175 196 0
172 194 0
172 195 0
174 196 0
174 196 0
175 196 0
172 194 0
174 196 0
175 197 0
173 195 0
173 195 0
174 196 0
177 198 0
176 197 0
174 196 0
176 197 0
175 196 0
177 198 0
175 196 0
170 191 0
177 198 0
177 198 0
176 197 0
173 194 0
175 195 0
177 197 0
171 192 0
175 196 0
173 193 0
177 197 0
173 193 0
174 194 0
170 190 0
174 194 0
169 190 0
173 193 0
170 191 0
171 191 0
173 193 0
175 195 0
169 189 0
173 192 0
170 189 0
174 194 0
170 189 0
171 190 0
171 191 0
166 186 0
168 188 0
170 190 0
167 186 0
167 187 0
165 185 0
170 189 0
166 186 0
165 184 0
165 183 0
172 192 0
166 185 0
165 184 0
164 183 0
165 184 0
162 181 0
164 183 0
166 186 0
163 183 0
163 182 0
164 184 0
160 179 0
165 185 0
162 182 0
158 178 0
164 183 0
165 184 0
168 187 0
160 180 0
164 183 0
169 188 0
158 177 0
155 174 0
157 176 0
161 181 0
166 185 0
157 176 0
157 176 0
159 178 0
162 183 0
165 185 0
158 178 0
161 182 0
159 179 0
163 183 0
157 176 0
154 175 0
158 178 0
156 176 0
158 177 0
157 177 0
146 167 0
161 181 0
158 179 0
152 173 0
155 175 0
160 181 0
158 179 0
149 169 0
148 168 0
149 169 0
151 172 0
153 174 0
163 183 0
156 176 0
145 166 0
153 174 0
159 180 0
149 169 0
149 170 0
147 168 0
156 178 0
141 162 0
145 166 0
145 166 0
144 165 0
147 169 0
135 156 0
145 167 0
145 166 0
153 174 0
148 170 0
142 164 0
144 165 0
147 168 0
146 167 0
147 168 0
143 165 0
149 170 0
132 153 0
141 163 0
136 159 0
144 166 0
139 160 0
146 167 0
145 166 0
140 161 0
143 163 0
148 169 0
138 158 0
144 165 0
144 165 0
144 164 0
130 151 0
134 154 0
139 157 0
140 162 0
136 157 0
133 152 0
143 163 0
127 145 0
131 152 0
129 149 0
133 153 0
136 156 0
130 152 0
131 151 0
138 158 0
124 144 0
135 154 0
122 141 0
125 145 0
126 146 0
120 138 0
133 153 0
110 129 0
129 148 0
111 130 0
120 140 0
123 142 0
131 151 0
126 146 0
122 140 0
123 141 0
124 143 0
114 133 0
118 136 0
123 141 0
115 133 0
121 140 0
120 139 0
115 133 0
105 122 0
107 123 0
121 139 0
116 135 0
118 136 0
115 134 0
114 131 0
115 130 0
117 136 0
116 135 0
112 130 0
123 141 0
123 140 0
110 128 0
122 138 0
111 128 0
116 133 0
122 137 0
121 136 0
122 139 0
118 136 0
115 132 0
125 141 0
116 134 0
120 137 0
115 134 0
115 132 0
126 144 0
117 135 0
109 126 0
110 128 0
116 132 0
118 137 0
122 138 0
120 136 0
131 149 0
124 140 0
128 143 0
129 146 0
126 141 0
123 140 0
126 144 0
131 149 0
119 135 0
115 130 0
132 148 0
121 136 0
121 138 0
133 151 0
126 143 0
127 143 0
132 147 0
118 133 0
123 138 0
117 131 0
132 148 0
142 157 0
131 143 0
131 145 0
133 147 0
130 143 0
138 154 0
134 149 0
142 155 0
130 145 0
129 144 0
128 142 0
128 141 0
132 144 0
127 139 0
132 145 0
128 140 0
148 162 0
133 147 0
130 143 0
111 123 0
132 144 0
116 126 0
128 141 0
122 133 0
130 138 0
130 139 0
126 135 0
131 142 0
132 141 0
130 140 0
121 132 0
132 144 0
134 143 0
135 143 0
128 135 0
118 126 0
131 143 0
110 118 0
113 121 0
125 134 0
122 127 0
120 129 0
122 127 0
123 128 0
135 141 0
124 128 0
121 125 0
121 124 0
117 119 0
123 128 0
114 119 0
120 122 0
116 115 0
113 116 0
116 118 0
116 118 0
114 113 0
111 111 0
123 124 0
121 120 0
96 94 0
121 118 0
113 112 0
101 97 0
94 87 0
109 107 0
102 99 0
117 112 0
106 101 0
96 92 0
110 106 0
105 99 0
106 101 0
114 111 0
111 107 0
99 93 0
99 92 0
112 107 0
105 101 0
108 106 0
117 115 0
112 108 0
118 119 0
124 121 0
109 106 0
116 110 0
119 115 0
122 117 0
129 129 0
123 122 0
135 137 0
124 124 0
138 137 0
125 126 0
126 124 0
133 131 0
132 131 0
138 137 0
138 139 0
137 137 0
131 133 0
146 149 0
141 145 0
147 151 0
143 149 0
136 136 0
142 147 0
144 147 0
149 155 0
150 153 0
148 154 0
151 157 0
146 151 0
146 153 0
148 156 0
158 169 0
152 161 0
152 160 0
147 156 0
155 163 0
159 171 0
157 167 0
163 175 0
157 169 0
154 166 0
153 162 0
155 167 0
158 169 0
156 169 0
161 174 0
163 179 0
156 169 0
163 178 0
163 177 0
163 177 0
158 173 0
162 177 0
161 177 0
162 178 0
159 172 0
158 170 0
165 180 0
165 182 0
165 182 0
163 180 0
173 196 0
175 196 0
174 197 0
174 197 0
175 197 0
173 195 0
174 196 0
174 197 0
173 196 0
176 198 0
176 198 0
174 195 0
176 198 0
174 196 0
176 197 0
173 195 0
172 194 0
174 197 0
174 195 0
175 197 0
177 198 0
175 197 0
172 193 0
176 197 0
177 198 0
176 197 0
178 198 0
176 196 0
176 197 0
173 194 0
174 195 0
174 195 0
179 199 0
169 189 0
175 194 0
177 197 0
177 197 0
174 194 0
174 194 0
173 193 0
171 192 0
171 192 0
170 191 0
175 194 0
173 192 0
171 191 0
175 194 0
173 193 0
173 194 0
172 192 0
172 191 0
166 187 0
170 189 0
166 186 0
165 185 0
168 188 0
170 189 0
165 185 0
170 190 0
168 188 0
168 188 0
167 186 0
168 187 0
172 190 0
168 188 0
169 189 0
167 185 0
174 194 0
169 189 0
173 192 0
169 189 0
169 189 0
160 180 0
167 186 0
161 180 0
162 182 0
165 184 0
160 180 0
166 186 0
166 185 0
165 185 0
168 188 0
166 185 0
160 179 0
162 181 0
160 180 0
166 186 0
162 181 0
167 186 0
163 183 0
166 185 0
165 184 0
159 180 0
158 178 0
157 177 0
160 179 0
160 180 0
159 179 0
159 179 0
155 175 0
159 179 0
166 186 0
161 180 0
158 179 0
160 181 0
159 179 0
163 182 0
160 181 0
150 170 0
164 184 0
155 176 0
162 182 0
158 178 0
154 174 0
145 167 0
145 166 0
157 177 0
152 173 0
145 166 0
144 164 0
158 178 0
150 171 0
151 172 0
140 162 0
149 171 0
155 177 0
155 176 0
152 174 0
141 162 0
148 169 0
153 174 0
159 181 0
151 173 0
139 160 0
151 172 0
145 167 0
153 174 0
157 180 0
143 164 0
143 165 0
140 162 0
145 167 0
145 166 0
146 167 0
137 158 0
143 165 0
148 169 0
141 162 0
141 162 0
151 173 0
143 164 0
135 155 0
137 158 0
144 166 0
140 162 0
140 160 0
132 153 0
137 158 0
137 158 0
137 157 0
138 159 0
137 156 0
133 153 0
134 155 0
133 155 0
138 159 0
127 147 0
130 151 0
134 153 0
132 152 0
147 167 0
138 159 0
127 147 0
133 153 0
131 151 0
123 143 0
126 146 0
131 151 0
130 149 0
122 140 0
138 159 0
123 141 0
126 147 0
123 143 0
122 142 0
118 136 0
124 143 0
125 145 0
117 137 0
121 142 0
127 147 0
108 126 0
122 141 0
121 140 0
121 139 0
115 134 0
119 137 0
112 129 0
117 136 0
121 140 0
128 147 0
124 142 0
117 134 0
105 122 0
119 138 0
113 130 0
135 154 0
127 145 0
120 138 0
117 135 0
113 131 0
105 122 0
117 135 0
119 138 0
120 137 0
113 132 0
122 141 0
120 137 0
115 131 0
124 143 0
113 130 0
112 130 0
112 128 0
116 133 0
136 154 0
112 129 0
119 137 0
128 148 0
120 137 0
121 138 0
119 135 0
120 138 0
122 140 0
119 139 0
118 134 0
132 148 0
128 145 0
123 141 0
130 147 0
140 158 0
126 144 0
125 142 0
127 142 0
120 137 0
125 142 0
130 146 0
117 133 0
131 148 0
133 151 0
129 144 0
121 137 0
117 133 0
139 155 0
131 147 0
129 145 0
127 143 0
131 147 0
140 157 0
125 139 0
133 149 0
140 154 0
125 140 0
122 135 0
132 148 0
122 138 0
136 153 0
133 146 0
131 145 0
129 141 0
120 131 0
131 146 0
135 149 0
130 142 0
129 141 0
129 141 0
136 151 0
141 154 0
125 135 0
138 150 0
134 146 0
143 154 0
136 148 0
130 142 0
122 133 0
126 137 0
127 135 0
129 137 0
118 129 0
131 140 0
124 130 0
130 140 0
121 129 0
128 136 0
127 136 0
129 137 0
127 132 0
130 137 0
119 125 0
121 126 0
120 126 0
116 122 0
122 130 0
130 133 0
122 124 0
128 133 0
117 118 0
128 131 0
110 111 0
128 128 0
133 137 0
111 113 0
127 128 0
118 117 0
107 107 0
117 114 0
118 120 0
120 121 0
118 119 0
116 116 0
120 120 0
117 115 0
104 99 0
117 115 0
105 102 0
108 108 0
117 116 0
117 116 0
115 110 0
116 111 0
115 111 0
120 116 0
114 112 0
118 114 0
100 93 0
111 106 0
113 106 0
110 106 0
122 118 0
117 114 0
114 113 0
123 122 0
122 117 0
126 125 0
121 119 0
126 123 0
114 111 0
123 121 0
135 134 0
126 125 0
129 127 0
129 130 0
135 133 0
133 132 0
132 131 0
150 155 0
136 139 0
137 141 0
137 139 0
145 151 0
144 147 0
145 150 0
146 150 0
143 147 0
146 150 0
146 151 0
143 147 0
145 151 0
135 140 0
151 159 0
146 153 0
151 160 0
151 158 0
151 160 0
154 162 0
151 161 0
144 156 0
149 159 0
158 169 0
158 170 0
162 175 0
159 170 0
156 165 0
150 160 0
151 162 0
161 175 0
159 172 0
160 171 0
161 172 0
156 169 0
160 171 0
157 170 0
161 172 0
157 169 0
162 177 0
162 178 0
164 180 0
163 178 0
165 181 0
160 175 0
164 181 0
175 198 0
172 196 0
172 195 0
172 195 0
170 193 0
174 196 0
177 198 0
175 197 0
174 195 0
172 194 0
173 196 0
172 195 0
175 196 0
175 197 0
175 197 0
173 195 0
171 193 0
175 196 0
176 196 0
177 198 0
174 195 0
172 193 0
176 198 0
174 195 0
176 197 0
175 195 0
175 196 0
177 197 0
175 195 0
172 193 0
173 194 0
171 192 0
175 196 0
175 196 0
175 195 0
173 194 0
177 197 0
176 196 0
174 194 0
172 192 0
174 193 0
176 196 0
173 193 0
173 192 0
170 190 0
171 191 0
174 193 0
174 194 0
174 193 0
174 193 0
170 190 0
174 194 0
170 190 0
170 190 0
173 192 0
170 190 0
173 193 0
166 185 0
166 186 0
169 190 0
168 187 0
167 186 0
162 182 0
168 187 0
168 188 0
168 187 0
166 186 0
165 185 0
164 183 0
160 180 0
161 181 0
166 185 0
166 186 0
167 186 0
164 184 0
162 182 0
168 187 0
164 184 0
167 187 0
166 186 0
165 185 0
164 184 0
158 177 0
161 181 0
168 187 0
156 176 0
167 186 0
165 184 0
154 173 0
157 177 0
163 183 0
158 177 0
162 183 0
161 181 0
158 177 0
158 178 0
161 182 0
158 178 0
163 182 0
165 186 0
164 184 0
162 182 0
158 178 0
157 177 0
153 173 0
151 172 0
162 182 0
151 171 0
155 176 0
151 171 0
160 180 0
152 172 0
145 167 0
153 173 0
151 172 0
155 176 0
149 170 0
147 168 0
153 175 0
149 170 0
152 174 0
154 175 0
151 173 0
151 173 0
154 174 0
152 173 0
153 174 0
150 172 0
148 170 0
143 165 0
149 171 0
149 170 0
153 174 0
153 173 0
152 173 0
146 167 0
148 170 0
145 165 0
139 160 0
144 165 0
147 169 0
142 163 0
144 165 0
141 164 0
139 160 0
143 163 0
138 159 0
143 163 0
145 166 0
150 171 0
144 164 0
140 162 0
144 165 0
130 151 0
151 172 0
137 157 0
140 161 0
147 168 0
142 163 0
147 168 0
143 163 0
131 152 0
138 158 0
137 158 0
135 156 0
143 163 0
132 153 0
138 158 0
137 159 0
125 145 0
126 145 0
135 155 0
138 159 0
132 152 0
128 148 0
124 144 0
131 150 0
126 145 0
134 155 0
125 144 0
127 146 0
130 151 0
126 146 0
133 152 0
125 143 0
126 146 0
118 137 0
115 134 0
126 145 0
126 146 0
123 141 0
129 147 0
129 147 0
135 156 0
123 141 0
119 139 0
112 131 0
117 135 0
123 140 0
113 132 0
132 152 0
128 146 0
125 143 0
125 143 0
115 134 0
112 131 0
121 140 0
111 129 0
125 142 0
121 139 0
120 139 0
113 130 0
116 135 0
128 147 0
123 141 0
116 133 0
125 142 0
117 133 0
121 137 0
119 139 0
127 143 0
121 138 0
129 146 0
123 140 0
119 137 0
126 144 0
120 138 0
124 141 0
135 152 0
123 140 0
129 146 0
126 143 0
117 134 0
127 142 0
130 148 0
131 148 0
133 151 0
128 146 0
123 139 0
133 151 0
128 145 0
129 148 0
126 143 0
123 139 0
125 139 0
123 141 0
141 158 0
138 155 0
130 146 0
125 140 0
131 147 0
118 134 0
133 149 0
127 143 0
121 137 0
129 144 0
129 144 0
139 156 0
145 160 0
124 140 0
126 141 0
133 149 0
139 153 0
132 146 0
129 143 0
131 143 0
137 152 0
128 143 0
137 148 0
139 153 0
131 144 0
120 135 0
123 136 0
130 143 0
134 148 0
130 142 0
127 140 0
133 144 0
136 148 0
128 140 0
129 143 0
125 138 0
133 144 0
114 122 0
126 135 0
125 135 0
133 143 0
128 138 0
124 133 0
123 131 0
132 143 0
123 129 0
131 139 0
121 125 0
131 142 0
107 113 0
118 124 0
124 129 0
121 126 0
124 134 0
129 135 0
125 132 0
118 123 0
128 132 0
116 119 0
133 139 0
117 122 0
123 126 0
119 119 0
126 128 0
123 128 0
126 129 0
119 119 0
126 124 0
124 126 0
119 115 0
120 121 0
111 110 0
105 103 0
124 123 0
118 114 0
115 115 0
117 115 0
125 122 0
126 131 0
114 112 0
111 109 0
117 116 0
114 111 0
119 117 0
110 107 0
110 103 0
115 111 0
116 111 0
116 112 0
123 120 0
109 104 0
118 115 0
119 117 0
112 111 0
124 122 0
118 120 0
131 128 0
119 117 0
117 113 0
127 124 0
132 131 0
133 135 0
128 128 0
131 130 0
123 121 0
138 140 0
135 134 0
140 143 0
129 128 0
140 141 0
136 138 0
135 136 0
141 144 0
136 139 0
146 153 0
142 146 0
139 142 0
137 139 0
147 154 0
143 150 0
142 147 0
143 150 0
147 152 0
156 165 0
150 158 0
152 158 0
140 145 0
153 162 0
146 153 0
156 164 0
154 162 0
152 161 0
154 163 0
160 169 0
151 160 0
154 163 0
151 159 0
156 166 0
158 171 0
161 173 0
155 168 0
155 165 0
162 176 0
161 174 0
160 174 0
161 174 0
159 175 0
157 170 0
165 178 0
164 179 0
158 174 0
165 182 0
160 173 0
167 183 0
175 197 0
173 195 0
176 198 0
173 196 0
174 196 0
176 198 0
173 196 0
173 195 0
175 197 0
174 195 0
176 198 0
175 197 0
171 192 0
177 198 0
172 195 0
172 193 0
173 194 0
174 195 0
174 195 0
174 195 0
174 195 0
175 197 0
175 196 0
174 195 0
174 195 0
173 194 0
172 193 0
173 194 0
178 198 0
176 197 0
175 196 0
175 195 0
176 196 0
173 194 0
170 192 0
175 195 0
173 193 0
177 198 0
172 192 0
170 190 0
170 190 0
176 196 0
171 191 0
171 191 0
174 194 0
171 191 0
171 190 0
174 194 0
172 191 0
170 189 0
172 192 0
169 189 0
173 193 0
167 187 0
170 190 0
169 189 0
166 186 0
171 190 0
169 189 0
170 189 0
165 185 0
166 185 0
171 191 0
166 185 0
168 188 0
170 190 0
163 183 0
166 186 0
166 186 0
165 184 0
166 185 0
163 183 0
166 185 0
166 186 0
167 187 0
172 191 0
164 183 0
162 182 0
161 181 0
159 178 0
161 181 0
161 180 0
159 179 0
167 187 0
161 182 0
161 181 0
165 186 0
161 181 0
163 184 0
161 181 0
161 181 0
162 181 0
160 180 0
159 180 0
164 184 0
158 178 0
157 178 0
157 176 0
161 181 0
162 183 0
156 177 0
152 171 0
161 181 0
159 178 0
151 171 0
162 183 0
156 176 0
155 175 0
159 179 0
153 173 0
155 176 0
158 180 0
149 171 0
149 171 0
151 172 0
143 163 0
155 176 0
142 163 0
147 168 0
161 182 0
140 161 0
153 174 0
154 175 0
157 178 0
155 176 0
152 175 0
149 171 0
150 172 0
150 172 0
154 176 0
149 169 0
153 175 0
151 172 0
152 174 0
145 166 0
154 176 0
149 169 0
150 172 0
143 163 0
141 162 0
149 170 0
145 166 0
142 164 0
139 161 0
145 167 0
147 168 0
139 160 0
144 166 0
143 165 0
149 171 0
146 168 0
147 169 0
144 166 0
146 167 0
144 165 0
147 168 0
136 157 0
129 149 0
137 158 0
143 164 0
141 162 0
138 159 0
143 164 0
134 154 0
135 156 0
134 154 0
140 160 0
134 155 0
133 152 0
144 165 0
136 156 0
138 159 0
136 157 0
137 157 0
134 154 0
130 149 0
132 153 0
125 146 0
129 149 0
133 154 0
128 147 0
131 149 0
134 152 0
134 152 0
123 141 0
129 150 0
129 149 0
132 151 0
131 151 0
126 145 0
133 151 0
127 146 0
113 133 0
132 152 0
136 155 0
128 146 0
131 150 0
119 138 0
123 141 0
129 148 0
121 139 0
125 145 0
143 163 0
117 135 0
127 147 0
132 152 0
122 140 0
116 133 0
116 134 0
126 144 0
125 143 0
121 140 0
115 133 0
126 146 0
121 138 0
125 142 0
113 130 0
133 150 0
123 140 0
119 136 0
140 158 0
115 131 0
124 141 0
121 139 0
133 151 0
129 147 0
107 124 0
123 139 0
124 141 0
117 134 0
117 133 0
132 151 0
124 142 0
118 137 0
130 147 0
124 143 0
126 144 0
134 152 0
125 142 0
119 134 0
128 146 0
127 146 0
115 132 0
135 152 0
130 146 0
133 150 0
122 140 0
126 144 0
125 142 0
139 156 0
138 154 0
142 160 0
129 146 0
132 149 0
129 147 0
132 150 0
147 162 0
130 148 0
133 149 0
133 149 0
132 149 0
142 156 0
133 148 0
135 151 0
128 142 0
127 142 0
126 142 0
134 148 0
134 149 0
129 143 0
132 146 0
140 155 0
141 155 0
131 146 0
127 143 0
121 133 0
134 146 0
126 136 0
128 140 0
128 138 0
133 147 0
134 145 0
127 139 0
123 132 0
119 129 0
135 147 0
125 134 0
127 135 0
135 144 0
143 153 0
134 144 0
131 143 0
146 159 0
132 141 0
121 127 0
130 139 0
131 139 0
133 143 0
139 147 0
128 134 0
126 134 0
124 129 0
135 141 0
120 127 0
124 130 0
125 131 0
125 129 0
128 130 0
126 131 0
124 127 0
117 121 0
115 119 0
120 120 0
128 128 0
123 126 0
122 123 0
121 125 0
115 119 0
113 115 0
113 114 0
131 132 0
123 126 0
115 116 0
122 122 0
121 118 0
122 120 0
114 112 0
116 113 0
114 112 0
124 123 0
106 103 0
125 125 0
122 119 0
121 119 0
119 120 0
114 113 0
120 117 0
116 116 0
125 123 0
120 118 0
125 126 0
128 125 0
125 124 0
124 124 0
126 127 0
115 114 0
129 130 0
119 119 0
133 132 0
120 117 0
136 136 0
125 125 0
129 129 0
125 124 0
122 120 0
140 144 0
130 130 0
120 123 0
139 139 0
134 137 0
139 142 0
134 140 0
137 141 0
141 145 0
149 156 0
146 149 0
145 148 0
137 138 0
147 153 0
147 154 0
155 163 0
145 150 0
154 161 0
144 151 0
154 166 0
156 166 0
155 164 0
155 166 0
156 166 0
151 160 0
163 175 0
155 164 0
156 167 0
162 173 0
161 171 0
161 173 0
162 175 0
155 167 0
157 170 0
159 173 0
153 165 0
158 170 0
156 169 0
164 181 0
163 177 0
162 175 0
162 175 0
163 176 0
158 171 0
160 176 0
172 194 0
174 196 0
174 196 0
174 196 0
176 197 0
172 195 0
175 197 0
177 198 0
173 195 0
170 191 0
173 195 0
176 198 0
172 194 0
175 197 0
174 195 0
175 196 0
174 195 0
176 196 0
173 194 0
175 196 0
174 195 0
177 198 0
175 196 0
177 197 0
177 198 0
170 192 0
178 198 0
176 197 0
172 193 0
173 193 0
175 196 0
173 194 0
176 196 0
173 192 0
173 193 0
174 193 0
176 195 0
172 193 0
173 194 0
171 190 0
172 192 0
175 195 0
170 190 0
170 190 0
170 189 0
172 193 0
172 191 0
171 191 0
172 192 0
175 195 0
170 190 0
164 184 0
170 190 0
173 192 0
171 190 0
167 186 0
173 193 0
170 189 0
171 190 0
172 192 0
166 186 0
165 183 0
168 188 0
173 193 0
169 189 0
168 188 0
168 188 0
167 187 0
167 188 0
166 185 0
166 186 0
171 190 0
164 182 0
162 181 0
165 185 0
163 182 0
162 182 0
162 181 0
164 184 0
163 183 0
167 185 0
169 188 0
160 181 0
165 184 0
161 180 0
164 183 0
159 178 0
158 178 0
158 178 0
165 184 0
159 178 0
161 181 0
166 186 0
163 184 0
159 178 0
162 183 0
155 176 0
161 181 0
162 182 0
160 180 0
156 177 0
160 180 0
151 172 0
153 174 0
159 180 0
161 181 0
157 178 0
147 167 0
152 173 0
157 177 0
152 173 0
163 184 0
159 180 0
158 179 0
157 178 0
153 173 0
150 170 0
151 172 0
150 172 0
147 167 0
154 176 0
152 173 0
147 168 0
147 168 0
149 170 0
155 176 0
156 177 0
150 172 0
155 176 0
139 160 0
150 170 0
143 166 0
146 166 0
153 174 0
152 173 0
143 164 0
147 170 0
146 167 0
149 170 0
157 180 0
141 162 0
154 177 0
150 171 0
147 168 0
143 164 0
147 168 0
145 166 0
149 169 0
137 159 0
145 167 0
140 161 0
147 168 0
141 162 0
137 158 0
144 165 0
148 170 0
142 163 0
135 156 0
146 168 0
144 167 0
134 155 0
141 161 0
141 161 0
142 163 0
135 156 0
141 162 0
136 157 0
140 160 0
136 158 0
132 152 0
127 147 0
142 163 0
141 161 0
139 159 0
123 143 0
140 161 0
132 152 0
129 150 0
130 151 0
121 141 0
125 145 0
137 157 0
129 149 0
127 146 0
131 152 0
129 149 0
133 151 0
117 137 0
133 153 0
116 136 0
123 141 0
128 147 0
128 146 0
133 152 0
138 158 0
115 133 0
124 143 0
125 145 0
122 141 0
138 157 0
128 147 0
128 147 0
123 143 0
130 148 0
121 140 0
121 138 0
126 145 0
132 152 0
122 139 0
128 145 0
126 144 0
124 142 0
128 146 0
117 135 0
123 142 0
130 149 0
111 128 0
129 148 0
117 135 0
121 139 0
122 140 0
125 145 0
123 142 0
128 147 0
129 146 0
135 154 0
126 143 0
135 152 0
116 133 0
123 142 0
127 144 0
131 148 0
133 150 0
121 139 0
122 139 0
130 147 0
122 139 0
125 142 0
126 143 0
124 142 0
129 146 0
129 146 0
138 154 0
129 147 0
132 148 0
135 152 0
138 154 0
131 148 0
124 141 0
125 138 0
137 154 0
131 146 0
122 139 0
140 158 0
143 158 0
131 148 0
125 140 0
132 150 0
120 136 0
139 154 0
128 145 0
127 142 0
134 151 0
132 147 0
137 152 0
135 149 0
137 154 0
130 143 0
145 163 0
132 145 0
137 151 0
130 144 0
128 141 0
136 148 0
135 149 0
144 158 0
137 152 0
136 150 0
127 139 0
135 150 0
122 132 0
133 147 0
132 147 0
136 147 0
127 142 0
129 142 0
135 145 0
129 143 0
133 143 0
135 144 0
130 141 0
129 143 0
131 138 0
135 148 0
140 153 0
130 140 0
135 141 0
127 135 0
140 151 0
133 141 0
122 130 0
130 139 0
126 132 0
127 134 0
132 139 0
131 137 0
128 135 0
125 129 0
126 131 0
133 135 0
129 136 0
123 127 0
126 130 0
130 134 0
116 118 0
127 130 0
119 122 0
125 129 0
125 128 0
122 124 0
130 131 0
125 129 0
122 125 0
121 120 0
118 117 0
136 139 0
124 124 0
125 122 0
132 134 0
122 122 0
125 124 0
122 121 0
118 117 0
114 111 0
114 113 0
124 123 0
115 115 0
127 126 0
119 116 0
121 121 0
117 115 0
117 117 0
126 126 0
124 125 0
118 113 0
128 129 0
128 131 0
124 125 0
125 126 0
125 123 0
130 128 0
132 131 0
133 136 0
125 124 0
141 144 0
134 136 0
131 135 0
136 137 0
137 138 0
142 146 0
129 132 0
129 131 0
142 144 0
137 142 0
145 150 0
141 143 0
138 145 0
138 143 0
148 154 0
146 153 0
152 159 0
154 162 0
150 157 0
146 153 0
150 155 0
153 163 0
155 164 0
150 158 0
149 158 0
156 167 0
152 161 0
155 164 0
158 167 0
153 163 0
152 161 0
153 163 0
156 168 0
156 167 0
159 170 0
155 164 0
157 170 0
161 172 0
162 176 0
161 175 0
159 172 0
161 175 0
161 174 0
163 176 0
154 168 0
158 174 0
175 197 0
173 194 0
172 195 0
174 196 0
174 195 0
172 195 0
174 196 0
173 195 0
174 196 0
175 197 0
175 197 0
168 190 0
174 195 0
174 195 0
174 196 0
175 196 0
174 195 0
174 195 0
176 197 0
177 198 0
175 196 0
176 196 0
175 196 0
175 196 0
174 195 0
174 195 0
176 196 0
173 194 0
169 191 0
177 197 0
177 197 0
176 195 0
176 195 0
173 194 0
173 193 0
173 194 0
173 193 0
171 192 0
174 194 0
172 192 0
171 191 0
169 188 0
168 188 0
170 190 0
174 194 0
173 192 0
170 191 0
171 190 0
168 188 0
173 192 0
171 191 0
173 193 0
169 189 0
172 192 0
169 189 0
175 194 0
168 188 0
165 183 0
163 183 0
165 184 0
166 186 0
168 189 0
166 186 0
172 192 0
167 186 0
172 191 0
172 192 0
164 183 0
169 189 0
169 189 0
169 189 0
162 182 0
161 181 0
165 184 0
168 187 0
167 187 0
163 185 0
170 189 0
167 186 0
161 181 0
163 183 0
163 184 0
163 184 0
163 183 0
168 188 0
156 177 0
166 187 0
161 180 0
161 182 0
164 185 0
163 184 0
160 181 0
159 179 0
165 186 0
163 183 0
158 180 0
159 178 0
161 181 0
168 188 0
152 172 0
155 176 0
161 182 0
154 174 0
161 182 0
152 173 0
152 173 0
156 177 0
159 180 0
156 177 0
149 170 0
152 173 0
163 184 0
165 187 0
159 182 0
154 176 0
152 172 0
153 174 0
150 171 0
152 174 0
155 177 0
154 176 0
151 172 0
151 174 0
153 174 0
148 169 0
147 169 0
154 176 0
145 166 0
143 164 0
149 171 0
153 174 0
156 177 0
147 168 0
147 169 0
151 173 0
143 164 0
140 161 0
152 172 0
150 172 0
147 169 0
148 170 0
141 162 0
140 161 0
142 163 0
145 167 0
138 158 0
143 166 0
142 163 0
150 170 0
143 164 0
146 168 0
144 165 0
150 172 0
152 173 0
137 158 0
136 157 0
137 158 0
141 162 0
140 161 0
139 160 0
137 157 0
141 160 0
139 160 0
142 163 0
139 160 0
137 157 0
134 155 0
134 156 0
134 155 0
139 159 0
136 158 0
132 152 0
133 154 0
131 150 0
135 155 0
142 162 0
135 155 0
123 141 0
136 156 0
118 138 0
137 157 0
135 156 0
129 149 0
128 149 0
136 156 0
128 149 0
135 157 0
138 157 0
133 153 0
140 160 0
124 143 0
131 151 0
135 154 0
130 149 0
127 148 0
127 146 0
133 152 0
123 143 0
114 134 0
134 152 0
115 133 0
130 150 0
116 135 0
118 138 0
115 134 0
132 151 0
123 143 0
126 145 0
120 138 0
126 145 0
134 154 0
133 153 0
125 144 0
129 146 0
131 149 0
132 151 0
110 128 0
112 130 0
122 141 0
129 147 0
128 145 0
128 146 0
128 145 0
127 146 0
128 146 0
128 147 0
133 151 0
124 142 0
124 142 0
124 143 0
131 149 0
127 144 0
122 141 0
138 159 0
122 141 0
124 143 0
129 147 0
132 151 0
124 140 0
134 151 0
135 152 0
130 146 0
130 148 0
135 154 0
120 137 0
132 150 0
131 149 0
131 146 0
135 152 0
139 155 0
129 146 0
128 143 0
136 155 0
129 145 0
138 154 0
129 146 0
136 151 0
134 152 0
135 149 0
136 151 0
135 150 0
141 156 0
138 155 0
132 149 0
132 149 0
134 151 0
130 146 0
131 146 0
130 147 0
133 147 0
141 157 0
130 146 0
140 154 0
131 145 0
123 136 0
142 158 0
141 155 0
136 150 0
140 154 0
132 144 0
140 154 0
140 152 0
133 149 0
122 132 0
137 152 0
131 144 0
131 143 0
135 149 0
134 143 0
128 138 0
144 158 0
137 146 0
135 144 0
137 149 0
130 141 0
132 143 0
137 149 0
127 136 0
132 141 0
133 144 0
135 144 0
123 133 0
122 131 0
134 142 0
121 127 0
136 145 0
132 140 0
134 141 0
125 130 0
127 133 0
126 131 0
125 128 0
128 133 0
136 143 0
128 132 0
125 132 0
134 139 0
127 129 0
135 140 0
132 138 0
128 131 0
130 132 0
116 120 0
132 133 0
118 120 0
119 119 0
124 127 0
127 129 0
130 131 0
120 121 0
132 132 0
118 118 0
117 117 0
127 126 0
129 131 0
119 119 0
124 126 0
124 122 0
125 125 0
125 123 0
122 120 0
126 121 0
128 127 0
128 130 0
123 122 0
119 117 0
130 131 0
130 129 0
129 127 0
122 120 0
130 130 0
131 132 0
137 136 0
128 129 0
132 131 0
141 143 0
131 132 0
135 140 0
131 134 0
144 146 0
146 149 0
141 143 0
143 147 0
150 156 0
137 140 0
138 140 0
134 136 0
151 161 0
135 137 0
145 148 0
149 153 0
152 160 0
148 154 0
143 149 0
152 160 0
141 147 0
152 159 0
155 165 0
154 162 0
157 167 0
152 158 0
154 162 0
152 161 0
147 154 0
152 162 0
155 165 0
156 166 0
156 167 0
154 164 0
158 170 0
155 167 0
157 170 0
154 167 0
159 171 0
161 172 0
158 173 0
158 171 0
155 169 0
160 174 0
162 176 0
172 194 0
176 199 0
177 199 0
176 198 0
171 193 0
176 197 0
175 196 0
177 198 0
175 196 0
174 196 0
173 195 0
172 194 0
176 197 0
175 196 0
173 194 0
179 199 0
176 197 0
176 196 0
174 195 0
173 194 0
176 196 0
174 194 0
172 193 0
175 196 0
173 195 0
179 199 0
174 195 0
175 196 0
173 194 0
174 195 0
177 197 0
173 193 0
175 195 0
173 194 0
175 196 0
174 195 0
172 192 0
170 191 0
175 195 0
177 196 0
172 193 0
173 193 0
173 193 0
170 191 0
171 192 0
175 195 0
170 191 0
167 187 0
169 189 0
170 190 0
171 191 0
173 192 0
173 192 0
167 187 0
172 191 0
163 183 0
167 187 0
171 190 0
162 182 0
164 183 0
166 187 0
168 187 0
165 185 0
166 185 0
166 187 0
170 189 0
165 183 0
164 183 0
163 183 0
164 184 0
169 189 0
164 184 0
170 190 0
171 191 0
168 187 0
164 184 0
164 183 0
163 183 0
164 184 0
162 182 0
166 185 0
167 187 0
167 187 0
168 187 0
165 185 0
165 185 0
165 185 0
162 183 0
165 185 0
154 175 0
163 183 0
157 176 0
158 179 0
160 180 0
158 178 0
160 179 0
164 184 0
155 176 0
156 176 0
163 183 0
159 179 0
157 177 0
160 182 0
151 172 0
152 172 0
158 179 0
156 177 0
159 180 0
158 179 0
162 183 0
157 178 0
162 184 0
158 178 0
156 176 0
151 173 0
152 173 0
156 178 0
157 179 0
155 176 0
157 178 0
153 176 0
158 180 0
154 174 0
152 172 0
152 174 0
148 169 0
151 173 0
151 174 0
144 166 0
156 176 0
150 172 0
150 173 0
153 175 0
148 170 0
150 172 0
147 169 0
151 173 0
149 171 0
144 165 0
150 171 0
145 166 0
139 160 0
151 174 0
146 168 0
144 164 0
143 165 0
136 157 0
134 156 0
142 163 0
142 163 0
141 162 0
146 167 0
140 162 0
145 166 0
143 166 0
143 165 0
137 158 0
132 155 0
131 153 0
136 157 0
141 163 0
141 162 0
142 161 0
140 161 0
137 159 0
144 166 0
136 157 0
143 164 0
142 164 0
141 162 0
144 165 0
130 149 0
137 158 0
133 153 0
140 159 0
140 161 0
130 150 0
142 162 0
137 157 0
140 161 0
129 150 0
138 158 0
138 159 0
129 150 0
123 142 0
136 156 0
129 149 0
128 147 0
132 152 0
137 158 0
122 141 0
132 151 0
132 151 0
130 148 0
121 141 0
130 150 0
132 151 0
120 139 0
135 155 0
130 149 0
141 161 0
127 147 0
128 147 0
125 145 0
130 150 0
123 142 0
121 138 0
135 154 0
136 155 0
121 140 0
133 153 0
131 150 0
135 153 0
126 145 0
133 153 0
134 155 0
117 137 0
118 135 0
122 140 0
130 149 0
135 154 0
123 142 0
132 151 0
126 141 0
135 153 0
126 144 0
137 156 0
137 156 0
122 139 0
127 146 0
131 149 0
131 149 0
132 150 0
137 154 0
134 153 0
126 144 0
121 139 0
130 147 0
139 158 0
132 148 0
128 146 0
139 156 0
142 158 0
125 141 0
129 145 0
129 146 0
134 150 0
125 142 0
145 164 0
122 135 0
131 148 0
137 156 0
136 152 0
137 154 0
138 157 0
133 149 0
123 138 0
131 147 0
137 151 0
137 153 0
134 148 0
125 140 0
135 152 0
136 153 0
142 158 0
134 151 0
138 153 0
135 151 0
136 151 0
138 154 0
139 153 0
138 152 0
141 155 0
139 154 0
137 151 0
134 150 0
135 150 0
134 146 0
145 161 0
135 150 0
133 146 0
142 154 0
136 147 0
142 154 0
140 153 0
141 156 0
129 142 0
137 148 0
134 145 0
134 146 0
143 157 0
126 136 0
136 147 0
131 142 0
135 143 0
127 135 0
125 137 0
132 141 0
134 144 0
125 131 0
143 153 0
140 149 0
129 137 0
126 134 0
123 129 0
128 135 0
127 134 0
130 139 0
136 143 0
127 132 0
129 138 0
139 146 0
125 128 0
132 136 0
139 147 0
127 133 0
125 131 0
127 128 0
130 133 0
131 133 0
127 130 0
127 129 0
126 129 0
129 134 0
126 130 0
126 127 0
115 118 0
136 139 0
127 128 0
124 128 0
117 117 0
124 125 0
133 132 0
118 119 0
129 131 0
129 130 0
127 127 0
121 120 0
117 116 0
130 130 0
132 134 0
134 135 0
128 126 0
129 129 0
137 142 0
127 127 0
130 130 0
126 124 0
135 136 0
131 131 0
129 128 0
131 131 0
138 139 0
130 130 0
129 128 0
137 140 0
141 145 0
139 143 0
139 141 0
143 146 0
137 138 0
139 143 0
142 149 0
149 153 0
141 145 0
142 146 0
139 143 0
148 156 0
141 146 0
146 151 0
140 146 0
147 152 0
142 147 0
143 146 0
145 152 0
150 156 0
154 160 0
153 161 0
154 165 0
146 154 0
159 166 0
152 160 0
149 155 0
152 160 0
147 155 0
154 163 0
159 172 0
159 172 0
157 168 0
153 164 0
152 160 0
156 170 0
155 163 0
156 168 0
156 166 0
155 169 0
156 170 0
155 168 0
163 178 0
165 179 0
175 198 0
172 193 0
174 197 0
169 191 0
175 196 0
176 197 0
175 197 0
175 196 0
176 197 0
175 197 0
175 195 0
176 198 0
172 193 0
176 197 0
174 195 0
175 196 0
175 196 0
176 197 0
171 191 0
176 196 0
172 193 0
177 197 0
176 197 0
176 197 0
174 195 0
175 195 0
175 196 0
172 194 0
170 190 0
179 199 0
176 196 0
174 194 0
169 189 0
174 194 0
173 193 0
174 193 0
173 193 0
167 187 0
173 193 0
171 191 0
170 190 0
175 195 0
168 189 0
172 192 0
171 191 0
170 190 0
171 191 0
169 190 0
171 190 0
167 187 0
168 187 0
172 192 0
169 189 0
168 189 0
171 191 0
165 185 0
170 190 0
171 191 0
168 188 0
171 190 0
169 189 0
167 187 0
169 189 0
170 190 0
165 184 0
166 186 0
171 191 0
165 184 0
169 188 0
164 185 0
162 182 0
165 185 0
165 185 0
163 184 0
160 180 0
173 193 0
169 189 0
164 184 0
170 190 0
168 189 0
164 184 0
163 183 0
166 186 0
165 185 0
161 182 0
164 184 0
161 182 0
164 184 0
162 181 0
165 185 0
163 183 0
161 182 0
163 183 0
160 182 0
161 181 0
164 185 0
159 179 0
161 182 0
156 177 0
159 179 0
166 186 0
160 182 0
154 175 0
160 181 0
152 174 0
152 172 0
159 181 0
152 172 0
158 179 0
160 181 0
152 173 0
159 180 0
156 178 0
149 171 0
160 181 0
155 176 0
160 181 0
152 174 0
155 177 0
158 179 0
149 171 0
150 171 0
142 163 0
150 172 0
151 173 0
157 179 0
153 175 0
155 176 0
149 170 0
153 175 0
143 164 0
132 153 0
148 169 0
153 175 0
144 165 0
145 166 0
143 165 0
151 173 0
143 166 0
143 165 0
147 167 0
159 182 0
153 175 0
147 169 0
150 172 0
148 169 0
137 158 0
146 167 0
147 169 0
151 172 0
137 157 0
143 165 0
145 165 0
147 170 0
141 164 0
139 161 0
145 166 0
146 167 0
137 159 0
141 161 0
142 164 0
152 172 0
148 169 0
144 165 0
138 158 0
133 153 0
129 150 0
136 158 0
131 152 0
139 160 0
141 162 0
141 162 0
133 154 0
139 159 0
145 166 0
135 156 0
133 153 0
129 149 0
137 159 0
128 148 0
133 153 0
133 154 0
138 158 0
141 161 0
132 152 0
133 154 0
133 154 0
128 146 0
139 161 0
141 161 0
132 152 0
129 147 0
121 139 0
143 162 0
135 155 0
124 143 0
131 150 0
137 156 0
131 151 0
128 148 0
124 143 0
120 139 0
132 151 0
124 143 0
139 159 0
130 150 0
129 149 0
126 143 0
129 148 0
130 148 0
137 157 0
133 151 0
130 151 0
127 146 0
131 150 0
131 150 0
128 146 0
133 153 0
121 139 0
142 162 0
132 150 0
127 147 0
127 146 0
137 156 0
130 149 0
146 165 0
134 152 0
137 156 0
129 148 0
127 145 0
125 142 0
138 155 0
138 155 0
133 151 0
129 148 0
133 152 0
136 155 0
137 154 0
136 155 0
129 146 0
137 156 0
130 147 0
134 151 0
129 146 0
130 149 0
129 146 0
138 157 0
126 143 0
130 148 0
125 142 0
140 158 0
132 149 0
137 155 0
139 156 0
129 144 0
137 153 0
132 148 0
130 148 0
136 154 0
138 156 0
134 151 0
136 152 0
143 160 0
137 153 0
135 152 0
135 152 0
143 159 0
133 150 0
133 148 0
124 139 0
140 157 0
138 154 0
130 144 0
125 140 0
134 149 0
129 146 0
126 138 0
138 153 0
144 159 0
135 148 0
138 151 0
139 154 0
134 146 0
137 152 0
123 137 0
136 147 0
131 143 0
124 134 0
128 140 0
138 149 0
138 150 0
137 148 0
136 146 0
126 136 0
131 140 0
130 142 0
140 152 0
124 136 0
131 140 0
134 145 0
131 141 0
134 145 0
132 141 0
136 145 0
133 142 0
146 155 0
136 144 0
136 144 0
137 144 0
133 140 0
130 137 0
135 145 0
135 143 0
127 134 0
130 137 0
132 140 0
128 132 0
134 142 0
126 131 0
135 139 0
136 142 0
130 135 0
131 134 0
131 135 0
140 144 0
135 137 0
128 131 0
134 138 0
130 136 0
134 137 0
132 136 0
122 123 0
128 131 0
134 139 0
135 135 0
128 130 0
135 137 0
127 128 0
123 125 0
127 131 0
116 114 0
132 134 0
146 150 0
125 124 0
121 120 0
132 132 0
135 135 0
134 136 0
129 130 0
133 132 0
130 131 0
130 129 0
126 125 0
136 137 0
132 134 0
126 128 0
137 138 0
134 136 0
134 135 0
143 146 0
139 142 0
143 146 0
138 140 0
138 143 0
144 148 0
139 142 0
143 145 0
137 140 0
148 153 0
144 151 0
150 156 0
142 149 0
150 155 0
150 157 0
150 157 0
148 155 0
145 152 0
149 155 0
152 161 0
151 159 0
152 162 0
158 168 0
145 152 0
154 164 0
151 162 0
157 165 0
158 168 0
153 158 0
157 168 0
155 164 0
155 166 0
157 167 0
157 170 0
158 168 0
158 169 0
156 167 0
162 175 0
158 169 0
157 170 0
161 178 0
176 198 0
171 193 0
171 192 0
174 197 0
175 197 0
175 197 0
174 196 0
174 196 0
174 195 0
172 193 0
172 194 0
175 196 0
173 194 0
175 196 0
173 194 0
171 192 0
172 192 0
171 192 0
171 193 0
175 196 0
175 195 0
174 194 0
175 196 0
174 195 0
175 195 0
174 194 0
173 194 0
174 195 0
173 193 0
173 193 0
170 190 0
173 193 0
173 194 0
174 194 0
172 192 0
173 193 0
175 195 0
170 190 0
173 192 0
171 190 0
174 195 0
171 192 0
171 191 0
175 195 0
172 192 0
169 188 0
168 187 0
172 191 0
173 194 0
167 187 0
176 196 0
169 189 0
172 191 0
169 189 0
165 185 0
175 194 0
171 192 0
171 191 0
168 188 0
166 186 0
170 190 0
169 189 0
172 192 0
162 182 0
167 187 0
166 186 0
169 189 0
169 189 0
165 185 0
163 183 0
165 185 0
170 190 0
162 182 0
166 188 0
172 192 0
164 184 0
165 185 0
162 181 0
161 181 0
162 181 0
167 188 0
169 189 0
160 181 0
161 181 0
154 176 0
160 180 0
166 187 0
161 182 0
163 183 0
161 181 0
156 176 0
164 183 0
164 185 0
165 186 0
158 178 0
159 180 0
161 182 0
155 177 0
158 179 0
159 180 0
158 178 0
160 181 0
152 173 0
162 182 0
155 176 0
158 179 0
154 175 0
146 167 0
154 176 0
158 179 0
146 167 0
156 178 0
151 172 0
154 175 0
143 164 0
158 180 0
145 167 0
153 175 0
159 181 0
154 174 0
150 172 0
157 179 0
150 172 0
155 177 0
151 172 0
152 173 0
156 177 0
144 165 0
152 174 0
154 176 0
149 170 0
147 169 0
149 172 0
143 166 0
148 168 0
155 177 0
147 169 0
149 169 0
144 165 0
151 171 0
147 169 0
151 172 0
148 169 0
144 165 0
149 171 0
140 162 0
147 168 0
145 167 0
144 164 0
138 160 0
147 167 0
143 165 0
143 165 0
139 159 0
143 164 0
149 171 0
144 166 0
143 165 0
149 171 0
136 158 0
131 151 0
136 157 0
140 162 0
138 159 0
140 163 0
138 159 0
140 162 0
137 159 0
138 159 0
139 160 0
139 160 0
142 163 0
138 158 0
143 164 0
133 151 0
134 155 0
142 164 0
131 153 0
128 148 0
131 151 0
129 148 0
143 163 0
133 154 0
139 159 0
124 144 0
134 154 0
138 159 0
137 156 0
140 160 0
138 157 0
130 150 0
131 152 0
143 163 0
138 156 0
121 141 0
138 157 0
131 151 0
138 158 0
134 153 0
135 155 0
126 146 0
130 151 0
132 152 0
129 148 0
132 152 0
126 144 0
123 142 0
135 154 0
133 152 0
130 149 0
128 148 0
137 156 0
129 148 0
134 154 0
133 153 0
144 163 0
127 146 0
136 154 0
133 153 0
125 142 0
121 139 0
130 150 0
129 147 0
142 160 0
135 155 0
132 151 0
135 156 0
137 155 0
128 147 0
131 150 0
144 162 0
137 156 0
137 156 0
127 145 0
138 156 0
133 152 0
130 151 0
138 154 0
131 149 0
129 147 0
128 146 0
135 153 0
133 150 0
127 146 0
141 160 0
145 162 0
131 148 0
134 152 0
132 147 0
138 157 0
130 148 0
138 157 0
128 147 0
131 148 0
135 152 0
138 154 0
132 149 0
139 157 0
139 157 0
133 147 0
140 158 0
122 139 0
140 159 0
130 147 0
139 156 0
135 151 0
137 154 0
132 148 0
131 147 0
143 159 0
146 162 0
140 156 0
135 150 0
145 160 0
134 149 0
137 153 0
133 147 0
134 148 0
135 148 0
139 154 0
139 151 0
139 154 0
142 159 0
127 137 0
128 141 0
139 152 0
132 146 0
130 140 0
138 153 0
139 152 0
140 152 0
134 148 0
136 149 0
142 157 0
133 145 0
128 140 0
143 156 0
138 150 0
128 136 0
122 133 0
138 149 0
133 143 0
137 148 0
137 148 0
131 142 0
134 144 0
135 145 0
131 139 0
137 147 0
133 142 0
136 140 0
139 147 0
138 147 0
137 144 0
138 146 0
132 137 0
130 134 0
134 142 0
125 131 0
134 140 0
136 141 0
135 138 0
127 134 0
145 153 0
125 126 0
127 131 0
122 126 0
134 139 0
137 141 0
135 140 0
135 140 0
134 139 0
122 123 0
131 134 0
133 136 0
120 121 0
131 135 0
138 141 0
132 135 0
126 126 0
119 121 0
133 134 0
141 145 0
128 129 0
132 133 0
132 134 0
134 138 0
133 136 0
131 134 0
135 136 0
135 137 0
140 141 0
130 130 0
140 142 0
130 128 0
136 135 0
140 142 0
130 131 0
143 145 0
132 134 0
135 136 0
138 142 0
140 145 0
137 139 0
145 151 0
144 148 0
136 143 0
140 143 0
147 154 0
143 148 0
142 147 0
145 150 0
150 158 0
152 159 0
142 146 0
144 148 0
149 155 0
144 151 0
149 158 0
152 159 0
148 156 0
152 160 0
146 154 0
157 167 0
151 155 0
149 156 0
156 166 0
156 163 0
155 166 0
147 157 0
159 169 0
150 162 0
155 165 0
148 157 0
154 165 0
157 169 0
159 173 0
162 177 0
157 168 0
158 170 0
176 197 0
173 194 0
177 198 0
173 195 0
176 198 0
172 194 0
172 193 0
175 197 0
173 194 0
175 195 0
178 198 0
173 194 0
170 191 0
172 193 0
173 194 0
176 197 0
173 193 0
173 194 0
177 198 0
175 195 0
176 197 0
172 194 0
174 194 0
175 195 0
172 192 0
174 194 0
175 195 0
173 194 0
179 199 0
173 194 0
171 191 0
171 191 0
177 197 0
173 193 0
174 193 0
175 196 0
171 191 0
174 194 0
172 192 0
172 192 0
170 190 0
171 192 0
174 194 0
171 191 0
171 192 0
172 191 0
168 188 0
171 191 0
171 191 0
173 192 0
174 194 0
166 187 0
170 190 0
169 189 0
167 187 0
167 186 0
167 186 0
173 194 0
173 192 0
170 190 0
169 190 0
169 190 0
168 187 0
171 191 0
168 188 0
169 189 0
169 188 0
163 184 0
164 184 0
168 187 0
166 187 0
161 181 0
162 181 0
172 192 0
166 187 0
162 183 0
165 185 0
170 189 0
159 179 0
164 184 0
160 180 0
161 181 0
171 190 0
165 185 0
159 180 0
164 185 0
167 189 0
163 184 0
161 181 0
164 184 0
161 182 0
160 181 0
160 182 0
157 178 0
169 189 0
154 175 0
162 183 0
163 183 0
162 182 0
163 184 0
159 181 0
160 181 0
160 181 0
153 173 0
161 183 0
155 177 0
152 174 0
157 178 0
152 174 0
153 173 0
157 178 0
153 174 0
158 180 0
157 177 0
148 170 0
147 169 0
152 175 0
148 169 0
148 170 0
154 176 0
160 181 0
149 171 0
153 175 0
155 177 0
156 177 0
156 179 0
151 173 0
150 173 0
147 167 0
149 170 0
145 167 0
148 172 0
149 171 0
152 174 0
149 170 0
154 175 0
144 166 0
150 171 0
151 173 0
149 171 0
148 171 0
150 173 0
149 171 0
151 173 0
144 166 0
146 167 0
147 169 0
150 173 0
148 169 0
136 157 0
149 171 0
148 169 0
144 166 0
138 158 0
150 173 0
147 168 0
142 163 0
142 162 0
150 172 0
140 162 0
143 164 0
142 163 0
137 159 0
145 167 0
145 166 0
132 154 0
149 171 0
144 165 0
139 161 0
139 159 0
136 157 0
131 152 0
144 165 0
139 159 0
138 159 0
135 157 0
133 154 0
133 155 0
135 157 0
146 167 0
134 154 0
125 145 0
131 151 0
128 148 0
149 169 0
138 159 0
138 157 0
147 166 0
129 149 0
135 155 0
137 157 0
129 148 0
130 150 0
133 153 0
137 156 0
131 152 0
138 157 0
128 149 0
136 157 0
137 156 0
132 151 0
137 159 0
126 146 0
131 151 0
130 150 0
129 148 0
130 151 0
135 154 0
139 158 0
131 150 0
133 150 0
139 160 0
126 144 0
141 161 0
130 149 0
122 141 0
126 144 0
129 148 0
125 143 0
132 151 0
129 148 0
129 149 0
133 152 0
135 154 0
147 167 0
139 158 0
132 150 0
134 153 0
120 139 0
134 152 0
134 153 0
125 144 0
133 151 0
129 148 0
140 159 0
127 145 0
139 158 0
137 157 0
144 163 0
134 152 0
143 161 0
131 149 0
131 148 0
136 153 0
141 159 0
135 155 0
142 159 0
135 151 0
126 144 0
135 150 0
131 150 0
127 145 0
133 149 0
142 159 0
132 151 0
132 149 0
139 156 0
138 155 0
131 149 0
129 147 0
132 149 0
148 166 0
138 155 0
139 157 0
137 153 0
137 154 0
135 149 0
135 152 0
130 144 0
133 151 0
142 159 0
145 160 0
131 146 0
145 161 0
135 152 0
139 153 0
143 158 0
140 156 0
136 150 0
147 163 0
131 145 0
137 153 0
137 151 0
140 154 0
128 143 0
137 152 0
137 150 0
136 148 0
135 148 0
132 145 0
141 154 0
138 151 0
136 147 0
139 152 0
130 140 0
136 147 0
135 147 0
145 158 0
137 150 0
129 139 0
143 155 0
135 146 0
142 155 0
139 146 0
138 150 0
135 144 0
116 124 0
138 147 0
144 155 0
141 150 0
127 135 0
137 146 0
128 136 0
123 129 0
140 146 0
134 144 0
131 137 0
124 131 0
136 143 0
139 149 0
132 137 0
134 142 0
125 131 0
140 148 0
128 130 0
128 132 0
130 135 0
133 137 0
136 139 0
130 134 0
132 135 0
137 142 0
140 144 0
134 140 0
130 133 0
124 129 0
138 141 0
127 128 0
129 129 0
136 138 0
131 133 0
134 139 0
137 140 0
136 140 0
130 133 0
132 133 0
134 139 0
129 129 0
137 139 0
141 146 0
134 138 0
134 136 0
135 137 0
141 144 0
141 145 0
142 146 0
141 143 0
140 146 0
133 136 0
145 151 0
144 149 0
147 153 0
139 143 0
147 154 0
140 145 0
142 147 0
151 156 0
140 142 0
138 143 0
147 152 0
139 140 0
144 148 0
144 150 0
143 151 0
152 160 0
147 151 0
150 159 0
148 157 0
142 144 0
145 151 0
148 156 0
153 162 0
146 152 0
159 167 0
147 156 0
150 153 0
158 171 0
156 165 0
159 170 0
157 169 0
148 157 0
154 164 0
157 168 0
149 159 0
159 170 0
149 159 0
159 170 0
154 167 0
154 166 0
161 173 0
175 197 0
176 197 0
173 195 0
175 196 0
172 194 0
173 193 0
172 194 0
173 194 0
177 199 0
176 197 0
176 198 0
176 197 0
174 195 0
174 195 0
174 196 0
175 196 0
173 194 0
172 192 0
175 196 0
174 195 0
177 197 0
177 197 0
174 194 0
171 191 0
173 194 0
174 195 0
174 195 0
176 196 0
174 194 0
174 195 0
175 195 0
173 194 0
175 195 0
174 194 0
170 190 0
171 192 0
173 193 0
175 196 0
171 192 0
173 193 0
171 192 0
171 191 0
174 193 0
172 192 0
171 192 0
171 191 0
164 184 0
170 191 0
173 192 0
172 192 0
167 186 0
172 193 0
167 187 0
167 187 0
170 190 0
173 192 0
164 184 0
173 193 0
173 192 0
167 187 0
169 189 0
171 191 0
164 183 0
167 186 0
173 192 0
170 190 0
171 192 0
175 195 0
171 191 0
166 186 0
161 181 0
161 182 0
168 188 0
165 186 0
167 186 0
165 185 0
167 187 0
161 182 0
162 182 0
164 184 0
163 184 0
163 183 0
164 184 0
164 184 0
165 185 0
166 186 0
155 174 0
163 183 0
166 186 0
157 178 0
166 186 0
163 184 0
162 184 0
154 174 0
157 177 0
157 178 0
154 175 0
151 173 0
147 168 0
160 181 0
159 180 0
160 181 0
161 182 0
157 179 0
154 175 0
160 181 0
153 174 0
159 181 0
154 177 0
159 180 0
150 172 0
157 178 0
162 183 0
157 179 0
145 167 0
152 174 0
147 168 0
151 172 0
153 174 0
154 176 0
154 176 0
150 171 0
147 168 0
159 181 0
156 179 0
160 183 0
145 166 0
152 172 0
150 173 0
145 167 0
159 181 0
152 173 0
146 168 0
148 171 0
156 177 0
146 167 0
154 174 0
148 170 0
155 176 0
146 167 0
155 178 0
142 164 0
149 169 0
151 171 0
146 167 0
153 176 0
147 169 0
145 168 0
151 172 0
150 171 0
151 172 0
141 162 0
153 174 0
145 166 0
140 161 0
151 173 0
148 169 0
146 168 0
137 159 0
142 163 0
147 168 0
134 155 0
135 157 0
140 161 0
139 160 0
137 158 0
139 160 0
138 160 0
150 172 0
143 163 0
136 157 0
138 158 0
132 153 0
145 165 0
146 166 0
140 160 0
134 154 0
136 157 0
136 157 0
133 153 0
135 156 0
139 160 0
137 157 0
138 159 0
130 150 0
135 154 0
137 157 0
142 163 0
141 161 0
131 150 0
141 163 0
140 160 0
135 155 0
131 149 0
137 157 0
129 148 0
125 147 0
130 150 0
132 152 0
135 154 0
141 162 0
134 153 0
133 154 0
129 149 0
139 159 0
127 147 0
133 153 0
125 143 0
139 158 0
132 151 0
136 155 0
135 156 0
138 159 0
122 142 0
130 150 0
142 161 0
123 143 0
133 152 0
133 153 0
134 154 0
132 151 0
138 158 0
138 156 0
132 150 0
142 162 0
133 151 0
141 160 0
139 159 0
136 154 0
145 166 0
135 153 0
129 147 0
140 159 0
135 154 0
132 151 0
135 153 0
132 150 0
134 152 0
134 154 0
132 151 0
131 149 0
135 153 0
129 146 0
138 155 0
140 158 0
132 149 0
133 150 0
128 145 0
132 150 0
135 154 0
137 156 0
129 146 0
145 164 0
134 152 0
131 148 0
141 160 0
152 170 0
129 146 0
136 154 0
136 152 0
136 154 0
132 148 0
138 154 0
141 158 0
141 156 0
132 148 0
137 153 0
137 154 0
132 146 0
128 143 0
132 147 0
135 152 0
134 151 0
138 153 0
134 148 0
137 152 0
135 148 0
146 160 0
137 153 0
142 159 0
125 139 0
139 153 0
136 150 0
135 149 0
138 153 0
130 141 0
137 150 0
136 151 0
143 156 0
145 158 0
136 150 0
135 148 0
134 146 0
146 161 0
145 156 0
138 149 0
134 145 0
135 146 0
144 155 0
144 158 0
144 159 0
131 140 0
136 146 0
133 143 0
137 148 0
123 132 0
131 142 0
124 134 0
130 137 0
143 152 0
143 154 0
138 147 0
141 151 0
130 137 0
132 140 0
140 148 0
132 140 0
145 152 0
133 140 0
140 149 0
136 144 0
128 135 0
133 138 0
141 148 0
140 144 0
127 133 0
134 141 0
134 138 0
134 142 0
136 140 0
133 138 0
133 137 0
131 138 0
125 128 0
139 142 0
130 135 0
132 137 0
132 137 0
136 141 0
139 144 0
128 132 0
130 134 0
134 134 0
134 136 0
139 144 0
135 139 0
121 123 0
128 131 0
138 142 0
119 117 0
132 136 0
138 142 0
143 147 0
137 140 0
137 139 0
134 138 0
136 141 0
131 136 0
134 135 0
138 140 0
143 148 0
138 140 0
134 136 0
148 153 0
134 135 0
143 149 0
137 142 0
148 150 0
149 153 0
146 152 0
150 156 0
150 156 0
141 146 0
138 142 0
142 147 0
151 155 0
156 163 0
145 151 0
153 160 0
144 152 0
149 151 0
154 163 0
146 152 0
151 157 0
157 167 0
153 163 0
157 166 0
160 169 0
148 155 0
152 162 0
149 158 0
159 169 0
154 164 0
154 165 0
158 168 0
164 178 0
157 169 0
160 172 0
155 165 0
156 167 0
177 199 0
175 196 0
174 195 0
173 194 0
176 198 0
176 197 0
173 194 0
174 196 0
175 196 0
170 192 0
169 191 0
173 195 0
176 196 0
173 194 0
173 194 0
173 195 0
180 199 0
174 194 0
178 199 0
174 195 0
173 194 0
170 191 0
178 198 0
173 194 0
173 193 0
173 193 0
178 198 0
173 194 0
174 193 0
174 194 0
174 194 0
173 192 0
169 190 0
173 193 0
176 196 0
174 195 0
175 195 0
174 194 0
174 194 0
170 190 0
167 187 0
172 192 0
174 193 0
172 192 0
172 192 0
172 192 0
176 195 0
173 193 0
169 191 0
172 192 0
170 189 0
169 189 0
165 185 0
167 187 0
170 190 0
166 186 0
174 195 0
166 186 0
169 189 0
169 189 0
166 186 0
169 190 0
166 187 0
163 183 0
172 192 0
173 194 0
169 190 0
171 190 0
161 181 0
165 186 0
168 188 0
163 183 0
161 182 0
166 187 0
166 186 0
164 186 0
164 185 0
161 181 0
165 187 0
164 185 0
163 184 0
162 183 0
165 185 0
165 187 0
154 174 0
155 176 0
162 183 0
164 184 0
159 180 0
155 175 0
160 181 0
162 182 0
164 185 0
160 180 0
157 178 0
162 184 0
157 178 0
164 185 0
155 176 0
155 176 0
152 174 0
154 175 0
154 176 0
157 180 0
158 179 0
157 179 0
159 181 0
162 185 0
155 176 0
155 177 0
160 182 0
155 177 0
153 175 0
154 175 0
155 178 0
152 175 0
156 177 0
152 175 0
152 174 0
153 174 0
151 172 0
145 166 0
149 170 0
149 172 0
148 170 0
153 174 0
157 178 0
154 177 0
151 173 0
155 177 0
150 172 0
151 173 0
156 178 0
151 172 0
152 175 0
148 169 0
154 175 0
154 176 0
150 171 0
144 165 0
152 173 0
149 170 0
143 164 0
150 172 0
141 163 0
149 170 0
149 171 0
147 168 0
141 162 0
150 171 0
138 159 0
144 166 0
150 172 0
149 170 0
146 167 0
146 167 0
143 165 0
153 176 0
142 163 0
151 173 0
139 159 0
135 157 0
141 162 0
141 162 0
150 171 0
149 171 0
143 166 0
138 160 0
141 163 0
138 159 0
151 172 0
137 158 0
132 153 0
140 161 0
141 161 0
132 153 0
136 155 0
143 166 0
137 158 0
128 148 0
139 160 0
134 153 0
140 162 0
142 163 0
129 147 0
134 154 0
147 167 0
138 159 0
130 151 0
143 163 0
147 168 0
143 163 0
138 157 0
137 157 0
131 152 0
132 152 0
133 154 0
130 150 0
131 151 0
135 155 0
144 165 0
131 151 0
134 153 0
140 160 0
138 159 0
134 154 0
132 151 0
133 152 0
135 155 0
136 156 0
132 150 0
139 160 0
138 157 0
122 142 0
142 161 0
134 154 0
137 157 0
141 160 0
135 154 0
135 156 0
132 152 0
129 148 0
130 151 0
121 138 0
138 157 0
132 151 0
142 161 0
126 144 0
137 155 0
138 155 0
136 157 0
138 157 0
129 149 0
144 163 0
138 157 0
134 151 0
133 152 0
139 158 0
133 152 0
138 155 0
135 156 0
139 158 0
131 150 0
137 155 0
135 152 0
125 142 0
132 150 0
128 145 0
136 154 0
133 150 0
136 154 0
146 163 0
139 157 0
141 158 0
138 157 0
136 154 0
139 158 0
134 153 0
141 159 0
136 153 0
143 160 0
141 157 0
139 157 0
141 157 0
134 151 0
141 156 0
138 154 0
136 150 0
146 162 0
124 140 0
142 158 0
137 153 0
139 155 0
134 151 0
143 159 0
146 163 0
142 159 0
135 150 0
138 155 0
137 153 0
140 155 0
135 149 0
135 149 0
146 159 0
140 157 0
129 140 0
133 145 0
137 153 0
142 154 0
146 162 0
142 157 0
145 161 0
142 155 0
140 152 0
137 152 0
145 159 0
132 142 0
138 150 0
135 150 0
143 156 0
137 150 0
136 151 0
142 152 0
136 148 0
136 144 0
145 158 0
141 149 0
136 146 0
132 141 0
134 145 0
140 153 0
139 148 0
137 145 0
137 147 0
144 157 0
133 140 0
141 151 0
131 140 0
142 151 0
139 148 0
138 147 0
129 134 0
138 143 0
141 150 0
144 153 0
135 142 0
138 143 0
139 146 0
138 142 0
138 146 0
139 142 0
139 144 0
137 142 0
136 144 0
130 136 0
135 142 0
134 137 0
140 145 0
134 137 0
144 149 0
134 140 0
133 137 0
132 135 0
131 134 0
141 144 0
142 147 0
142 147 0
143 147 0
135 136 0
142 142 0
136 138 0
132 134 0
139 144 0
133 138 0
136 136 0
138 139 0
137 141 0
136 142 0
146 152 0
145 149 0
143 149 0
142 147 0
142 148 0
135 138 0
136 139 0
145 151 0
139 145 0
142 147 0
145 146 0
134 140 0
147 151 0
142 146 0
147 151 0
140 146 0
150 159 0
149 155 0
154 161 0
144 151 0
148 155 0
147 154 0
149 159 0
149 155 0
151 159 0
149 156 0
158 169 0
151 158 0
153 161 0
142 147 0
147 154 0
155 164 0
153 161 0
155 164 0
152 161 0
150 160 0
159 171 0
158 170 0
151 162 0
154 164 0
159 170 0
161 173 0
175 196 0
174 195 0
174 194 0
175 195 0
174 195 0
174 195 0
174 196 0
173 194 0
175 196 0
176 197 0
172 193 0
176 197 0
174 195 0
174 195 0
177 196 0
171 192 0
174 195 0
175 196 0
178 198 0
173 194 0
170 191 0
174 194 0
173 193 0
175 195 0
174 194 0
174 194 0
171 192 0
172 192 0
175 196 0
174 195 0
177 197 0
173 193 0
169 190 0
171 191 0
172 193 0
171 190 0
173 194 0
171 192 0
175 195 0
173 193 0
173 193 0
170 189 0
174 194 0
173 192 0
165 185 0
171 192 0
167 187 0
172 191 0
172 192 0
174 194 0
177 196 0
174 194 0
163 183 0
168 188 0
166 187 0
169 190 0
169 189 0
171 191 0
163 184 0
166 187 0
170 190 0
165 185 0
167 187 0
169 188 0
165 185 0
171 190 0
168 188 0
162 181 0
168 188 0
160 181 0
168 188 0
168 188 0
166 186 0
170 190 0
161 181 0
166 187 0
165 185 0
170 190 0
161 181 0
161 181 0
162 183 0
164 185 0
163 184 0
164 186 0
160 180 0
169 190 0
165 185 0
161 182 0
159 181 0
164 185 0
152 174 0
155 177 0
159 181 0
156 177 0
159 180 0
153 175 0
156 177 0
155 175 0
151 173 0
159 180 0
157 179 0
157 180 0
154 175 0
158 179 0
153 174 0
160 182 0
157 179 0
156 178 0
156 178 0
156 177 0
157 178 0
152 175 0
155 177 0
153 174 0
158 179 0
148 169 0
152 174 0
151 173 0
150 171 0
155 178 0
158 180 0
154 176 0
157 178 0
154 176 0
148 170 0
155 177 0
149 169 0
152 174 0
152 173 0
146 168 0
151 173 0
147 169 0
150 172 0
154 175 0
150 172 0
150 172 0
153 175 0
152 174 0
155 177 0
143 165 0
153 176 0
148 170 0
156 177 0
150 171 0
143 164 0
149 169 0
145 167 0
139 162 0
142 164 0
140 162 0
153 175 0
150 172 0
148 170 0
150 173 0
152 174 0
145 167 0
134 157 0
143 164 0
143 163 0
144 166 0
146 167 0
134 154 0
136 156 0
137 158 0
146 167 0
141 163 0
151 173 0
133 155 0
143 165 0
146 167 0
138 159 0
136 157 0
137 159 0
145 167 0
145 166 0
139 161 0
144 166 0
135 156 0
133 155 0
134 154 0
137 158 0
137 156 0
145 165 0
138 159 0
134 155 0
143 163 0
140 161 0
141 162 0
137 158 0
138 157 0
133 154 0
137 158 0
142 163 0
140 160 0
141 161 0
138 158 0
132 152 0
135 154 0
129 149 0
131 150 0
128 148 0
133 153 0
127 147 0
140 161 0
133 153 0
135 155 0
144 165 0
134 154 0
136 155 0
132 151 0
139 159 0
142 163 0
142 164 0
135 155 0
129 148 0
139 158 0
136 155 0
146 166 0
125 145 0
136 156 0
136 156 0
135 154 0
151 170 0
134 153 0
133 152 0
130 150 0
136 155 0
131 148 0
134 154 0
135 154 0
133 150 0
139 158 0
141 160 0
133 151 0
137 158 0
141 160 0
137 156 0
138 157 0
140 158 0
138 157 0
138 157 0
144 163 0
132 151 0
142 160 0
130 149 0
133 150 0
143 162 0
131 149 0
131 149 0
144 161 0
136 154 0
142 159 0
143 162 0
138 156 0
141 159 0
135 152 0
131 147 0
140 157 0
137 156 0
143 161 0
139 157 0
148 166 0
133 152 0
138 154 0
132 147 0
132 148 0
141 159 0
145 161 0
138 154 0
145 163 0
137 152 0
141 159 0
139 155 0
142 157 0
139 155 0
132 148 0
143 158 0
142 158 0
143 160 0
145 162 0
135 152 0
143 159 0
133 148 0
135 149 0
135 150 0
130 145 0
134 149 0
137 150 0
138 153 0
144 158 0
145 157 0
143 157 0
137 151 0
141 154 0
137 148 0
135 149 0
132 146 0
146 159 0
141 154 0
137 150 0
139 153 0
147 162 0
129 141 0
135 145 0
148 161 0
142 153 0
147 156 0
134 146 0
142 154 0
142 154 0
138 147 0
142 153 0
142 154 0
145 157 0
136 149 0
133 143 0
142 150 0
140 150 0
137 145 0
139 147 0
131 140 0
138 146 0
133 141 0
138 147 0
139 149 0
131 135 0
140 148 0
141 150 0
143 149 0
138 147 0
131 136 0
136 144 0
141 150 0
144 152 0
140 147 0
145 152 0
138 146 0
140 147 0
128 136 0
131 136 0
139 142 0
136 142 0
144 151 0
136 140 0
134 137 0
131 133 0
135 140 0
137 140 0
137 139 0
143 146 0
146 153 0
139 144 0
139 145 0
133 138 0
147 153 0
136 139 0
143 148 0
128 129 0
138 143 0
146 150 0
143 146 0
144 150 0
140 147 0
142 146 0
142 147 0
136 142 0
144 148 0
144 151 0
144 151 0
146 150 0
151 157 0
143 150 0
144 148 0
146 150 0
149 155 0
146 152 0
147 153 0
151 156 0
148 155 0
149 156 0
142 150 0
147 157 0
151 161 0
151 160 0
155 163 0
151 158 0
160 170 0
154 162 0
155 165 0
147 154 0
153 157 0
156 165 0
146 156 0
158 168 0
154 165 0
153 163 0
148 155 0
153 163 0
154 165 0
157 168 0
174 195 0
176 197 0
172 194 0
175 196 0
176 197 0
172 194 0
173 194 0
174 195 0
174 194 0
174 196 0
178 199 0
175 196 0
173 195 0
174 195 0
174 196 0
175 196 0
177 197 0
172 193 0
176 197 0
175 195 0
176 195 0
176 197 0
176 197 0
177 198 0
176 197 0
173 194 0
174 195 0
172 193 0
176 196 0
175 196 0
174 194 0
176 196 0
170 190 0
174 194 0
172 192 0
171 191 0
175 194 0
171 190 0
173 194 0
170 189 0
168 189 0
167 188 0
175 195 0
172 192 0
171 191 0
172 191 0
171 192 0
173 193 0
168 189 0
170 190 0
171 191 0
168 188 0
174 194 0
168 187 0
169 189 0
164 184 0
172 193 0
171 191 0
170 190 0
168 188 0
162 183 0
167 187 0
171 191 0
158 179 0
165 186 0
171 190 0
169 189 0
170 191 0
161 182 0
168 188 0
168 189 0
164 185 0
167 188 0
163 183 0
161 182 0
161 183 0
158 178 0
161 181 0
164 185 0
157 177 0
160 181 0
163 184 0
161 182 0
165 185 0
160 181 0
160 182 0
163 183 0
154 175 0
162 183 0
157 178 0
152 173 0
153 174 0
161 182 0
162 182 0
157 178 0
162 183 0
163 184 0
158 180 0
161 183 0
162 184 0
155 176 0
160 181 0
158 180 0
158 179 0
154 175 0
154 175 0
159 181 0
160 183 0
157 179 0
150 172 0
162 185 0
157 180 0
155 178 0
149 173 0
155 176 0
163 184 0
156 177 0
151 172 0
159 181 0
151 172 0
159 182 0
158 181 0
156 178 0
155 178 0
156 178 0
150 171 0
144 166 0
151 173 0
159 181 0
149 171 0
150 172 0
150 172 0
150 171 0
155 178 0
156 177 0
146 169 0
151 173 0
148 169 0
150 172 0
151 173 0
156 177 0
157 178 0
155 178 0
142 165 0
148 170 0
155 176 0
149 171 0
148 170 0
157 179 0
147 169 0
147 168 0
154 175 0
144 167 0
152 174 0
143 164 0
150 171 0
146 168 0
151 173 0
135 158 0
139 161 0
143 165 0
142 162 0
138 160 0
148 169 0
145 167 0
142 164 0
139 160 0
145 166 0
133 153 0
144 166 0
137 157 0
139 160 0
141 163 0
142 163 0
138 158 0
140 161 0
135 156 0
140 161 0
140 160 0
146 169 0
145 166 0
140 162 0
142 164 0
149 170 0
139 161 0
139 159 0
147 169 0
137 157 0
144 166 0
142 163 0
143 165 0
138 159 0
138 159 0
132 152 0
138 158 0
131 150 0
142 163 0
137 158 0
135 155 0
142 162 0
134 154 0
134 153 0
130 151 0
143 161 0
134 153 0
134 153 0
136 156 0
143 163 0
130 150 0
146 166 0
141 161 0
137 156 0
138 159 0
127 146 0
142 161 0
135 155 0
143 164 0
137 157 0
137 157 0
133 153 0
133 152 0
129 148 0
134 154 0
127 144 0
137 156 0
139 159 0
141 161 0
135 155 0
138 158 0
139 159 0
134 153 0
136 156 0
130 148 0
136 156 0
139 158 0
128 146 0
135 155 0
143 163 0
138 157 0
135 154 0
134 153 0
141 159 0
142 160 0
137 155 0
135 152 0
136 155 0
142 162 0
142 160 0
140 157 0
133 150 0
143 162 0
133 149 0
146 163 0
140 158 0
131 149 0
122 140 0
146 165 0
136 153 0
137 154 0
134 151 0
142 160 0
128 144 0
143 160 0
145 162 0
141 159 0
138 153 0
142 160 0
143 161 0
137 156 0
137 154 0
135 152 0
145 162 0
141 158 0
136 152 0
143 159 0
139 156 0
139 157 0
131 148 0
144 162 0
141 156 0
138 153 0
143 156 0
142 158 0
139 155 0
150 167 0
150 166 0
125 139 0
140 156 0
134 147 0
147 160 0
146 160 0
135 152 0
137 149 0
143 156 0
143 157 0
138 152 0
132 146 0
136 149 0
144 159 0
140 155 0
140 152 0
140 151 0
145 155 0
136 149 0
140 153 0
141 154 0
150 162 0
145 157 0
128 136 0
142 154 0
146 157 0
142 154 0
133 145 0
145 156 0
131 140 0
143 155 0
127 137 0
140 147 0
139 147 0
141 150 0
139 150 0
135 144 0
137 146 0
135 142 0
135 143 0
143 153 0
138 146 0
135 141 0
129 136 0
135 141 0
136 145 0
131 137 0
140 152 0
129 131 0
139 145 0
147 154 0
137 143 0
141 147 0
137 143 0
131 136 0
147 153 0
138 145 0
131 135 0
134 138 0
143 149 0
140 146 0
132 136 0
139 146 0
137 141 0
134 137 0
139 143 0
133 137 0
145 153 0
139 146 0
140 146 0
146 152 0
139 144 0
135 140 0
143 148 0
138 141 0
139 142 0
139 144 0
147 155 0
149 156 0
142 149 0
140 147 0
144 152 0
140 145 0
141 145 0
149 155 0
143 149 0
147 153 0
147 153 0
145 148 0
143 149 0
145 151 0
147 153 0
149 155 0
154 161 0
149 158 0
140 144 0
152 160 0
150 157 0
153 162 0
156 165 0
149 157 0
152 160 0
155 165 0
149 156 0
156 167 0
156 164 0
149 160 0
152 161 0
148 156 0
158 169 0
156 166 0
151 164 0
161 174 0
151 159 0
163 175 0
175 196 0
175 197 0
176 197 0
173 194 0
175 196 0
173 194 0
176 196 0
175 196 0
170 191 0
176 197 0
176 197 0
176 197 0
178 198 0
175 195 0
174 194 0
173 194 0
178 198 0
172 192 0
174 195 0
177 197 0
172 193 0
175 195 0
173 193 0
172 194 0
170 189 0
177 197 0
171 192 0
175 196 0
174 194 0
173 193 0
174 195 0
176 197 0
176 196 0
175 195 0
173 193 0
169 189 0
168 188 0
174 194 0
169 190 0
173 194 0
168 189 0
172 192 0
170 190 0
172 192 0
170 190 0
166 187 0
164 184 0
173 194 0
169 189 0
166 186 0
172 193 0
174 194 0
168 188 0
172 192 0
170 190 0
170 189 0
172 192 0
171 192 0
166 187 0
171 192 0
170 189 0
170 189 0
170 191 0
162 182 0
165 186 0
167 187 0
164 183 0
169 190 0
165 185 0
165 186 0
160 180 0
165 186 0
165 185 0
167 188 0
162 183 0
160 179 0
161 182 0
165 187 0
161 182 0
162 183 0
159 180 0
159 179 0
165 186 0
160 181 0
163 184 0
159 180 0
159 180 0
158 179 0
161 182 0
154 177 0
159 180 0
162 183 0
159 181 0
160 182 0
157 177 0
151 173 0
158 181 0
152 173 0
161 182 0
157 179 0
154 175 0
156 178 0
163 183 0
162 183 0
153 175 0
152 174 0
154 177 0
153 174 0
158 180 0
157 179 0
157 179 0
154 176 0
143 165 0
157 178 0
151 173 0
155 177 0
158 181 0
154 176 0
155 176 0
159 182 0
158 180 0
156 178 0
159 182 0
160 183 0
159 182 0
145 167 0
155 177 0
143 165 0
155 177 0
151 173 0
150 173 0
148 171 0
146 168 0
146 169 0
142 164 0
147 170 0
152 175 0
146 169 0
152 174 0
154 177 0
144 165 0
155 177 0
154 174 0
148 171 0
148 169 0
146 168 0
145 168 0
157 179 0
151 174 0
146 167 0
145 168 0
145 168 0
146 168 0
145 167 0
154 176 0
146 167 0
137 159 0
145 167 0
150 171 0
141 163 0
133 155 0
152 173 0
139 161 0
151 172 0
142 163 0
144 166 0
142 163 0
140 162 0
145 165 0
140 161 0
145 166 0
148 170 0
136 158 0
137 157 0
138 159 0
136 158 0
144 165 0
150 171 0
148 169 0
135 156 0
142 164 0
130 152 0
146 167 0
135 157 0
140 161 0
144 164 0
134 155 0
133 153 0
142 164 0
134 155 0
142 162 0
140 160 0
138 160 0
137 157 0
132 152 0
142 163 0
134 154 0
132 153 0
141 162 0
144 165 0
147 166 0
140 160 0
125 144 0
129 148 0
129 149 0
146 167 0
143 164 0
128 148 0
135 155 0
137 159 0
134 154 0
144 164 0
142 161 0
136 154 0
138 158 0
134 154 0
132 152 0
140 160 0
142 162 0
140 160 0
146 165 0
127 147 0
138 157 0
147 166 0
135 155 0
139 158 0
139 159 0
138 157 0
128 149 0
139 158 0
139 158 0
131 149 0
135 154 0
135 154 0
146 166 0
143 163 0
141 162 0
134 151 0
134 153 0
131 152 0
131 150 0
147 167 0
129 148 0
136 154 0
145 165 0
137 156 0
131 150 0
141 159 0
150 169 0
150 170 0
141 159 0
140 160 0
144 165 0
136 155 0
136 153 0
145 164 0
139 157 0
142 160 0
134 153 0
137 156 0
130 145 0
143 161 0
141 161 0
135 152 0
135 153 0
147 164 0
133 149 0
141 159 0
135 154 0
141 157 0
141 158 0
140 157 0
136 152 0
133 151 0
129 145 0
140 157 0
136 152 0
131 146 0
142 159 0
136 153 0
144 162 0
145 162 0
137 152 0
146 163 0
138 153 0
141 157 0
142 156 0
135 151 0
141 156 0
140 155 0
140 157 0
141 156 0
152 168 0
140 153 0
137 151 0
142 156 0
141 155 0
125 139 0
143 156 0
140 155 0
143 156 0
138 150 0
145 157 0
136 147 0
150 162 0
148 159 0
138 152 0
142 153 0
147 161 0
144 157 0
139 150 0
148 162 0
139 152 0
137 148 0
129 142 0
131 138 0
146 157 0
135 146 0
138 147 0
142 152 0
149 159 0
141 149 0
139 150 0
139 148 0
146 156 0
141 149 0
139 148 0
142 151 0
141 152 0
122 130 0
135 142 0
143 150 0
139 148 0
141 149 0
139 146 0
145 152 0
144 150 0
146 156 0
142 149 0
142 150 0
130 137 0
150 158 0
143 151 0
150 158 0
138 143 0
144 150 0
139 143 0
140 146 0
138 142 0
136 140 0
141 146 0
138 146 0
144 148 0
146 152 0
143 151 0
143 149 0
141 146 0
142 147 0
147 153 0
131 131 0
146 152 0
140 145 0
148 155 0
131 134 0
145 150 0
146 151 0
151 158 0
130 135 0
141 143 0
136 140 0
145 151 0
143 148 0
136 140 0
142 146 0
147 155 0
141 148 0
152 162 0
146 152 0
144 149 0
149 156 0
152 158 0
155 165 0
152 158 0
146 150 0
150 157 0
150 160 0
148 157 0
153 162 0
153 163 0
145 154 0
154 164 0
154 166 0
150 157 0
154 166 0
155 164 0
152 163 0
155 165 0
155 163 0
157 167 0
157 169 0
173 194 0
175 197 0
175 196 0
173 195 0
174 196 0
172 193 0
172 193 0
175 195 0
176 197 0
174 194 0
172 193 0
174 195 0
174 196 0
174 195 0
172 194 0
175 196 0
177 197 0
173 194 0
175 196 0
172 193 0
177 197 0
172 193 0
176 197 0
174 194 0
173 194 0
171 192 0
170 191 0
170 190 0
171 191 0
170 190 0
170 191 0
173 194 0
175 194 0
172 193 0
174 194 0
172 192 0
173 194 0
170 191 0
172 192 0
169 189 0
170 190 0
174 193 0
175 195 0
173 192 0
170 190 0
169 189 0
167 188 0
173 194 0
172 193 0
167 187 0
174 193 0
170 191 0
169 189 0
165 186 0
166 186 0
169 189 0
169 189 0
169 190 0
170 190 0
175 194 0
170 191 0
168 188 0
163 184 0
169 190 0
165 185 0
166 187 0
165 186 0
168 189 0
169 189 0
162 182 0
161 182 0
170 192 0
165 185 0
157 178 0
170 190 0
162 184 0
164 184 0
157 178 0
161 182 0
162 183 0
163 185 0
157 180 0
159 180 0
155 176 0
163 183 0
160 181 0
164 185 0
156 177 0
167 188 0
160 181 0
159 180 0
158 180 0
166 188 0
162 184 0
161 183 0
163 185 0
158 180 0
164 186 0
162 184 0
164 186 0
157 179 0
160 180 0
156 178 0
163 184 0
162 184 0
160 182 0
155 177 0
159 182 0
150 173 0
153 174 0
154 176 0
149 172 0
154 175 0
159 180 0
152 174 0
152 174 0
155 178 0
153 175 0
162 184 0
159 182 0
158 180 0
148 170 0
160 181 0
144 165 0
159 182 0
154 177 0
157 180 0
159 181 0
148 170 0
152 174 0
150 172 0
155 177 0
156 178 0
155 177 0
151 173 0
152 174 0
148 169 0
149 171 0
153 174 0
150 172 0
158 181 0
150 173 0
151 173 0
145 167 0
155 177 0
146 169 0
154 176 0
147 169 0
151 172 0
147 169 0
152 175 0
152 174 0
143 165 0
139 160 0
157 178 0
150 173 0
152 173 0
147 170 0
145 168 0
139 160 0
151 174 0
144 165 0
143 163 0
138 159 0
144 166 0
145 166 0
137 159 0
144 165 0
136 157 0
132 152 0
143 164 0
147 169 0
155 177 0
135 156 0
140 160 0
149 171 0
142 161 0
137 158 0
141 164 0
141 163 0
148 170 0
140 162 0
137 156 0
140 162 0
130 151 0
138 159 0
145 165 0
140 161 0
141 162 0
134 155 0
138 158 0
137 158 0
133 154 0
138 159 0
142 164 0
132 153 0
140 162 0
133 154 0
144 165 0
140 159 0
139 160 0
146 167 0
128 147 0
141 161 0
143 164 0
150 170 0
145 165 0
140 162 0
136 157 0
138 158 0
137 157 0
141 161 0
141 162 0
147 167 0
137 157 0
138 157 0
142 162 0
144 164 0
137 157 0
139 159 0
136 156 0
139 158 0
140 159 0
145 165 0
143 164 0
141 161 0
129 146 0
138 158 0
133 152 0
135 154 0
138 156 0
141 161 0
140 159 0
140 161 0
139 159 0
143 162 0
140 161 0
145 164 0
131 149 0
135 153 0
140 158 0
139 158 0
142 161 0
132 152 0
134 154 0
143 162 0
142 161 0
153 172 0
143 164 0
146 165 0
147 166 0
139 159 0
145 164 0
140 159 0
141 162 0
141 159 0
135 153 0
145 165 0
139 157 0
151 170 0
143 161 0
140 157 0
147 161 0
139 155 0
145 162 0
138 154 0
146 163 0
145 164 0
144 159 0
151 169 0
148 165 0
142 160 0
137 154 0
148 166 0
141 157 0
140 156 0
135 150 0
145 163 0
146 162 0
139 152 0
143 160 0
148 164 0
136 151 0
144 163 0
140 153 0
135 151 0
142 159 0
146 162 0
141 156 0
142 156 0
147 162 0
141 157 0
137 152 0
142 158 0
138 152 0
150 163 0
139 153 0
138 149 0
138 153 0
146 161 0
137 150 0
146 160 0
138 151 0
133 145 0
137 152 0
139 151 0
140 152 0
141 154 0
133 145 0
141 154 0
142 155 0
145 156 0
135 148 0
137 148 0
139 153 0
140 150 0
145 156 0
145 155 0
151 162 0
146 157 0
139 150 0
140 151 0
145 155 0
145 157 0
139 149 0
145 155 0
138 147 0
141 151 0
138 147 0
143 150 0
128 136 0
147 157 0
141 150 0
135 143 0
139 146 0
149 161 0
144 152 0
147 156 0
139 147 0
138 145 0
143 149 0
142 149 0
137 142 0
146 152 0
139 145 0
142 152 0
145 152 0
140 148 0
149 155 0
141 147 0
142 147 0
137 144 0
144 153 0
152 161 0
148 156 0
137 139 0
144 151 0
147 151 0
151 159 0
147 155 0
142 146 0
145 151 0
141 145 0
149 157 0
144 148 0
138 146 0
144 150 0
145 150 0
144 149 0
135 141 0
148 155 0
152 158 0
149 156 0
146 152 0
145 152 0
146 154 0
152 159 0
146 154 0
143 148 0
149 155 0
148 155 0
148 153 0
146 153 0
149 156 0
154 164 0
146 156 0
143 149 0
146 153 0
153 161 0
150 158 0
152 161 0
150 158 0
154 163 0
144 150 0
156 165 0
153 162 0
155 163 0
155 166 0
153 161 0
149 157 0
173 195 0
171 192 0
174 196 0
175 196 0
175 195 0
171 193 0
171 192 0
173 194 0
176 197 0
175 196 0
172 193 0
174 195 0
174 194 0
170 191 0
170 190 0
171 192 0
170 191 0
174 195 0
175 196 0
174 195 0
175 194 0
168 189 0
177 198 0
167 188 0
174 194 0
167 188 0
172 193 0
173 193 0
172 193 0
173 193 0
176 196 0
171 192 0
172 192 0
172 192 0
172 192 0
172 193 0
172 192 0
170 190 0
170 191 0
174 194 0
166 188 0
172 192 0
175 196 0
168 189 0
170 191 0
171 192 0
172 193 0
168 190 0
169 189 0
169 189 0
169 189 0
173 194 0
169 189 0
168 188 0
167 188 0
169 189 0
168 189 0
167 187 0
167 188 0
169 189 0
167 187 0
166 187 0
170 191 0
166 187 0
166 187 0
167 188 0
169 189 0
165 186 0
161 182 0
164 185 0
168 189 0
161 182 0
167 189 0
165 187 0
163 184 0
166 187 0
158 177 0
160 182 0
165 185 0
162 183 0
160 181 0
168 189 0
165 187 0
158 178 0
162 184 0
161 182 0
163 185 0
162 184 0
159 180 0
156 178 0
160 182 0
160 181 0
165 186 0
155 176 0
161 183 0
157 179 0
155 177 0
162 184 0
158 180 0
155 177 0
161 184 0
156 178 0
157 178 0
148 170 0
158 180 0
158 180 0
150 171 0
156 178 0
153 175 0
150 171 0
158 181 0
149 172 0
147 169 0
156 177 0
162 184 0
154 176 0
153 176 0
155 176 0
153 175 0
149 170 0
159 181 0
147 170 0
152 174 0
155 176 0
151 173 0
150 172 0
158 180 0
154 175 0
162 184 0
148 169 0
152 175 0
161 183 0
144 165 0
157 177 0
151 172 0
146 168 0
149 171 0
151 173 0
152 175 0
148 170 0
154 176 0
143 164 0
154 176 0
151 173 0
143 165 0
158 179 0
147 170 0
153 175 0
145 168 0
150 173 0
148 171 0
148 170 0
139 161 0
151 173 0
146 167 0
149 170 0
143 165 0
145 166 0
146 167 0
146 167 0
141 163 0
147 169 0
146 167 0
143 165 0
144 167 0
147 168 0
142 163 0
143 164 0
153 175 0
147 168 0
143 164 0
144 166 0
153 174 0
149 170 0
135 156 0
144 165 0
136 157 0
148 169 0
144 164 0
146 167 0
137 156 0
146 167 0
142 163 0
144 163 0
141 162 0
149 172 0
138 159 0
136 157 0
142 162 0
144 165 0
138 159 0
139 160 0
133 154 0
144 165 0
144 165 0
140 160 0
147 168 0
141 161 0
135 156 0
142 162 0
135 156 0
145 165 0
138 157 0
137 158 0
135 156 0
141 161 0
139 160 0
143 164 0
141 161 0
136 156 0
139 159 0
138 158 0
142 162 0
134 156 0
141 161 0
134 153 0
140 159 0
143 163 0
143 164 0
140 160 0
134 155 0
138 158 0
147 168 0
147 168 0
128 147 0
139 159 0
147 166 0
144 165 0
134 154 0
136 156 0
142 162 0
137 157 0
136 156 0
149 167 0
134 154 0
146 166 0
148 167 0
138 158 0
134 155 0
135 154 0
135 152 0
134 153 0
144 165 0
133 152 0
142 161 0
137 157 0
139 156 0
131 149 0
130 147 0
142 159 0
148 168 0
139 157 0
145 164 0
145 162 0
141 158 0
153 171 0
141 158 0
146 165 0
144 163 0
138 156 0
146 162 0
147 163 0
144 163 0
145 165 0
143 159 0
145 163 0
136 153 0
142 163 0
141 159 0
140 156 0
146 161 0
147 164 0
148 166 0
145 163 0
139 156 0
143 161 0
149 164 0
140 156 0
146 163 0
139 155 0
143 159 0
140 156 0
146 162 0
142 160 0
138 155 0
134 148 0
146 162 0
139 155 0
146 164 0
147 163 0
146 163 0
142 157 0
144 160 0
147 164 0
141 156 0
135 150 0
150 165 0
143 157 0
149 167 0
150 164 0
145 159 0
139 154 0
140 152 0
141 152 0
146 162 0
147 161 0
141 152 0
144 158 0
142 156 0
142 157 0
143 156 0
148 161 0
143 154 0
144 155 0
139 150 0
135 145 0
142 154 0
134 145 0
138 148 0
142 152 0
139 150 0
145 157 0
142 155 0
135 145 0
140 150 0
143 150 0
141 152 0
149 160 0
144 152 0
141 149 0
142 151 0
140 149 0
148 157 0
141 148 0
136 145 0
134 142 0
134 141 0
142 149 0
140 149 0
139 148 0
144 154 0
146 153 0
142 150 0
144 152 0
143 150 0
137 144 0
145 153 0
148 155 0
145 155 0
136 141 0
135 139 0
140 147 0
145 153 0
136 142 0
149 157 0
143 150 0
147 156 0
143 149 0
140 149 0
141 147 0
140 144 0
137 143 0
150 157 0
148 154 0
151 159 0
146 154 0
139 144 0
145 151 0
140 146 0
151 156 0
152 160 0
141 149 0
152 157 0
150 156 0
145 151 0
144 151 0
143 152 0
142 147 0
149 156 0
150 157 0
146 151 0
149 157 0
152 159 0
149 157 0
153 161 0
150 159 0
146 154 0
148 155 0
149 158 0
150 159 0
158 167 0
152 163 0
150 157 0
151 162 0
153 163 0
153 162 0
152 162 0
156 163 0
158 169 0
153 163 0
175 196 0
173 194 0
173 195 0
174 195 0
174 195 0
175 195 0
175 196 0
174 194 0
177 198 0
170 191 0
172 194 0
176 195 0
174 195 0
172 193 0
172 193 0
174 195 0
174 195 0
176 197 0
171 192 0
177 197 0
170 191 0
176 197 0
174 194 0
173 195 0
173 192 0
165 186 0
176 196 0
173 194 0
170 190 0
174 194 0
169 190 0
172 192 0
172 193 0
171 191 0
174 194 0
175 196 0
174 195 0
169 189 0
170 191 0
172 192 0
168 189 0
169 190 0
171 191 0
169 190 0
165 185 0
172 193 0
169 190 0
170 191 0
168 188 0
170 191 0
170 191 0
173 194 0
167 188 0
166 186 0
169 189 0
166 187 0
166 186 0
168 188 0
167 189 0
164 186 0
162 183 0
161 181 0
164 185 0
166 188 0
173 194 0
163 184 0
167 187 0
164 186 0
160 180 0
165 186 0
165 186 0
165 185 0
164 184 0
166 187 0
163 184 0
165 186 0
160 181 0
164 185 0
168 189 0
157 179 0
160 182 0
158 179 0
170 192 0
161 183 0
162 184 0
161 182 0
158 180 0
161 183 0
159 180 0
151 173 0
162 184 0
160 181 0
161 183 0
157 179 0
162 182 0
155 177 0
162 183 0
158 180 0
154 176 0
152 174 0
157 178 0
154 177 0
158 180 0
154 176 0
148 170 0
155 178 0
158 180 0
151 173 0
159 181 0
153 175 0
149 171 0
160 183 0
147 169 0
156 178 0
156 178 0
159 182 0
158 180 0
156 178 0
154 177 0
157 179 0
153 175 0
159 181 0
145 167 0
151 174 0
150 171 0
153 175 0
155 177 0
154 176 0
157 179 0
156 178 0
150 174 0
150 172 0
138 160 0
158 180 0
144 167 0
154 176 0
148 171 0
153 175 0
145 167 0
154 176 0
151 173 0
148 171 0
151 173 0
146 169 0
154 176 0
152 174 0
149 170 0
151 174 0
147 169 0
149 171 0
150 172 0
153 175 0
148 169 0
154 175 0
146 168 0
148 170 0
147 170 0
154 175 0
151 173 0
145 167 0
145 167 0
151 173 0
146 168 0
150 172 0
153 175 0
139 159 0
147 168 0
144 165 0
143 165 0
139 162 0
148 171 0
146 168 0
142 164 0
150 170 0
142 162 0
149 170 0
133 155 0
146 168 0
141 161 0
141 162 0
141 162 0
144 166 0
149 171 0
135 157 0
151 171 0
138 160 0
147 169 0
138 159 0
132 154 0
141 160 0
140 160 0
131 151 0
136 156 0
146 167 0
140 160 0
139 158 0
138 158 0
147 168 0
141 163 0
141 163 0
139 160 0
140 162 0
142 165 0
132 153 0
135 157 0
131 152 0
145 167 0
136 155 0
138 159 0
133 152 0
139 160 0
139 160 0
139 159 0
133 154 0
140 159 0
137 157 0
142 161 0
146 168 0
131 151 0
140 161 0
135 156 0
143 164 0
138 158 0
135 155 0
145 165 0
142 161 0
149 169 0
144 163 0
140 159 0
141 159 0
141 162 0
144 163 0
148 168 0
138 157 0
143 162 0
134 152 0
147 167 0
144 165 0
134 152 0
140 159 0
134 153 0
137 155 0
142 161 0
143 164 0
139 159 0
133 152 0
144 164 0
144 162 0
144 161 0
140 160 0
137 156 0
149 169 0
139 158 0
135 155 0
143 161 0
142 160 0
144 162 0
144 162 0
148 166 0
144 163 0
146 165 0
144 163 0
142 160 0
145 164 0
151 170 0
141 158 0
149 165 0
150 167 0
143 161 0
140 159 0
144 162 0
138 156 0
148 165 0
145 162 0
142 160 0
146 164 0
145 163 0
144 161 0
146 163 0
146 163 0
146 164 0
141 157 0
133 150 0
144 160 0
148 166 0
143 158 0
146 163 0
142 157 0
142 158 0
142 158 0
142 158 0
142 159 0
148 166 0
137 152 0
139 155 0
141 156 0
150 165 0
143 159 0
143 156 0
144 157 0
142 155 0
154 170 0
144 160 0
148 163 0
142 155 0
140 154 0
143 158 0
143 157 0
142 155 0
151 166 0
150 165 0
139 151 0
144 158 0
140 152 0
144 157 0
143 155 0
140 150 0
140 154 0
143 155 0
145 159 0
142 152 0
147 158 0
136 146 0
154 168 0
147 156 0
148 159 0
139 150 0
140 151 0
146 158 0
136 147 0
153 163 0
131 139 0
141 151 0
136 143 0
146 154 0
146 155 0
138 145 0
139 146 0
141 150 0
136 145 0
143 153 0
152 163 0
133 142 0
139 150 0
141 148 0
139 146 0
139 146 0
141 149 0
137 143 0
143 152 0
152 162 0
143 150 0
141 150 0
144 151 0
146 152 0
150 161 0
138 145 0
147 156 0
139 146 0
155 165 0
128 132 0
149 159 0
149 155 0
144 148 0
144 150 0
148 153 0
150 157 0
154 162 0
153 159 0
140 143 0
148 156 0
146 154 0
142 149 0
147 154 0
145 152 0
150 158 0
144 149 0
142 147 0
146 153 0
146 154 0
147 154 0
143 149 0
142 148 0
153 162 0
152 158 0
146 155 0
155 163 0
148 154 0
153 161 0
156 165 0
161 171 0
147 154 0
151 161 0
154 161 0
156 168 0
153 161 0
159 169 0
161 172 0
151 160 0
148 157 0
174 196 0
172 193 0
173 195 0
176 197 0
175 195 0
174 195 0
173 195 0
175 196 0
176 197 0
172 193 0
174 194 0
176 197 0
173 194 0
174 194 0
171 192 0
171 192 0
175 197 0
172 194 0
172 193 0
173 193 0
172 193 0
170 190 0
176 196 0
176 197 0
175 195 0
172 193 0
169 189 0
174 195 0
172 193 0
173 194 0
172 193 0
171 192 0
171 192 0
168 188 0
172 193 0
169 190 0
172 192 0
171 192 0
172 192 0
167 188 0
167 188 0
170 191 0
169 189 0
164 185 0
169 190 0
172 194 0
165 185 0
165 186 0
166 187 0
169 191 0
167 187 0
172 192 0
166 186 0
169 189 0
162 183 0
168 189 0
168 189 0
169 190 0
169 189 0
167 189 0
167 188 0
166 187 0
165 187 0
160 182 0
164 184 0
166 187 0
166 187 0
163 184 0
170 191 0
167 187 0
166 188 0
161 182 0
161 183 0
165 187 0
162 184 0
155 177 0
158 180 0
157 179 0
160 182 0
168 190 0
164 185 0
157 178 0
162 184 0
159 180 0
162 183 0
166 187 0
160 182 0
160 182 0
155 176 0
165 186 0
158 180 0
165 187 0
156 177 0
154 175 0
158 180 0
158 179 0
157 179 0
160 181 0
153 175 0
159 182 0
160 182 0
164 186 0
160 181 0
159 180 0
159 181 0
156 178 0
160 182 0
157 179 0
153 176 0
164 187 0
163 186 0
155 177 0
157 180 0
150 173 0
155 176 0
153 175 0
159 180 0
153 175 0
153 175 0
154 176 0
155 178 0
155 177 0
152 175 0
159 181 0
158 181 0
161 183 0
153 176 0
159 181 0
155 176 0
154 177 0
152 175 0
151 174 0
151 173 0
154 176 0
148 170 0
150 172 0
145 167 0
159 181 0
150 171 0
158 179 0
146 168 0
149 171 0
151 173 0
150 172 0
148 171 0
143 165 0
150 172 0
140 162 0
150 173 0
149 170 0
152 174 0
148 170 0
150 172 0
150 171 0
150 172 0
152 174 0
146 169 0
153 175 0
148 169 0
148 170 0
149 170 0
146 168 0
144 165 0
144 164 0
145 166 0
144 167 0
149 171 0
142 164 0
146 167 0
143 165 0
139 160 0
149 171 0
148 169 0
147 168 0
143 165 0
147 167 0
150 171 0
149 172 0
140 161 0
145 167 0
137 157 0
148 170 0
138 160 0
147 169 0
138 160 0
142 163 0
137 159 0
141 163 0
144 167 0
135 155 0
139 160 0
146 166 0
153 174 0
137 158 0
139 161 0
136 156 0
148 168 0
138 161 0
136 154 0
145 165 0
134 156 0
145 166 0
143 165 0
135 154 0
148 168 0
144 165 0
141 162 0
134 155 0
133 153 0
133 153 0
138 160 0
144 165 0
140 161 0
141 162 0
139 159 0
133 153 0
144 164 0
146 166 0
142 162 0
146 167 0
143 165 0
144 165 0
137 157 0
142 163 0
143 164 0
136 157 0
140 159 0
142 162 0
139 159 0
139 160 0
143 162 0
145 166 0
140 161 0
137 156 0
143 164 0
144 164 0
150 171 0
138 157 0
134 153 0
137 157 0
143 162 0
147 166 0
142 162 0
143 165 0
139 159 0
137 157 0
144 165 0
145 165 0
148 166 0
140 159 0
145 163 0
147 165 0
143 162 0
142 163 0
134 150 0
152 171 0
140 161 0
145 163 0
144 163 0
134 152 0
139 156 0
136 156 0
140 157 0
149 168 0
137 155 0
146 164 0
143 162 0
144 162 0
148 167 0
134 152 0
142 161 0
147 165 0
150 166 0
134 152 0
148 166 0
146 163 0
141 158 0
135 151 0
139 156 0
145 161 0
146 164 0
148 165 0
140 156 0
146 165 0
141 158 0
141 159 0
146 163 0
148 166 0
148 165 0
136 153 0
141 159 0
140 155 0
145 161 0
147 164 0
147 162 0
141 156 0
146 162 0
141 156 0
145 161 0
146 162 0
140 154 0
141 156 0
141 155 0
138 152 0
150 165 0
138 149 0
144 158 0
139 151 0
143 155 0
131 145 0
143 154 0
144 158 0
139 152 0
149 162 0
146 159 0
141 156 0
137 150 0
141 155 0
147 158 0
145 160 0
148 161 0
138 148 0
143 157 0
142 153 0
134 144 0
147 157 0
146 157 0
145 155 0
146 155 0
140 147 0
144 155 0
142 153 0
142 151 0
143 153 0
142 150 0
143 152 0
147 158 0
137 145 0
142 151 0
146 157 0
147 155 0
146 154 0
140 149 0
142 149 0
144 155 0
153 159 0
147 156 0
141 152 0
143 150 0
141 152 0
148 155 0
142 150 0
140 148 0
149 160 0
140 145 0
138 145 0
139 144 0
141 149 0
147 156 0
144 153 0
138 144 0
145 153 0
148 156 0
146 154 0
152 159 0
143 149 0
143 149 0
143 151 0
153 158 0
153 161 0
144 152 0
143 150 0
149 155 0
146 153 0
146 154 0
144 152 0
150 159 0
142 151 0
139 144 0
141 149 0
136 140 0
143 153 0
154 164 0
146 155 0
148 155 0
151 161 0
150 156 0
151 162 0
153 160 0
150 158 0
152 161 0
152 159 0
155 168 0
152 161 0
152 162 0
158 169 0
152 164 0
156 164 0
157 166 0
150 159 0
175 196 0
174 196 0
175 195 0
173 193 0
176 197 0
174 195 0
170 192 0
175 196 0
173 194 0
175 197 0
174 196 0
175 196 0
174 195 0
173 193 0
172 193 0
177 197 0
173 194 0
171 192 0
174 194 0
173 194 0
170 192 0
174 194 0
173 194 0
169 190 0
178 197 0
171 191 0
172 193 0
170 189 0
165 185 0
168 189 0
172 193 0
171 192 0
171 191 0
169 189 0
169 190 0
167 188 0
175 196 0
166 187 0
173 193 0
173 194 0
169 189 0
170 190 0
172 193 0
171 191 0
165 186 0
167 187 0
171 192 0
172 193 0
169 189 0
169 189 0
168 189 0
167 188 0
168 189 0
166 187 0
168 188 0
166 188 0
170 189 0
162 183 0
168 188 0
162 182 0
161 183 0
169 190 0
163 184 0
165 186 0
159 180 0
167 188 0
163 184 0
162 184 0
162 183 0
157 177 0
163 184 0
167 188 0
161 182 0
165 186 0
162 183 0
162 184 0
162 184 0
159 181 0
151 173 0
160 180 0
157 179 0
160 182 0
158 180 0
167 189 0
154 177 0
167 188 0
161 183 0
159 182 0
158 181 0
163 185 0
162 184 0
163 186 0
158 181 0
151 173 0
160 181 0
164 187 0
158 180 0
156 177 0
153 176 0
160 181 0
154 175 0
153 175 0
160 181 0
161 184 0
157 179 0
160 183 0
155 178 0
156 178 0
155 178 0
150 172 0
153 176 0
158 181 0
158 180 0
155 177 0
152 173 0
156 178 0
151 173 0
160 183 0
159 183 0
162 184 0
153 176 0
155 175 0
148 170 0
151 174 0
153 176 0
149 172 0
157 178 0
149 171 0
151 172 0
159 181 0
157 180 0
156 178 0
148 171 0
150 172 0
154 175 0
154 176 0
148 171 0
152 174 0
146 167 0
158 181 0
153 175 0
147 170 0
150 171 0
147 169 0
143 165 0
151 173 0
148 169 0
150 171 0
152 174 0
154 175 0
151 173 0
148 169 0
151 172 0
152 173 0
144 167 0
145 166 0
146 168 0
147 169 0
151 173 0
158 180 0
152 173 0
142 164 0
144 165 0
145 166 0
151 172 0
148 169 0
144 166 0
150 171 0
146 168 0
159 181 0
144 167 0
148 170 0
151 173 0
145 166 0
140 163 0
153 175 0
132 154 0
144 165 0
143 165 0
143 163 0
143 164 0
149 170 0
143 163 0
143 162 0
144 165 0
146 168 0
138 158 0
144 165 0
138 158 0
145 166 0
147 168 0
137 158 0
143 164 0
137 157 0
131 152 0
142 164 0
150 170 0
139 160 0
147 166 0
132 151 0
141 161 0
148 168 0
148 170 0
139 161 0
138 159 0
151 172 0
143 164 0
147 168 0
138 159 0
140 160 0
143 162 0
142 162 0
143 163 0
146 166 0
140 160 0
135 155 0
141 161 0
144 166 0
141 162 0
138 158 0
135 157 0
143 164 0
144 164 0
140 159 0
132 151 0
143 165 0
136 157 0
134 154 0
145 165 0
139 157 0
141 161 0
147 166 0
141 161 0
135 155 0
141 161 0
138 159 0
143 161 0
143 161 0
141 160 0
144 164 0
145 165 0
141 161 0
140 160 0
139 158 0
140 160 0
142 162 0
140 160 0
142 162 0
144 162 0
137 155 0
135 153 0
136 155 0
142 161 0
148 168 0
146 164 0
152 172 0
145 165 0
146 165 0
147 165 0
133 150 0
145 164 0
143 162 0
148 167 0
138 157 0
139 156 0
151 171 0
144 164 0
147 164 0
142 160 0
142 160 0
143 161 0
144 163 0
156 174 0
138 159 0
148 165 0
149 166 0
150 167 0
136 153 0
143 161 0
145 165 0
142 161 0
141 157 0
146 164 0
144 160 0
141 157 0
132 149 0
148 164 0
141 157 0
148 167 0
141 157 0
133 148 0
147 162 0
138 152 0
134 148 0
145 163 0
147 164 0
143 159 0
136 150 0
144 158 0
149 165 0
151 169 0
137 151 0
150 167 0
141 155 0
141 152 0
155 172 0
144 156 0
144 157 0
150 164 0
147 163 0
140 153 0
152 165 0
135 149 0
150 162 0
139 153 0
141 153 0
146 158 0
141 154 0
147 160 0
150 164 0
148 162 0
141 152 0
146 158 0
147 159 0
142 153 0
136 146 0
144 152 0
141 153 0
139 153 0
141 151 0
147 158 0
143 155 0
146 159 0
137 145 0
142 151 0
141 151 0
152 164 0
143 153 0
141 149 0
144 156 0
136 142 0
143 152 0
146 157 0
139 149 0
145 155 0
147 156 0
144 152 0
143 150 0
141 148 0
142 150 0
136 145 0
149 157 0
147 156 0
139 144 0
145 152 0
141 147 0
147 156 0
147 158 0
140 148 0
145 154 0
150 156 0
141 148 0
151 159 0
145 156 0
145 154 0
144 149 0
145 154 0
149 156 0
155 167 0
149 158 0
143 150 0
146 152 0
147 156 0
146 155 0
144 150 0
148 155 0
153 161 0
150 154 0
152 162 0
147 156 0
144 151 0
144 152 0
154 161 0
147 155 0
151 159 0
148 158 0
150 158 0
158 169 0
152 161 0
148 153 0
156 168 0
152 159 0
146 154 0
147 154 0
147 155 0
152 163 0
148 158 0
153 163 0
155 165 0
156 164 0
171 193 0
175 196 0
174 195 0
172 194 0
173 195 0
176 196 0
171 193 0
173 193 0
173 195 0
174 195 0
176 196 0
172 194 0
172 193 0
174 195 0
170 192 0
175 196 0
170 191 0
175 196 0
172 193 0
170 190 0
174 195 0
167 188 0
170 191 0
175 195 0
170 191 0
171 191 0
173 195 0
175 194 0
171 192 0
170 191 0
170 190 0
173 193 0
168 189 0
170 191 0
170 191 0
173 194 0
176 196 0
170 192 0
172 193 0
169 190 0
172 192 0
174 195 0
166 187 0
173 195 0
168 190 0
167 188 0
172 192 0
168 189 0
170 191 0
163 184 0
169 189 0
167 187 0
172 193 0
172 193 0
163 184 0
167 188 0
165 186 0
166 187 0
169 190 0
165 186 0
166 186 0
167 188 0
165 186 0
169 190 0
165 187 0
167 188 0
168 190 0
160 181 0
159 181 0
166 188 0
168 190 0
159 181 0
161 182 0
158 180 0
162 183 0
164 186 0
153 175 0
166 188 0
155 177 0
165 187 0
163 185 0
159 181 0
164 185 0
160 182 0
154 176 0
160 180 0
159 180 0
163 186 0
163 184 0
156 179 0
161 183 0
161 184 0
154 175 0
161 184 0
157 180 0
155 177 0
160 182 0
156 179 0
156 178 0
149 171 0
163 184 0
160 183 0
153 176 0
161 183 0
156 179 0
153 174 0
158 181 0
151 174 0
154 175 0
156 178 0
160 183 0
151 173 0
154 176 0
153 174 0
155 177 0
153 175 0
156 180 0
158 180 0
156 179 0
152 175 0
158 181 0
153 175 0
157 180 0
160 183 0
153 176 0
149 172 0
155 177 0
147 168 0
151 173 0
150 172 0
154 176 0
158 180 0
150 172 0
151 173 0
155 177 0
150 173 0
150 172 0
143 165 0
148 170 0
150 173 0
147 169 0
153 175 0
149 170 0
150 172 0
151 173 0
145 167 0
142 164 0
147 169 0
150 172 0
144 165 0
152 175 0
148 170 0
154 176 0
145 167 0
150 171 0
145 166 0
150 172 0
140 161 0
149 171 0
145 168 0
153 173 0
138 160 0
150 171 0
150 172 0
147 168 0
146 167 0
151 173 0
150 171 0
143 165 0
144 166 0
151 171 0
152 174 0
141 163 0
145 168 0
145 167 0
144 166 0
144 166 0
138 160 0
146 167 0
146 168 0
140 161 0
145 165 0
149 170 0
147 167 0
147 168 0
149 170 0
144 165 0
146 167 0
144 167 0
153 174 0
148 171 0
146 167 0
152 173 0
144 164 0
150 171 0
144 165 0
140 161 0
146 167 0
144 165 0
140 160 0
143 164 0
147 167 0
142 161 0
147 168 0
144 165 0
147 167 0
150 171 0
145 165 0
142 162 0
140 160 0
147 167 0
144 164 0
137 159 0
140 160 0
140 161 0
145 165 0
147 167 0
142 162 0
150 171 0
147 167 0
144 163 0
142 160 0
148 169 0
146 167 0
140 161 0
146 167 0
142 160 0
149 170 0
141 161 0
140 159 0
140 160 0
147 168 0
134 155 0
143 163 0
142 162 0
143 162 0
141 160 0
139 160 0
143 164 0
137 158 0
148 169 0
137 156 0
145 164 0
139 159 0
150 168 0
141 161 0
140 159 0
133 149 0
143 162 0
145 165 0
146 165 0
138 158 0
140 160 0
148 167 0
132 150 0
145 165 0
130 148 0
142 161 0
140 158 0
141 160 0
141 159 0
147 166 0
145 164 0
144 163 0
147 164 0
146 166 0
139 158 0
141 160 0
141 160 0
147 165 0
138 156 0
141 159 0
151 170 0
142 162 0
143 162 0
134 151 0
143 161 0
149 167 0
139 158 0
141 158 0
140 156 0
150 168 0
135 152 0
143 159 0
145 160 0
142 158 0
144 160 0
148 165 0
150 166 0
146 164 0
146 162 0
142 158 0
140 155 0
138 155 0
142 155 0
144 158 0
149 167 0
144 160 0
135 150 0
140 155 0
143 158 0
143 158 0
148 162 0
145 159 0
147 161 0
144 157 0
148 161 0
146 159 0
148 161 0
139 151 0
147 161 0
131 141 0
148 163 0
143 157 0
134 145 0
145 159 0
149 164 0
143 157 0
144 155 0
151 163 0
142 154 0
137 149 0
142 153 0
146 158 0
149 162 0
137 149 0
151 164 0
146 158 0
146 158 0
148 164 0
146 158 0
140 153 0
148 160 0
152 165 0
145 154 0
145 156 0
138 147 0
146 156 0
141 152 0
142 153 0
146 158 0
145 155 0
148 160 0
143 154 0
143 153 0
144 153 0
151 161 0
144 154 0
157 168 0
145 154 0
143 150 0
143 150 0
144 151 0
150 160 0
142 151 0
141 150 0
150 159 0
150 158 0
141 148 0
145 155 0
144 154 0
145 152 0
154 162 0
140 149 0
147 157 0
150 158 0
146 152 0
148 157 0
147 154 0
143 147 0
146 151 0
142 151 0
149 157 0
144 153 0
146 155 0
139 146 0
148 156 0
152 160 0
149 157 0
149 156 0
149 157 0
147 155 0
148 154 0
145 154 0
146 156 0
143 151 0
159 169 0
143 149 0
157 168 0
149 160 0
152 160 0
147 154 0
152 162 0
150 159 0
154 163 0
154 162 0
155 163 0
147 154 0
157 167 0
156 166 0
177 198 0
171 193 0
171 193 0
170 191 0
170 191 0
173 194 0
173 195 0
175 196 0
172 193 0
172 194 0
174 195 0
172 192 0
170 191 0
175 195 0
171 192 0
175 196 0
173 194 0
171 193 0
172 193 0
171 193 0
172 193 0
173 194 0
170 192 0
175 196 0
172 193 0
173 194 0
170 190 0
174 195 0
170 191 0
175 196 0
172 193 0
170 191 0
165 187 0
171 192 0
172 193 0
170 191 0
167 188 0
169 190 0
171 192 0
169 190 0
173 194 0
165 187 0
168 189 0
164 185 0
169 190 0
163 184 0
171 192 0
167 188 0
172 193 0
163 183 0
171 191 0
170 191 0
168 189 0
172 194 0
163 184 0
169 190 0
172 193 0
166 186 0
169 191 0
169 190 0
165 186 0
164 186 0
168 189 0
160 180 0
164 185 0
166 187 0
163 185 0
166 188 0
162 184 0
160 182 0
166 188 0
163 185 0
165 186 0
160 182 0
165 187 0
161 183 0
158 180 0
159 180 0
155 176 0
161 182 0
161 183 0
159 181 0
153 175 0
164 186 0
154 177 0
163 185 0
161 182 0
154 175 0
157 179 0
158 180 0
160 182 0
156 178 0
157 179 0
163 184 0
167 189 0
159 182 0
156 179 0
155 177 0
161 184 0
164 186 0
157 180 0
154 176 0
154 177 0
154 176 0
162 184 0
150 172 0
151 174 0
153 176 0
160 183 0
160 183 0
157 180 0
158 180 0
159 182 0
154 176 0
156 178 0
154 177 0
150 172 0
155 177 0
159 182 0
154 176 0
161 183 0
156 178 0
158 180 0
153 175 0
148 171 0
160 183 0
156 178 0
154 177 0
153 173 0
143 165 0
152 174 0
152 174 0
158 179 0
153 176 0
158 181 0
153 174 0
148 171 0
141 162 0
158 181 0
156 179 0
146 167 0
154 177 0
146 168 0
148 170 0
153 175 0
157 179 0
153 176 0
150 171 0
152 174 0
152 174 0
153 175 0
154 176 0
145 167 0
141 163 0
146 168 0
150 172 0
148 170 0
150 172 0
153 176 0
148 170 0
140 161 0
147 169 0
145 166 0
153 174 0
145 167 0
140 162 0
150 171 0
151 173 0
147 169 0
140 162 0
140 163 0
152 174 0
146 168 0
149 171 0
149 171 0
149 171 0
148 170 0
149 171 0
140 161 0
145 166 0
145 167 0
146 167 0
149 171 0
144 166 0
146 167 0
153 174 0
136 158 0
142 164 0
146 168 0
150 172 0
142 165 0
139 160 0
144 165 0
143 165 0
146 167 0
149 170 0
146 167 0
150 171 0
148 170 0
156 178 0
137 157 0
146 168 0
145 167 0
144 166 0
147 169 0
143 164 0
148 168 0
148 170 0
147 168 0
142 162 0
138 157 0
137 158 0
131 152 0
150 170 0
142 163 0
154 177 0
149 170 0
143 163 0
139 159 0
138 161 0
144 165 0
153 173 0
144 166 0
151 171 0
135 154 0
140 161 0
139 158 0
143 164 0
138 159 0
147 168 0
138 158 0
142 163 0
140 159 0
143 164 0
142 162 0
140 159 0
132 151 0
137 157 0
145 166 0
148 168 0
144 164 0
144 164 0
138 156 0
141 161 0
145 165 0
138 156 0
141 161 0
140 158 0
145 164 0
148 169 0
141 161 0
146 165 0
142 161 0
141 160 0
147 166 0
144 162 0
152 170 0
137 157 0
149 168 0
147 165 0
146 165 0
143 164 0
147 167 0
152 172 0
139 156 0
150 169 0
149 167 0
143 159 0
151 169 0
142 161 0
142 160 0
139 157 0
144 164 0
145 163 0
143 161 0
151 168 0
142 158 0
154 173 0
140 158 0
145 165 0
151 169 0
142 159 0
137 154 0
132 149 0
142 159 0
138 156 0
140 157 0
143 158 0
140 157 0
146 162 0
138 157 0
152 169 0
145 161 0
135 152 0
145 160 0
144 161 0
149 165 0
143 159 0
145 160 0
147 164 0
150 165 0
142 159 0
136 151 0
138 150 0
159 175 0
138 153 0
135 150 0
145 161 0
147 163 0
148 162 0
151 165 0
155 168 0
140 154 0
141 154 0
142 155 0
154 168 0
153 167 0
144 157 0
138 150 0
141 154 0
142 153 0
141 153 0
145 159 0
146 160 0
147 161 0
143 156 0
143 157 0
146 159 0
146 159 0
145 158 0
144 156 0
149 162 0
144 155 0
143 154 0
149 161 0
140 150 0
149 159 0
148 158 0
148 160 0
146 157 0
145 155 0
143 153 0
138 151 0
151 163 0
151 158 0
142 153 0
143 153 0
144 152 0
150 159 0
138 145 0
151 162 0
142 152 0
143 152 0
152 163 0
147 157 0
146 156 0
144 151 0
146 156 0
143 151 0
151 162 0
145 156 0
146 157 0
148 158 0
152 162 0
152 163 0
148 154 0
151 160 0
143 148 0
150 158 0
142 148 0
156 166 0
150 159 0
148 156 0
149 153 0
154 163 0
148 156 0
149 162 0
155 164 0
157 169 0
155 166 0
156 165 0
146 153 0
148 156 0
147 158 0
151 158 0
154 162 0
151 159 0
153 161 0
150 162 0
153 160 0
156 166 0
155 167 0
148 155 0
148 157 0
151 162 0
151 160 0
161 174 0
155 166 0
152 161 0
159 171 0
171 194 0
171 192 0
171 193 0
172 193 0
177 197 0
176 196 0
174 195 0
174 195 0
172 193 0
175 197 0
174 195 0
175 196 0
171 192 0
171 192 0
172 193 0
173 194 0
171 192 0
174 195 0
173 194 0
168 189 0
172 194 0
171 192 0
167 189 0
172 193 0
173 194 0
170 191 0
173 194 0
171 191 0
169 190 0
175 196 0
170 192 0
170 192 0
169 190 0
173 194 0
172 193 0
167 188 0
168 187 0
171 192 0
166 186 0
170 190 0
169 191 0
174 195 0
169 190 0
166 188 0
169 190 0
172 194 0
166 188 0
173 193 0
168 189 0
169 190 0
166 187 0
164 185 0
169 190 0
162 183 0
169 190 0
164 185 0
161 182 0
167 189 0
165 186 0
163 184 0
166 187 0
164 186 0
168 190 0
169 189 0
165 187 0
167 187 0
168 189 0
165 188 0
162 184 0
165 187 0
162 184 0
164 185 0
157 178 0
161 184 0
156 176 0
157 178 0
156 178 0
162 184 0
158 179 0
164 185 0
164 187 0
162 184 0
160 182 0
157 179 0
166 187 0
160 182 0
158 180 0
160 183 0
154 176 0
154 176 0
162 183 0
161 184 0
154 175 0
157 180 0
163 185 0
153 175 0
152 174 0
156 178 0
158 181 0
152 175 0
163 186 0
160 182 0
160 182 0
162 183 0
155 178 0
154 176 0
157 179 0
156 178 0
158 179 0
156 177 0
154 175 0
158 180 0
151 174 0
151 174 0
157 180 0
148 171 0
154 176 0
153 174 0
153 176 0
158 180 0
156 179 0
149 172 0
150 172 0
150 172 0
154 176 0
150 172 0
149 171 0
153 174 0
155 178 0
156 179 0
153 176 0
154 176 0
153 175 0
144 166 0
150 172 0
152 173 0
143 165 0
150 173 0
149 170 0
159 180 0
150 171 0
150 172 0
159 180 0
155 178 0
155 175 0
160 182 0
153 176 0
153 176 0
143 166 0
148 171 0
153 176 0
151 174 0
144 167 0
147 170 0
148 169 0
139 161 0
135 158 0
150 171 0
141 163 0
146 168 0
146 168 0
142 163 0
149 171 0
149 170 0
147 170 0
144 164 0
152 173 0
144 166 0
147 168 0
150 172 0
160 181 0
146 168 0
150 172 0
148 172 0
150 173 0
148 169 0
147 169 0
147 169 0
146 168 0
146 167 0
150 172 0
142 164 0
147 167 0
147 168 0
152 173 0
140 162 0
139 161 0
146 169 0
145 167 0
143 163 0
146 167 0
156 178 0
150 171 0
140 162 0
145 166 0
138 160 0
133 155 0
148 169 0
149 168 0
142 163 0
138 158 0
143 164 0
152 173 0
143 164 0
148 169 0
154 174 0
145 167 0
144 165 0
146 168 0
145 167 0
147 166 0
139 160 0
135 156 0
144 164 0
139 159 0
149 171 0
141 161 0
142 163 0
145 167 0
146 166 0
140 161 0
144 166 0
137 157 0
145 166 0
151 171 0
141 161 0
141 162 0
140 160 0
143 163 0
142 163 0
146 166 0
145 166 0
147 167 0
153 174 0
146 166 0
138 157 0
146 166 0
143 162 0
143 163 0
144 165 0
141 161 0
151 171 0
146 164 0
151 171 0
141 160 0
146 166 0
143 164 0
148 168 0
142 160 0
144 165 0
147 166 0
146 167 0
136 157 0
147 167 0
140 159 0
140 161 0
149 169 0
148 168 0
142 161 0
131 150 0
138 156 0
139 157 0
149 168 0
146 166 0
150 170 0
147 164 0
138 156 0
141 160 0
143 164 0
142 161 0
151 169 0
144 163 0
146 166 0
139 158 0
146 165 0
144 160 0
144 163 0
145 162 0
149 166 0
150 170 0
153 171 0
152 170 0
140 159 0
151 168 0
151 170 0
149 165 0
149 166 0
141 156 0
144 161 0
147 166 0
140 156 0
143 157 0
142 160 0
142 158 0
143 158 0
147 164 0
152 168 0
146 163 0
141 156 0
151 168 0
142 157 0
149 165 0
143 158 0
132 147 0
148 164 0
152 168 0
148 164 0
142 158 0
144 159 0
146 164 0
147 164 0
146 159 0
142 155 0
142 156 0
144 159 0
147 161 0
150 163 0
144 160 0
146 162 0
149 165 0
141 155 0
145 158 0
141 153 0
140 153 0
149 163 0
152 167 0
157 172 0
138 149 0
149 163 0
147 158 0
143 156 0
150 163 0
143 153 0
148 160 0
144 156 0
148 161 0
140 153 0
149 160 0
148 158 0
140 149 0
147 158 0
144 156 0
149 163 0
147 158 0
146 155 0
149 160 0
139 149 0
152 164 0
152 164 0
147 159 0
147 159 0
139 146 0
143 152 0
148 161 0
148 157 0
145 152 0
150 164 0
146 158 0
151 161 0
149 157 0
142 149 0
150 159 0
145 155 0
141 149 0
157 170 0
139 149 0
149 160 0
147 156 0
145 152 0
151 161 0
148 160 0
145 152 0
147 157 0
156 168 0
149 157 0
151 159 0
153 162 0
149 159 0
149 157 0
144 156 0
143 152 0
150 160 0
150 161 0
156 164 0
144 154 0
149 156 0
145 153 0
152 162 0
158 168 0
150 159 0
149 160 0
149 159 0
149 160 0
156 166 0
150 160 0
160 171 0
153 162 0
156 166 0
156 168 0
156 169 0
175 196 0
173 194 0
174 195 0
176 197 0
177 198 0
174 195 0
174 195 0
176 197 0
174 195 0
172 194 0
172 193 0
172 193 0
168 190 0
169 190 0
174 194 0
170 191 0
174 196 0
173 193 0
170 191 0
171 192 0
167 188 0
170 192 0
169 190 0
169 191 0
170 191 0
173 194 0
171 192 0
169 189 0
172 193 0
167 187 0
169 190 0
171 192 0
169 191 0
167 189 0
170 191 0
171 191 0
172 193 0
168 189 0
171 192 0
169 191 0
170 191 0
169 191 0
170 191 0
162 183 0
167 188 0
169 189 0
167 188 0
164 185 0
168 189 0
168 190 0
170 191 0
167 188 0
167 188 0
163 185 0
163 183 0
165 187 0
167 189 0
167 188 0
167 188 0
163 185 0
167 189 0
164 185 0
164 186 0
168 189 0
161 182 0
167 189 0
164 186 0
168 190 0
164 186 0
163 185 0
168 190 0
163 184 0
167 189 0
164 186 0
164 186 0
164 186 0
158 180 0
164 186 0
162 185 0
161 183 0
161 183 0
153 175 0
163 185 0
163 185 0
157 178 0
167 188 0
159 182 0
160 182 0
163 185 0
154 177 0
154 175 0
161 183 0
155 176 0
155 178 0
160 182 0
157 179 0
160 182 0
164 186 0
155 177 0
157 179 0
160 183 0
155 178 0
150 172 0
158 181 0
153 175 0
165 188 0
160 182 0
152 174 0
155 178 0
167 189 0
149 172 0
160 183 0
159 180 0
151 174 0
154 175 0
150 172 0
155 178 0
149 172 0
156 178 0
160 183 0
159 181 0
153 175 0
161 184 0
158 181 0
155 177 0
153 176 0
154 177 0
157 179 0
155 177 0
157 179 0
160 183 0
153 176 0
153 175 0
148 171 0
160 182 0
162 185 0
153 174 0
150 170 0
161 184 0
156 178 0
158 181 0
154 177 0
159 181 0
149 172 0
150 173 0
156 179 0
154 176 0
147 169 0
157 180 0
147 169 0
146 169 0
147 169 0
147 170 0
152 174 0
148 171 0
154 177 0
150 172 0
156 179 0
144 166 0
155 176 0
154 176 0
150 171 0
152 174 0
150 171 0
148 169 0
142 163 0
149 170 0
152 174 0
145 167 0
144 166 0
144 167 0
149 170 0
149 170 0
150 169 0
148 169 0
149 171 0
149 172 0
151 174 0
141 162 0
143 165 0
150 172 0
141 162 0
142 164 0
143 163 0
139 160 0
147 169 0
141 163 0
141 162 0
153 175 0
149 170 0
150 171 0
144 164 0
141 162 0
144 166 0
139 159 0
142 162 0
137 158 0
151 174 0
150 170 0
144 164 0
148 170 0
149 171 0
151 172 0
149 171 0
144 165 0
145 165 0
145 167 0
142 164 0
144 165 0
150 170 0
146 167 0
140 162 0
144 164 0
143 164 0
140 161 0
140 161 0
148 170 0
144 166 0
143 164 0
133 152 0
139 160 0
148 167 0
136 156 0
148 171 0
143 165 0
139 160 0
150 170 0
149 171 0
137 157 0
142 163 0
142 163 0
139 160 0
138 159 0
144 164 0
138 160 0
140 160 0
146 167 0
138 157 0
140 159 0
141 163 0
138 159 0
146 167 0
134 153 0
152 172 0
139 158 0
150 170 0
141 160 0
140 159 0
150 169 0
138 156 0
148 166 0
146 166 0
150 169 0
150 170 0
139 159 0
147 166 0
150 171 0
146 163 0
140 159 0
142 160 0
144 162 0
146 164 0
145 163 0
144 163 0
147 164 0
147 166 0
150 170 0
140 158 0
144 163 0
139 158 0
148 170 0
139 158 0
152 171 0
154 173 0
153 173 0
149 168 0
142 161 0
151 169 0
143 160 0
147 165 0
148 167 0
144 160 0
141 159 0
145 164 0
154 174 0
154 173 0
139 156 0
141 157 0
145 161 0
147 164 0
143 159 0
145 164 0
150 167 0
144 163 0
136 152 0
149 168 0
149 164 0
147 164 0
152 167 0
146 165 0
149 166 0
141 156 0
149 167 0
155 172 0
152 170 0
140 156 0
152 166 0
152 170 0
138 153 0
146 161 0
145 161 0
149 163 0
149 165 0
146 159 0
145 162 0
144 157 0
144 161 0
147 163 0
148 160 0
142 155 0
147 161 0
145 160 0
145 160 0
149 163 0
140 156 0
149 162 0
143 158 0
146 159 0
149 162 0
145 158 0
146 155 0
144 155 0
146 160 0
153 168 0
146 158 0
153 167 0
146 158 0
143 154 0
143 153 0
151 165 0
147 159 0
140 150 0
153 167 0
145 156 0
150 163 0
147 158 0
146 155 0
145 154 0
150 161 0
149 160 0
150 161 0
141 155 0
143 154 0
150 160 0
148 159 0
149 160 0
146 157 0
153 163 0
149 159 0
152 163 0
140 151 0
142 150 0
147 154 0
148 157 0
143 153 0
148 159 0
152 163 0
141 149 0
148 158 0
152 161 0
143 151 0
151 160 0
146 154 0
147 156 0
149 157 0
149 158 0
150 158 0
142 150 0
145 155 0
151 161 0
143 152 0
151 159 0
150 158 0
145 153 0
150 158 0
151 160 0
150 158 0
155 165 0
156 164 0
146 155 0
150 160 0
155 167 0
155 164 0
155 165 0
155 169 0
155 164 0
154 164 0
148 159 0
153 159 0
153 164 0
173 195 0
171 193 0
172 193 0
171 193 0
173 194 0
171 192 0
173 195 0
172 192 0
171 191 0
171 193 0
170 192 0
173 194 0
171 193 0
175 197 0
167 189 0
174 195 0
173 194 0
169 190 0
168 189 0
171 193 0
174 194 0
172 193 0
171 193 0
167 189 0
168 189 0
173 194 0
168 189 0
168 189 0
173 195 0
171 191 0
171 192 0
172 193 0
169 190 0
170 191 0
167 188 0
167 188 0
171 192 0
169 191 0
168 190 0
161 182 0
165 187 0
170 191 0
168 190 0
169 190 0
169 191 0
170 191 0
169 190 0
167 188 0
167 188 0
167 190 0
164 185 0
158 178 0
168 189 0
167 188 0
163 185 0
167 189 0
169 191 0
163 186 0
164 186 0
163 185 0
165 187 0
163 185 0
167 188 0
161 182 0
161 181 0
168 188 0
166 187 0
163 185 0
162 183 0
156 178 0
161 182 0
160 180 0
162 183 0
164 186 0
159 181 0
160 182 0
161 183 0
161 183 0
159 181 0
161 183 0
159 181 0
162 183 0
163 184 0
161 184 0
163 185 0
158 180 0
158 179 0
162 183 0
161 183 0
162 184 0
156 178 0
156 177 0
158 181 0
159 181 0
164 186 0
158 180 0
159 181 0
158 181 0
159 182 0
158 180 0
162 184 0
154 176 0
153 175 0
159 181 0
159 182 0
162 185 0
156 178 0
163 186 0
158 181 0
157 179 0
154 177 0
157 180 0
154 176 0
153 175 0
152 175 0
160 181 0
159 182 0
153 176 0
149 171 0
153 175 0
158 181 0
156 179 0
152 174 0
147 169 0
156 178 0
160 183 0
153 175 0
156 178 0
148 170 0
150 172 0
159 181 0
140 163 0
158 180 0
146 168 0
153 177 0
161 183 0
154 175 0
153 175 0
147 169 0
156 178 0
160 181 0
151 173 0
143 165 0
156 178 0
155 179 0
152 174 0
160 182 0
147 170 0
152 175 0
146 170 0
148 171 0
154 177 0
146 168 0
153 175 0
153 175 0
152 174 0
155 176 0
159 181 0
154 176 0
151 172 0
144 165 0
150 171 0
153 176 0
145 167 0
145 166 0
152 175 0
148 170 0
141 163 0
146 168 0
149 171 0
150 174 0
141 162 0
143 165 0
141 163 0
148 169 0
148 169 0
149 170 0
142 165 0
154 176 0
148 170 0
146 167 0
153 175 0
149 169 0
151 173 0
142 163 0
147 168 0
146 167 0
142 162 0
156 177 0
147 168 0
129 150 0
141 162 0
147 167 0
135 156 0
146 167 0
142 162 0
150 171 0
149 169 0
142 163 0
144 165 0
150 170 0
139 160 0
147 168 0
150 170 0
145 165 0
148 169 0
142 164 0
139 160 0
148 169 0
146 168 0
143 162 0
143 163 0
152 174 0
146 166 0
146 168 0
144 163 0
134 154 0
143 164 0
147 168 0
148 168 0
141 161 0
145 166 0
142 163 0
143 162 0
148 168 0
144 164 0
145 164 0
147 168 0
146 167 0
154 174 0
151 171 0
146 167 0
146 166 0
144 163 0
148 170 0
146 166 0
142 162 0
154 174 0
145 164 0
145 165 0
141 161 0
133 152 0
149 168 0
143 163 0
141 160 0
143 162 0
137 156 0
142 162 0
140 159 0
143 163 0
141 160 0
143 163 0
141 161 0
148 165 0
147 165 0
142 163 0
135 154 0
146 167 0
148 167 0
151 172 0
137 155 0
149 168 0
151 169 0
147 166 0
148 169 0
143 161 0
148 166 0
143 161 0
145 165 0
147 166 0
151 169 0
148 167 0
152 173 0
141 158 0
151 172 0
144 163 0
142 161 0
145 165 0
145 163 0
152 170 0
145 163 0
147 164 0
148 167 0
147 165 0
136 153 0
152 171 0
139 155 0
143 161 0
146 162 0
144 159 0
145 162 0
143 160 0
140 156 0
148 166 0
158 177 0
142 159 0
143 159 0
143 156 0
146 164 0
153 170 0
141 156 0
154 170 0
152 169 0
146 162 0
146 160 0
142 157 0
141 155 0
150 165 0
148 162 0
149 163 0
141 154 0
146 159 0
139 151 0
152 167 0
146 160 0
151 164 0
147 161 0
148 163 0
143 157 0
147 162 0
149 164 0
144 158 0
150 164 0
150 165 0
150 164 0
145 161 0
147 162 0
148 161 0
150 164 0
137 149 0
144 157 0
146 159 0
149 163 0
145 154 0
145 157 0
149 163 0
151 164 0
151 163 0
147 158 0
144 157 0
146 161 0
142 157 0
151 163 0
143 154 0
149 162 0
147 162 0
152 162 0
152 162 0
139 150 0
147 157 0
142 153 0
150 158 0
157 169 0
144 154 0
156 167 0
142 152 0
156 169 0
152 164 0
149 159 0
145 159 0
151 162 0
142 153 0
154 167 0
149 160 0
148 157 0
148 159 0
145 155 0
146 157 0
155 165 0
151 161 0
150 161 0
145 153 0
145 152 0
144 151 0
148 156 0
148 158 0
149 159 0
152 164 0
160 173 0
154 166 0
151 162 0
146 155 0
152 160 0
151 163 0
151 161 0
150 158 0
148 155 0
144 150 0
154 164 0
155 165 0
155 167 0
147 158 0
152 165 0
153 164 0
155 165 0
154 165 0
151 159 0
154 162 0
155 165 0
148 159 0
175 197 0
168 190 0
173 194 0
174 195 0
176 197 0
174 195 0
173 193 0
168 189 0
172 194 0
171 191 0
173 195 0
173 194 0
173 193 0
174 195 0
171 192 0
175 196 0
171 192 0
172 193 0
174 195 0
169 190 0
167 189 0
175 196 0
167 188 0
169 191 0
170 190 0
169 191 0
169 191 0
170 191 0
173 194 0
170 192 0
172 193 0
171 192 0
167 188 0
170 192 0
172 193 0
166 188 0
167 189 0
171 193 0
166 187 0
167 188 0
167 189 0
172 194 0
166 187 0
166 186 0
166 187 0
162 184 0
167 187 0
166 186 0
165 186 0
168 190 0
165 186 0
162 184 0
169 189 0
169 190 0
164 186 0
163 184 0
164 185 0
168 189 0
171 192 0
166 187 0
158 180 0
159 180 0
162 184 0
161 183 0
166 187 0
160 182 0
163 185 0
162 184 0
168 189 0
161 183 0
159 180 0
164 186 0
156 178 0
167 189 0
161 183 0
165 188 0
156 178 0
161 183 0
160 182 0
163 186 0
160 181 0
162 184 0
161 183 0
163 184 0
162 185 0
159 181 0
154 176 0
163 185 0
165 187 0
160 182 0
152 174 0
156 178 0
157 179 0
156 178 0
162 184 0
160 182 0
159 182 0
150 172 0
157 180 0
153 175 0
163 185 0
158 179 0
146 168 0
160 183 0
158 179 0
156 178 0
156 179 0
152 174 0
147 170 0
156 179 0
156 180 0
158 179 0
150 172 0
160 182 0
158 181 0
157 180 0
150 172 0
162 185 0
156 178 0
154 177 0
149 171 0
156 177 0
147 170 0
154 176 0
158 180 0
151 173 0
147 170 0
154 175 0
156 180 0
150 173 0
154 177 0
153 175 0
157 178 0
156 178 0
152 173 0
150 172 0
160 183 0
154 177 0
146 167 0
155 178 0
145 167 0
150 172 0
142 165 0
159 183 0
149 171 0
157 179 0
157 179 0
152 174 0
152 174 0
149 171 0
159 182 0
154 175 0
160 182 0
146 167 0
152 174 0
150 173 0
147 169 0
149 170 0
147 170 0
143 165 0
146 168 0
153 173 0
150 172 0
147 169 0
144 166 0
141 163 0
145 167 0
151 174 0
143 163 0
137 159 0
156 178 0
142 163 0
149 171 0
142 165 0
148 170 0
140 162 0
153 173 0
138 161 0
148 169 0
144 164 0
154 176 0
146 167 0
144 164 0
147 168 0
145 167 0
152 173 0
148 168 0
146 166 0
139 160 0
146 167 0
150 171 0
146 167 0
140 161 0
144 166 0
142 164 0
148 169 0
146 168 0
141 163 0
143 164 0
152 173 0
151 173 0
141 162 0
136 157 0
145 165 0
150 172 0
142 162 0
144 165 0
142 163 0
147 169 0
146 168 0
147 168 0
144 164 0
141 161 0
153 174 0
144 165 0
148 170 0
152 174 0
148 169 0
147 169 0
147 167 0
139 160 0
150 170 0
142 162 0
147 166 0
149 169 0
153 175 0
148 169 0
139 158 0
143 164 0
146 166 0
146 168 0
141 161 0
147 169 0
137 157 0
141 162 0
145 167 0
148 170 0
151 173 0
150 171 0
146 167 0
147 167 0
147 166 0
151 171 0
140 159 0
147 166 0
148 168 0
144 163 0
145 164 0
146 166 0
142 161 0
146 163 0
143 164 0
137 156 0
145 164 0
139 159 0
148 167 0
146 166 0
143 163 0
149 168 0
153 172 0
143 162 0
152 170 0
149 166 0
146 165 0
147 166 0
147 169 0
143 163 0
147 164 0
150 168 0
155 173 0
145 164 0
149 166 0
144 163 0
149 167 0
143 162 0
157 175 0
139 159 0
142 162 0
143 161 0
148 166 0
146 163 0
147 163 0
143 161 0
145 165 0
144 162 0
149 165 0
141 160 0
148 167 0
148 165 0
141 159 0
147 164 0
148 163 0
152 169 0
143 160 0
141 156 0
150 167 0
145 162 0
156 174 0
147 163 0
141 157 0
153 171 0
147 164 0
146 163 0
147 163 0
152 169 0
150 167 0
147 164 0
146 161 0
146 162 0
143 160 0
150 164 0
141 155 0
150 165 0
140 154 0
148 162 0
143 156 0
155 171 0
147 163 0
145 160 0
143 156 0
144 158 0
147 161 0
145 159 0
147 161 0
145 158 0
147 161 0
148 163 0
146 161 0
147 163 0
147 161 0
153 168 0
156 170 0
142 155 0
148 162 0
147 162 0
147 159 0
148 160 0
143 155 0
142 154 0
156 169 0
146 159 0
141 155 0
145 158 0
157 170 0
149 159 0
153 167 0
147 158 0
151 163 0
154 167 0
149 161 0
151 164 0
143 153 0
150 161 0
146 154 0
147 158 0
146 157 0
150 161 0
152 165 0
151 163 0
150 160 0
143 153 0
142 154 0
143 153 0
155 168 0
148 157 0
151 162 0
156 169 0
152 166 0
149 158 0
151 163 0
150 163 0
148 159 0
154 164 0
157 167 0
155 168 0
146 152 0
151 161 0
157 168 0
148 158 0
151 163 0
148 155 0
145 151 0
151 161 0
146 154 0
153 163 0
154 166 0
151 161 0
152 160 0
147 156 0
152 163 0
160 169 0
152 164 0
153 164 0
156 167 0
149 157 0
142 150 0
155 168 0
149 159 0
156 166 0
154 165 0
172 193 0
168 189 0
172 193 0
174 195 0
172 194 0
172 194 0
173 194 0
171 194 0
170 191 0
173 194 0
167 188 0
174 195 0
170 192 0
173 194 0
171 193 0
163 185 0
172 194 0
173 194 0
174 194 0
170 190 0
174 194 0
173 193 0
171 192 0
173 194 0
168 190 0
174 195 0
169 190 0
165 186 0
167 188 0
168 190 0
170 192 0
168 189 0
165 187 0
168 189 0
170 191 0
170 191 0
173 194 0
166 189 0
164 185 0
167 187 0
168 190 0
170 192 0
170 191 0
168 189 0
165 186 0
165 186 0
166 188 0
170 191 0
163 184 0
164 185 0
165 187 0
165 187 0
167 189 0
162 184 0
168 189 0
169 191 0
163 185 0
167 189 0
159 181 0
166 188 0
163 186 0
172 193 0
164 186 0
160 182 0
165 187 0
162 183 0
162 184 0
166 189 0
166 188 0
152 174 0
163 186 0
161 183 0
164 187 0
159 182 0
162 184 0
161 182 0
160 183 0
165 187 0
159 181 0
162 184 0
166 188 0
158 181 0
154 177 0
159 182 0
165 186 0
159 181 0
154 176 0
160 182 0
160 183 0
150 173 0
161 184 0
155 178 0
160 183 0
158 181 0
152 174 0
152 174 0
161 185 0
149 172 0
155 178 0
161 184 0
157 179 0
160 181 0
155 177 0
156 178 0
159 182 0
158 181 0
160 183 0
158 180 0
161 183 0
155 178 0
153 174 0
153 175 0
150 173 0
160 182 0
161 183 0
156 178 0
163 186 0
163 185 0
158 179 0
157 179 0
149 171 0
157 179 0
159 181 0
157 180 0
152 175 0
159 182 0
160 183 0
148 171 0
156 178 0
152 175 0
157 180 0
163 186 0
157 180 0
159 182 0
159 182 0
150 173 0
155 178 0
153 175 0
148 168 0
153 175 0
159 181 0
152 174 0
148 170 0
151 172 0
155 179 0
159 181 0
152 174 0
153 175 0
155 177 0
152 173 0
154 176 0
147 171 0
144 166 0
139 160 0
147 168 0
147 168 0
157 179 0
154 176 0
148 170 0
150 172 0
151 173 0
145 168 0
149 170 0
148 169 0
151 173 0
151 173 0
148 169 0
143 163 0
151 172 0
147 169 0
140 162 0
148 170 0
149 171 0
154 176 0
150 171 0
158 181 0
143 166 0
150 171 0
144 165 0
148 169 0
145 167 0
147 169 0
145 167 0
144 165 0
150 171 0
152 173 0
151 171 0
142 164 0
146 167 0
136 157 0
148 170 0
147 169 0
150 172 0
149 170 0
139 160 0
154 176 0
144 167 0
142 162 0
147 169 0
149 171 0
146 168 0
145 167 0
146 168 0
149 170 0
143 164 0
144 165 0
141 163 0
148 168 0
144 166 0
147 168 0
149 171 0
151 173 0
136 155 0
149 169 0
143 164 0
144 166 0
143 165 0
145 166 0
144 166 0
150 170 0
145 165 0
154 176 0
146 168 0
148 168 0
154 176 0
136 156 0
141 161 0
151 172 0
154 174 0
135 154 0
154 173 0
149 169 0
152 173 0
145 168 0
144 164 0
148 169 0
142 161 0
146 166 0
146 167 0
143 163 0
142 161 0
150 171 0
140 158 0
153 172 0
148 167 0
154 174 0
141 160 0
150 172 0
150 170 0
144 163 0
143 163 0
146 165 0
148 169 0
147 166 0
148 167 0
150 170 0
148 167 0
143 163 0
145 165 0
148 167 0
145 164 0
147 167 0
146 165 0
146 163 0
146 165 0
142 161 0
155 173 0
142 162 0
144 165 0
150 169 0
142 161 0
137 156 0
150 170 0
145 164 0
143 162 0
137 155 0
148 167 0
146 165 0
153 172 0
149 166 0
155 175 0
153 173 0
151 168 0
144 163 0
153 173 0
152 171 0
146 164 0
148 167 0
154 171 0
142 159 0
151 168 0
148 167 0
150 168 0
151 168 0
147 165 0
154 172 0
146 164 0
145 161 0
151 166 0
144 162 0
143 161 0
146 161 0
146 162 0
145 161 0
142 159 0
147 163 0
152 167 0
149 163 0
149 164 0
151 167 0
154 170 0
150 167 0
145 162 0
158 173 0
143 157 0
149 164 0
147 161 0
143 158 0
144 158 0
147 164 0
147 162 0
152 166 0
144 158 0
151 168 0
144 155 0
144 159 0
148 163 0
151 164 0
149 163 0
149 164 0
149 163 0
147 163 0
148 161 0
150 164 0
148 163 0
145 160 0
152 165 0
151 164 0
150 162 0
146 159 0
151 165 0
148 162 0
147 160 0
144 156 0
151 166 0
151 161 0
155 168 0
147 159 0
152 168 0
154 166 0
147 159 0
144 153 0
145 156 0
144 156 0
151 164 0
151 161 0
155 168 0
149 159 0
143 154 0
145 154 0
154 166 0
138 146 0
154 167 0
147 157 0
147 160 0
156 168 0
149 159 0
145 155 0
152 162 0
154 166 0
145 154 0
150 160 0
150 159 0
154 165 0
152 163 0
152 163 0
148 161 0
156 165 0
148 158 0
154 167 0
144 153 0
153 164 0
151 162 0
153 164 0
155 164 0
146 155 0
156 170 0
152 162 0
144 154 0
149 158 0
150 160 0
152 163 0
157 165 0
151 162 0
149 158 0
150 160 0
148 159 0
159 171 0
149 158 0
158 170 0
171 191 0
172 193 0
172 193 0
175 195 0
174 196 0
172 193 0
171 192 0
170 191 0
172 193 0
173 194 0
171 192 0
172 193 0
171 192 0
169 191 0
167 188 0
168 191 0
170 192 0
173 193 0
174 194 0
168 189 0
174 195 0
170 191 0
168 189 0
173 195 0
166 188 0
172 194 0
170 190 0
168 190 0
168 189 0
170 192 0
171 193 0
167 188 0
173 194 0
165 187 0
171 193 0
171 192 0
164 186 0
166 188 0
169 191 0
165 186 0
166 187 0
162 183 0
165 186 0
164 186 0
173 194 0
169 191 0
170 192 0
167 189 0
165 186 0
166 187 0
162 184 0
167 188 0
169 191 0
166 188 0
166 187 0
163 184 0
163 184 0
164 186 0
158 180 0
172 194 0
163 184 0
167 188 0
162 184 0
165 187 0
161 183 0
161 183 0
159 181 0
159 180 0
161 184 0
165 186 0
162 185 0
166 190 0
156 176 0
164 187 0
161 183 0
157 179 0
158 181 0
161 183 0
158 180 0
156 178 0
166 189 0
166 188 0
164 186 0
160 183 0
163 185 0
166 188 0
160 182 0
157 180 0
162 183 0
162 184 0
160 182 0
161 183 0
161 183 0
158 181 0
158 181 0
156 178 0
151 173 0
154 177 0
162 184 0
159 181 0
155 177 0
158 180 0
159 182 0
159 180 0
151 173 0
155 178 0
159 182 0
163 185 0
147 169 0
156 178 0
159 182 0
160 182 0
156 179 0
156 178 0
156 179 0
155 178 0
155 179 0
151 174 0
154 177 0
148 171 0
153 176 0
151 174 0
156 178 0
158 181 0
161 183 0
157 181 0
150 173 0
152 175 0
154 176 0
155 177 0
163 186 0
146 168 0
156 179 0
147 168 0
151 174 0
153 174 0
155 178 0
155 178 0
154 176 0
153 175 0
153 176 0
150 172 0
149 171 0
152 174 0
139 160 0
148 170 0
153 175 0
156 177 0
159 181 0
146 169 0
145 168 0
155 178 0
156 179 0
151 173 0
153 176 0
153 176 0
150 173 0
154 176 0
153 176 0
148 171 0
149 171 0
157 179 0
158 181 0
153 173 0
149 171 0
157 179 0
149 169 0
154 177 0
146 168 0
155 176 0
154 174 0
152 175 0
144 165 0
137 157 0
149 172 0
144 167 0
153 175 0
149 171 0
147 170 0
154 177 0
143 165 0
145 166 0
153 174 0
147 169 0
143 164 0
152 174 0
149 170 0
147 169 0
147 170 0
140 161 0
150 171 0
139 160 0
142 162 0
142 165 0
144 166 0
151 174 0
142 164 0
149 171 0
144 166 0
146 168 0
142 163 0
150 171 0
145 165 0
147 167 0
153 176 0
148 169 0
145 165 0
141 161 0
142 163 0
151 172 0
152 174 0
147 166 0
146 166 0
139 160 0
144 164 0
143 164 0
149 169 0
147 167 0
151 174 0
142 162 0
136 155 0
148 169 0
148 168 0
155 177 0
141 161 0
142 163 0
153 174 0
147 169 0
153 173 0
141 161 0
147 166 0
153 176 0
148 169 0
142 163 0
144 164 0
141 162 0
152 173 0
148 168 0
155 176 0
145 165 0
141 159 0
141 161 0
149 169 0
152 173 0
143 164 0
148 169 0
147 167 0
143 162 0
148 168 0
147 169 0
147 166 0
143 162 0
153 173 0
145 165 0
146 166 0
151 171 0
139 157 0
139 158 0
150 170 0
154 175 0
140 160 0
149 167 0
145 164 0
147 167 0
146 165 0
144 163 0
147 166 0
150 168 0
149 170 0
145 163 0
148 167 0
148 169 0
144 164 0
147 167 0
137 156 0
145 161 0
145 164 0
155 175 0
147 163 0
144 163 0
150 169 0
146 165 0
145 165 0
146 163 0
155 174 0
152 171 0
155 172 0
141 158 0
145 162 0
155 174 0
143 159 0
147 166 0
146 164 0
150 168 0
146 165 0
149 166 0
146 162 0
150 166 0
142 158 0
147 163 0
143 159 0
147 165 0
146 160 0
147 162 0
147 163 0
151 168 0
153 168 0
156 173 0
149 168 0
144 160 0
149 168 0
146 162 0
141 158 0
149 164 0
147 162 0
155 171 0
148 164 0
152 167 0
147 162 0
146 162 0
151 168 0
146 160 0
137 152 0
150 166 0
147 163 0
147 161 0
152 167 0
143 156 0
146 161 0
149 163 0
152 167 0
152 168 0
145 156 0
143 157 0
150 164 0
146 158 0
146 159 0
146 162 0
152 164 0
151 166 0
145 157 0
155 171 0
141 155 0
155 168 0
146 160 0
151 164 0
150 163 0
147 161 0
151 166 0
149 161 0
149 163 0
143 154 0
146 159 0
148 162 0
151 166 0
150 162 0
147 159 0
147 157 0
157 168 0
151 163 0
148 160 0
151 162 0
140 149 0
153 165 0
146 159 0
149 158 0
157 170 0
149 161 0
151 160 0
149 160 0
153 164 0
146 153 0
153 165 0
148 160 0
155 165 0
147 155 0
151 163 0
155 169 0
153 166 0
157 168 0
140 150 0
148 159 0
157 169 0
153 165 0
153 166 0
154 166 0
149 159 0
153 166 0
148 160 0
158 172 0
153 165 0
153 167 0
148 158 0
155 166 0
148 157 0
150 159 0
158 170 0
156 165 0
150 162 0
153 164 0
172 194 0
173 193 0
165 187 0
173 194 0
170 190 0
170 192 0
174 195 0
174 195 0
172 194 0
176 197 0
172 194 0
171 192 0
170 191 0
169 191 0
171 193 0
171 192 0
167 188 0
172 193 0
171 192 0
167 187 0
172 193 0
171 193 0
172 194 0
170 192 0
167 188 0
171 193 0
170 192 0
170 193 0
173 194 0
168 189 0
172 194 0
170 191 0
168 190 0
164 185 0
164 186 0
170 191 0
171 193 0
169 192 0
170 191 0
165 187 0
166 187 0
168 190 0
168 189 0
170 192 0
167 188 0
167 189 0
163 186 0
163 184 0
165 187 0
162 185 0
159 181 0
165 187 0
166 187 0
163 185 0
161 182 0
162 184 0
167 188 0
166 188 0
160 182 0
168 190 0
157 179 0
163 185 0
158 180 0
163 184 0
166 188 0
158 180 0
163 185 0
168 189 0
162 184 0
160 181 0
162 183 0
161 183 0
165 187 0
163 186 0
166 189 0
167 189 0
163 186 0
162 184 0
159 181 0
163 185 0
164 187 0
154 175 0
159 181 0
165 188 0
158 181 0
157 179 0
164 186 0
160 182 0
159 180 0
162 184 0
156 178 0
159 181 0
164 186 0
157 180 0
154 176 0
159 181 0
159 182 0
154 176 0
163 185 0
154 175 0
158 182 0
158 182 0
151 172 0
157 180 0
156 178 0
159 181 0
156 179 0
158 180 0
159 181 0
158 180 0
161 183 0
157 179 0
149 172 0
154 176 0
153 175 0
154 177 0
156 178 0
156 178 0
159 182 0
146 170 0
145 166 0
151 173 0
160 183 0
159 182 0
153 176 0
154 176 0
156 180 0
152 174 0
154 176 0
153 176 0
150 171 0
154 177 0
153 176 0
155 178 0
150 172 0
155 178 0
156 178 0
158 181 0
153 176 0
161 184 0
144 166 0
148 172 0
155 179 0
155 178 0
150 172 0
152 174 0
152 174 0
160 182 0
158 181 0
153 174 0
156 178 0
146 168 0
153 175 0
155 177 0
148 170 0
144 166 0
148 171 0
153 176 0
148 170 0
150 172 0
151 173 0
153 176 0
153 174 0
144 165 0
153 174 0
147 169 0
149 171 0
155 177 0
152 174 0
151 173 0
144 165 0
154 176 0
144 166 0
149 171 0
142 164 0
148 169 0
143 164 0
156 177 0
151 173 0
153 175 0
150 171 0
147 169 0
147 168 0
144 165 0
146 169 0
135 157 0
144 165 0
144 166 0
150 172 0
148 169 0
149 171 0
150 172 0
149 171 0
139 160 0
139 161 0
156 178 0
146 168 0
143 163 0
152 174 0
137 158 0
148 169 0
146 168 0
137 157 0
151 172 0
145 166 0
153 174 0
150 172 0
149 170 0
142 163 0
154 176 0
146 167 0
152 174 0
145 166 0
146 167 0
145 167 0
150 171 0
146 167 0
147 168 0
143 164 0
142 162 0
157 178 0
149 170 0
146 166 0
148 168 0
144 165 0
148 170 0
149 170 0
147 167 0
146 167 0
145 166 0
146 167 0
148 169 0
144 163 0
141 161 0
147 168 0
150 169 0
139 159 0
143 162 0
142 161 0
144 164 0
142 161 0
148 169 0
155 172 0
149 169 0
150 171 0
152 173 0
151 171 0
143 164 0
151 172 0
143 162 0
147 166 0
135 155 0
147 165 0
145 165 0
149 170 0
147 168 0
150 171 0
147 166 0
145 166 0
155 174 0
151 172 0
144 164 0
144 162 0
150 170 0
149 167 0
137 156 0
145 163 0
142 161 0
148 167 0
148 166 0
144 162 0
154 174 0
147 166 0
149 169 0
143 164 0
143 162 0
142 160 0
149 169 0
147 166 0
154 174 0
148 167 0
147 164 0
156 176 0
144 162 0
140 159 0
146 165 0
146 164 0
144 161 0
144 161 0
152 171 0
146 165 0
149 168 0
151 170 0
146 165 0
150 169 0
149 166 0
142 160 0
149 167 0
156 174 0
145 161 0
154 171 0
154 172 0
147 165 0
148 165 0
147 166 0
148 165 0
151 169 0
151 166 0
152 168 0
149 167 0
151 167 0
141 156 0
147 161 0
144 159 0
137 154 0
152 167 0
150 167 0
153 170 0
156 173 0
152 168 0
152 169 0
143 159 0
150 165 0
154 169 0
156 172 0
149 166 0
143 158 0
148 163 0
145 159 0
146 161 0
147 162 0
147 162 0
143 156 0
149 161 0
150 164 0
147 160 0
149 163 0
145 160 0
151 168 0
140 152 0
145 159 0
157 172 0
150 162 0
150 162 0
157 170 0
144 153 0
155 171 0
143 155 0
152 165 0
150 165 0
148 157 0
153 164 0
148 161 0
144 153 0
148 160 0
148 159 0
145 155 0
149 163 0
152 168 0
155 167 0
146 156 0
148 161 0
153 165 0
143 153 0
149 160 0
153 164 0
154 165 0
148 160 0
155 167 0
153 164 0
143 154 0
156 168 0
158 166 0
146 156 0
151 162 0
148 155 0
150 161 0
151 162 0
157 173 0
151 162 0
152 164 0
155 167 0
152 162 0
155 167 0
152 163 0
156 168 0
152 163 0
151 163 0
152 160 0
153 163 0
156 169 0
156 165 0
153 164 0
152 162 0
152 160 0
151 159 0
154 165 0
151 162 0
153 163 0
154 165 0
172 194 0
173 195 0
171 192 0
173 194 0
168 189 0
175 197 0
173 194 0
173 195 0
174 194 0
167 189 0
173 195 0
172 193 0
171 193 0
165 186 0
169 191 0
173 194 0
171 192 0
172 194 0
171 193 0
167 188 0
173 194 0
173 194 0
170 191 0
172 194 0
167 189 0
167 188 0
168 189 0
166 188 0
164 186 0
170 191 0
171 191 0
168 189 0
166 187 0
167 188 0
165 187 0
164 186 0
165 187 0
167 189 0
175 196 0
168 190 0
169 191 0
165 187 0
164 186 0
168 189 0
166 188 0
170 191 0
168 191 0
167 189 0
163 185 0
164 187 0
168 189 0
167 189 0
166 188 0
167 189 0
169 190 0
165 187 0
163 185 0
165 187 0
166 187 0
162 184 0
167 190 0
164 186 0
163 185 0
165 187 0
168 190 0
169 192 0
160 183 0
162 185 0
162 185 0
159 181 0
166 187 0
165 188 0
161 183 0
166 188 0
162 184 0
159 182 0
163 185 0
162 184 0
166 188 0
168 191 0
161 183 0
158 181 0
158 181 0
165 188 0
158 181 0
161 182 0
162 186 0
157 178 0
156 179 0
156 178 0
157 180 0
163 185 0
161 184 0
157 180 0
164 186 0
157 180 0
156 179 0
160 183 0
155 178 0
154 176 0
161 183 0
159 181 0
160 183 0
165 188 0
152 174 0
151 174 0
161 184 0
161 184 0
157 179 0
157 179 0
157 178 0
157 180 0
155 178 0
157 179 0
161 184 0
157 178 0
154 177 0
155 178 0
151 173 0
157 180 0
153 176 0
152 174 0
161 183 0
154 178 0
155 178 0
155 178 0
156 178 0
154 176 0
149 171 0
154 175 0
149 171 0
150 172 0
151 173 0
159 181 0
156 178 0
150 172 0
152 174 0
156 178 0
158 179 0
150 173 0
153 176 0
154 176 0
149 171 0
151 174 0
153 175 0
145 166 0
154 178 0
148 170 0
157 178 0
152 173 0
150 172 0
145 166 0
149 170 0
152 175 0
155 177 0
151 173 0
150 173 0
143 166 0
148 169 0
153 176 0
151 173 0
154 175 0
149 170 0
148 171 0
150 173 0
151 173 0
144 166 0
147 169 0
147 169 0
145 167 0
147 168 0
148 170 0
149 170 0
154 177 0
152 174 0
152 173 0
148 171 0
149 171 0
144 167 0
150 171 0
152 173 0
148 170 0
157 179 0
141 162 0
141 164 0
156 179 0
148 169 0
149 170 0
147 169 0
146 168 0
151 172 0
149 170 0
156 177 0
154 176 0
144 166 0
150 171 0
154 175 0
139 161 0
143 163 0
152 173 0
141 163 0
148 170 0
152 173 0
145 168 0
145 167 0
153 173 0
141 161 0
147 169 0
150 172 0
144 164 0
144 164 0
143 164 0
149 171 0
149 170 0
148 168 0
146 167 0
150 173 0
144 165 0
141 161 0
142 164 0
148 169 0
145 165 0
147 170 0
142 163 0
140 160 0
149 172 0
154 175 0
145 164 0
146 167 0
154 176 0
148 169 0
147 168 0
148 170 0
149 169 0
142 164 0
153 173 0
146 168 0
148 169 0
144 165 0
150 170 0
152 174 0
143 161 0
140 160 0
149 171 0
157 179 0
152 173 0
154 173 0
149 169 0
149 168 0
150 170 0
145 164 0
145 165 0
147 166 0
154 177 0
147 167 0
147 168 0
146 167 0
149 170 0
139 159 0
148 168 0
148 165 0
144 163 0
144 163 0
148 169 0
150 169 0
146 165 0
146 165 0
147 166 0
144 163 0
148 167 0
151 170 0
150 170 0
141 159 0
147 167 0
152 172 0
148 167 0
151 171 0
150 169 0
148 166 0
149 168 0
153 172 0
145 164 0
146 166 0
149 167 0
148 167 0
148 167 0
141 159 0
147 164 0
155 174 0
145 165 0
146 164 0
150 169 0
152 171 0
156 175 0
146 165 0
149 167 0
142 161 0
149 165 0
144 160 0
142 160 0
154 172 0
149 165 0
147 166 0
150 168 0
142 160 0
141 156 0
150 167 0
151 166 0
148 167 0
150 168 0
146 161 0
147 164 0
147 162 0
148 167 0
155 174 0
154 171 0
142 159 0
151 168 0
148 163 0
149 167 0
151 167 0
147 160 0
135 150 0
151 167 0
146 162 0
148 161 0
151 168 0
147 162 0
151 167 0
147 159 0
145 159 0
145 161 0
152 167 0
144 159 0
151 166 0
143 157 0
151 165 0
148 164 0
154 170 0
153 169 0
155 170 0
141 155 0
155 171 0
155 168 0
150 165 0
150 162 0
153 167 0
153 167 0
153 168 0
145 159 0
147 160 0
149 161 0
153 165 0
147 161 0
150 165 0
149 161 0
144 157 0
154 168 0
151 161 0
147 159 0
147 159 0
156 168 0
150 164 0
152 165 0
149 160 0
149 162 0
153 166 0
144 154 0
145 153 0
153 163 0
152 166 0
140 151 0
150 161 0
149 158 0
156 168 0
150 162 0
144 155 0
144 154 0
151 164 0
153 164 0
153 167 0
153 166 0
158 172 0
155 166 0
155 166 0
145 153 0
151 161 0
151 164 0
159 172 0
154 167 0
154 164 0
153 161 0
153 163 0
157 167 0
155 166 0
147 156 0
151 162 0
155 168 0
157 170 0
160 169 0
172 193 0
172 193 0
175 196 0
173 194 0
174 196 0
171 192 0
169 190 0
173 194 0
176 197 0
171 192 0
172 194 0
167 189 0
168 190 0
175 197 0
170 192 0
165 187 0
169 190 0
172 194 0
173 194 0
169 190 0
172 193 0
171 193 0
169 190 0
163 185 0
168 190 0
169 191 0
166 188 0
161 183 0
171 191 0
167 188 0
171 191 0
169 192 0
167 189 0
164 185 0
171 192 0
170 192 0
168 189 0
163 185 0
163 185 0
160 182 0
165 187 0
169 190 0
161 182 0
160 182 0
168 190 0
167 189 0
168 189 0
165 188 0
163 185 0
168 190 0
166 188 0
161 183 0
162 183 0
164 186 0
164 185 0
162 184 0
161 184 0
163 185 0
161 184 0
162 184 0
163 185 0
164 187 0
162 184 0
159 182 0
160 182 0
159 182 0
157 180 0
161 183 0
157 179 0
164 186 0
163 185 0
163 186 0
160 182 0
160 183 0
159 181 0
161 184 0
161 183 0
161 183 0
159 181 0
157 179 0
164 187 0
164 185 0
159 181 0
162 184 0
160 183 0
160 183 0
161 184 0
157 180 0
160 183 0
155 178 0
157 180 0
162 185 0
157 179 0
163 186 0
160 182 0
157 179 0
158 180 0
157 178 0
155 178 0
161 185 0
166 190 0
159 182 0
159 182 0
164 187 0
158 181 0
159 182 0
156 179 0
159 182 0
161 184 0
157 180 0
152 174 0
160 183 0
151 175 0
161 183 0
159 181 0
158 181 0
152 174 0
156 178 0
159 182 0
160 184 0
155 177 0
154 177 0
155 178 0
158 179 0
160 182 0
156 178 0
160 184 0
156 178 0
154 177 0
153 176 0
155 177 0
149 172 0
156 178 0
158 181 0
153 175 0
151 173 0
150 173 0
150 173 0
156 178 0
156 178 0
153 175 0
156 178 0
155 177 0
159 182 0
152 175 0
154 175 0
154 176 0
153 176 0
152 173 0
151 174 0
153 175 0
154 177 0
155 177 0
152 174 0
154 176 0
152 174 0
147 168 0
148 171 0
145 167 0
156 177 0
153 175 0
155 178 0
153 174 0
146 167 0
158 180 0
161 183 0
141 164 0
155 178 0
148 170 0
149 172 0
140 162 0
155 178 0
150 172 0
148 171 0
155 178 0
141 163 0
151 174 0
153 175 0
142 164 0
149 172 0
149 171 0
149 171 0
147 169 0
145 167 0
146 168 0
152 174 0
157 178 0
149 171 0
154 175 0
151 174 0
152 173 0
157 178 0
151 174 0
148 169 0
143 164 0
145 167 0
149 169 0
157 180 0
140 162 0
150 171 0
150 171 0
140 160 0
150 173 0
145 166 0
141 163 0
148 170 0
138 159 0
142 163 0
146 167 0
146 167 0
148 168 0
148 169 0
143 164 0
148 169 0
145 167 0
146 168 0
140 161 0
153 175 0
145 167 0
143 164 0
141 163 0
147 167 0
152 174 0
146 166 0
149 170 0
154 174 0
144 164 0
142 163 0
143 163 0
151 170 0
140 159 0
135 155 0
147 168 0
147 167 0
149 169 0
141 163 0
152 171 0
144 163 0
140 158 0
147 168 0
151 170 0
141 159 0
147 167 0
144 165 0
154 174 0
150 169 0
144 162 0
145 167 0
156 177 0
153 173 0
150 170 0
141 163 0
145 164 0
151 171 0
142 162 0
138 157 0
154 173 0
148 168 0
153 174 0
153 171 0
149 170 0
148 168 0
143 162 0
143 163 0
144 162 0
154 174 0
145 164 0
146 164 0
143 161 0
143 162 0
146 165 0
146 163 0
153 173 0
144 163 0
145 165 0
156 175 0
148 166 0
147 165 0
146 164 0
155 175 0
149 168 0
151 169 0
152 173 0
149 169 0
147 165 0
144 161 0
146 162 0
148 166 0
157 174 0
153 173 0
155 174 0
154 173 0
155 173 0
149 168 0
149 167 0
152 172 0
144 162 0
141 156 0
143 160 0
150 166 0
152 168 0
155 174 0
150 168 0
156 174 0
151 168 0
147 165 0
148 165 0
153 171 0
146 161 0
149 167 0
148 165 0
153 169 0
159 178 0
144 157 0
148 162 0
152 170 0
156 173 0
149 165 0
148 164 0
148 164 0
148 164 0
148 164 0
144 162 0
150 166 0
143 160 0
154 169 0
147 162 0
144 158 0
153 169 0
155 169 0
145 160 0
157 173 0
142 156 0
151 167 0
149 163 0
157 172 0
148 161 0
151 165 0
145 159 0
153 167 0
146 158 0
151 164 0
151 168 0
152 167 0
143 156 0
148 161 0
148 163 0
147 160 0
150 161 0
153 167 0
151 163 0
145 158 0
152 164 0
155 169 0
142 154 0
150 163 0
151 164 0
141 153 0
151 162 0
152 165 0
151 164 0
150 162 0
153 164 0
150 161 0
154 167 0
144 153 0
158 171 0
153 167 0
151 162 0
152 163 0
152 163 0
154 166 0
149 160 0
142 153 0
151 164 0
146 155 0
149 156 0
154 169 0
153 164 0
151 165 0
152 165 0
156 168 0
152 167 0
150 162 0
149 158 0
149 159 0
151 162 0
155 167 0
152 163 0
147 159 0
155 168 0
145 153 0
144 153 0
153 164 0
155 167 0
152 163 0
155 166 0
151 164 0
154 164 0
152 163 0
168 190 0
169 191 0
175 197 0
175 196 0
170 192 0
170 193 0
173 194 0
170 191 0
168 189 0
169 191 0
172 193 0
167 189 0
172 194 0
174 195 0
170 192 0
171 192 0
172 194 0
172 194 0
166 189 0
173 194 0
170 192 0
170 192 0
171 193 0
163 185 0
168 189 0
167 188 0
170 192 0
169 191 0
167 188 0
168 190 0
168 188 0
168 189 0
166 188 0
170 191 0
168 188 0
166 188 0
166 188 0
167 189 0
170 192 0
167 188 0
165 186 0
164 186 0
163 185 0
166 188 0
165 188 0
166 187 0
170 192 0
162 184 0
164 186 0
163 185 0
164 186 0
158 180 0
166 187 0
167 190 0
166 188 0
161 183 0
162 184 0
163 184 0
163 186 0
165 187 0
162 185 0
164 187 0
168 190 0
163 185 0
165 187 0
164 186 0
160 181 0
159 181 0
163 185 0
162 184 0
158 180 0
160 183 0
158 180 0
161 182 0
160 183 0
162 185 0
162 184 0
161 184 0
159 181 0
166 189 0
158 180 0
166 188 0
160 182 0
161 184 0
157 179 0
157 180 0
163 185 0
155 179 0
161 183 0
159 181 0
156 178 0
156 178 0
157 180 0
159 182 0
160 182 0
159 182 0
156 179 0
160 183 0
162 184 0
158 180 0
156 179 0
155 178 0
158 181 0
157 179 0
157 179 0
161 183 0
163 185 0
159 182 0
161 182 0
157 179 0
155 178 0
160 183 0
159 181 0
155 177 0
159 182 0
160 183 0
154 176 0
158 180 0
163 185 0
152 176 0
154 177 0
159 180 0
157 179 0
158 181 0
148 171 0
151 175 0
152 175 0
156 179 0
150 173 0
157 180 0
158 180 0
158 182 0
158 180 0
155 179 0
152 175 0
158 180 0
151 174 0
157 181 0
161 182 0
149 170 0
159 180 0
150 173 0
157 179 0
160 182 0
156 179 0
148 170 0
153 175 0
154 176 0
154 178 0
149 172 0
152 175 0
158 180 0
157 180 0
149 171 0
150 172 0
157 179 0
151 174 0
150 173 0
152 174 0
154 177 0
151 173 0
149 171 0
154 176 0
151 172 0
148 171 0
144 166 0
145 168 0
152 174 0
151 172 0
143 164 0
153 176 0
144 166 0
150 172 0
156 178 0
148 171 0
154 177 0
151 173 0
152 175 0
145 166 0
148 169 0
149 170 0
151 172 0
151 173 0
154 177 0
153 173 0
142 164 0
146 167 0
140 163 0
143 164 0
153 173 0
148 170 0
157 177 0
149 170 0
144 167 0
156 177 0
142 164 0
148 168 0
147 169 0
146 169 0
145 166 0
150 171 0
146 168 0
152 173 0
147 169 0
150 172 0
159 182 0
144 166 0
139 158 0
143 163 0
150 173 0
149 171 0
148 169 0
148 170 0
158 180 0
146 167 0
143 164 0
148 169 0
149 171 0
149 171 0
146 168 0
152 173 0
148 169 0
146 167 0
151 172 0
147 168 0
149 169 0
140 160 0
147 168 0
155 177 0
154 176 0
154 175 0
145 165 0
145 166 0
147 168 0
156 175 0
149 169 0
144 165 0
145 165 0
143 164 0
152 173 0
149 171 0
154 175 0
151 172 0
148 170 0
149 169 0
144 164 0
144 164 0
156 175 0
145 165 0
148 169 0
149 170 0
151 171 0
146 167 0
143 164 0
150 170 0
151 170 0
143 162 0
145 165 0
144 165 0
151 170 0
145 165 0
151 171 0
159 178 0
144 163 0
141 162 0
147 166 0
146 165 0
140 159 0
149 170 0
154 174 0
144 164 0
146 166 0
147 167 0
153 174 0
147 166 0
148 166 0
145 165 0
151 169 0
147 165 0
144 164 0
151 170 0
146 163 0
150 171 0
149 168 0
153 172 0
147 165 0
149 166 0
148 167 0
152 170 0
148 167 0
145 163 0
147 166 0
140 158 0
146 165 0
143 159 0
143 160 0
149 169 0
147 165 0
144 161 0
148 168 0
147 162 0
142 160 0
142 159 0
151 168 0
146 164 0
146 162 0
147 164 0
142 159 0
148 165 0
154 171 0
150 169 0
151 168 0
152 169 0
146 162 0
141 155 0
151 166 0
149 166 0
150 169 0
154 171 0
143 159 0
145 161 0
151 167 0
151 168 0
145 160 0
151 168 0
151 167 0
150 165 0
147 161 0
141 155 0
154 170 0
140 153 0
158 172 0
144 159 0
156 172 0
142 156 0
154 169 0
149 164 0
148 163 0
154 166 0
148 164 0
153 166 0
148 162 0
147 161 0
152 168 0
154 167 0
141 154 0
149 163 0
159 174 0
155 169 0
152 165 0
146 159 0
149 161 0
153 166 0
145 157 0
146 158 0
145 156 0
153 166 0
149 162 0
155 169 0
149 163 0
160 174 0
153 165 0
152 167 0
154 167 0
151 164 0
146 157 0
149 163 0
151 164 0
151 162 0
146 158 0
153 165 0
153 165 0
148 160 0
151 163 0
149 162 0
160 174 0
144 155 0
150 161 0
152 164 0
157 170 0
152 164 0
154 165 0
149 160 0
153 164 0
158 168 0
150 161 0
152 163 0
152 164 0
151 163 0
153 165 0
151 159 0
159 172 0
160 171 0
163 176 0
154 165 0
154 166 0
152 163 0
154 166 0
155 167 0
156 169 0
168 191 0
168 189 0
174 196 0
168 190 0
173 194 0
171 192 0
166 187 0
169 190 0
170 191 0
169 192 0
171 193 0
171 193 0
167 189 0
169 190 0
172 193 0
170 191 0
165 187 0
166 188 0
172 194 0
171 193 0
171 193 0
172 193 0
167 189 0
167 188 0
172 193 0
170 192 0
171 193 0
168 191 0
168 190 0
172 193 0
164 186 0
169 190 0
165 187 0
167 188 0
170 192 0
169 191 0
167 190 0
164 186 0
167 189 0
167 188 0
161 183 0
166 187 0
168 191 0
165 186 0
167 189 0
166 188 0
168 190 0
162 185 0
168 190 0
168 189 0
164 186 0
166 189 0
168 189 0
161 185 0
162 185 0
164 186 0
168 190 0
164 186 0
163 183 0
163 185 0
164 185 0
162 186 0
166 189 0
165 187 0
165 188 0
166 188 0
162 184 0
165 187 0
157 179 0
163 185 0
163 186 0
161 183 0
160 182 0
168 190 0
159 181 0
159 181 0
159 181 0
157 179 0
165 187 0
158 179 0
157 179 0
160 181 0
160 183 0
159 183 0
163 187 0
164 185 0
155 177 0
160 183 0
158 182 0
162 185 0
158 180 0
155 178 0
165 188 0
159 183 0
161 184 0
154 176 0
160 183 0
158 181 0
156 180 0
153 177 0
156 179 0
160 184 0
156 178 0
160 182 0
148 171 0
153 175 0
159 181 0
160 182 0
153 177 0
157 180 0
155 179 0
157 180 0
158 180 0
157 180 0
157 180 0
151 174 0
158 179 0
157 179 0
156 177 0
153 175 0
158 181 0
156 178 0
153 175 0
151 174 0
157 180 0
160 182 0
152 175 0
154 177 0
157 179 0
151 173 0
155 178 0
158 180 0
156 179 0
153 176 0
161 183 0
160 183 0
151 174 0
153 175 0
148 169 0
153 175 0
154 176 0
147 168 0
157 179 0
155 177 0
153 174 0
152 173 0
148 171 0
154 176 0
157 180 0
156 179 0
152 174 0
158 181 0
155 177 0
148 170 0
151 173 0
153 176 0
153 175 0
149 172 0
152 175 0
142 164 0
156 178 0
152 175 0
143 165 0
149 172 0
141 162 0
152 174 0
153 177 0
158 180 0
151 173 0
147 169 0
155 177 0
151 174 0
152 173 0
149 172 0
147 168 0
151 173 0
151 173 0
151 171 0
155 177 0
157 179 0
150 172 0
150 172 0
147 168 0
143 165 0
144 165 0
147 169 0
147 169 0
155 178 0
130 151 0
146 169 0
150 171 0
145 167 0
150 171 0
153 175 0
149 172 0
153 175 0
154 175 0
152 174 0
152 174 0
144 165 0
152 173 0
145 167 0
152 173 0
148 171 0
147 168 0
152 174 0
148 170 0
156 177 0
145 166 0
145 168 0
148 168 0
149 170 0
145 165 0
150 173 0
152 174 0
148 170 0
144 167 0
147 169 0
149 170 0
152 173 0
148 169 0
148 167 0
147 166 0
151 173 0
153 174 0
147 169 0
145 165 0
134 152 0
152 173 0
146 166 0
146 168 0
142 164 0
141 161 0
147 167 0
152 173 0
145 165 0
145 164 0
143 164 0
145 166 0
142 162 0
156 176 0
150 171 0
153 174 0
149 172 0
148 168 0
148 170 0
149 168 0
148 168 0
146 168 0
149 169 0
148 167 0
152 172 0
150 169 0
152 173 0
144 162 0
144 165 0
159 180 0
153 173 0
145 166 0
159 178 0
150 169 0
152 173 0
149 168 0
148 166 0
140 158 0
146 166 0
144 162 0
153 174 0
147 166 0
143 162 0
148 167 0
154 174 0
147 164 0
151 168 0
146 165 0
143 162 0
151 172 0
148 169 0
148 166 0
151 170 0
147 167 0
153 173 0
147 166 0
146 166 0
145 163 0
147 167 0
149 169 0
154 173 0
146 164 0
153 172 0
147 163 0
155 175 0
155 176 0
155 174 0
149 166 0
156 177 0
146 165 0
159 178 0
146 162 0
144 162 0
156 174 0
149 167 0
152 168 0
148 164 0
146 163 0
154 173 0
146 164 0
143 159 0
154 171 0
150 166 0
147 165 0
153 171 0
151 169 0
142 155 0
144 159 0
158 178 0
148 167 0
157 176 0
147 162 0
157 174 0
147 163 0
152 170 0
154 170 0
148 163 0
148 165 0
155 170 0
157 175 0
151 169 0
147 164 0
145 160 0
149 165 0
150 165 0
150 165 0
153 169 0
149 161 0
155 170 0
149 164 0
152 166 0
151 167 0
148 162 0
153 167 0
152 168 0
154 169 0
147 161 0
153 167 0
150 163 0
148 163 0
154 168 0
143 157 0
156 168 0
144 158 0
150 165 0
148 161 0
147 162 0
150 161 0
148 163 0
147 162 0
154 166 0
151 164 0
150 164 0
151 165 0
151 163 0
151 166 0
150 162 0
148 157 0
154 167 0
154 167 0
152 165 0
154 166 0
153 166 0
150 161 0
153 165 0
149 163 0
146 158 0
152 165 0
160 174 0
150 160 0
149 164 0
148 159 0
154 168 0
154 165 0
151 164 0
156 170 0
150 163 0
149 157 0
161 175 0
157 169 0
147 159 0
160 173 0
157 171 0
152 165 0
155 168 0
149 160 0
156 169 0
154 164 0
159 169 0
157 169 0
152 166 0
158 169 0
158 171 0
170 191 0
172 194 0
172 194 0
169 192 0
171 192 0
167 190 0
170 192 0
170 192 0
166 188 0
172 194 0
169 191 0
173 195 0
172 193 0
172 192 0
175 196 0
164 186 0
169 191 0
169 191 0
172 194 0
164 185 0
170 191 0
171 193 0
168 189 0
169 191 0
169 190 0
166 188 0
162 186 0
167 189 0
165 186 0
169 192 0
169 191 0
163 185 0
165 187 0
168 189 0
169 191 0
165 187 0
167 189 0
168 190 0
168 190 0
161 183 0
169 191 0
168 189 0
165 187 0
166 189 0
166 187 0
163 184 0
167 189 0
171 194 0
162 184 0
166 188 0
163 186 0
169 191 0
160 182 0
161 183 0
167 188 0
167 190 0
163 185 0
164 186 0
159 182 0
160 182 0
164 187 0
162 185 0
164 186 0
163 186 0
164 186 0
165 188 0
167 190 0
160 181 0
162 184 0
159 181 0
160 182 0
155 178 0
158 181 0
165 188 0
161 183 0
166 189 0
159 181 0
160 183 0
163 186 0
156 179 0
155 177 0
159 182 0
165 187 0
164 187 0
163 186 0
156 177 0
159 182 0
163 186 0
163 185 0
161 182 0
154 178 0
156 178 0
162 185 0
160 182 0
164 187 0
157 179 0
163 185 0
161 183 0
163 185 0
151 173 0
162 184 0
155 178 0
153 176 0
158 179 0
159 182 0
155 177 0
157 181 0
159 181 0
155 178 0
158 180 0
152 175 0
156 179 0
154 176 0
149 172 0
157 178 0
158 181 0
152 175 0
156 178 0
159 182 0
162 186 0
162 186 0
156 179 0
155 178 0
161 183 0
162 184 0
157 180 0
156 179 0
150 174 0
154 176 0
155 178 0
153 176 0
149 171 0
155 177 0
154 177 0
157 179 0
156 179 0
158 180 0
156 178 0
155 176 0
151 174 0
148 169 0
150 174 0
144 166 0
154 177 0
156 177 0
148 171 0
155 177 0
150 172 0
148 171 0
147 169 0
154 177 0
155 178 0
153 175 0
155 178 0
153 174 0
151 173 0
152 174 0
153 176 0
146 169 0
159 181 0
158 181 0
159 181 0
149 172 0
151 172 0
150 173 0
150 174 0
151 174 0
151 174 0
153 174 0
158 180 0
153 175 0
151 174 0
154 176 0
151 173 0
147 171 0
148 170 0
149 171 0
152 175 0
147 169 0
153 175 0
154 177 0
154 176 0
151 173 0
154 176 0
152 174 0
150 170 0
149 171 0
148 169 0
145 167 0
153 175 0
145 167 0
144 166 0
150 172 0
144 166 0
148 171 0
156 176 0
156 179 0
144 167 0
143 164 0
151 173 0
147 169 0
147 170 0
148 168 0
151 172 0
150 171 0
150 169 0
152 175 0
149 170 0
152 175 0
151 173 0
145 167 0
147 168 0
149 170 0
151 172 0
143 164 0
150 171 0
156 177 0
146 166 0
144 165 0
150 170 0
152 174 0
141 161 0
151 171 0
150 172 0
151 172 0
148 170 0
150 170 0
142 161 0
142 162 0
144 166 0
151 173 0
154 175 0
140 161 0
151 174 0
152 174 0
131 152 0
142 162 0
147 167 0
149 171 0
150 170 0
152 172 0
149 169 0
140 160 0
155 175 0
144 165 0
147 167 0
148 169 0
144 164 0
151 171 0
146 168 0
143 163 0
151 172 0
146 166 0
137 156 0
155 175 0
147 167 0
148 166 0
144 163 0
149 168 0
149 170 0
146 167 0
142 161 0
147 167 0
156 176 0
152 173 0
149 169 0
153 173 0
153 173 0
148 168 0
148 168 0
148 168 0
150 169 0
147 166 0
153 174 0
145 165 0
150 170 0
152 171 0
154 174 0
152 171 0
142 160 0
156 177 0
149 168 0
146 167 0
143 161 0
150 168 0
141 160 0
154 173 0
146 163 0
150 168 0
153 172 0
156 175 0
149 167 0
148 166 0
150 168 0
146 165 0
147 164 0
156 175 0
147 167 0
156 172 0
144 161 0
149 168 0
155 172 0
150 167 0
150 169 0
156 174 0
148 166 0
150 168 0
148 165 0
151 169 0
149 167 0
156 174 0
148 166 0
154 172 0
156 174 0
147 165 0
149 167 0
152 169 0
150 168 0
156 173 0
148 164 0
149 165 0
147 163 0
151 170 0
151 167 0
156 173 0
150 166 0
150 167 0
148 166 0
151 168 0
155 172 0
150 166 0
158 174 0
148 164 0
144 158 0
154 171 0
147 163 0
150 167 0
148 163 0
150 165 0
147 160 0
157 173 0
152 167 0
153 168 0
145 160 0
146 161 0
150 166 0
150 166 0
152 167 0
156 168 0
149 165 0
159 177 0
147 159 0
157 172 0
150 165 0
155 170 0
157 172 0
151 165 0
154 168 0
149 163 0
156 172 0
160 174 0
152 163 0
149 164 0
149 164 0
152 166 0
153 168 0
149 161 0
156 172 0
156 172 0
153 165 0
148 160 0
153 167 0
148 161 0
154 166 0
152 165 0
152 167 0
150 161 0
149 164 0
148 161 0
150 163 0
153 165 0
151 163 0
151 161 0
151 161 0
147 157 0
149 161 0
148 160 0
149 162 0
154 166 0
146 154 0
153 167 0
152 165 0
154 166 0
159 172 0
158 172 0
156 167 0
146 159 0
154 165 0
154 167 0
155 166 0
171 192 0
171 193 0
169 190 0
172 194 0
174 196 0
169 191 0
171 192 0
167 189 0
171 193 0
170 191 0
168 190 0
167 189 0
169 190 0
167 189 0
169 190 0
167 189 0
164 185 0
172 193 0
172 193 0
169 191 0
172 194 0
171 193 0
169 192 0
167 189 0
165 187 0
173 194 0
164 186 0
167 189 0
164 187 0
163 185 0
167 189 0
164 186 0
162 184 0
166 188 0
166 189 0
166 188 0
162 184 0
169 191 0
162 184 0
168 190 0
164 186 0
163 184 0
168 190 0
166 188 0
165 186 0
163 185 0
165 187 0
162 184 0
160 182 0
163 185 0
170 192 0
169 191 0
165 187 0
161 183 0
157 179 0
164 187 0
164 186 0
166 188 0
161 184 0
167 189 0
168 190 0
159 182 0
157 180 0
156 178 0
156 179 0
162 185 0
165 188 0
160 181 0
164 186 0
163 186 0
162 184 0
162 185 0
165 188 0
152 174 0
162 185 0
164 186 0
162 185 0
162 185 0
155 178 0
161 183 0
160 184 0
162 185 0
166 188 0
156 178 0
151 174 0
166 188 0
152 175 0
159 182 0
163 185 0
162 183 0
157 180 0
150 173 0
156 177 0
157 180 0
159 182 0
158 180 0
152 174 0
154 178 0
166 188 0
163 186 0
151 175 0
154 177 0
158 181 0
160 183 0
160 182 0
162 185 0
153 174 0
158 181 0
153 177 0
154 177 0
156 179 0
156 179 0
156 178 0
158 182 0
161 183 0
156 179 0
157 177 0
157 180 0
156 179 0
155 177 0
157 179 0
157 181 0
155 176 0
159 181 0
151 175 0
158 181 0
157 179 0
160 184 0
152 175 0
155 178 0
149 170 0
160 184 0
155 178 0
153 176 0
153 176 0
155 178 0
151 173 0
154 177 0
145 167 0
161 184 0
157 181 0
152 174 0
151 173 0
155 177 0
150 173 0
150 173 0
150 171 0
160 183 0
155 177 0
155 178 0
152 175 0
149 172 0
154 178 0
146 168 0
150 171 0
151 173 0
147 168 0
155 177 0
155 177 0
154 175 0
150 172 0
153 175 0
150 173 0
147 169 0
150 171 0
151 175 0
147 170 0
149 170 0
146 168 0
151 173 0
148 171 0
148 169 0
151 173 0
153 174 0
153 174 0
145 168 0
148 170 0
145 167 0
151 173 0
157 178 0
154 177 0
147 168 0
155 177 0
147 168 0
150 173 0
156 179 0
151 173 0
151 173 0
150 171 0
150 171 0
146 168 0
147 170 0
141 164 0
151 174 0
154 177 0
155 178 0
154 176 0
146 168 0
145 167 0
148 170 0
148 168 0
151 173 0
152 173 0
153 175 0
150 172 0
153 173 0
149 170 0
144 165 0
154 176 0
147 169 0
152 174 0
153 173 0
142 163 0
155 177 0
148 170 0
154 176 0
151 173 0
147 169 0
153 176 0
150 171 0
143 163 0
152 175 0
151 172 0
141 161 0
148 169 0
148 170 0
149 168 0
146 165 0
145 168 0
153 175 0
152 175 0
145 166 0
152 174 0
145 165 0
151 172 0
153 174 0
142 163 0
149 167 0
151 173 0
147 169 0
141 163 0
149 168 0
144 163 0
152 173 0
147 167 0
150 170 0
139 160 0
138 157 0
151 172 0
141 161 0
154 174 0
153 173 0
152 172 0
149 170 0
145 166 0
146 166 0
145 165 0
146 166 0
146 164 0
147 167 0
156 175 0
154 175 0
148 169 0
152 173 0
151 172 0
151 172 0
162 183 0
145 166 0
154 174 0
149 168 0
147 169 0
147 166 0
146 167 0
150 168 0
153 172 0
153 170 0
142 159 0
147 166 0
145 166 0
154 174 0
148 167 0
152 172 0
150 168 0
146 163 0
152 171 0
154 172 0
146 165 0
148 167 0
157 177 0
144 163 0
150 170 0
148 166 0
156 176 0
151 170 0
149 167 0
143 160 0
149 169 0
149 167 0
153 170 0
150 169 0
151 170 0
154 170 0
153 171 0
149 167 0
149 167 0
152 168 0
150 166 0
152 170 0
147 165 0
148 166 0
146 164 0
150 167 0
144 161 0
150 167 0
157 174 0
153 170 0
137 156 0
155 174 0
152 169 0
158 176 0
153 170 0
148 166 0
148 161 0
147 164 0
150 167 0
155 171 0
144 160 0
152 171 0
147 162 0
153 170 0
150 165 0
154 169 0
144 158 0
149 166 0
155 170 0
157 174 0
150 163 0
156 174 0
152 170 0
154 170 0
150 165 0
144 163 0
155 171 0
149 162 0
153 169 0
145 159 0
152 166 0
146 159 0
151 166 0
156 169 0
162 177 0
146 161 0
149 164 0
154 170 0
151 164 0
152 167 0
149 163 0
158 172 0
157 173 0
151 162 0
145 159 0
146 158 0
151 164 0
153 168 0
151 165 0
148 160 0
153 165 0
160 172 0
157 170 0
152 166 0
155 165 0
162 176 0
155 168 0
152 167 0
155 172 0
152 164 0
151 165 0
147 159 0
158 171 0
150 164 0
148 161 0
154 168 0
150 160 0
157 173 0
144 158 0
154 166 0
154 166 0
151 163 0
148 161 0
155 166 0
151 163 0
154 166 0
158 171 0
154 169 0
147 160 0
165 182 0
154 170 0
147 161 0
147 158 0
150 160 0
172 193 0
172 193 0
169 191 0
168 190 0
170 192 0
169 191 0
169 190 0
162 184 0
172 193 0
170 192 0
168 190 0
172 193 0
172 195 0
170 191 0
167 190 0
167 189 0
173 194 0
167 188 0
169 191 0
172 193 0
171 193 0
170 192 0
167 188 0
168 190 0
168 189 0
170 191 0
166 188 0
168 190 0
169 190 0
164 185 0
169 191 0
165 187 0
169 191 0
171 194 0
167 189 0
165 188 0
168 188 0
169 191 0
171 192 0
167 188 0
161 182 0
167 189 0
162 184 0
160 182 0
169 191 0
163 186 0
169 192 0
159 181 0
164 186 0
165 187 0
163 186 0
164 186 0
158 181 0
168 190 0
167 189 0
166 190 0
168 191 0
163 185 0
163 186 0
157 179 0
161 183 0
163 185 0
162 184 0
165 188 0
162 185 0
164 187 0
157 179 0
162 185 0
161 185 0
157 180 0
163 185 0
164 187 0
158 181 0
157 179 0
163 186 0
165 187 0
165 187 0
155 178 0
160 183 0
163 186 0
160 183 0
153 176 0
158 181 0
161 184 0
162 185 0
164 187 0
158 181 0
164 186 0
160 183 0
160 183 0
157 181 0
156 178 0
157 179 0
155 177 0
157 180 0
163 185 0
158 181 0
157 180 0
158 180 0
161 183 0
161 184 0
157 180 0
155 179 0
159 182 0
158 181 0
152 175 0
156 179 0
152 174 0
162 184 0
160 182 0
156 179 0
155 177 0
155 178 0
153 175 0
155 178 0
149 170 0
158 181 0
159 181 0
159 181 0
160 183 0
160 182 0
161 183 0
159 181 0
162 186 0
155 179 0
154 177 0
153 175 0
160 182 0
157 180 0
152 175 0
153 175 0
154 177 0
163 186 0
153 175 0
156 179 0
154 176 0
155 178 0
151 173 0
156 177 0
152 174 0
160 183 0
157 179 0
160 183 0
149 173 0
157 180 0
157 180 0
156 178 0
160 183 0
146 170 0
157 179 0
151 173 0
155 175 0
155 178 0
154 177 0
147 169 0
159 183 0
156 179 0
154 177 0
148 172 0
154 176 0
152 173 0
150 172 0
150 171 0
155 176 0
151 172 0
156 178 0
151 173 0
154 175 0
155 177 0
151 173 0
158 180 0
156 178 0
152 174 0
148 170 0
150 172 0
149 172 0
158 181 0
156 178 0
155 177 0
152 174 0
148 168 0
157 179 0
150 172 0
148 169 0
145 167 0
146 168 0
150 172 0
152 173 0
142 164 0
148 170 0
151 173 0
156 178 0
146 168 0
147 169 0
159 180 0
159 181 0
147 168 0
150 171 0
151 173 0
149 171 0
152 173 0
145 167 0
143 162 0
149 169 0
150 172 0
150 173 0
149 171 0
152 175 0
155 176 0
152 173 0
147 168 0
156 177 0
146 167 0
145 166 0
146 168 0
155 176 0
137 159 0
150 172 0
148 168 0
146 167 0
144 164 0
150 172 0
147 170 0
141 162 0
151 173 0
153 172 0
149 170 0
155 177 0
153 176 0
150 171 0
156 179 0
148 168 0
144 165 0
147 169 0
151 171 0
144 164 0
145 166 0
153 175 0
153 174 0
145 165 0
147 168 0
148 169 0
153 173 0
152 173 0
152 172 0
154 175 0
145 165 0
149 171 0
156 177 0
148 169 0
152 172 0
152 173 0
141 162 0
146 166 0
149 170 0
148 167 0
150 170 0
148 168 0
147 167 0
144 166 0
155 176 0
151 170 0
143 164 0
148 166 0
143 162 0
148 168 0
146 167 0
146 167 0
152 174 0
153 172 0
142 161 0
147 166 0
147 166 0
151 172 0
152 172 0
143 162 0
150 170 0
147 167 0
149 169 0
152 171 0
158 178 0
148 168 0
147 165 0
157 177 0
147 168 0
152 172 0
151 171 0
148 169 0
150 168 0
152 171 0
148 166 0
151 171 0
152 171 0
150 168 0
149 167 0
152 169 0
155 174 0
153 171 0
154 171 0
148 165 0
147 166 0
149 167 0
147 166 0
153 169 0
143 159 0
145 163 0
158 177 0
150 167 0
148 164 0
145 164 0
152 170 0
148 165 0
156 176 0
150 166 0
143 159 0
153 170 0
157 174 0
153 170 0
147 165 0
151 168 0
148 164 0
154 172 0
150 169 0
149 165 0
151 168 0
151 168 0
152 169 0
143 158 0
153 169 0
155 173 0
153 170 0
150 166 0
146 161 0
145 161 0
152 170 0
153 168 0
152 170 0
148 164 0
149 162 0
152 166 0
154 171 0
145 161 0
152 167 0
148 164 0
152 168 0
148 160 0
148 162 0
156 171 0
150 165 0
149 166 0
150 165 0
148 162 0
152 165 0
151 164 0
147 160 0
149 163 0
152 168 0
149 163 0
155 168 0
151 165 0
152 165 0
152 167 0
155 170 0
151 163 0
157 172 0
146 159 0
153 167 0
156 168 0
156 169 0
151 164 0
160 174 0
157 170 0
152 166 0
156 170 0
154 166 0
150 161 0
154 167 0
153 165 0
143 156 0
149 162 0
152 164 0
153 170 0
156 167 0
157 170 0
151 163 0
151 164 0
154 166 0
150 161 0
153 167 0
151 163 0
153 166 0
149 160 0
151 162 0
154 162 0
160 174 0
153 166 0
155 168 0
150 161 0
157 169 0
156 166 0
173 195 0
170 192 0
170 192 0
172 193 0
172 194 0
167 188 0
169 190 0
166 188 0
170 192 0
171 193 0
170 191 0
169 191 0
166 188 0
171 192 0
168 190 0
174 195 0
167 189 0
169 192 0
167 189 0
166 187 0
169 191 0
169 191 0
168 189 0
162 184 0
167 189 0
166 188 0
171 192 0
166 188 0
170 192 0
163 185 0
168 190 0
166 188 0
168 190 0
167 189 0
168 191 0
168 189 0
167 188 0
167 188 0
164 187 0
165 187 0
165 187 0
166 188 0
163 185 0
162 183 0
165 188 0
160 181 0
167 190 0
167 190 0
165 188 0
164 186 0
169 190 0
161 183 0
161 184 0
165 187 0
162 184 0
165 187 0
163 185 0
160 183 0
162 184 0
164 186 0
162 185 0
167 190 0
159 182 0
161 183 0
154 177 0
165 187 0
158 180 0
163 185 0
157 180 0
161 184 0
163 186 0
160 183 0
160 182 0
164 186 0
161 184 0
167 190 0
163 185 0
157 180 0
162 184 0
157 178 0
157 180 0
161 183 0
162 185 0
162 185 0
162 185 0
166 189 0
161 183 0
157 181 0
161 185 0
157 180 0
157 181 0
161 182 0
158 180 0
160 183 0
157 179 0
160 184 0
161 184 0
160 182 0
158 181 0
160 183 0
157 179 0
154 177 0
159 182 0
158 181 0
160 183 0
160 183 0
157 179 0
158 180 0
159 183 0
157 180 0
157 179 0
155 178 0
158 181 0
160 183 0
153 176 0
156 179 0
159 182 0
154 176 0
164 187 0
155 178 0
155 178 0
157 179 0
159 182 0
148 170 0
154 176 0
163 187 0
152 175 0
160 182 0
153 174 0
158 181 0
151 172 0
154 178 0
159 182 0
148 170 0
152 175 0
153 177 0
157 180 0
151 174 0
153 175 0
150 172 0
160 183 0
158 181 0
151 173 0
160 183 0
146 168 0
148 171 0
155 177 0
149 173 0
156 179 0
150 172 0
149 170 0
152 172 0
154 176 0
151 174 0
143 165 0
155 177 0
151 173 0
150 172 0
152 175 0
150 173 0
157 179 0
148 171 0
151 173 0
152 174 0
155 177 0
152 175 0
153 176 0
144 167 0
157 180 0
152 174 0
146 167 0
152 174 0
147 170 0
148 170 0
150 172 0
151 173 0
148 169 0
154 176 0
152 174 0
151 171 0
144 166 0
154 174 0
158 180 0
138 159 0
141 162 0
151 173 0
146 170 0
143 164 0
148 169 0
151 173 0
154 176 0
151 173 0
150 172 0
150 173 0
154 175 0
151 172 0
146 167 0
153 175 0
145 167 0
151 173 0
151 172 0
155 177 0
148 170 0
156 178 0
145 167 0
159 181 0
157 179 0
154 176 0
147 169 0
144 166 0
156 177 0
144 165 0
154 175 0
157 179 0
158 179 0
151 173 0
147 170 0
153 173 0
150 171 0
146 166 0
148 169 0
141 163 0
150 173 0
150 171 0
148 170 0
152 174 0
141 161 0
149 171 0
153 175 0
157 178 0
153 174 0
149 170 0
142 162 0
150 170 0
149 170 0
149 169 0
151 170 0
144 165 0
154 174 0
149 169 0
151 171 0
137 158 0
152 172 0
148 168 0
144 163 0
154 176 0
153 173 0
146 167 0
148 170 0
149 168 0
154 173 0
148 169 0
151 171 0
152 173 0
150 169 0
145 167 0
149 169 0
156 178 0
154 174 0
148 168 0
152 174 0
145 164 0
145 166 0
152 173 0
148 168 0
151 171 0
148 167 0
153 172 0
155 176 0
149 169 0
149 169 0
147 166 0
152 172 0
149 168 0
153 174 0
154 174 0
150 171 0
147 167 0
151 172 0
145 164 0
148 167 0
149 169 0
159 181 0
153 173 0
147 165 0
153 172 0
156 175 0
147 166 0
154 174 0
148 170 0
152 173 0
157 175 0
150 167 0
148 166 0
153 173 0
149 167 0
147 166 0
154 173 0
146 165 0
152 171 0
145 163 0
152 172 0
158 177 0
149 167 0
154 170 0
146 165 0
152 170 0
146 163 0
156 173 0
147 164 0
159 178 0
153 174 0
144 159 0
148 164 0
155 173 0
149 166 0
149 167 0
150 166 0
153 170 0
147 162 0
146 164 0
139 156 0
154 171 0
148 165 0
148 165 0
153 169 0
155 174 0
146 166 0
150 170 0
152 168 0
152 168 0
154 170 0
152 167 0
146 161 0
158 172 0
149 164 0
149 164 0
154 168 0
151 168 0
151 168 0
155 169 0
151 166 0
152 168 0
148 163 0
153 167 0
153 170 0
153 169 0
145 160 0
154 169 0
154 169 0
151 167 0
153 167 0
148 162 0
156 172 0
155 170 0
149 165 0
148 161 0
151 166 0
146 162 0
154 170 0
149 165 0
146 158 0
158 173 0
153 166 0
152 166 0
142 154 0
158 172 0
151 164 0
150 164 0
152 166 0
149 165 0
159 174 0
153 167 0
154 168 0
158 171 0
152 165 0
156 169 0
148 160 0
154 165 0
150 162 0
158 169 0
154 165 0
154 167 0
148 160 0
159 173 0
152 167 0
153 167 0
150 160 0
158 174 0
155 169 0
146 160 0
152 162 0
146 158 0
158 172 0
153 167 0
154 168 0
153 165 0
150 161 0
158 170 0
160 175 0
173 194 0
169 191 0
173 195 0
166 188 0
172 194 0
167 189 0
172 193 0
172 194 0
168 190 0
167 189 0
170 191 0
168 190 0
171 193 0
173 195 0
167 189 0
170 192 0
164 187 0
169 192 0
163 185 0
168 190 0
162 184 0
168 190 0
161 183 0
167 189 0
167 189 0
171 192 0
169 192 0
168 191 0
169 192 0
163 183 0
170 191 0
169 191 0
166 188 0
167 188 0
168 191 0
161 184 0
161 184 0
164 186 0
164 187 0
170 192 0
167 189 0
166 188 0
162 185 0
166 187 0
162 184 0
160 183 0
165 187 0
164 187 0
161 184 0
162 184 0
164 186 0
165 188 0
166 188 0
166 188 0
162 184 0
162 185 0
163 186 0
159 181 0
159 180 0
162 185 0
161 184 0
161 184 0
165 187 0
165 187 0
162 184 0
162 184 0
160 183 0
163 186 0
155 177 0
162 183 0
161 184 0
161 184 0
164 187 0
162 185 0
164 186 0
157 180 0
162 185 0
156 179 0
160 183 0
163 185 0
155 177 0
155 177 0
161 182 0
159 181 0
159 183 0
155 179 0
162 186 0
158 180 0
161 184 0
154 176 0
155 179 0
162 184 0
158 179 0
157 180 0
157 180 0
163 185 0
163 186 0
163 185 0
168 190 0
158 182 0
160 183 0
153 175 0
158 180 0
160 184 0
158 180 0
157 180 0
161 184 0
156 178 0
158 181 0
159 182 0
158 181 0
158 182 0
159 182 0
159 181 0
163 187 0
159 181 0
155 177 0
158 181 0
153 176 0
162 185 0
153 176 0
156 179 0
157 180 0
156 179 0
154 177 0
156 178 0
154 175 0
157 180 0
148 170 0
151 175 0
159 182 0
160 183 0
159 182 0
153 176 0
163 185 0
153 176 0
155 178 0
156 178 0
152 174 0
153 177 0
157 179 0
156 178 0
160 183 0
152 175 0
159 181 0
162 184 0
160 183 0
156 179 0
157 178 0
155 177 0
150 173 0
160 182 0
150 172 0
150 172 0
150 171 0
151 172 0
154 177 0
156 179 0
148 170 0
151 174 0
147 169 0
149 171 0
157 179 0
152 174 0
143 166 0
150 173 0
151 175 0
155 176 0
151 174 0
149 170 0
150 173 0
149 171 0
153 176 0
148 170 0
154 174 0
153 175 0
152 174 0
150 172 0
150 171 0
148 169 0
158 181 0
151 173 0
153 176 0
153 175 0
149 171 0
152 174 0
157 179 0
159 181 0
149 172 0
145 167 0
148 170 0
155 177 0
150 172 0
149 172 0
148 169 0
145 167 0
141 164 0
152 173 0
153 175 0
150 172 0
154 175 0
149 170 0
148 170 0
150 172 0
144 163 0
155 177 0
153 176 0
149 171 0
161 184 0
155 178 0
153 173 0
142 164 0
150 171 0
152 173 0
149 170 0
142 162 0
150 171 0
156 177 0
147 169 0
148 169 0
145 167 0
151 172 0
145 166 0
154 175 0
146 166 0
150 171 0
142 164 0
142 164 0
151 172 0
148 168 0
139 159 0
148 170 0
153 177 0
150 171 0
147 168 0
149 171 0
143 164 0
159 180 0
149 169 0
144 163 0
151 172 0
151 173 0
152 172 0
150 171 0
147 168 0
150 170 0
148 168 0
149 170 0
141 160 0
153 174 0
151 170 0
154 176 0
143 165 0
145 165 0
158 178 0
153 174 0
148 169 0
147 170 0
146 166 0
155 176 0
156 175 0
147 167 0
154 173 0
145 164 0
149 168 0
153 175 0
143 164 0
144 162 0
143 163 0
157 177 0
150 170 0
156 176 0
150 170 0
148 168 0
152 171 0
150 169 0
153 172 0
157 176 0
148 169 0
157 176 0
150 170 0
152 173 0
151 168 0
145 165 0
153 174 0
155 176 0
151 171 0
152 172 0
152 169 0
154 172 0
146 166 0
145 164 0
152 172 0
155 174 0
151 169 0
146 165 0
148 164 0
148 166 0
147 165 0
154 175 0
150 167 0
146 166 0
140 158 0
154 174 0
151 169 0
144 164 0
150 167 0
154 171 0
146 165 0
149 167 0
158 175 0
159 175 0
155 172 0
153 171 0
153 171 0
153 171 0
160 177 0
151 170 0
152 170 0
144 159 0
151 168 0
145 163 0
148 166 0
157 174 0
156 174 0
147 167 0
156 175 0
154 170 0
151 170 0
152 170 0
147 165 0
148 162 0
158 176 0
147 164 0
152 163 0
153 169 0
153 171 0
151 166 0
154 169 0
154 169 0
142 158 0
150 165 0
152 169 0
149 164 0
152 168 0
147 162 0
150 166 0
148 166 0
148 163 0
154 171 0
152 167 0
154 168 0
150 165 0
151 164 0
150 166 0
156 173 0
151 165 0
148 161 0
150 163 0
146 157 0
147 161 0
148 164 0
151 166 0
153 171 0
149 163 0
151 167 0
151 166 0
154 170 0
154 170 0
157 173 0
160 176 0
154 169 0
155 169 0
155 170 0
149 164 0
151 165 0
151 165 0
153 167 0
158 172 0
150 162 0
147 161 0
157 172 0
149 162 0
155 169 0
147 159 0
158 170 0
157 170 0
157 170 0
156 168 0
153 168 0
149 163 0
149 162 0
157 169 0
154 165 0
148 162 0
151 165 0
154 165 0
158 174 0
153 165 0
160 174 0
169 191 0
171 194 0
167 189 0
169 191 0
168 189 0
168 189 0
169 191 0
162 183 0
163 184 0
171 193 0
169 191 0
172 193 0
165 188 0
171 193 0
168 189 0
169 192 0
168 190 0
166 188 0
172 193 0
168 191 0
171 193 0
173 195 0
168 190 0
166 189 0
168 190 0
167 191 0
169 191 0
170 192 0
165 186 0
166 187 0
165 187 0
161 182 0
169 191 0
166 189 0
166 188 0
169 190 0
165 188 0
163 186 0
165 186 0
166 188 0
161 184 0
167 189 0
169 191 0
166 187 0
165 188 0
159 180 0
160 182 0
163 185 0
163 185 0
166 188 0
160 183 0
162 186 0
166 189 0
167 189 0
166 189 0
161 184 0
162 185 0
167 189 0
164 186 0
163 186 0
164 186 0
151 174 0
157 180 0
166 189 0
163 186 0
160 183 0
166 189 0
162 184 0
163 185 0
163 185 0
164 186 0
157 179 0
161 184 0
163 185 0
156 178 0
161 184 0
163 185 0
165 187 0
166 189 0
158 180 0
166 189 0
159 182 0
161 184 0
165 188 0
164 187 0
160 183 0
162 185 0
156 179 0
163 185 0
162 185 0
159 182 0
160 183 0
157 181 0
155 177 0
159 182 0
159 183 0
165 188 0
162 185 0
162 185 0
160 184 0
162 185 0
158 182 0
160 184 0
160 182 0
158 181 0
158 180 0
156 179 0
155 177 0
156 179 0
160 184 0
153 176 0
164 187 0
156 178 0
153 175 0
162 186 0
161 184 0
157 180 0
156 179 0
156 178 0
156 178 0
153 177 0
157 181 0
161 184 0
158 181 0
156 179 0
156 179 0
153 175 0
153 176 0
157 180 0
152 174 0
159 181 0
159 182 0
160 183 0
149 172 0
157 180 0
161 184 0
161 184 0
156 178 0
156 178 0
158 181 0
150 173 0
149 170 0
153 176 0
161 183 0
154 176 0
158 181 0
154 176 0
146 169 0
159 183 0
160 182 0
155 178 0
159 181 0
154 176 0
155 178 0
154 177 0
154 177 0
151 175 0
148 171 0
160 181 0
151 172 0
156 180 0
157 179 0
155 177 0
149 171 0
163 185 0
144 166 0
153 176 0
161 182 0
156 179 0
151 172 0
151 173 0
151 171 0
146 169 0
147 170 0
142 165 0
152 173 0
149 172 0
154 177 0
152 175 0
150 172 0
147 169 0
155 178 0
157 178 0
153 175 0
152 174 0
152 174 0
142 164 0
151 172 0
151 174 0
158 181 0
150 171 0
150 171 0
147 167 0
154 176 0
155 177 0
149 170 0
143 166 0
152 174 0
156 179 0
151 173 0
153 176 0
158 180 0
156 178 0
146 167 0
146 167 0
156 178 0
153 175 0
153 175 0
148 169 0
155 178 0
146 168 0
139 160 0
154 176 0
143 165 0
152 174 0
150 172 0
142 164 0
149 170 0
151 173 0
154 173 0
151 171 0
152 173 0
153 173 0
147 167 0
154 176 0
152 174 0
142 164 0
146 168 0
150 171 0
151 174 0
147 167 0
150 171 0
152 173 0
148 169 0
151 173 0
151 172 0
145 165 0
148 168 0
154 176 0
149 171 0
149 170 0
150 170 0
156 179 0
148 168 0
153 174 0
154 173 0
152 173 0
148 168 0
153 173 0
149 170 0
147 167 0
153 175 0
148 169 0
153 175 0
158 179 0
147 167 0
154 176 0
136 157 0
148 168 0
158 178 0
148 168 0
146 167 0
151 171 0
152 172 0
150 170 0
149 169 0
150 170 0
152 173 0
156 176 0
150 171 0
150 171 0
151 170 0
147 166 0
154 173 0
144 164 0
149 170 0
150 171 0
149 168 0
158 179 0
148 168 0
149 169 0
148 169 0
153 172 0
157 178 0
143 163 0
151 169 0
151 172 0
157 176 0
148 168 0
155 172 0
153 170 0
147 168 0
152 172 0
151 170 0
147 166 0
155 175 0
152 170 0
150 168 0
149 169 0
149 167 0
152 173 0
154 173 0
155 177 0
156 175 0
153 173 0
152 169 0
150 169 0
147 164 0
143 162 0
147 164 0
156 175 0
145 162 0
156 175 0
148 167 0
148 164 0
147 164 0
148 164 0
155 171 0
149 165 0
151 170 0
150 167 0
149 165 0
155 174 0
148 163 0
152 169 0
148 167 0
150 168 0
156 173 0
143 161 0
151 168 0
154 171 0
152 169 0
149 163 0
150 166 0
155 171 0
144 161 0
155 171 0
151 167 0
149 165 0
152 170 0
151 167 0
149 165 0
149 162 0
146 160 0
157 174 0
150 167 0
154 171 0
151 166 0
150 165 0
149 163 0
151 166 0
154 170 0
151 169 0
150 165 0
155 172 0
153 168 0
146 159 0
153 170 0
151 167 0
153 168 0
152 166 0
153 169 0
151 164 0
151 166 0
150 162 0
151 163 0
162 179 0
153 167 0
159 173 0
156 171 0
152 167 0
151 165 0
155 171 0
150 162 0
151 167 0
151 164 0
148 163 0
146 161 0
154 164 0
151 167 0
158 171 0
156 170 0
155 170 0
152 168 0
158 173 0
154 167 0
148 163 0
158 170 0
157 169 0
147 157 0
152 167 0
156 169 0
152 166 0
154 166 0
159 172 0
152 164 0
157 171 0
158 173 0
158 171 0
156 172 0
169 191 0
168 190 0
168 191 0
171 192 0
170 192 0
172 195 0
173 194 0
164 186 0
168 189 0
171 193 0
170 192 0
172 194 0
168 189 0
167 189 0
171 193 0
165 187 0
167 188 0
167 190 0
169 191 0
173 195 0
173 195 0
167 189 0
164 186 0
168 191 0
163 185 0
164 186 0
164 186 0
169 192 0
164 187 0
171 192 0
164 186 0
166 188 0
162 185 0
172 194 0
169 191 0
166 188 0
171 193 0
163 185 0
160 183 0
167 189 0
167 189 0
161 183 0
167 190 0
164 187 0
164 187 0
164 186 0
161 183 0
163 185 0
165 187 0
167 189 0
164 186 0
163 185 0
164 186 0
167 190 0
167 188 0
163 185 0
163 185 0
168 189 0
161 185 0
165 188 0
168 191 0
161 183 0
163 186 0
163 187 0
158 180 0
166 188 0
165 187 0
163 186 0
157 180 0
158 181 0
158 181 0
163 185 0
158 181 0
159 182 0
153 176 0
160 183 0
164 187 0
163 184 0
162 185 0
159 180 0
162 185 0
164 187 0
159 181 0
161 184 0
163 186 0
165 188 0
162 186 0
159 182 0
157 180 0
159 181 0
164 187 0
164 187 0
160 182 0
161 183 0
158 181 0
158 180 0
161 184 0
163 186 0
164 187 0
153 176 0
156 178 0
161 183 0
165 188 0
156 180 0
158 181 0
156 179 0
161 183 0
160 182 0
158 181 0
165 188 0
155 178 0
155 179 0
156 179 0
157 180 0
154 177 0
160 184 0
163 186 0
158 181 0
162 185 0
162 183 0
157 180 0
154 177 0
152 175 0
159 182 0
154 175 0
159 181 0
159 183 0
156 178 0
155 178 0
159 180 0
155 178 0
157 179 0
157 179 0
153 175 0
160 183 0
157 181 0
152 174 0
155 179 0
151 174 0
158 180 0
154 176 0
157 179 0
157 181 0
154 178 0
155 178 0
159 181 0
160 182 0
153 175 0
158 181 0
152 174 0
151 174 0
149 171 0
160 183 0
156 179 0
152 175 0
160 182 0
153 175 0
156 177 0
147 168 0
156 178 0
148 169 0
142 163 0
157 180 0
158 180 0
156 178 0
156 179 0
146 168 0
153 176 0
153 175 0
158 180 0
156 178 0
153 175 0
147 168 0
157 179 0
149 172 0
147 170 0
156 179 0
156 178 0
148 170 0
152 175 0
144 166 0
160 182 0
157 180 0
149 171 0
151 173 0
155 176 0
153 176 0
145 167 0
155 178 0
153 174 0
154 176 0
151 173 0
155 178 0
148 169 0
152 173 0
151 172 0
145 166 0
145 167 0
149 172 0
155 176 0
154 176 0
154 177 0
156 177 0
157 178 0
154 175 0
155 177 0
151 172 0
151 172 0
157 178 0
149 171 0
152 173 0
152 174 0
151 172 0
145 165 0
150 172 0
149 170 0
149 171 0
153 173 0
158 181 0
148 170 0
144 166 0
148 171 0
153 174 0
150 172 0
153 174 0
148 170 0
148 170 0
147 167 0
146 167 0
146 168 0
148 170 0
154 175 0
150 171 0
150 173 0
158 180 0
155 176 0
149 170 0
152 173 0
150 172 0
153 174 0
149 171 0
151 172 0
150 172 0
154 175 0
156 177 0
147 166 0
144 164 0
150 170 0
149 169 0
144 164 0
151 171 0
146 165 0
151 170 0
148 168 0
153 171 0
151 171 0
149 171 0
155 177 0
163 183 0
156 178 0
145 165 0
154 175 0
156 176 0
145 165 0
152 172 0
154 174 0
158 178 0
153 173 0
150 170 0
146 166 0
150 170 0
150 169 0
142 160 0
148 165 0
150 170 0
142 160 0
159 179 0
144 163 0
156 174 0
150 170 0
150 171 0
149 166 0
152 171 0
151 172 0
161 181 0
146 165 0
150 170 0
147 167 0
154 173 0
154 173 0
154 173 0
146 166 0
146 165 0
148 168 0
150 170 0
154 174 0
148 166 0
158 177 0
149 169 0
147 165 0
154 173 0
152 170 0
151 172 0
149 168 0
149 168 0
157 175 0
158 177 0
152 170 0
146 164 0
150 169 0
155 174 0
151 170 0
148 165 0
149 167 0
153 173 0
155 173 0
155 173 0
152 169 0
156 175 0
141 157 0
158 177 0
157 174 0
154 174 0
152 169 0
153 172 0
148 163 0
147 165 0
155 173 0
155 173 0
147 163 0
142 160 0
150 166 0
146 164 0
153 171 0
148 164 0
155 172 0
154 173 0
153 167 0
151 165 0
154 170 0
147 164 0
147 162 0
148 163 0
149 164 0
156 170 0
149 167 0
147 162 0
151 167 0
155 171 0
153 169 0
158 175 0
146 163 0
149 166 0
153 167 0
151 166 0
150 165 0
153 169 0
152 167 0
154 167 0
153 167 0
155 172 0
157 171 0
153 169 0
149 163 0
155 170 0
151 164 0
153 168 0
153 167 0
154 168 0
153 167 0
152 168 0
158 171 0
153 167 0
155 170 0
149 163 0
150 164 0
149 163 0
154 168 0
148 161 0
155 168 0
154 169 0
151 162 0
152 168 0
150 162 0
155 170 0
153 167 0
153 166 0
154 169 0
154 166 0
163 180 0
157 169 0
154 168 0
157 170 0
156 170 0
154 170 0
152 165 0
152 165 0
157 173 0
157 169 0
159 173 0
172 194 0
170 193 0
167 188 0
170 192 0
169 190 0
171 193 0
167 190 0
169 191 0
169 191 0
169 192 0
165 187 0
169 190 0
159 182 0
165 189 0
170 193 0
170 193 0
167 189 0
165 186 0
169 192 0
170 192 0
165 187 0
162 184 0
162 184 0
166 189 0
171 193 0
164 185 0
167 189 0
168 190 0
170 192 0
170 192 0
159 181 0
169 191 0
164 186 0
168 190 0
165 187 0
167 190 0
164 186 0
167 190 0
167 189 0
161 183 0
161 184 0
166 187 0
169 191 0
164 186 0
165 188 0
167 189 0
163 185 0
164 187 0
168 190 0
164 186 0
165 189 0
162 185 0
162 186 0
164 185 0
161 184 0
166 188 0
161 184 0
163 185 0
158 181 0
165 189 0
160 183 0
160 182 0
150 172 0
161 184 0
161 184 0
164 187 0
165 187 0
159 181 0
161 185 0
162 185 0
160 183 0
159 182 0
163 186 0
157 178 0
160 184 0
159 182 0
160 183 0
157 179 0
161 183 0
159 181 0
159 180 0
162 184 0
158 181 0
156 177 0
167 189 0
157 180 0
158 180 0
159 182 0
161 184 0
154 178 0
162 184 0
156 179 0
158 180 0
157 180 0
159 182 0
164 188 0
159 182 0
160 182 0
152 174 0
161 184 0
161 183 0
154 178 0
157 181 0
157 180 0
146 169 0
157 180 0
155 177 0
155 178 0
157 179 0
158 181 0
153 177 0
154 177 0
153 176 0
161 184 0
157 180 0
152 176 0
159 182 0
154 177 0
155 177 0
153 175 0
152 175 0
156 178 0
159 180 0
154 177 0
154 177 0
158 180 0
154 177 0
164 186 0
160 182 0
157 180 0
162 185 0
159 182 0
154 178 0
158 181 0
162 185 0
152 175 0
158 180 0
163 185 0
151 175 0
152 175 0
150 173 0
148 170 0
152 175 0
155 176 0
153 175 0
153 175 0
160 183 0
153 176 0
160 182 0
159 181 0
155 178 0
156 179 0
158 180 0
160 183 0
154 174 0
152 174 0
154 176 0
154 177 0
158 179 0
151 173 0
160 183 0
159 180 0
156 178 0
158 180 0
154 175 0
145 166 0
157 179 0
154 175 0
153 177 0
150 173 0
157 179 0
152 174 0
147 169 0
153 176 0
154 175 0
152 174 0
150 173 0
150 172 0
155 177 0
152 174 0
148 170 0
155 177 0
154 177 0
155 177 0
149 169 0
145 167 0
153 174 0
151 173 0
158 180 0
157 178 0
146 167 0
154 177 0
151 173 0
153 175 0
147 168 0
151 172 0
150 172 0
154 178 0
149 170 0
155 176 0
151 172 0
153 174 0
153 176 0
153 175 0
151 173 0
149 169 0
151 173 0
155 177 0
150 171 0
153 176 0
156 177 0
153 175 0
147 169 0
154 176 0
150 171 0
151 171 0
154 176 0
158 179 0
153 174 0
154 175 0
142 164 0
145 166 0
153 173 0
151 172 0
159 181 0
155 177 0
152 174 0
146 167 0
139 160 0
148 171 0
141 162 0
151 174 0
148 169 0
146 167 0
148 168 0
144 164 0
152 174 0
154 175 0
149 170 0
150 170 0
152 174 0
145 165 0
148 168 0
151 173 0
152 173 0
149 171 0
154 174 0
146 168 0
148 169 0
151 173 0
150 170 0
149 169 0
149 171 0
154 175 0
151 170 0
151 172 0
148 169 0
144 164 0
145 164 0
156 176 0
150 170 0
150 171 0
153 174 0
152 173 0
150 170 0
146 166 0
150 170 0
150 172 0
151 171 0
155 174 0
144 162 0
153 174 0
145 163 0
150 172 0
152 173 0
150 169 0
156 176 0
151 171 0
157 178 0
152 172 0
150 170 0
149 169 0
155 175 0
148 167 0
146 166 0
156 175 0
152 171 0
153 173 0
151 171 0
156 176 0
150 169 0
147 165 0
151 172 0
154 175 0
144 163 0
153 173 0
156 176 0
149 166 0
155 175 0
153 173 0
150 169 0
156 175 0
149 169 0
152 171 0
153 172 0
153 172 0
149 167 0
152 171 0
149 168 0
150 169 0
146 163 0
156 175 0
147 164 0
158 176 0
159 178 0
150 166 0
150 167 0
152 170 0
150 169 0
153 171 0
155 173 0
151 169 0
150 167 0
147 163 0
152 170 0
154 172 0
151 167 0
158 175 0
158 177 0
150 166 0
147 162 0
155 171 0
149 165 0
151 168 0
145 160 0
145 160 0
148 168 0
151 167 0
148 164 0
155 173 0
154 169 0
150 167 0
159 175 0
156 174 0
152 167 0
155 171 0
153 171 0
150 166 0
156 173 0
154 170 0
162 180 0
157 174 0
152 167 0
142 155 0
157 173 0
150 166 0
153 167 0
152 167 0
152 169 0
155 170 0
153 170 0
156 174 0
156 173 0
149 164 0
156 172 0
161 176 0
150 166 0
147 159 0
146 161 0
154 168 0
156 169 0
159 176 0
149 161 0
150 164 0
152 166 0
154 170 0
151 166 0
156 169 0
154 168 0
152 163 0
154 169 0
155 168 0
151 165 0
154 168 0
154 168 0
153 169 0
155 172 0
161 176 0
157 171 0
148 162 0
147 159 0
153 167 0
159 173 0
160 174 0
149 163 0
156 170 0
157 171 0
158 173 0
154 167 0
157 170 0
171 193 0
170 192 0
167 188 0
167 189 0
168 190 0
170 192 0
169 191 0
168 189 0
172 195 0
164 187 0
167 189 0
167 189 0
169 192 0
166 187 0
167 190 0
167 188 0
168 189 0
169 190 0
167 191 0
166 188 0
163 185 0
172 194 0
168 191 0
166 188 0
166 188 0
168 191 0
163 185 0
166 188 0
160 183 0
168 191 0
167 188 0
168 190 0
167 188 0
165 188 0
164 186 0
168 191 0
166 188 0
165 188 0
164 186 0
162 185 0
161 184 0
163 185 0
168 190 0
168 190 0
164 188 0
162 184 0
164 187 0
166 188 0
165 188 0
161 184 0
166 189 0
164 187 0
162 185 0
166 189 0
158 181 0
165 188 0
158 181 0
162 185 0
161 183 0
159 182 0
164 187 0
157 180 0
163 186 0
159 182 0
166 189 0
161 183 0
163 185 0
159 182 0
163 187 0
163 185 0
161 185 0
163 185 0
159 182 0
157 181 0
161 184 0
156 179 0
163 185 0
160 183 0
163 186 0
163 185 0
160 182 0
162 185 0
162 186 0
162 184 0
164 186 0
160 183 0
156 178 0
159 182 0
161 184 0
156 179 0
157 179 0
161 184 0
166 190 0
155 178 0
161 184 0
161 184 0
154 178 0
155 177 0
157 180 0
156 180 0
156 178 0
155 178 0
162 184 0
164 187 0
158 180 0
156 179 0
153 176 0
162 184 0
155 178 0
157 180 0
164 187 0
152 175 0
156 178 0
156 178 0
155 177 0
154 176 0
160 183 0
154 176 0
155 178 0
160 182 0
156 177 0
156 180 0
160 181 0
154 177 0
154 176 0
160 182 0
159 183 0
163 185 0
156 178 0
158 180 0
156 180 0
156 178 0
158 180 0
156 180 0
157 180 0
158 180 0
160 180 0
159 183 0
153 176 0
161 184 0
150 172 0
153 175 0
158 181 0
160 183 0
154 176 0
154 177 0
156 180 0
154 177 0
158 181 0
155 178 0
155 179 0
151 174 0
157 180 0
148 171 0
149 170 0
154 177 0
151 173 0
160 183 0
152 175 0
160 183 0
157 179 0
153 175 0
157 180 0
149 171 0
154 175 0
156 177 0
154 177 0
148 169 0
160 182 0
159 181 0
162 185 0
151 175 0
152 175 0
155 177 0
151 173 0
155 177 0
154 178 0
154 175 0
154 177 0
153 175 0
148 169 0
150 172 0
157 178 0
157 178 0
154 177 0
152 175 0
153 175 0
154 176 0
154 176 0
140 161 0
151 173 0
149 170 0
156 179 0
156 179 0
151 174 0
151 172 0
154 176 0
150 172 0
149 170 0
149 171 0
163 186 0
154 177 0
154 177 0
153 175 0
154 176 0
151 172 0
154 176 0
152 173 0
150 172 0
157 178 0
154 177 0
153 176 0
156 177 0
152 174 0
161 183 0
147 168 0
140 160 0
153 175 0
155 175 0
138 157 0
153 175 0
157 178 0
156 178 0
151 172 0
153 173 0
151 174 0
154 175 0
152 174 0
147 167 0
155 177 0
152 173 0
145 167 0
154 175 0
152 174 0
151 175 0
155 176 0
145 167 0
148 170 0
152 174 0
148 170 0
155 176 0
145 166 0
147 167 0
144 165 0
147 167 0
149 171 0
148 168 0
144 163 0
152 174 0
152 174 0
148 169 0
154 176 0
154 175 0
154 174 0
152 172 0
152 173 0
147 169 0
146 165 0
163 184 0
153 175 0
152 173 0
149 169 0
148 167 0
148 169 0
150 171 0
151 172 0
154 174 0
156 175 0
149 170 0
144 164 0
153 171 0
154 175 0
146 166 0
150 170 0
151 171 0
145 164 0
154 175 0
155 175 0
150 172 0
152 171 0
154 175 0
151 170 0
152 172 0
148 170 0
151 172 0
155 174 0
154 174 0
149 168 0
151 170 0
147 164 0
155 176 0
148 166 0
151 172 0
155 176 0
146 165 0
151 171 0
155 173 0
152 170 0
157 178 0
157 176 0
145 162 0
151 173 0
154 173 0
148 166 0
150 169 0
151 169 0
155 172 0
152 170 0
153 172 0
150 169 0
149 166 0
157 176 0
155 173 0
160 179 0
156 174 0
151 169 0
155 174 0
154 171 0
155 173 0
151 170 0
149 167 0
149 165 0
145 163 0
146 162 0
154 172 0
153 172 0
149 167 0
155 175 0
154 173 0
148 167 0
154 170 0
150 168 0
148 165 0
149 168 0
155 172 0
153 171 0
152 169 0
151 168 0
148 166 0
158 175 0
154 172 0
147 163 0
149 165 0
157 175 0
156 175 0
151 168 0
150 167 0
156 171 0
153 171 0
154 170 0
154 168 0
160 177 0
152 171 0
154 171 0
156 173 0
155 172 0
142 158 0
152 168 0
147 163 0
152 167 0
157 173 0
159 174 0
157 175 0
152 168 0
155 167 0
156 170 0
154 168 0
156 171 0
153 167 0
163 178 0
154 169 0
150 166 0
155 168 0
154 168 0
145 159 0
152 165 0
152 167 0
156 171 0
151 165 0
157 168 0
155 169 0
149 164 0
154 168 0
150 165 0
153 169 0
149 165 0
158 172 0
155 168 0
157 171 0
151 164 0
153 167 0
153 165 0
158 173 0
156 172 0
151 164 0
157 171 0
158 174 0
157 171 0
153 169 0
155 168 0
171 194 0
169 192 0
171 193 0
170 193 0
173 195 0
169 192 0
168 188 0
168 190 0
169 191 0
171 193 0
169 191 0
168 190 0
166 189 0
164 186 0
170 192 0
169 192 0
167 190 0
166 189 0
162 184 0
170 192 0
166 189 0
167 191 0
165 188 0
161 183 0
165 186 0
164 187 0
168 191 0
169 191 0
168 189 0
165 188 0
165 187 0
170 191 0
157 179 0
167 190 0
167 191 0
165 188 0
166 189 0
163 186 0
169 191 0
166 189 0
159 182 0
166 189 0
163 185 0
164 187 0
166 188 0
164 187 0
161 183 0
165 188 0
163 186 0
160 182 0
161 184 0
160 183 0
164 186 0
164 186 0
165 189 0
160 182 0
165 187 0
159 181 0
160 183 0
155 178 0
162 185 0
150 172 0
163 187 0
162 185 0
165 188 0
160 183 0
157 180 0
160 184 0
154 177 0
156 180 0
161 184 0
167 190 0
156 178 0
150 174 0
157 180 0
166 189 0
161 183 0
165 187 0
156 178 0
164 187 0
158 180 0
164 186 0
161 183 0
163 186 0
164 186 0
159 183 0
157 180 0
166 189 0
161 184 0
165 189 0
157 180 0
160 183 0
161 184 0
159 182 0
158 181 0
160 182 0
159 181 0
160 182 0
154 177 0
158 181 0
163 186 0
159 182 0
156 178 0
161 184 0
160 183 0
154 178 0
156 179 0
156 179 0
160 183 0
160 182 0
157 181 0
161 185 0
155 176 0
154 177 0
150 172 0
165 187 0
147 168 0
159 182 0
159 181 0
157 179 0
157 179 0
151 174 0
157 179 0
155 177 0
158 181 0
150 173 0
157 180 0
159 181 0
156 179 0
156 180 0
158 180 0
159 181 0
158 180 0
153 175 0
152 175 0
155 179 0
160 183 0
164 187 0
155 177 0
159 181 0
159 181 0
156 178 0
154 175 0
161 184 0
151 174 0
151 174 0
150 172 0
151 173 0
156 178 0
156 179 0
160 183 0
156 179 0
158 180 0
158 181 0
150 174 0
151 173 0
156 179 0
155 177 0
157 180 0
154 177 0
147 169 0
157 179 0
160 182 0
153 175 0
151 174 0
150 172 0
160 182 0
158 180 0
150 171 0
153 176 0
158 179 0
155 177 0
155 178 0
154 176 0
149 172 0
155 177 0
153 175 0
145 167 0
155 177 0
145 167 0
157 178 0
150 173 0
157 179 0
153 175 0
155 178 0
155 178 0
151 172 0
145 168 0
156 178 0
155 178 0
157 178 0
148 170 0
152 175 0
149 171 0
145 166 0
149 171 0
152 173 0
149 171 0
153 174 0
151 174 0
153 175 0
150 172 0
156 178 0
151 174 0
147 168 0
146 168 0
151 171 0
152 174 0
152 175 0
157 180 0
151 174 0
149 172 0
154 176 0
151 173 0
144 164 0
156 177 0
154 176 0
156 179 0
152 173 0
147 168 0
154 176 0
150 171 0
154 176 0
141 163 0
156 178 0
150 170 0
150 170 0
157 178 0
154 176 0
156 176 0
144 165 0
153 174 0
148 170 0
151 172 0
148 171 0
147 167 0
143 164 0
155 174 0
157 178 0
150 170 0
157 179 0
149 169 0
155 175 0
150 171 0
151 170 0
147 168 0
159 179 0
147 167 0
147 168 0
149 169 0
149 170 0
151 170 0
153 174 0
157 178 0
154 175 0
145 165 0
160 181 0
149 170 0
150 170 0
153 173 0
157 177 0
155 176 0
146 166 0
152 173 0
154 174 0
154 175 0
151 171 0
158 179 0
149 169 0
150 169 0
147 167 0
153 173 0
153 173 0
151 170 0
154 175 0
150 169 0
152 173 0
151 171 0
150 171 0
143 164 0
157 178 0
155 174 0
155 175 0
151 172 0
163 185 0
148 167 0
149 169 0
152 172 0
149 167 0
154 175 0
153 173 0
145 164 0
151 170 0
152 170 0
148 168 0
157 177 0
156 175 0
154 174 0
152 171 0
153 173 0
156 176 0
151 170 0
155 175 0
153 171 0
145 163 0
159 178 0
157 175 0
152 171 0
150 166 0
146 165 0
150 168 0
155 172 0
163 181 0
151 170 0
160 177 0
164 183 0
157 174 0
157 174 0
144 162 0
152 172 0
147 166 0
155 172 0
160 180 0
152 172 0
147 167 0
148 164 0
150 168 0
149 163 0
151 168 0
154 172 0
147 161 0
152 167 0
157 175 0
155 173 0
146 162 0
157 174 0
158 177 0
147 164 0
148 163 0
156 173 0
158 176 0
150 168 0
152 167 0
157 175 0
153 171 0
154 169 0
158 174 0
149 165 0
152 170 0
154 170 0
151 166 0
156 174 0
150 165 0
151 166 0
153 171 0
147 162 0
155 171 0
154 167 0
150 168 0
147 163 0
143 157 0
155 172 0
152 169 0
147 162 0
157 172 0
143 157 0
157 173 0
154 168 0
148 165 0
156 169 0
146 157 0
158 174 0
156 169 0
153 167 0
159 174 0
158 174 0
153 169 0
154 169 0
156 172 0
150 164 0
156 170 0
157 174 0
159 175 0
156 170 0
150 165 0
148 159 0
155 170 0
155 169 0
156 171 0
152 169 0
156 170 0
155 169 0
156 170 0
156 170 0
160 174 0
160 176 0
154 169 0
155 171 0
156 171 0
162 177 0
172 193 0
168 190 0
162 185 0
168 192 0
167 190 0
167 189 0
167 189 0
171 193 0
167 189 0
167 189 0
168 190 0
167 190 0
167 188 0
165 188 0
160 182 0
157 178 0
167 188 0
166 188 0
170 193 0
168 191 0
165 187 0
163 185 0
168 191 0
166 188 0
161 184 0
164 185 0
167 190 0
163 186 0
163 186 0
164 186 0
167 190 0
164 187 0
165 188 0
164 186 0
168 191 0
168 189 0
162 184 0
160 182 0
164 187 0
165 187 0
167 190 0
159 181 0
166 190 0
164 185 0
170 191 0
162 184 0
163 185 0
162 185 0
164 187 0
162 185 0
166 187 0
166 188 0
163 185 0
163 186 0
161 184 0
160 182 0
166 189 0
159 183 0
158 180 0
163 186 0
157 180 0
161 184 0
156 179 0
167 190 0
156 179 0
158 180 0
161 183 0
166 189 0
164 187 0
165 188 0
159 181 0
164 187 0
162 184 0
161 184 0
163 186 0
159 182 0
157 180 0
162 185 0
158 182 0
159 182 0
157 180 0
160 182 0
160 182 0
159 182 0
164 187 0
163 184 0
161 184 0
165 188 0
160 183 0
162 185 0
161 184 0
156 180 0
160 183 0
165 188 0
156 180 0
162 185 0
161 185 0
157 179 0
161 184 0
165 188 0
159 183 0
161 184 0
161 183 0
163 184 0
166 189 0
158 182 0
159 182 0
155 178 0
163 186 0
159 182 0
154 177 0
159 183 0
162 185 0
155 177 0
153 176 0
162 184 0
159 181 0
155 176 0
159 181 0
163 186 0
162 184 0
160 182 0
151 174 0
155 179 0
156 178 0
155 176 0
157 180 0
154 176 0
161 183 0
151 174 0
155 178 0
157 180 0
156 178 0
156 179 0
153 176 0
157 180 0
161 184 0
150 172 0
160 183 0
155 178 0
157 179 0
151 174 0
158 181 0
158 181 0
162 186 0
150 173 0
152 174 0
154 176 0
155 177 0
147 168 0
144 166 0
156 179 0
156 178 0
160 183 0
157 180 0
161 183 0
147 169 0
152 174 0
150 172 0
156 179 0
155 177 0
155 177 0
158 179 0
148 170 0
152 174 0
158 179 0
155 177 0
146 167 0
152 174 0
160 182 0
156 179 0
152 174 0
152 174 0
152 174 0
150 172 0
159 182 0
159 181 0
150 170 0
153 176 0
146 169 0
160 183 0
155 178 0
146 168 0
153 176 0
154 177 0
153 176 0
157 180 0
157 179 0
153 175 0
151 174 0
149 171 0
151 173 0
155 176 0
150 173 0
150 172 0
146 168 0
148 170 0
151 173 0
159 182 0
150 172 0
153 175 0
145 168 0
152 174 0
155 177 0
157 179 0
149 171 0
152 174 0
148 171 0
156 177 0
153 175 0
155 176 0
154 176 0
152 173 0
145 167 0
145 165 0
153 175 0
146 168 0
155 177 0
155 177 0
150 171 0
155 177 0
145 167 0
153 175 0
158 180 0
147 169 0
153 174 0
148 169 0
153 175 0
150 170 0
153 175 0
155 175 0
158 179 0
151 172 0
147 167 0
151 172 0
142 162 0
152 174 0
140 162 0
150 172 0
156 179 0
150 171 0
149 169 0
154 177 0
149 172 0
153 175 0
142 162 0
153 174 0
155 177 0
145 165 0
154 175 0
153 174 0
153 173 0
150 170 0
153 173 0
151 172 0
149 169 0
153 173 0
151 171 0
156 177 0
152 172 0
142 163 0
149 169 0
150 172 0
154 175 0
151 173 0
150 169 0
149 169 0
144 164 0
155 174 0
153 173 0
156 177 0
155 176 0
153 174 0
153 173 0
151 170 0
152 170 0
153 173 0
157 176 0
157 175 0
154 174 0
148 169 0
158 177 0
147 166 0
152 173 0
149 168 0
156 175 0
149 169 0
153 172 0
150 171 0
149 170 0
149 169 0
152 171 0
147 166 0
151 172 0
154 173 0
147 167 0
152 173 0
154 174 0
151 170 0
153 173 0
155 174 0
154 174 0
150 170 0
156 177 0
146 165 0
155 172 0
148 167 0
161 180 0
150 170 0
155 174 0
148 165 0
143 162 0
150 169 0
153 173 0
147 166 0
149 165 0
153 171 0
152 168 0
155 173 0
154 170 0
146 165 0
152 171 0
149 167 0
155 172 0
152 172 0
152 168 0
153 171 0
157 177 0
158 176 0
150 169 0
149 165 0
158 177 0
148 168 0
152 170 0
150 167 0
150 167 0
157 173 0
153 168 0
153 172 0
155 171 0
148 164 0
154 171 0
153 170 0
155 172 0
153 170 0
154 170 0
152 167 0
152 169 0
155 173 0
148 164 0
153 169 0
153 170 0
154 171 0
157 174 0
156 174 0
155 171 0
150 166 0
159 175 0
150 168 0
152 166 0
156 171 0
156 173 0
146 160 0
157 172 0
154 170 0
150 165 0
150 162 0
152 166 0
152 167 0
154 168 0
154 170 0
152 167 0
153 167 0
156 171 0
159 175 0
158 174 0
149 164 0
162 179 0
157 172 0
155 168 0
156 169 0
156 173 0
150 164 0
160 175 0
154 169 0
154 169 0
159 174 0
153 167 0
154 168 0
159 175 0
157 172 0
151 164 0
155 170 0
153 168 0
155 165 0
157 172 0
159 171 0
153 167 0
157 172 0
153 169 0
169 192 0
170 192 0
174 195 0
164 187 0
167 189 0
166 187 0
169 191 0
168 191 0
168 191 0
165 188 0
173 195 0
167 189 0
174 195 0
162 185 0
167 189 0
171 193 0
164 185 0
164 186 0
168 190 0
165 187 0
169 191 0
166 188 0
163 186 0
167 188 0
167 190 0
165 188 0
167 189 0
162 185 0
164 186 0
166 188 0
166 188 0
168 191 0
164 187 0
163 185 0
164 187 0
167 189 0
162 184 0
167 189 0
164 186 0
166 188 0
166 188 0
165 188 0
164 186 0
165 188 0
159 181 0
166 189 0
164 186 0
163 186 0
168 190 0
166 189 0
164 187 0
167 190 0
164 187 0
167 190 0
161 184 0
163 187 0
158 181 0
160 182 0
160 182 0
161 184 0
156 179 0
157 181 0
157 179 0
155 177 0
163 186 0
157 180 0
164 185 0
163 187 0
162 185 0
162 184 0
162 185 0
168 189 0
163 185 0
163 186 0
168 190 0
160 183 0
159 181 0
161 184 0
164 187 0
162 185 0
161 184 0
159 182 0
163 186 0
164 187 0
160 183 0
161 185 0
163 186 0
164 186 0
157 180 0
158 181 0
157 179 0
160 184 0
165 188 0
158 181 0
157 180 0
157 180 0
161 183 0
163 186 0
160 183 0
161 184 0
160 183 0
166 189 0
159 182 0
155 178 0
158 180 0
159 182 0
154 177 0
165 186 0
162 185 0
159 181 0
159 182 0
157 181 0
155 179 0
164 187 0
160 182 0
155 177 0
159 182 0
163 186 0
164 185 0
158 182 0
156 178 0
161 184 0
155 178 0
157 179 0
157 180 0
154 178 0
156 179 0
154 176 0
159 182 0
159 181 0
153 175 0
159 182 0
157 180 0
159 182 0
152 175 0
157 180 0
158 180 0
154 177 0
156 179 0
156 179 0
152 174 0
157 180 0
155 178 0
157 179 0
156 178 0
151 174 0
153 176 0
161 184 0
157 181 0
160 181 0
160 182 0
158 181 0
153 174 0
161 185 0
153 175 0
147 170 0
158 180 0
154 176 0
158 181 0
155 177 0
152 175 0
153 175 0
160 182 0
157 179 0
154 176 0
156 178 0
153 174 0
155 177 0
156 178 0
161 184 0
161 182 0
146 168 0
152 175 0
153 176 0
152 173 0
148 171 0
153 175 0
150 171 0
155 177 0
156 179 0
153 176 0
146 167 0
145 166 0
151 173 0
157 179 0
153 176 0
153 175 0
145 167 0
160 182 0
156 178 0
157 179 0
153 175 0
151 172 0
155 177 0
156 178 0
155 177 0
152 173 0
149 170 0
155 176 0
157 179 0
157 178 0
145 167 0
154 175 0
146 169 0
160 181 0
153 176 0
150 170 0
150 172 0
148 169 0
158 180 0
154 177 0
154 176 0
152 173 0
149 170 0
160 181 0
155 177 0
155 177 0
153 176 0
144 165 0
150 172 0
156 178 0
144 166 0
151 172 0
149 171 0
156 179 0
153 175 0
152 172 0
152 174 0
152 173 0
147 168 0
149 171 0
151 171 0
151 173 0
150 171 0
152 173 0
152 174 0
144 165 0
159 182 0
150 169 0
151 173 0
146 167 0
158 180 0
158 179 0
154 175 0
155 176 0
146 168 0
146 166 0
151 171 0
152 173 0
153 174 0
151 171 0
143 163 0
159 180 0
141 163 0
152 171 0
155 176 0
153 174 0
151 170 0
146 166 0
149 170 0
152 174 0
150 169 0
160 181 0
159 178 0
145 166 0
154 174 0
152 172 0
147 167 0
158 178 0
159 178 0
146 165 0
147 166 0
155 176 0
158 181 0
153 173 0
146 166 0
148 168 0
146 164 0
150 172 0
158 177 0
151 169 0
145 165 0
153 173 0
155 175 0
152 173 0
152 174 0
150 171 0
153 173 0
154 175 0
155 174 0
154 173 0
149 167 0
158 178 0
145 164 0
152 171 0
161 182 0
155 174 0
148 167 0
151 171 0
150 170 0
159 180 0
158 180 0
158 177 0
152 171 0
155 173 0
149 167 0
144 161 0
152 168 0
150 167 0
153 172 0
152 169 0
151 169 0
154 172 0
145 164 0
156 175 0
155 171 0
152 169 0
156 174 0
152 170 0
154 173 0
151 168 0
150 168 0
157 178 0
155 173 0
153 170 0
154 172 0
159 178 0
153 170 0
153 169 0
149 167 0
153 172 0
150 169 0
153 171 0
153 171 0
155 174 0
156 174 0
152 168 0
151 168 0
150 165 0
152 171 0
150 166 0
147 162 0
148 164 0
154 170 0
152 171 0
153 172 0
153 169 0
149 166 0
155 172 0
149 166 0
156 174 0
157 175 0
154 170 0
151 166 0
157 172 0
158 176 0
153 172 0
153 169 0
152 170 0
152 168 0
159 177 0
158 176 0
153 168 0
156 174 0
150 167 0
156 169 0
153 169 0
152 169 0
158 173 0
157 173 0
152 167 0
152 167 0
152 168 0
157 170 0
152 169 0
161 177 0
159 174 0
154 172 0
156 172 0
157 172 0
152 165 0
153 169 0
159 174 0
158 173 0
152 164 0
156 172 0
154 165 0
156 168 0
150 161 0
158 173 0
154 167 0
162 177 0
154 169 0
156 172 0
153 169 0
150 162 0
156 172 0
157 173 0
153 168 0
153 166 0
163 186 0
166 188 0
168 190 0
170 192 0
167 189 0
165 187 0
171 193 0
166 190 0
167 190 0
170 192 0
165 187 0
170 192 0
169 190 0
168 190 0
164 187 0
168 190 0
165 187 0
172 194 0
170 192 0
163 185 0
164 187 0
163 185 0
166 189 0
162 184 0
161 183 0
160 182 0
171 193 0
165 187 0
166 189 0
165 187 0
168 191 0
161 183 0
164 187 0
166 188 0
170 192 0
164 187 0
163 185 0
166 189 0
165 188 0
166 189 0
162 185 0
164 187 0
164 187 0
167 189 0
166 189 0
163 185 0
165 188 0
163 185 0
164 187 0
164 187 0
163 185 0
164 188 0
160 183 0
162 185 0
166 189 0
161 183 0
162 185 0
166 188 0
165 190 0
162 185 0
163 185 0
162 184 0
159 182 0
163 186 0
165 188 0
158 181 0
161 185 0
165 188 0
160 182 0
157 181 0
160 182 0
167 190 0
166 188 0
158 181 0
167 190 0
164 187 0
156 180 0
156 178 0
154 178 0
152 174 0
164 186 0
162 185 0
165 187 0
162 185 0
160 182 0
163 186 0
159 181 0
161 185 0
162 184 0
155 177 0
163 186 0
165 187 0
165 187 0
160 184 0
158 181 0
167 190 0
163 186 0
156 179 0
157 181 0
160 182 0
161 184 0
160 182 0
162 185 0
158 181 0
162 185 0
158 181 0
159 182 0
156 178 0
155 178 0
163 185 0
154 176 0
159 182 0
157 181 0
161 183 0
164 188 0
152 175 0
158 181 0
159 182 0
157 179 0
156 179 0
158 180 0
161 184 0
159 182 0
154 177 0
155 178 0
156 180 0
152 176 0
155 177 0
159 182 0
153 175 0
157 180 0
159 182 0
159 182 0
156 178 0
156 179 0
162 185 0
157 181 0
163 186 0
157 180 0
154 177 0
159 181 0
159 181 0
159 182 0
153 176 0
155 178 0
161 184 0
148 171 0
160 183 0
161 183 0
159 181 0
155 177 0
158 180 0
159 181 0
147 170 0
151 172 0
149 170 0
150 173 0
160 182 0
155 177 0
144 166 0
148 170 0
151 172 0
142 164 0
159 182 0
158 180 0
149 171 0
145 166 0
159 182 0
153 175 0
157 181 0
155 176 0
156 177 0
150 172 0
145 166 0
149 172 0
157 179 0
163 185 0
153 175 0
152 173 0
154 177 0
155 179 0
154 177 0
159 180 0
153 175 0
149 171 0
155 178 0
149 172 0
150 173 0
153 175 0
157 178 0
156 179 0
154 177 0
147 168 0
160 181 0
145 165 0
156 178 0
150 171 0
151 173 0
152 174 0
155 177 0
151 173 0
148 169 0
148 170 0
151 173 0
144 165 0
150 173 0
152 174 0
157 179 0
152 174 0
151 172 0
149 170 0
153 175 0
149 171 0
156 179 0
156 178 0
151 172 0
154 175 0
148 170 0
159 180 0
147 168 0
149 171 0
156 177 0
144 166 0
153 175 0
150 171 0
155 174 0
152 174 0
139 160 0
148 170 0
150 172 0
150 171 0
152 174 0
143 165 0
152 173 0
157 179 0
148 168 0
153 174 0
157 178 0
154 176 0
151 172 0
150 172 0
152 175 0
160 181 0
148 170 0
143 163 0
148 169 0
151 172 0
152 172 0
157 177 0
151 172 0
154 176 0
146 167 0
153 173 0
142 161 0
148 167 0
154 175 0
159 180 0
154 176 0
154 176 0
149 170 0
155 177 0
151 173 0
150 172 0
157 178 0
154 174 0
151 171 0
152 173 0
162 182 0
159 178 0
154 175 0
157 179 0
156 176 0
156 178 0
150 172 0
155 177 0
151 171 0
154 173 0
146 165 0
157 177 0
151 170 0
154 176 0
149 170 0
150 169 0
154 175 0
154 174 0
154 174 0
155 176 0
148 167 0
155 178 0
159 181 0
155 176 0
148 167 0
155 176 0
156 176 0
156 175 0
151 170 0
161 181 0
157 176 0
155 174 0
154 173 0
151 172 0
152 173 0
150 170 0
151 171 0
151 171 0
155 175 0
151 170 0
154 173 0
155 175 0
156 175 0
152 168 0
158 178 0
147 165 0
147 165 0
154 174 0
153 173 0
148 166 0
156 174 0
155 173 0
153 172 0
154 174 0
154 172 0
151 170 0
152 170 0
154 174 0
149 167 0
158 175 0
155 174 0
155 172 0
150 166 0
153 171 0
148 165 0
148 166 0
156 174 0
156 175 0
159 175 0
147 163 0
154 171 0
145 160 0
152 169 0
150 168 0
154 172 0
150 168 0
158 174 0
148 164 0
153 171 0
155 172 0
155 174 0
159 177 0
156 175 0
146 164 0
157 174 0
154 170 0
154 172 0
150 167 0
146 162 0
163 184 0
152 170 0
149 166 0
159 176 0
153 167 0
153 170 0
160 177 0
152 167 0
151 166 0
150 166 0
152 167 0
153 168 0
153 168 0
157 173 0
159 177 0
158 174 0
151 168 0
145 161 0
158 174 0
152 167 0
151 165 0
154 171 0
149 162 0
148 163 0
157 171 0
155 170 0
155 173 0
156 172 0
156 170 0
159 175 0
152 167 0
152 167 0
158 173 0
151 164 0
162 180 0
152 165 0
152 167 0
156 170 0
151 165 0
155 170 0
155 167 0
161 176 0
157 171 0
154 170 0
171 193 0
166 188 0
168 191 0
174 196 0
169 192 0
167 190 0
166 189 0
167 190 0
167 189 0
166 188 0
170 191 0
164 186 0
170 192 0
171 194 0
161 184 0
166 190 0
165 186 0
167 189 0
168 190 0
169 192 0
166 188 0
164 186 0
168 191 0
166 189 0
164 186 0
168 190 0
163 185 0
164 187 0
168 190 0
165 187 0
166 188 0
160 182 0
167 190 0
165 187 0
164 186 0
163 185 0
167 190 0
164 186 0
163 185 0
169 192 0
168 191 0
163 184 0
165 187 0
165 188 0
163 188 0
163 186 0
162 186 0
161 183 0
164 187 0
163 185 0
163 185 0
167 190 0
165 188 0
165 187 0
158 182 0
163 186 0
170 192 0
161 184 0
162 185 0
162 185 0
159 180 0
166 189 0
161 184 0
161 184 0
165 188 0
158 180 0
157 180 0
162 184 0
158 181 0
158 181 0
165 186 0
157 179 0
160 184 0
160 181 0
167 190 0
161 183 0
169 191 0
157 179 0
160 183 0
166 190 0
158 181 0
163 186 0
160 183 0
168 190 0
152 173 0
160 181 0
162 184 0
165 188 0
158 181 0
153 177 0
152 176 0
159 182 0
162 185 0
156 178 0
168 191 0
164 186 0
161 184 0
160 183 0
158 181 0
159 182 0
164 186 0
155 177 0
157 181 0
157 179 0
160 183 0
154 177 0
156 179 0
156 179 0
157 180 0
158 180 0
158 181 0
157 181 0
154 176 0
164 186 0
158 181 0
162 185 0
162 185 0
158 181 0
160 184 0
153 176 0
164 187 0
160 183 0
154 176 0
161 184 0
159 182 0
155 178 0
159 182 0
155 178 0
157 180 0
163 187 0
155 177 0
155 178 0
156 180 0
159 181 0
155 178 0
162 185 0
156 179 0
158 180 0
149 171 0
158 180 0
157 179 0
154 176 0
154 176 0
156 179 0
160 183 0
153 176 0
152 174 0
157 180 0
161 184 0
154 176 0
155 178 0
151 174 0
153 176 0
150 173 0
152 175 0
152 174 0
154 177 0
153 175 0
153 176 0
155 176 0
156 180 0
153 176 0
156 178 0
152 173 0
155 179 0
158 181 0
154 177 0
158 180 0
154 177 0
156 177 0
154 176 0
152 175 0
154 176 0
150 172 0
152 174 0
154 177 0
155 177 0
150 172 0
154 175 0
152 175 0
153 175 0
153 176 0
156 179 0
157 180 0
152 175 0
151 174 0
149 171 0
150 171 0
154 176 0
150 172 0
146 167 0
159 181 0
151 173 0
150 173 0
157 179 0
155 178 0
150 172 0
156 178 0
156 178 0
155 177 0
144 165 0
149 172 0
146 169 0
148 169 0
154 176 0
150 172 0
153 175 0
153 174 0
154 177 0
151 172 0
159 181 0
152 174 0
159 181 0
150 172 0
152 174 0
154 176 0
146 168 0
157 178 0
142 163 0
155 176 0
146 168 0
154 176 0
155 177 0
159 181 0
150 173 0
155 177 0
153 174 0
146 167 0
150 171 0
150 171 0
155 177 0
152 173 0
156 177 0
153 173 0
152 172 0
153 175 0
153 175 0
156 178 0
151 171 0
150 172 0
152 172 0
153 175 0
157 178 0
150 173 0
154 176 0
145 165 0
150 171 0
156 177 0
157 178 0
151 172 0
156 176 0
152 173 0
152 172 0
155 176 0
159 181 0
153 174 0
149 170 0
149 170 0
153 173 0
147 168 0
153 174 0
153 175 0
146 166 0
144 164 0
154 176 0
160 181 0
157 178 0
153 173 0
158 178 0
149 170 0
142 161 0
152 173 0
158 178 0
154 173 0
146 165 0
151 171 0
159 177 0
149 169 0
150 170 0
154 173 0
151 171 0
146 165 0
149 168 0
156 176 0
153 172 0
151 172 0
157 178 0
156 176 0
151 171 0
152 172 0
146 166 0
148 169 0
150 171 0
146 166 0
156 175 0
154 173 0
157 178 0
152 171 0
146 166 0
154 173 0
154 174 0
155 172 0
154 174 0
152 171 0
159 178 0
157 180 0
154 172 0
156 176 0
146 166 0
157 177 0
151 171 0
151 169 0
154 173 0
155 172 0
156 174 0
152 171 0
154 172 0
161 182 0
149 167 0
147 166 0
154 174 0
154 172 0
148 167 0
150 166 0
155 173 0
155 174 0
153 172 0
150 168 0
152 172 0
158 178 0
149 167 0
151 168 0
153 170 0
151 168 0
155 173 0
158 177 0
154 173 0
152 170 0
154 175 0
149 167 0
153 170 0
151 166 0
149 166 0
155 173 0
160 178 0
157 175 0
153 170 0
153 171 0
162 181 0
149 166 0
159 176 0
159 177 0
159 176 0
155 170 0
160 177 0
156 172 0
152 169 0
155 171 0
155 174 0
146 160 0
159 176 0
152 168 0
151 167 0
156 173 0
159 177 0
151 166 0
151 167 0
152 168 0
157 174 0
151 163 0
157 169 0
161 176 0
162 178 0
159 176 0
152 170 0
154 169 0
152 166 0
152 170 0
155 171 0
151 166 0
154 169 0
150 166 0
156 171 0
157 175 0
165 181 0
154 169 0
150 163 0
150 166 0
155 171 0
154 167 0
155 170 0
154 172 0
154 169 0
160 175 0
158 175 0
151 165 0
154 167 0
163 178 0
161 178 0
159 175 0
