P3
400 225
255
174 198 0
174 197 0
173 197 0
174 198 0
174 197 0
174 198 0
173 197 0
173 197 0
172 196 0
174 197 0
174 198 0
176 198 0
174 197 0
174 197 0
173 197 0
173 196 0
173 196 0
173 196 0
174 198 0
174 197 0
172 196 0
172 196 0
174 197 0
174 196 0
173 197 0
173 196 0
173 196 0
172 196 0
173 197 0
175 198 0
175 198 0
175 198 0
172 196 0
174 198 0
175 198 0
172 195 0
173 197 0
173 196 0
173 197 0
175 198 0
173 196 0
173 196 0
171 196 0
175 198 0
175 198 0
175 198 0
175 198 0
173 197 0
174 196 0
175 198 0
174 198 0
172 195 0
173 197 0
173 197 0
173 197 0
173 196 0
175 198 0
174 198 0
172 196 0
174 197 0
174 198 0
172 196 0
173 197 0
175 198 0
176 198 0
175 198 0
174 197 0
172 196 0
174 198 0
171 195 0
172 196 0
175 198 0
174 196 0
174 197 0
173 195 0
175 198 0
174 198 0
173 196 0
174 197 0
174 198 0
174 197 0
173 197 0
172 196 0
172 196 0
173 197 0
174 197 0
172 196 0
174 197 0
175 198 0
173 197 0
174 197 0
171 195 0
172 195 0
172 194 0
174 197 0
171 195 0
174 197 0
172 196 0
173 196 0
174 197 0
173 197 0
174 197 0
171 195 0
174 197 0
173 196 0
172 195 0
173 196 0
173 196 0
175 198 0
174 198 0
173 196 0
173 197 0
172 196 0
171 195 0
173 195 0
175 198 0
175 198 0
173 196 0
174 198 0
170 195 0
174 197 0
173 197 0
174 198 0
173 197 0
173 196 0
173 197 0
174 197 0
171 195 0
172 196 0
174 197 0
173 197 0
173 197 0
171 194 0
171 194 0
172 195 0
172 197 0
174 197 0
174 198 0
174 198 0
173 197 0
173 196 0
174 197 0
171 195 0
176 198 0
173 196 0
175 198 0
173 197 0
172 195 0
173 196 0
175 198 0
174 197 0
175 198 0
174 197 0
172 195 0
171 195 0
172 195 0
173 197 0
173 197 0
173 196 0
172 196 0
173 196 0
172 196 0
172 195 0
174 196 0
173 197 0
174 197 0
174 196 0
174 197 0
172 195 0
173 196 0
172 196 0
175 198 0
173 197 0
171 194 0
174 197 0
174 197 0
173 196 0
173 195 0
174 197 0
174 198 0
172 196 0
175 198 0
174 197 0
173 197 0
171 195 0
173 196 0
173 196 0
175 197 0
175 197 0
171 195 0
174 197 0
173 197 0
173 197 0
173 196 0
172 195 0
172 195 0
174 197 0
173 197 0
174 198 0
175 198 0
171 195 0
173 196 0
175 198 0
174 197 0
171 195 0
174 197 0
172 196 0
174 196 0
173 196 0
172 196 0
172 196 0
173 197 0
175 197 0
173 196 0
172 196 0
172 195 0
174 197 0
173 196 0
173 196 0
171 195 0
175 198 0
172 195 0
175 198 0
174 197 0
171 194 0
171 195 0
171 194 0
173 196 0
176 198 0
173 197 0
174 197 0
172 196 0
173 197 0
174 197 0
175 198 0
173 196 0
171 194 0
173 196 0
174 197 0
171 195 0
172 196 0
172 195 0
173 197 0
173 197 0
172 196 0
171 195 0
173 197 0
172 195 0
152 162 49
141 134 78
144 138 78
134 128 70
137 131 72
147 141 79
148 142 81
149 143 85
147 141 87
151 145 87
154 149 90
153 148 91
159 154 95
142 138 86
150 144 90
154 149 94
159 154 95
155 151 94
155 150 96
155 150 95
149 145 93
160 154 97
156 151 97
157 152 98
155 152 99
156 152 97
155 151 101
153 149 98
153 149 98
158 154 101
154 151 100
158 155 102
154 151 100
163 160 107
160 156 102
160 156 103
157 153 101
169 166 110
165 162 108
165 161 106
165 162 106
162 160 106
162 159 104
160 158 105
160 157 104
163 160 106
158 155 103
165 161 107
164 162 108
159 156 104
161 159 106
163 161 108
160 157 104
161 159 106
166 162 108
163 161 108
166 164 110
170 166 110
166 163 109
164 162 108
160 157 105
160 157 105
164 161 108
161 159 107
162 160 107
166 164 109
163 160 107
167 165 110
165 162 108
170 167 112
159 157 105
167 164 110
163 161 108
165 162 108
162 159 106
162 160 108
159 157 105
169 167 111
160 157 105
162 160 106
166 163 109
162 159 106
163 160 106
163 159 106
171 168 112
158 156 104
161 159 106
157 154 103
161 158 106
165 162 108
161 158 104
166 162 108
162 160 106
162 159 106
166 162 108
171 167 110
161 158 104
168 164 109
161 158 104
170 167 110
160 156 103
155 151 99
160 157 103
155 152 99
164 160 105
155 152 100
165 160 105
162 158 103
157 153 99
160 154 101
150 146 95
153 147 93
159 154 100
150 146 93
150 146 93
159 154 99
145 140 90
151 145 93
157 151 97
148 143 89
155 149 95
151 144 88
155 150 95
138 132 83
149 142 88
143 137 82
152 146 87
141 135 80
127 122 72
131 125 73
140 134 77
132 133 57
174 196 0
175 198 0
174 197 0
173 197 0
173 197 0
174 197 0
174 197 0
173 197 0
174 197 0
174 197 0
174 197 0
173 197 0
174 197 0
174 197 0
173 196 0
174 198 0
174 197 0
174 198 0
174 197 0
174 197 0
173 197 0
173 197 0
174 197 0
175 198 0
174 197 0
174 198 0
175 198 0
173 197 0
174 197 0
171 196 0
173 197 0
174 197 0
173 196 0
173 197 0
174 198 0
173 197 0
174 197 0
174 198 0
175 198 0
174 197 0
174 198 0
174 198 0
172 196 0
174 198 0
174 197 0
175 198 0
173 196 0
173 197 0
173 196 0
173 197 0
175 198 0
174 198 0
173 197 0
173 197 0
175 198 0
174 198 0
173 197 0
175 198 0
174 197 0
174 197 0
173 197 0
172 195 0
171 195 0
174 197 0
173 197 0
175 198 0
171 196 0
175 198 0
175 198 0
173 197 0
175 198 0
173 197 0
174 197 0
173 197 0
174 197 0
172 196 0
174 198 0
171 196 0
173 197 0
173 196 0
176 199 0
171 195 0
174 197 0
174 197 0
173 196 0
175 198 0
174 198 0
172 195 0
173 196 0
173 196 0
174 197 0
174 197 0
174 197 0
173 197 0
172 197 0
175 198 0
173 197 0
173 196 0
173 196 0
171 195 0
176 198 0
174 197 0
172 196 0
173 197 0
174 197 0
173 197 0
174 197 0
173 197 0
173 197 0
174 198 0
174 197 0
175 198 0
173 197 0
175 198 0
174 197 0
173 196 0
174 197 0
173 197 0
171 195 0
173 197 0
175 198 0
175 198 0
173 197 0
174 197 0
174 197 0
175 198 0
173 197 0
169 193 0
172 196 0
174 197 0
173 197 0
174 197 0
175 198 0
172 196 0
174 197 0
175 198 0
170 194 0
169 192 0
174 197 0
172 195 0
168 192 0
174 197 0
173 197 0
174 197 0
172 195 0
175 197 0
175 198 0
173 197 0
171 195 0
174 197 0
170 194 0
174 197 0
171 194 0
173 197 0
173 197 0
174 197 0
173 196 0
174 197 0
174 197 0
174 197 0
173 195 0
171 195 0
170 195 0
174 197 0
172 195 0
173 197 0
171 194 0
173 196 0
174 197 0
175 198 0
175 198 0
171 195 0
173 196 0
173 196 0
174 197 0
173 196 0
174 197 0
174 197 0
172 195 0
173 197 0
173 197 0
173 197 0
173 197 0
173 196 0
174 197 0
173 196 0
172 195 0
175 197 0
173 195 0
174 197 0
173 196 0
172 195 0
171 193 0
173 196 0
173 196 0
174 196 0
173 196 0
173 197 0
174 197 0
173 197 0
172 195 0
175 198 0
172 196 0
170 192 0
174 197 0
171 195 0
174 197 0
172 196 0
173 197 0
175 198 0
174 197 0
172 195 0
174 196 0
172 195 0
174 197 0
174 197 0
174 197 0
173 197 0
175 198 0
174 197 0
175 198 0
170 194 0
172 195 0
172 195 0
174 197 0
171 194 0
175 197 0
171 195 0
171 195 0
172 196 0
173 196 0
173 195 0
173 197 0
175 198 0
173 197 0
171 194 0
173 196 0
174 197 0
172 194 0
173 195 0
173 196 0
174 196 0
173 196 0
173 197 0
171 195 0
174 197 0
172 195 0
173 196 0
174 197 0
172 196 0
173 196 0
172 196 0
175 198 0
173 196 0
174 197 0
175 197 0
174 197 0
173 196 0
172 195 0
172 195 0
174 198 0
174 197 0
174 197 0
173 196 0
174 196 0
174 197 0
173 196 0
168 187 28
127 122 63
137 132 71
134 127 72
148 142 84
145 139 82
134 128 71
150 144 85
141 136 78
151 146 81
150 144 87
149 144 85
154 148 91
147 142 87
149 143 87
156 152 92
158 153 97
149 146 95
150 145 89
154 149 95
145 142 92
152 148 96
156 151 94
160 154 97
149 146 95
153 150 98
159 156 101
158 155 103
165 160 104
161 157 102
156 152 100
161 157 103
164 160 106
151 148 97
164 160 104
160 157 105
161 156 103
165 161 107
165 161 107
162 159 106
159 155 102
168 164 108
154 151 100
163 160 106
162 159 105
162 160 106
158 156 103
158 156 105
167 163 108
158 155 103
168 164 109
166 163 108
160 158 106
166 163 109
169 165 110
164 163 109
163 161 108
166 164 109
169 166 110
168 166 111
163 161 108
170 167 112
163 160 107
167 164 109
161 160 107
164 161 108
162 161 108
165 162 108
168 166 111
158 156 104
159 157 105
163 160 107
167 165 110
162 160 107
168 165 110
161 159 106
161 159 107
161 159 106
164 162 108
164 162 108
165 163 108
168 165 110
163 161 107
166 164 109
164 161 107
168 164 109
162 159 106
165 162 108
161 158 104
162 159 106
164 161 108
161 158 105
165 162 108
168 165 109
162 159 106
169 165 109
160 157 104
158 155 103
163 160 107
166 162 106
158 153 100
160 157 103
162 158 103
164 160 103
166 162 106
165 161 106
161 156 103
153 149 96
154 149 96
161 156 100
163 159 100
161 156 98
154 151 97
157 151 97
157 152 98
154 149 94
162 156 99
153 148 93
153 148 95
159 152 94
156 151 96
151 145 91
152 146 93
144 140 88
144 139 87
151 144 89
149 142 85
145 139 82
153 147 88
142 136 78
126 121 67
138 132 75
128 123 70
147 157 49
176 198 0
173 197 0
174 197 0
173 197 0
173 196 0
174 196 0
173 197 0
174 197 0
175 198 0
174 198 0
173 196 0
172 195 0
173 197 0
173 196 0
175 198 0
175 198 0
173 196 0
174 197 0
173 197 0
173 197 0
178 199 0
176 198 0
172 196 0
174 197 0
174 197 0
173 197 0
172 195 0
174 197 0
174 197 0
175 198 0
174 197 0
174 197 0
174 197 0
175 198 0
174 197 0
173 197 0
173 197 0
175 198 0
172 196 0
174 197 0
175 198 0
173 197 0
176 199 0
173 196 0
173 197 0
173 197 0
175 198 0
173 197 0
173 196 0
172 197 0
173 197 0
175 198 0
174 197 0
174 197 0
174 198 0
174 197 0
174 198 0
173 196 0
172 196 0
172 196 0
173 197 0
174 198 0
175 198 0
172 197 0
175 198 0
173 197 0
174 197 0
172 196 0
172 195 0
173 197 0
174 197 0
174 197 0
173 196 0
173 196 0
174 197 0
174 197 0
176 199 0
172 196 0
175 197 0
174 197 0
175 198 0
173 196 0
172 196 0
172 196 0
174 198 0
174 197 0
175 198 0
174 197 0
174 197 0
174 197 0
173 197 0
172 196 0
175 197 0
174 197 0
173 197 0
174 197 0
173 196 0
173 197 0
174 197 0
172 196 0
171 195 0
172 195 0
174 196 0
170 194 0
173 196 0
173 197 0
174 197 0
173 196 0
175 197 0
173 197 0
175 198 0
171 194 0
173 197 0
173 197 0
172 195 0
173 196 0
174 198 0
175 198 0
174 196 0
174 197 0
172 195 0
172 196 0
174 198 0
172 196 0
176 198 0
171 195 0
175 198 0
173 197 0
173 197 0
172 196 0
173 197 0
172 195 0
174 197 0
174 198 0
175 198 0
174 197 0
171 194 0
171 195 0
171 196 0
174 197 0
173 197 0
172 195 0
175 198 0
174 197 0
173 197 0
169 193 0
173 196 0
176 198 0
173 196 0
174 196 0
174 197 0
173 197 0
173 197 0
175 198 0
173 195 0
173 196 0
171 194 0
171 195 0
173 197 0
171 195 0
170 194 0
174 197 0
173 196 0
173 196 0
174 197 0
173 197 0
174 197 0
171 194 0
173 197 0
174 197 0
172 195 0
172 196 0
175 198 0
172 195 0
172 196 0
171 194 0
172 195 0
174 197 0
174 197 0
171 195 0
173 196 0
175 198 0
173 196 0
170 193 0
174 197 0
173 196 0
172 196 0
170 194 0
174 195 0
173 197 0
171 196 0
175 198 0
175 197 0
173 196 0
172 195 0
174 197 0
171 196 0
172 196 0
173 196 0
173 196 0
173 196 0
173 196 0
171 194 0
172 196 0
171 195 0
174 196 0
173 196 0
174 198 0
174 197 0
172 195 0
173 197 0
171 195 0
175 198 0
174 197 0
172 195 0
174 197 0
173 195 0
172 195 0
169 193 0
174 197 0
172 195 0
171 195 0
174 198 0
173 196 0
172 195 0
174 196 0
172 196 0
174 197 0
172 196 0
174 197 0
170 193 0
173 196 0
171 194 0
171 194 0
174 196 0
172 195 0
171 194 0
171 194 0
174 197 0
175 198 0
171 195 0
174 197 0
174 197 0
175 198 0
175 198 0
173 196 0
174 197 0
172 196 0
174 197 0
175 197 0
173 196 0
173 197 0
172 196 0
173 197 0
175 197 0
173 196 0
174 197 0
172 195 0
174 197 0
172 196 0
174 197 0
173 195 0
172 196 0
173 196 0
173 196 0
174 197 0
137 137 59
128 123 67
131 126 61
143 137 80
136 130 74
139 132 75
149 143 82
144 139 82
149 144 87
143 138 84
147 141 87
151 145 89
147 142 90
151 145 88
149 144 92
151 146 87
155 149 92
153 149 94
155 150 94
148 144 89
159 154 97
157 152 98
153 148 96
157 152 97
166 160 103
162 158 102
166 161 104
157 153 99
157 154 97
158 154 98
162 158 104
162 159 106
161 157 103
157 154 102
159 155 103
155 152 100
163 159 103
159 156 103
159 155 103
160 156 103
168 165 110
164 162 108
165 162 108
160 158 106
165 162 108
164 162 108
167 163 108
164 162 108
166 164 109
165 162 108
167 163 109
167 164 109
165 162 108
164 160 107
161 158 105
164 162 108
165 163 109
168 166 111
166 164 110
170 167 111
167 164 110
166 164 109
161 158 106
157 155 104
166 162 108
168 166 111
161 159 106
166 164 109
167 164 110
164 162 109
166 163 109
166 164 110
166 164 110
167 164 109
169 167 111
165 163 109
158 155 104
162 160 107
163 160 106
162 160 108
163 161 108
162 161 108
164 161 108
160 158 106
171 167 111
166 163 109
164 161 107
164 161 108
160 158 105
164 162 108
164 160 106
166 163 109
157 155 103
164 161 108
158 156 103
162 159 104
165 163 109
162 159 105
157 154 103
168 164 108
172 169 112
166 162 106
164 159 104
158 154 100
157 154 99
164 160 105
154 150 97
156 152 97
165 160 105
151 147 95
162 157 103
160 155 102
166 161 102
161 156 100
154 150 96
155 150 94
156 152 96
153 147 95
152 148 93
156 150 92
150 146 90
164 156 97
151 146 88
146 140 85
145 140 84
154 148 92
153 148 90
145 138 82
142 136 76
137 131 71
143 136 81
139 133 74
142 137 78
133 128 69
166 185 22
172 195 0
173 196 0
174 197 0
175 198 0
172 196 0
172 196 0
173 197 0
174 197 0
174 197 0
173 197 0
172 196 0
175 198 0
175 198 0
175 198 0
174 198 0
171 195 0
174 197 0
174 196 0
174 197 0
174 198 0
174 197 0
173 196 0
174 198 0
174 197 0
174 198 0
175 198 0
175 197 0
173 196 0
172 197 0
174 197 0
174 197 0
175 198 0
171 195 0
176 198 0
175 198 0
173 197 0
174 198 0
173 197 0
173 197 0
173 197 0
176 199 0
173 197 0
176 198 0
174 198 0
173 197 0
173 197 0
173 197 0
172 196 0
174 197 0
175 198 0
174 197 0
173 196 0
175 198 0
172 196 0
174 198 0
172 196 0
173 196 0
175 198 0
173 196 0
173 197 0
174 197 0
172 196 0
174 197 0
174 197 0
175 198 0
173 197 0
173 196 0
171 194 0
173 197 0
173 196 0
176 198 0
175 198 0
174 198 0
174 197 0
175 198 0
173 196 0
174 197 0
174 197 0
174 198 0
172 196 0
174 198 0
173 196 0
174 198 0
173 196 0
174 197 0
174 197 0
174 197 0
173 196 0
172 196 0
172 196 0
174 197 0
173 195 0
172 195 0
172 195 0
172 196 0
173 196 0
174 197 0
174 197 0
172 195 0
174 197 0
173 197 0
173 196 0
173 196 0
173 197 0
174 197 0
175 198 0
173 197 0
173 197 0
173 197 0
175 198 0
175 197 0
173 196 0
174 197 0
175 198 0
174 197 0
174 198 0
175 198 0
174 197 0
175 198 0
172 196 0
173 197 0
171 195 0
176 198 0
173 197 0
174 197 0
174 197 0
173 196 0
173 196 0
171 195 0
171 195 0
174 198 0
172 196 0
173 196 0
175 198 0
174 197 0
174 197 0
174 197 0
170 193 0
172 195 0
174 197 0
173 196 0
172 194 0
173 196 0
174 197 0
172 196 0
174 198 0
173 197 0
172 196 0
174 197 0
171 194 0
173 196 0
174 197 0
173 197 0
172 195 0
173 197 0
174 197 0
173 196 0
173 197 0
175 198 0
173 196 0
173 197 0
173 196 0
174 197 0
173 196 0
173 196 0
173 196 0
173 197 0
174 197 0
172 196 0
172 196 0
173 196 0
172 195 0
173 197 0
174 197 0
172 194 0
174 197 0
171 195 0
173 196 0
175 198 0
176 198 0
171 194 0
172 196 0
171 193 0
172 195 0
172 196 0
172 195 0
173 197 0
172 195 0
173 196 0
172 196 0
173 196 0
172 195 0
171 195 0
171 194 0
174 196 0
173 196 0
171 194 0
171 195 0
172 194 0
171 195 0
174 196 0
174 197 0
174 197 0
173 196 0
173 196 0
173 196 0
174 197 0
174 197 0
173 197 0
174 197 0
174 197 0
173 196 0
173 196 0
172 196 0
174 197 0
170 193 0
174 196 0
172 195 0
173 196 0
172 196 0
173 196 0
172 195 0
172 196 0
171 195 0
173 197 0
173 197 0
172 195 0
172 196 0
171 195 0
170 195 0
174 197 0
173 196 0
171 195 0
174 196 0
171 195 0
171 195 0
172 195 0
174 197 0
172 194 0
175 197 0
173 196 0
171 194 0
172 196 0
172 196 0
173 196 0
172 196 0
174 196 0
171 195 0
171 194 0
172 195 0
174 196 0
174 198 0
175 198 0
173 196 0
171 195 0
174 197 0
172 195 0
171 195 0
172 195 0
172 196 0
172 194 0
172 196 0
173 196 0
174 196 0
154 161 57
123 117 64
131 126 63
148 142 80
142 137 74
153 146 82
150 143 81
138 131 78
141 136 80
143 137 83
151 145 84
150 144 82
145 140 89
152 146 91
148 143 89
153 148 92
158 151 95
146 142 92
163 157 99
152 147 93
151 146 93
156 152 98
155 151 97
156 151 96
158 153 98
160 156 101
157 152 98
159 154 99
161 156 102
153 149 95
155 151 99
155 152 101
160 156 102
163 159 105
163 159 104
158 154 103
161 158 104
151 149 98
166 163 108
157 154 102
161 158 105
158 155 103
156 153 101
167 163 108
162 158 105
159 157 105
159 157 105
159 157 105
160 157 105
166 164 110
164 162 108
167 164 109
162 160 107
160 158 106
162 159 106
161 158 106
161 159 106
165 163 109
164 162 108
163 160 107
161 159 106
165 162 108
166 163 109
165 163 109
171 168 112
165 164 110
169 166 110
166 164 109
170 167 111
164 162 108
163 161 108
165 163 109
170 167 112
165 163 109
164 162 108
161 160 107
166 163 108
166 164 109
168 165 109
164 162 109
163 160 106
165 163 109
165 163 109
166 163 109
163 161 108
168 166 110
167 164 109
165 162 108
160 158 106
165 161 107
166 163 108
163 160 106
169 166 110
160 157 104
161 158 104
164 160 106
162 158 105
157 154 102
164 161 106
164 162 108
160 157 103
166 162 108
159 155 102
163 159 105
159 156 103
160 157 104
168 164 109
154 151 97
166 163 106
160 156 99
161 157 103
164 160 104
168 162 103
172 166 109
158 153 97
157 153 98
156 151 97
159 154 96
161 155 97
154 150 95
148 144 91
158 152 95
161 155 97
155 149 95
143 138 84
153 147 89
155 150 90
150 144 86
154 148 90
153 147 87
148 143 87
135 129 75
136 130 75
143 136 76
131 125 70
142 143 58
171 194 0
173 197 0
174 197 0
175 197 0
174 198 0
175 198 0
174 197 0
175 198 0
173 196 0
175 198 0
175 198 0
173 197 0
174 197 0
173 197 0
174 198 0
174 197 0
174 196 0
174 197 0
173 196 0
174 197 0
174 197 0
175 198 0
175 198 0
173 196 0
174 197 0
171 194 0
174 197 0
173 196 0
173 197 0
174 197 0
174 197 0
173 197 0
173 196 0
174 197 0
173 196 0
171 195 0
173 196 0
173 197 0
175 197 0
174 198 0
174 197 0
173 197 0
172 196 0
174 198 0
172 196 0
172 196 0
175 198 0
173 197 0
174 196 0
172 196 0
173 196 0
172 196 0
174 196 0
174 197 0
172 195 0
173 196 0
174 198 0
173 197 0
174 198 0
173 197 0
172 196 0
176 199 0
173 196 0
173 197 0
176 198 0
174 198 0
173 197 0
171 195 0
174 198 0
172 195 0
173 197 0
172 196 0
175 198 0
174 197 0
174 197 0
173 197 0
172 196 0
173 197 0
172 196 0
173 196 0
174 197 0
172 195 0
174 198 0
174 198 0
174 198 0
174 198 0
173 196 0
174 198 0
172 197 0
174 197 0
173 197 0
174 197 0
172 195 0
174 197 0
173 197 0
172 195 0
171 195 0
174 197 0
172 196 0
174 197 0
172 196 0
171 195 0
172 196 0
173 197 0
173 197 0
174 197 0
173 196 0
172 196 0
173 197 0
172 195 0
174 197 0
173 197 0
173 197 0
173 195 0
174 198 0
171 195 0
172 195 0
173 197 0
173 197 0
174 197 0
173 197 0
173 197 0
172 196 0
174 198 0
174 196 0
174 197 0
173 196 0
173 196 0
176 198 0
172 196 0
173 195 0
174 198 0
174 198 0
171 193 0
173 197 0
174 197 0
174 196 0
174 197 0
173 196 0
173 197 0
172 195 0
173 197 0
173 196 0
173 197 0
171 194 0
172 195 0
174 197 0
176 198 0
172 196 0
175 198 0
173 196 0
172 196 0
172 196 0
173 197 0
175 198 0
174 197 0
173 197 0
173 196 0
173 197 0
173 196 0
173 196 0
173 196 0
174 197 0
172 195 0
173 196 0
172 195 0
175 198 0
173 196 0
173 197 0
173 196 0
171 195 0
174 197 0
174 197 0
175 198 0
172 196 0
176 198 0
171 195 0
172 194 0
174 197 0
172 196 0
175 198 0
175 198 0
172 195 0
175 198 0
171 195 0
172 195 0
174 198 0
170 194 0
172 195 0
173 197 0
173 197 0
173 196 0
175 198 0
173 196 0
170 194 0
174 197 0
175 198 0
172 195 0
173 197 0
174 197 0
172 195 0
174 197 0
175 197 0
173 197 0
174 197 0
175 197 0
173 196 0
173 197 0
172 196 0
175 198 0
174 197 0
173 196 0
174 197 0
174 197 0
173 196 0
174 197 0
174 197 0
172 195 0
173 197 0
173 195 0
172 196 0
169 192 0
173 195 0
173 197 0
173 197 0
174 197 0
172 194 0
173 196 0
174 197 0
173 196 0
173 195 0
173 196 0
173 196 0
173 196 0
172 195 0
175 198 0
175 198 0
173 196 0
173 197 0
172 195 0
173 196 0
171 194 0
175 198 0
170 194 0
175 196 0
175 197 0
172 196 0
173 195 0
173 197 0
173 196 0
173 197 0
169 191 0
172 195 0
174 197 0
173 196 0
171 195 0
173 197 0
172 196 0
171 194 0
173 196 0
172 195 0
172 195 0
172 195 0
158 176 28
130 125 69
129 122 69
136 131 69
145 139 75
148 141 79
148 143 79
142 138 80
138 133 78
155 149 89
152 146 87
157 152 89
147 142 87
157 151 93
150 145 88
151 146 92
148 143 87
148 144 88
149 145 92
145 141 90
158 153 95
161 156 98
161 156 100
154 150 96
156 152 96
146 143 91
162 156 103
152 149 97
159 155 101
155 152 101
158 154 99
156 152 101
160 157 103
158 155 103
163 159 105
157 152 100
160 156 104
158 154 102
161 158 104
164 161 108
156 153 101
158 155 104
161 158 105
163 161 107
163 160 107
164 161 108
165 162 108
166 162 108
161 159 106
163 160 106
168 165 110
165 163 109
162 159 106
167 164 109
165 162 108
166 163 109
165 163 109
164 161 108
164 161 108
164 162 108
155 153 102
162 159 106
166 164 109
164 162 108
169 167 112
166 164 110
168 165 110
165 162 108
163 162 109
165 163 109
171 167 111
166 164 109
169 167 112
165 163 109
169 166 110
170 168 112
162 160 107
164 162 108
166 163 108
166 164 110
162 159 106
164 161 108
167 164 109
168 166 111
166 164 109
163 160 107
169 165 109
164 162 109
163 160 107
162 159 106
161 158 105
165 162 108
164 161 107
163 160 106
168 165 109
162 160 107
161 158 105
162 158 105
165 161 106
164 159 103
161 157 104
154 151 99
161 158 104
166 162 106
157 153 99
156 153 99
155 152 100
162 158 102
155 151 97
159 155 100
156 152 99
168 162 105
162 158 103
162 157 99
160 154 99
164 159 103
160 155 100
153 148 95
157 152 93
155 150 97
154 148 90
150 145 91
159 153 98
150 145 89
156 151 94
153 147 89
156 150 93
147 142 86
146 142 84
149 143 84
145 139 84
149 143 84
144 138 80
128 122 73
123 117 70
132 126 71
128 123 66
144 157 36
174 197 0
175 198 0
173 196 0
173 196 0
174 197 0
174 197 0
175 198 0
173 197 0
174 197 0
176 198 0
175 198 0
173 196 0
174 197 0
174 197 0
173 196 0
174 197 0
172 195 0
173 197 0
173 197 0
173 197 0
175 198 0
174 197 0
174 198 0
174 197 0
175 198 0
174 197 0
175 197 0
174 198 0
175 198 0
174 197 0
173 196 0
173 197 0
174 197 0
173 197 0
174 197 0
175 198 0
173 197 0
171 195 0
173 196 0
175 198 0
172 196 0
173 197 0
174 197 0
174 197 0
173 197 0
173 197 0
174 198 0
173 196 0
175 198 0
172 195 0
173 197 0
175 198 0
172 195 0
174 198 0
172 195 0
173 197 0
174 197 0
175 198 0
173 197 0
174 197 0
174 197 0
173 197 0
172 196 0
176 198 0
172 195 0
171 195 0
175 198 0
172 196 0
174 198 0
172 196 0
174 198 0
173 197 0
174 197 0
173 196 0
175 198 0
171 196 0
174 197 0
173 197 0
173 196 0
173 197 0
173 197 0
173 196 0
174 197 0
173 196 0
172 196 0
175 198 0
176 199 0
172 196 0
173 197 0
174 197 0
174 198 0
172 195 0
173 196 0
173 196 0
172 197 0
172 195 0
174 197 0
172 196 0
175 197 0
174 197 0
175 198 0
171 195 0
173 196 0
173 196 0
174 197 0
173 196 0
172 196 0
173 197 0
172 195 0
175 198 0
173 197 0
174 197 0
173 195 0
172 196 0
174 197 0
172 195 0
174 198 0
173 197 0
174 198 0
174 198 0
174 197 0
170 194 0
172 195 0
174 197 0
173 196 0
171 195 0
174 196 0
173 196 0
173 197 0
173 196 0
171 195 0
174 197 0
173 197 0
173 197 0
174 197 0
169 193 0
174 197 0
170 194 0
173 197 0
173 196 0
171 196 0
171 194 0
172 196 0
171 194 0
174 196 0
172 195 0
173 196 0
175 197 0
173 196 0
173 196 0
171 195 0
174 197 0
173 196 0
174 196 0
173 196 0
175 198 0
173 196 0
174 197 0
173 197 0
173 196 0
175 198 0
170 194 0
171 194 0
172 196 0
173 196 0
173 196 0
174 197 0
170 193 0
172 196 0
176 198 0
173 196 0
172 196 0
174 197 0
172 195 0
174 197 0
173 195 0
172 195 0
174 197 0
172 195 0
174 198 0
173 197 0
173 197 0
172 195 0
173 196 0
175 198 0
173 195 0
173 196 0
174 197 0
175 197 0
173 195 0
172 196 0
173 196 0
173 196 0
175 198 0
174 197 0
173 196 0
172 196 0
175 198 0
173 196 0
173 197 0
173 195 0
172 195 0
173 196 0
174 198 0
174 197 0
173 197 0
172 196 0
173 195 0
173 197 0
174 197 0
171 195 0
175 198 0
173 196 0
171 195 0
172 195 0
172 196 0
172 196 0
173 196 0
174 197 0
175 198 0
173 196 0
171 195 0
171 194 0
173 195 0
173 197 0
173 196 0
174 196 0
172 195 0
173 197 0
173 196 0
171 193 0
172 195 0
172 195 0
173 196 0
174 197 0
172 195 0
173 195 0
171 194 0
176 198 0
172 195 0
174 197 0
173 196 0
174 196 0
173 196 0
170 193 0
175 197 0
173 196 0
171 193 0
171 194 0
173 197 0
170 194 0
170 194 0
175 198 0
173 196 0
170 194 0
173 196 0
172 196 0
170 194 0
173 197 0
171 195 0
173 196 0
166 188 0
134 135 58
129 124 62
143 137 77
139 133 75
145 139 74
140 134 75
144 139 82
139 134 81
153 147 89
137 132 79
156 150 90
146 141 86
150 144 89
155 149 91
148 143 88
147 142 89
142 139 85
156 153 98
156 151 94
151 146 92
147 143 89
155 150 95
156 151 96
156 152 98
153 149 94
160 156 102
160 156 102
155 152 96
158 155 100
159 155 103
157 155 102
159 155 102
162 158 104
161 157 103
156 152 101
160 157 105
161 158 105
157 154 103
163 160 106
159 157 106
153 150 100
162 160 106
162 159 106
162 159 106
167 164 109
162 159 106
159 156 104
166 163 109
168 164 109
164 162 108
166 163 109
168 165 110
168 166 110
165 163 109
161 159 106
165 163 109
163 160 107
170 166 111
163 160 107
168 166 110
162 160 107
166 162 108
162 160 107
165 162 108
169 166 111
166 164 109
162 160 107
165 163 109
165 162 108
169 166 111
164 161 108
169 166 110
166 164 109
169 167 111
168 165 110
163 160 107
162 160 107
164 162 108
168 165 110
165 162 108
168 166 110
167 164 110
166 163 109
161 159 106
167 164 109
160 158 105
161 159 106
168 165 110
165 162 108
167 164 109
159 156 104
167 164 109
162 159 106
165 163 108
164 161 108
161 158 105
163 160 106
164 161 107
168 165 109
158 155 103
167 163 107
167 163 108
160 156 103
165 162 106
159 155 100
165 161 106
161 157 99
166 162 106
157 154 101
159 154 99
158 154 100
157 153 99
165 162 106
156 151 97
163 157 99
151 146 90
168 162 104
161 156 99
152 148 95
159 154 98
154 149 95
158 152 97
151 146 94
160 156 99
155 149 94
153 147 88
151 146 92
149 143 87
151 145 91
138 133 80
142 136 86
140 135 80
153 147 84
139 134 79
138 132 80
133 127 76
129 124 72
135 130 70
172 191 25
174 197 0
173 197 0
172 195 0
173 197 0
172 196 0
174 198 0
173 197 0
175 197 0
174 197 0
173 196 0
174 197 0
174 197 0
175 198 0
174 197 0
174 197 0
173 196 0
173 197 0
173 196 0
173 196 0
174 197 0
174 198 0
175 198 0
176 198 0
176 198 0
174 197 0
174 198 0
174 197 0
172 196 0
173 197 0
175 198 0
174 197 0
175 198 0
174 197 0
174 197 0
172 197 0
174 197 0
173 196 0
172 197 0
173 196 0
174 197 0
174 197 0
174 197 0
173 197 0
172 197 0
174 197 0
173 197 0
173 197 0
175 198 0
175 198 0
173 196 0
173 196 0
174 198 0
173 197 0
174 198 0
175 198 0
171 194 0
175 198 0
173 197 0
175 197 0
172 196 0
173 197 0
174 197 0
173 197 0
173 196 0
174 197 0
171 194 0
173 197 0
173 197 0
174 197 0
175 198 0
173 196 0
175 198 0
175 198 0
174 197 0
172 196 0
173 196 0
174 197 0
172 196 0
172 196 0
175 198 0
175 198 0
175 198 0
174 197 0
173 196 0
173 197 0
170 195 0
174 197 0
172 196 0
174 198 0
175 198 0
174 196 0
172 195 0
174 197 0
172 195 0
175 198 0
173 196 0
172 197 0
173 197 0
174 197 0
173 197 0
170 194 0
174 198 0
173 196 0
174 197 0
174 197 0
173 196 0
172 196 0
172 196 0
174 197 0
173 196 0
175 198 0
174 197 0
174 198 0
174 198 0
172 195 0
173 197 0
173 197 0
174 197 0
172 195 0
172 195 0
174 197 0
174 197 0
172 196 0
173 197 0
173 197 0
173 197 0
174 198 0
172 195 0
171 195 0
175 198 0
171 195 0
173 196 0
174 197 0
174 197 0
173 197 0
172 196 0
173 196 0
173 196 0
173 196 0
174 197 0
174 197 0
171 195 0
172 196 0
174 197 0
174 198 0
173 196 0
172 196 0
173 196 0
173 196 0
170 194 0
174 197 0
174 197 0
174 197 0
173 196 0
172 196 0
174 197 0
172 196 0
172 195 0
174 197 0
172 196 0
174 197 0
174 197 0
174 198 0
175 198 0
176 198 0
173 197 0
172 195 0
173 196 0
173 196 0
174 196 0
171 195 0
173 196 0
173 196 0
175 197 0
173 195 0
175 198 0
171 195 0
173 197 0
175 198 0
173 197 0
174 197 0
171 194 0
172 196 0
172 195 0
173 197 0
174 197 0
174 197 0
173 196 0
172 195 0
171 195 0
172 195 0
173 196 0
171 195 0
172 195 0
171 195 0
175 198 0
174 197 0
171 194 0
174 197 0
173 197 0
171 195 0
174 197 0
173 196 0
173 196 0
172 195 0
170 193 0
172 196 0
172 196 0
172 196 0
174 196 0
172 195 0
171 193 0
173 196 0
172 195 0
173 196 0
171 196 0
171 194 0
171 194 0
171 194 0
173 196 0
173 196 0
172 195 0
173 196 0
173 196 0
174 197 0
173 196 0
171 194 0
173 196 0
170 193 0
174 197 0
171 194 0
171 194 0
172 195 0
173 196 0
175 198 0
169 193 0
175 197 0
174 197 0
175 198 0
171 194 0
172 196 0
171 194 0
171 195 0
172 195 0
173 196 0
173 196 0
173 196 0
173 196 0
172 195 0
173 195 0
172 195 0
173 197 0
170 194 0
173 196 0
174 197 0
172 195 0
173 196 0
174 197 0
174 198 0
174 197 0
142 153 39
126 120 60
134 128 71
138 133 78
147 141 79
138 133 73
141 136 80
144 139 78
139 134 80
148 142 85
146 141 87
140 136 78
140 135 81
145 141 86
151 145 86
151 146 90
152 147 91
158 154 100
159 155 100
145 143 93
151 147 94
150 146 96
160 154 98
155 151 98
155 151 100
159 155 101
157 153 100
156 152 99
157 154 103
157 154 101
159 156 103
160 157 104
158 155 103
155 151 98
159 156 102
153 150 99
158 156 104
162 159 104
154 151 101
159 157 105
167 164 109
162 159 106
156 153 102
160 157 105
164 162 108
166 162 107
160 157 105
160 157 105
168 165 110
161 159 106
169 165 110
166 163 109
170 167 111
163 160 107
164 162 109
166 163 109
167 163 109
160 157 105
167 164 110
163 161 107
166 163 108
166 163 109
166 165 110
166 164 110
166 163 110
169 165 110
170 167 112
168 166 111
165 162 108
167 164 110
165 163 109
163 161 108
169 167 111
171 168 112
167 165 110
170 167 112
168 165 110
165 162 108
165 162 108
164 161 107
168 164 109
171 168 112
162 160 108
162 159 106
170 167 110
165 162 108
167 165 110
164 162 108
164 161 108
169 165 110
169 165 110
170 167 111
162 160 106
169 166 110
167 164 109
163 159 105
165 162 106
167 163 106
158 155 102
168 164 109
164 160 105
165 161 106
162 158 103
163 160 106
162 159 103
166 162 106
167 164 107
153 149 98
166 162 105
169 164 106
161 158 104
156 153 99
168 163 105
162 157 103
161 157 100
154 151 98
156 152 95
158 153 99
163 157 102
155 150 94
157 152 97
156 150 94
156 150 95
150 145 91
155 149 92
151 146 88
153 147 90
141 136 86
161 155 95
149 143 87
149 143 88
147 141 87
155 148 86
142 136 80
150 144 84
143 136 81
140 134 78
144 138 78
136 130 75
150 154 62
174 197 0
173 196 0
174 197 0
174 196 0
173 197 0
174 197 0
174 197 0
172 196 0
175 198 0
173 196 0
173 197 0
173 196 0
173 196 0
173 196 0
175 197 0
174 197 0
171 195 0
173 197 0
174 197 0
174 197 0
174 197 0
173 196 0
172 196 0
172 196 0
175 198 0
173 197 0
175 198 0
174 197 0
172 196 0
173 197 0
174 197 0
173 197 0
173 195 0
175 198 0
173 197 0
174 197 0
174 197 0
172 196 0
173 196 0
176 198 0
170 195 0
172 196 0
174 197 0
173 197 0
174 197 0
175 197 0
173 196 0
173 196 0
173 196 0
172 196 0
173 196 0
172 196 0
174 198 0
175 198 0
173 196 0
173 197 0
175 197 0
175 198 0
173 196 0
173 197 0
174 197 0
171 195 0
173 196 0
173 196 0
175 198 0
175 198 0
172 196 0
173 196 0
176 199 0
173 196 0
171 195 0
175 197 0
173 196 0
172 195 0
173 197 0
172 196 0
173 196 0
174 198 0
174 197 0
173 197 0
173 196 0
171 195 0
175 198 0
173 196 0
174 197 0
173 197 0
174 197 0
172 195 0
174 197 0
176 199 0
172 196 0
170 194 0
174 198 0
174 197 0
170 194 0
172 196 0
175 197 0
172 197 0
173 197 0
173 197 0
173 197 0
173 196 0
173 196 0
170 194 0
173 196 0
172 196 0
173 197 0
176 199 0
173 197 0
171 194 0
174 198 0
173 197 0
174 197 0
172 195 0
173 196 0
172 195 0
173 196 0
173 196 0
171 194 0
175 198 0
173 197 0
172 196 0
172 195 0
173 197 0
172 196 0
173 197 0
174 197 0
174 198 0
173 197 0
174 196 0
171 195 0
173 196 0
173 196 0
173 197 0
175 198 0
171 194 0
174 197 0
173 197 0
173 195 0
174 197 0
176 198 0
173 197 0
172 195 0
171 194 0
173 197 0
173 196 0
172 196 0
175 198 0
172 195 0
172 196 0
176 198 0
173 196 0
173 197 0
174 198 0
170 193 0
172 194 0
175 197 0
173 196 0
172 195 0
172 195 0
172 196 0
171 195 0
173 197 0
173 197 0
173 196 0
172 195 0
174 196 0
175 198 0
173 197 0
174 197 0
173 197 0
174 197 0
173 196 0
173 196 0
171 195 0
171 195 0
172 196 0
173 196 0
174 196 0
171 195 0
173 196 0
170 194 0
170 194 31
166 189 60
162 186 72
160 183 74
149 173 99
147 171 102
144 169 102
138 162 117
136 162 118
142 167 107
146 170 101
155 180 80
153 177 90
160 183 74
165 188 60
170 193 36
172 194 18
172 196 0
173 196 0
173 196 0
172 195 0
174 197 0
172 195 0
173 197 0
171 194 0
172 194 0
175 198 0
171 194 0
172 196 0
173 197 0
172 194 0
173 195 0
171 195 0
172 196 0
171 195 0
174 197 0
172 196 0
172 195 0
172 194 0
171 194 0
175 198 0
173 197 0
174 197 0
172 196 0
175 198 0
173 197 0
175 198 0
174 197 0
173 197 0
171 194 0
174 197 0
170 193 0
177 199 0
172 196 0
174 196 0
175 198 0
174 197 0
170 194 0
173 196 0
171 194 0
171 195 0
172 195 0
171 195 0
175 198 0
174 196 0
173 196 0
175 198 0
169 192 0
172 195 0
172 196 0
175 198 0
173 197 0
172 194 0
168 191 0
172 195 0
172 196 0
172 195 0
167 185 28
136 130 69
139 133 72
137 132 72
133 127 70
135 131 74
140 135 77
149 142 78
144 139 80
141 136 81
142 137 78
146 142 83
144 139 81
153 148 92
155 150 95
146 141 83
154 148 90
157 152 99
146 141 91
150 146 94
155 151 95
142 139 89
157 152 96
143 140 90
163 158 102
155 151 96
149 145 94
152 148 96
158 153 99
153 150 99
160 156 102
160 155 103
152 149 98
155 152 102
153 150 98
158 155 102
163 159 105
154 151 101
163 160 106
166 163 108
159 156 104
154 151 102
167 163 108
162 158 105
161 158 105
162 160 107
160 156 104
159 156 104
164 161 107
158 156 103
163 161 107
167 163 108
167 164 110
164 161 107
167 164 109
163 160 107
172 169 112
168 165 110
168 166 110
170 168 112
164 162 108
160 158 105
166 163 108
172 169 113
169 167 111
165 162 108
169 167 111
165 163 109
167 165 110
166 163 109
171 169 112
165 163 109
165 163 109
170 168 112
172 169 113
167 164 110
169 165 110
165 163 109
168 166 111
167 164 109
170 167 110
164 162 109
173 170 113
165 163 109
165 162 108
165 163 109
164 162 108
165 163 109
166 162 108
166 163 108
170 167 112
167 164 108
170 167 109
164 161 107
163 160 106
164 162 107
168 164 109
164 160 106
161 158 104
169 165 109
161 158 104
169 165 108
166 162 108
162 158 104
159 155 102
162 158 103
165 161 106
166 162 105
167 163 105
167 162 106
165 160 103
158 153 99
164 160 101
160 157 103
165 161 103
160 155 99
162 158 101
165 160 104
164 159 101
153 148 94
160 155 100
165 159 103
155 150 96
156 152 97
154 149 92
155 150 93
156 151 95
158 153 90
153 148 91
149 145 89
150 145 88
136 131 74
154 147 89
137 132 80
149 143 86
154 147 87
136 131 78
137 131 76
141 135 80
140 133 75
134 128 72
170 188 34
173 197 0
173 196 0
173 196 0
175 198 0
173 196 0
174 197 0
173 197 0
173 197 0
176 198 0
174 198 0
174 197 0
174 197 0
176 198 0
174 197 0
175 197 0
173 196 0
174 197 0
172 197 0
175 198 0
172 196 0
175 198 0
175 198 0
173 197 0
174 198 0
174 197 0
174 198 0
174 197 0
174 197 0
174 198 0
173 197 0
172 196 0
175 198 0
175 198 0
172 196 0
173 197 0
173 197 0
174 197 0
173 196 0
175 198 0
174 197 0
173 196 0
173 197 0
174 197 0
173 196 0
172 196 0
172 196 0
174 197 0
174 196 0
172 196 0
174 197 0
172 196 0
170 193 0
175 197 0
172 195 0
175 198 0
175 198 0
174 198 0
174 198 0
174 197 0
173 196 0
173 197 0
173 197 0
173 196 0
173 196 0
173 196 0
174 197 0
173 197 0
173 196 0
175 198 0
174 198 0
173 196 0
171 194 0
176 199 0
175 198 0
173 196 0
174 198 0
172 196 0
174 197 0
170 193 0
173 196 0
173 197 0
172 196 0
174 198 0
172 196 0
174 197 0
173 197 0
174 198 0
174 197 0
173 197 0
173 197 0
172 196 0
174 197 0
170 194 0
173 196 0
175 198 0
175 197 0
174 197 0
173 196 0
174 198 0
172 195 0
175 198 0
174 197 0
174 197 0
173 196 0
174 198 0
173 196 0
172 196 0
175 198 0
173 197 0
172 196 0
172 195 0
175 198 0
174 197 0
171 195 0
172 195 0
172 195 0
174 197 0
173 196 0
172 196 0
172 195 0
174 197 0
174 196 0
174 197 0
174 197 0
172 195 0
171 194 0
172 195 0
172 196 0
175 198 0
171 195 0
172 197 0
174 198 0
174 197 0
175 198 0
171 193 0
174 197 0
174 197 0
172 195 0
172 196 0
173 196 0
173 197 0
171 195 0
172 196 0
173 196 0
173 196 0
175 198 0
171 195 0
173 196 0
175 198 0
174 196 0
172 195 0
173 197 0
173 197 0
171 194 0
173 196 0
172 196 0
172 194 0
173 195 0
175 197 0
175 198 0
173 197 0
170 194 0
175 197 0
174 197 0
172 196 0
174 198 0
174 197 0
172 196 0
173 196 0
174 197 0
173 196 0
173 197 0
175 198 0
172 195 25
159 183 65
150 174 92
135 161 117
122 148 135
101 130 157
86 117 167
77 110 173
62 99 180
62 98 179
62 99 181
62 99 181
61 98 179
62 99 179
62 99 180
61 99 180
62 99 181
61 98 179
61 99 179
62 99 179
61 98 181
61 99 180
62 99 181
61 98 179
61 98 178
82 114 167
96 125 159
118 145 137
124 150 135
147 172 102
158 181 76
164 188 51
171 194 0
176 198 0
172 196 0
175 198 0
173 196 0
172 195 0
169 193 0
173 196 0
170 193 0
171 194 0
173 196 0
173 196 0
172 196 0
172 195 0
171 194 0
171 194 0
171 195 0
172 196 0
174 197 0
172 195 0
174 197 0
172 194 0
172 195 0
172 195 0
174 196 0
171 195 0
171 194 0
173 197 0
172 195 0
173 196 0
173 196 0
173 196 0
171 195 0
176 199 0
174 198 0
173 196 0
172 194 0
175 197 0
173 196 0
174 197 0
174 197 0
175 198 0
174 197 0
172 195 0
173 196 0
172 195 0
172 195 0
171 194 0
172 195 0
172 195 0
171 194 0
171 195 0
173 195 0
141 148 48
119 113 57
126 121 65
135 130 71
144 138 74
138 133 75
140 134 78
147 142 84
152 146 84
147 141 84
153 148 88
149 143 84
148 143 85
155 149 91
155 151 93
153 148 95
144 139 88
148 144 92
144 140 92
154 150 97
154 149 95
151 147 95
150 146 94
158 153 100
152 148 96
154 150 96
152 149 98
162 159 105
160 156 102
163 159 103
149 148 98
162 157 103
161 157 103
161 157 104
157 154 103
161 158 105
163 159 106
158 155 102
158 156 105
159 156 104
163 161 108
165 163 108
164 160 106
164 161 106
157 153 102
161 158 105
167 164 109
161 159 107
161 158 106
162 159 107
161 159 106
168 164 109
167 164 110
160 158 107
166 164 110
165 163 109
165 162 108
166 164 110
165 163 109
167 164 110
164 161 107
167 164 110
167 165 110
167 164 110
170 167 111
167 164 110
168 166 110
170 167 111
164 162 108
169 166 110
165 163 109
167 164 109
170 166 110
171 168 112
164 162 108
167 164 109
172 169 113
165 163 109
170 166 110
168 165 110
171 168 112
166 164 109
167 163 109
167 164 109
167 165 110
171 168 112
170 167 112
168 165 110
163 161 108
168 165 110
166 163 109
166 163 108
160 158 106
171 168 110
166 163 109
167 165 109
167 164 109
165 161 107
170 166 110
162 159 104
165 161 106
170 166 109
164 161 106
161 158 104
159 155 101
166 162 107
165 160 104
170 165 108
164 160 106
159 155 101
168 164 107
164 160 104
156 152 97
161 157 102
160 155 101
162 158 101
151 146 95
160 155 100
167 161 104
159 155 99
159 154 97
156 152 94
152 147 92
160 154 97
155 150 95
149 145 92
157 152 96
159 153 94
147 142 87
161 155 96
151 146 87
151 145 87
148 143 85
149 143 84
151 145 87
143 137 81
148 142 85
142 137 76
149 143 84
136 130 74
135 128 76
137 137 52
174 197 0
174 198 0
173 197 0
172 195 0
174 196 0
173 196 0
173 197 0
175 198 0
173 197 0
172 196 0
176 198 0
174 196 0
173 196 0
173 197 0
173 196 0
174 197 0
175 198 0
174 198 0
174 197 0
171 195 0
173 196 0
173 197 0
174 198 0
173 197 0
174 197 0
174 197 0
170 193 0
174 197 0
172 196 0
173 197 0
175 198 0
175 198 0
173 197 0
172 196 0
174 198 0
172 195 0
174 197 0
172 196 0
174 197 0
175 198 0
174 197 0
174 197 0
175 198 0
174 197 0
175 198 0
175 198 0
173 197 0
173 197 0
170 194 0
171 194 0
174 197 0
174 197 0
174 198 0
174 197 0
175 198 0
174 197 0
172 196 0
173 197 0
174 197 0
174 198 0
175 198 0
174 197 0
173 197 0
173 197 0
173 197 0
173 197 0
174 197 0
173 196 0
174 197 0
170 194 0
173 197 0
173 197 0
173 197 0
174 197 0
174 197 0
174 197 0
172 196 0
174 197 0
171 195 0
173 196 0
171 195 0
174 197 0
173 197 0
172 195 0
174 197 0
174 197 0
172 195 0
172 196 0
173 196 0
174 198 0
172 196 0
174 197 0
174 197 0
174 197 0
174 197 0
173 197 0
171 195 0
174 197 0
175 198 0
176 199 0
172 196 0
174 196 0
172 196 0
174 197 0
175 197 0
173 197 0
172 196 0
174 197 0
175 198 0
172 195 0
172 195 0
173 197 0
173 196 0
173 196 0
173 196 0
173 197 0
172 195 0
173 197 0
174 196 0
174 197 0
172 194 0
172 197 0
172 196 0
172 196 0
174 197 0
170 194 0
173 196 0
176 199 0
174 197 0
172 195 0
173 196 0
174 197 0
171 195 0
169 193 0
173 196 0
175 197 0
172 196 0
173 197 0
173 197 0
170 193 0
174 197 0
171 194 0
172 195 0
174 197 0
171 194 0
171 195 0
175 198 0
173 197 0
174 197 0
173 196 0
173 196 0
173 197 0
172 195 0
174 198 0
171 195 0
172 194 0
173 196 0
175 198 0
173 196 0
171 195 0
171 194 0
172 196 0
172 196 0
174 198 0
174 197 0
174 197 0
173 196 0
172 195 0
173 196 0
153 177 82
135 160 120
123 149 136
96 125 160
67 103 177
62 99 180
62 99 181
62 99 181
61 99 180
62 99 181
62 99 181
62 99 181
62 99 181
62 99 181
62 99 181
61 99 181
62 99 181
61 99 181
61 99 181
62 99 181
62 99 181
62 99 181
62 99 181
62 99 181
61 98 181
61 99 181
61 98 180
61 99 181
61 98 178
62 99 180
62 99 181
61 98 179
62 99 181
61 98 177
62 99 180
61 98 180
85 116 167
112 139 144
125 151 129
155 178 82
169 193 40
176 197 0
172 195 0
173 196 0
171 193 0
174 198 0
174 197 0
172 195 0
172 196 0
174 196 0
172 196 0
173 196 0
171 194 0
174 197 0
173 196 0
174 196 0
173 196 0
172 196 0
174 196 0
172 194 0
172 195 0
174 197 0
171 194 0
171 195 0
174 196 0
172 195 0
174 196 0
172 194 0
171 193 0
172 196 0
172 195 0
174 197 0
170 193 0
174 197 0
170 194 0
173 196 0
174 197 0
171 193 0
171 194 0
176 198 0
174 196 0
175 197 0
174 197 0
173 197 0
174 196 0
172 196 0
173 196 0
172 194 0
166 186 25
141 137 73
135 130 72
145 139 78
145 139 75
135 129 70
145 140 82
145 139 81
134 130 75
148 141 86
143 138 82
152 147 88
149 144 89
147 141 89
149 145 87
152 148 93
158 153 99
154 148 93
145 140 89
151 147 95
155 151 95
154 149 97
156 151 97
150 145 94
151 147 94
156 152 98
154 151 94
152 148 95
160 155 103
150 147 95
157 154 101
157 153 102
149 147 96
152 149 98
155 152 102
161 158 104
160 156 102
157 154 103
164 160 106
158 155 104
156 153 102
163 160 106
161 158 104
163 160 107
155 153 104
163 159 106
162 158 104
162 159 106
167 164 110
168 165 110
163 160 108
166 163 109
166 163 109
167 163 108
164 161 108
163 161 108
163 159 106
163 161 108
163 161 108
162 160 108
166 164 110
170 166 110
167 164 110
168 166 111
166 163 109
171 169 113
168 166 110
163 161 108
167 164 109
168 165 110
165 163 109
163 162 109
164 161 107
166 163 109
169 166 110
171 168 112
168 165 110
167 164 109
168 165 110
169 166 110
167 164 110
169 165 110
161 159 106
164 161 107
168 165 109
169 166 110
167 163 109
166 164 109
170 168 112
169 166 110
166 162 108
167 164 109
172 168 112
168 164 109
168 164 109
167 164 108
169 166 110
171 167 111
167 164 108
164 161 105
163 160 106
166 161 106
163 159 105
168 164 108
165 160 103
168 164 108
172 168 109
169 164 105
163 159 104
159 155 99
163 158 103
162 158 103
157 153 99
162 158 101
165 160 103
157 152 95
159 155 100
157 152 97
163 159 103
165 160 103
159 155 99
168 162 103
152 147 92
153 147 93
154 150 96
160 154 95
164 158 101
157 152 97
153 147 91
149 144 85
148 144 86
150 145 87
142 137 82
149 143 85
145 139 85
145 139 83
148 142 84
149 143 81
150 143 86
143 138 75
143 137 77
128 122 69
125 119 61
159 175 36
170 194 0
174 196 0
172 196 0
172 195 0
174 198 0
173 196 0
173 196 0
173 197 0
173 197 0
173 197 0
173 196 0
172 196 0
173 196 0
175 198 0
174 197 0
172 196 0
173 196 0
175 198 0
173 197 0
174 198 0
173 196 0
174 197 0
174 197 0
174 198 0
171 196 0
173 197 0
174 197 0
175 198 0
176 198 0
175 198 0
175 198 0
173 196 0
172 195 0
175 198 0
173 196 0
174 197 0
174 197 0
173 197 0
174 197 0
173 196 0
175 198 0
171 195 0
172 196 0
174 197 0
174 198 0
175 198 0
174 197 0
174 197 0
174 198 0
174 198 0
173 197 0
174 197 0
175 198 0
175 197 0
174 197 0
174 198 0
172 195 0
172 196 0
173 196 0
173 195 0
174 197 0
172 196 0
176 198 0
174 198 0
173 197 0
175 198 0
175 198 0
173 197 0
173 197 0
170 194 0
174 197 0
172 196 0
174 197 0
173 197 0
171 195 0
173 197 0
174 197 0
172 195 0
172 196 0
173 197 0
174 197 0
171 194 0
173 197 0
172 196 0
172 196 0
172 196 0
173 197 0
173 196 0
174 197 0
172 195 0
174 197 0
176 198 0
174 197 0
171 195 0
172 196 0
170 193 0
174 197 0
174 198 0
175 198 0
173 196 0
173 196 0
172 196 0
171 194 0
174 197 0
175 198 0
174 197 0
175 198 0
175 198 0
173 196 0
173 197 0
173 196 0
174 197 0
173 197 0
175 197 0
174 198 0
172 195 0
173 197 0
175 198 0
173 197 0
173 196 0
171 195 0
174 197 0
172 195 0
174 197 0
173 195 0
174 198 0
173 196 0
173 197 0
171 195 0
171 195 0
174 197 0
173 197 0
174 197 0
174 197 0
173 197 0
171 194 0
173 196 0
171 195 0
174 197 0
174 197 0
173 196 0
173 197 0
173 196 0
175 198 0
174 197 0
175 198 0
174 198 0
174 197 0
173 196 0
172 195 0
173 196 0
172 195 0
173 197 0
172 195 0
172 195 0
173 196 0
172 195 0
173 195 0
173 197 0
172 196 0
172 197 0
170 195 0
174 197 0
171 195 18
154 177 84
139 163 117
120 145 140
75 108 175
62 99 180
62 99 181
61 99 179
62 99 181
62 99 180
62 99 179
62 99 181
62 99 180
61 99 181
61 99 181
61 99 181
62 99 181
62 99 181
62 99 180
62 99 181
61 99 181
61 99 181
62 99 181
62 99 181
61 99 181
62 99 181
62 99 181
61 99 181
62 99 181
62 99 181
62 99 180
61 98 179
61 99 181
61 99 181
62 99 181
61 99 181
61 98 179
61 99 180
62 99 181
61 99 180
62 99 180
62 99 180
62 99 178
62 98 177
62 99 178
64 101 178
101 128 153
123 149 137
149 173 97
170 194 40
173 196 0
174 197 0
175 198 0
171 194 0
171 194 0
174 196 0
173 196 0
173 196 0
172 195 0
172 195 0
173 197 0
173 195 0
173 196 0
173 195 0
172 195 0
171 193 0
173 195 0
171 193 0
171 195 0
172 195 0
171 194 0
173 196 0
172 196 0
172 195 0
173 195 0
170 192 0
174 198 0
171 194 0
174 197 0
173 197 0
171 195 0
174 198 0
173 197 0
172 195 0
171 195 0
173 195 0
174 197 0
172 196 0
172 194 0
172 195 0
173 196 0
174 197 0
171 194 0
135 137 54
137 131 74
134 129 65
145 139 77
145 140 80
137 131 75
141 136 74
146 139 86
141 137 80
150 143 84
141 137 85
147 143 86
153 148 90
149 145 89
138 136 86
147 142 91
152 148 92
146 141 87
150 146 94
154 149 96
151 146 94
163 157 100
150 146 96
161 155 99
159 155 101
163 158 98
145 142 90
155 153 99
151 147 95
156 153 100
158 155 102
156 152 101
158 154 101
157 154 101
155 151 99
157 153 103
160 157 104
162 159 106
161 157 105
157 155 102
161 158 105
164 162 108
160 158 104
160 157 105
159 157 105
161 158 105
166 162 108
165 162 108
165 161 107
158 155 103
162 159 107
163 161 107
165 161 106
161 159 108
166 163 109
165 162 108
165 162 108
168 165 110
168 165 110
170 168 112
170 167 111
171 168 112
165 162 108
170 167 111
167 165 110
166 164 109
167 164 109
170 168 112
171 168 113
167 165 110
166 164 110
169 166 111
170 167 112
170 167 111
169 167 112
166 164 109
173 170 114
165 162 108
168 165 110
167 164 109
165 163 109
167 164 109
170 167 111
171 169 113
165 162 108
174 170 112
166 163 109
166 163 108
173 170 112
169 166 110
172 168 111
166 162 108
165 162 108
168 164 109
169 166 110
167 163 108
169 165 109
169 165 110
167 162 106
164 161 105
163 160 106
164 161 106
169 166 109
161 157 102
165 162 107
171 166 107
167 164 108
164 161 106
163 160 105
164 160 104
161 156 101
165 161 104
163 158 101
161 157 101
161 156 100
167 163 104
159 155 100
161 156 98
166 161 103
161 157 99
165 160 104
159 154 98
161 156 97
163 157 98
160 153 95
155 150 94
163 158 100
150 144 88
157 151 88
151 146 86
161 155 97
150 144 89
151 145 87
151 145 87
140 134 80
149 143 84
138 133 78
151 145 83
144 138 77
136 130 75
139 133 75
149 143 80
137 132 73
136 137 60
175 197 0
174 198 0
173 197 0
173 196 0
173 197 0
175 197 0
172 195 0
172 196 0
173 197 0
172 196 0
175 198 0
173 196 0
170 194 0
173 197 0
174 197 0
175 198 0
174 197 0
175 198 0
171 195 0
174 197 0
174 197 0
175 198 0
174 197 0
174 197 0
173 197 0
175 198 0
175 198 0
173 197 0
174 198 0
174 197 0
175 198 0
175 197 0
175 198 0
174 197 0
173 197 0
174 197 0
174 198 0
172 196 0
173 197 0
174 198 0
173 197 0
173 196 0
175 198 0
175 198 0
171 195 0
172 195 0
174 197 0
174 198 0
173 196 0
174 198 0
174 198 0
172 196 0
173 196 0
174 197 0
172 196 0
175 198 0
173 197 0
174 197 0
173 196 0
171 194 0
175 198 0
172 196 0
174 198 0
173 196 0
173 197 0
173 196 0
174 197 0
172 196 0
175 198 0
174 198 0
174 197 0
173 196 0
175 198 0
174 198 0
173 197 0
175 198 0
172 197 0
174 197 0
173 196 0
173 197 0
172 196 0
173 197 0
172 196 0
174 197 0
172 196 0
171 193 0
172 195 0
175 198 0
172 196 0
173 197 0
173 197 0
173 196 0
176 198 0
175 198 0
171 194 0
170 194 0
174 197 0
174 197 0
174 197 0
174 197 0
175 198 0
173 196 0
175 198 0
172 196 0
173 196 0
174 197 0
175 198 0
174 197 0
174 197 0
172 196 0
173 196 0
172 196 0
174 197 0
173 197 0
173 197 0
173 197 0
172 196 0
173 197 0
173 196 0
171 194 0
173 196 0
174 198 0
174 197 0
175 198 0
172 196 0
173 196 0
171 195 0
173 197 0
173 196 0
172 196 0
173 197 0
173 197 0
172 196 0
174 197 0
173 197 0
172 195 0
171 194 0
174 198 0
174 198 0
173 197 0
175 197 0
174 197 0
171 195 0
173 196 0
173 197 0
174 197 0
173 196 0
172 196 0
172 196 0
173 196 0
173 197 0
173 196 0
173 196 0
173 197 0
170 195 0
170 194 0
173 195 0
173 197 0
175 197 0
172 195 0
167 190 44
148 172 99
119 145 137
75 109 171
62 99 179
62 99 179
62 99 181
62 99 180
62 99 181
61 98 180
61 99 181
62 99 180
62 99 180
61 98 181
62 99 181
62 99 180
62 99 181
61 99 181
61 98 180
61 98 181
61 98 181
62 99 181
61 99 181
62 99 181
61 99 181
61 99 181
62 99 181
61 99 181
61 98 180
61 98 180
61 99 181
62 99 181
62 99 181
62 99 181
61 99 181
62 99 181
62 99 181
62 99 180
62 99 181
62 99 181
61 98 180
62 99 181
61 99 180
61 99 181
61 98 180
62 99 180
61 98 181
62 99 180
61 99 180
62 99 180
62 99 179
62 98 178
65 101 176
108 136 150
131 156 120
161 183 72
171 195 0
171 194 0
171 195 0
172 194 0
173 196 0
172 195 0
172 194 0
172 195 0
174 197 0
170 193 0
170 194 0
173 197 0
172 196 0
173 197 0
172 196 0
174 198 0
172 194 0
172 195 0
173 195 0
169 192 0
173 196 0
170 193 0
175 198 0
171 194 0
173 196 0
174 197 0
172 195 0
172 195 0
170 192 0
171 194 0
172 196 0
171 194 0
170 194 0
174 197 0
173 195 0
171 194 0
172 195 0
171 194 0
175 197 0
163 178 32
132 127 66
138 133 74
129 124 68
134 129 67
141 135 76
143 137 77
141 135 83
146 140 78
142 137 80
141 137 85
142 137 84
144 139 84
141 137 83
148 143 89
151 146 92
142 137 86
151 147 90
151 147 91
155 152 97
148 143 91
141 138 89
151 147 95
146 143 94
148 145 93
163 158 103
150 148 95
155 151 99
156 153 98
156 152 101
158 154 102
153 150 100
153 150 101
153 150 99
160 156 101
163 159 106
160 156 104
160 157 104
162 159 105
156 153 103
163 160 106
154 152 102
157 155 104
160 157 106
153 152 102
159 156 105
166 162 108
164 162 108
162 159 106
165 162 107
164 160 106
159 156 104
164 161 107
166 163 109
161 159 107
163 159 107
163 161 108
162 160 108
163 160 106
167 163 108
173 169 113
160 158 105
166 163 108
171 168 112
166 163 109
163 161 108
167 165 110
170 168 112
168 165 109
167 164 109
169 167 112
166 163 109
169 167 111
171 168 112
169 166 110
171 167 111
168 165 110
170 166 111
171 168 112
167 166 111
166 164 109
169 167 112
165 161 107
171 168 112
171 168 111
170 166 110
165 162 108
170 167 111
169 167 111
170 166 109
169 166 110
170 166 110
169 166 111
166 163 107
164 161 107
166 163 108
167 164 109
162 160 106
161 158 104
169 165 108
172 168 111
167 163 107
167 163 108
170 166 108
170 166 109
158 155 101
163 159 104
164 160 105
165 162 106
166 161 106
165 161 106
165 161 104
158 155 101
159 156 100
161 156 101
165 161 101
158 153 97
160 157 101
158 155 100
163 159 103
164 159 98
156 151 96
155 150 95
156 151 97
162 156 100
165 159 100
157 151 95
162 156 95
153 147 93
158 153 95
160 154 90
159 153 93
145 141 84
154 148 90
150 144 87
153 148 87
147 141 82
150 143 87
143 137 84
140 134 77
133 127 72
148 141 84
146 140 80
140 134 73
140 134 73
152 167 36
174 197 0
174 197 0
173 197 0
174 198 0
175 198 0
174 197 0
174 197 0
174 197 0
174 197 0
176 198 0
172 196 0
174 197 0
174 197 0
172 196 0
174 197 0
174 197 0
175 198 0
175 198 0
173 196 0
174 198 0
174 198 0
175 198 0
173 197 0
172 196 0
174 198 0
175 197 0
174 198 0
176 199 0
172 196 0
173 197 0
175 198 0
173 197 0
175 198 0
175 198 0
171 196 0
171 196 0
173 197 0
175 197 0
172 196 0
174 197 0
173 197 0
172 196 0
175 198 0
172 196 0
174 197 0
174 197 0
172 196 0
172 196 0
177 199 0
176 198 0
172 196 0
173 196 0
174 197 0
173 197 0
173 197 0
173 196 0
175 198 0
172 197 0
173 197 0
173 196 0
174 197 0
174 198 0
174 197 0
174 197 0
173 196 0
171 195 0
174 197 0
173 197 0
174 197 0
174 197 0
174 197 0
174 197 0
173 197 0
172 195 0
172 196 0
175 198 0
172 196 0
173 197 0
173 197 0
173 195 0
174 197 0
173 197 0
175 198 0
174 197 0
171 194 0
174 197 0
174 197 0
171 195 0
172 196 0
173 197 0
174 197 0
173 196 0
171 195 0
175 198 0
173 196 0
174 197 0
175 198 0
173 197 0
173 196 0
174 197 0
173 196 0
173 197 0
173 197 0
172 195 0
173 196 0
172 196 0
173 197 0
175 198 0
171 195 0
173 197 0
174 197 0
173 197 0
172 195 0
172 196 0
174 197 0
175 198 0
174 198 0
173 197 0
175 197 0
171 195 0
173 196 0
173 196 0
173 196 0
172 196 0
173 195 0
172 196 0
173 196 0
172 195 0
174 197 0
170 194 0
172 195 0
168 192 0
173 197 0
170 193 0
174 197 0
174 198 0
172 195 0
170 193 0
173 197 0
171 195 0
173 197 0
174 197 0
174 197 0
175 198 0
172 196 0
170 194 0
174 197 0
173 196 0
168 192 0
172 195 0
171 194 0
173 195 0
173 196 0
172 196 0
172 196 0
172 195 0
169 193 36
145 169 105
116 143 140
73 107 172
62 99 178
62 99 180
62 99 180
62 99 180
61 98 178
62 99 181
62 99 181
61 99 181
62 99 181
62 99 181
62 99 180
62 99 181
62 99 181
61 99 181
61 99 180
62 99 181
62 99 181
61 99 181
61 99 181
62 99 181
61 99 181
61 99 181
61 98 181
62 99 181
62 99 181
62 99 181
61 98 181
61 99 181
61 99 181
61 99 181
62 99 181
62 99 181
62 99 181
61 99 180
61 98 181
61 99 181
62 99 181
61 99 181
61 99 181
62 99 181
61 99 181
61 98 180
62 99 181
61 99 180
61 98 180
61 99 180
61 98 179
62 99 181
62 99 179
61 98 178
62 99 180
61 98 178
62 99 180
61 98 180
62 99 180
99 128 154
137 160 116
164 187 54
172 196 0
172 193 0
171 193 0
169 192 0
174 197 0
171 193 0
175 197 0
172 195 0
173 196 0
173 195 0
172 194 0
173 197 0
174 196 0
174 197 0
174 197 0
172 195 0
170 193 0
170 194 0
173 197 0
174 197 0
173 195 0
172 196 0
172 196 0
173 197 0
172 196 0
170 194 0
174 198 0
173 196 0
172 195 0
172 196 0
172 196 0
172 195 0
170 194 0
171 195 0
172 196 0
173 196 0
133 133 58
137 130 73
132 126 68
136 131 69
135 129 66
145 139 82
147 142 82
141 136 78
148 141 83
145 139 80
142 137 83
140 137 84
149 144 85
150 144 84
146 141 89
157 152 95
154 149 94
140 136 88
151 148 94
151 147 94
148 143 93
151 147 94
157 152 98
148 145 93
145 143 93
156 152 99
158 154 101
153 150 98
149 147 96
146 144 97
154 151 99
151 148 97
162 158 104
163 159 104
157 154 102
152 149 100
157 156 105
156 153 103
160 156 104
164 161 108
160 156 104
158 155 103
162 158 105
161 158 105
160 158 105
158 155 105
162 158 105
165 162 109
155 152 101
159 157 105
167 164 109
168 165 110
164 161 108
163 160 107
162 159 105
167 164 109
167 165 110
167 164 110
168 165 110
162 160 107
174 170 113
167 164 110
162 160 108
166 163 109
168 165 111
164 161 108
168 166 111
167 165 110
170 166 110
166 163 109
171 168 112
166 163 108
168 166 111
170 168 112
167 165 110
168 165 109
169 165 110
169 166 111
171 167 111
171 169 113
172 169 112
172 169 112
168 166 111
167 165 110
169 166 110
172 168 111
169 165 110
167 163 108
166 164 109
170 167 111
167 164 109
170 167 111
168 165 109
170 166 110
164 161 107
170 167 110
167 164 109
170 166 109
168 165 109
168 165 110
172 168 111
165 162 107
163 159 104
163 159 104
167 164 109
167 163 106
163 160 106
161 157 103
165 161 105
166 161 104
163 159 104
158 154 101
165 160 103
167 161 103
168 164 108
168 163 104
163 158 101
166 160 102
157 152 97
165 159 103
149 145 93
163 159 102
167 160 99
163 159 100
162 156 98
154 148 92
162 155 98
158 152 97
155 149 91
153 149 90
155 149 90
156 151 94
159 153 95
149 143 90
157 151 90
150 144 87
148 142 82
159 153 87
141 135 78
146 141 80
151 146 81
140 134 80
135 129 71
128 123 71
131 125 66
139 138 69
174 197 0
173 195 0
173 196 0
170 193 0
174 197 0
175 197 0
173 197 0
173 197 0
172 196 0
173 196 0
175 198 0
173 197 0
175 198 0
174 197 0
175 198 0
173 196 0
172 195 0
173 197 0
175 198 0
172 194 0
175 198 0
175 198 0
175 197 0
173 196 0
175 198 0
174 198 0
173 197 0
176 198 0
172 195 0
173 197 0
173 197 0
173 196 0
175 198 0
173 197 0
174 198 0
174 197 0
173 196 0
173 197 0
174 197 0
173 196 0
172 196 0
174 198 0
173 196 0
173 196 0
171 195 0
174 196 0
173 196 0
175 198 0
173 197 0
172 197 0
174 198 0
172 195 0
173 197 0
175 198 0
171 195 0
173 196 0
174 197 0
171 195 0
173 197 0
172 196 0
173 197 0
171 195 0
172 195 0
175 198 0
174 197 0
173 196 0
172 195 0
174 197 0
171 194 0
173 197 0
175 198 0
174 197 0
173 196 0
173 197 0
174 197 0
172 195 0
174 197 0
174 198 0
172 196 0
174 196 0
172 195 0
173 196 0
172 196 0
173 196 0
173 197 0
174 198 0
171 194 0
173 196 0
174 197 0
173 196 0
172 195 0
172 196 0
172 196 0
175 198 0
172 195 0
173 196 0
173 196 0
172 195 0
174 197 0
173 196 0
173 195 0
172 195 0
175 198 0
175 198 0
171 195 0
174 197 0
171 196 0
172 196 0
174 197 0
173 197 0
174 197 0
174 197 0
173 197 0
171 194 0
171 195 0
173 196 0
173 197 0
172 196 0
174 197 0
170 194 0
174 197 0
174 197 0
175 197 0
172 196 0
171 195 0
174 197 0
174 197 0
175 198 0
173 197 0
172 196 0
172 195 0
174 197 0
173 195 0
173 196 0
172 196 0
172 196 0
170 194 0
173 197 0
175 198 0
173 196 0
171 195 0
173 196 0
173 196 0
172 194 0
173 197 0
172 195 0
173 196 0
172 195 0
172 195 0
171 195 0
173 196 0
173 196 0
172 196 0
172 195 0
157 181 80
121 147 139
72 106 173
63 99 179
62 99 180
62 99 181
62 99 176
61 99 179
61 99 181
62 99 180
62 99 181
62 99 179
61 99 181
62 99 181
62 99 180
62 99 181
61 99 181
61 99 181
62 99 181
62 99 181
62 99 181
61 99 181
61 99 181
61 98 181
61 99 181
61 98 181
62 99 181
62 99 181
61 99 181
61 99 181
61 99 181
61 99 181
61 98 181
61 99 181
61 98 181
61 99 181
61 99 181
62 99 181
62 99 181
61 99 181
61 99 181
61 99 181
61 99 181
61 99 181
61 99 181
62 99 181
61 98 181
62 99 181
61 98 181
61 99 181
61 98 180
62 99 181
61 98 178
62 99 180
62 99 179
62 99 181
61 98 178
62 98 178
62 99 181
61 98 178
62 99 178
61 98 176
62 98 177
63 99 176
103 130 154
139 164 111
166 189 51
171 194 0
173 197 0
171 193 0
174 197 0
173 195 0
173 197 0
172 196 0
173 196 0
173 197 0
172 196 0
171 194 0
172 196 0
171 194 0
174 198 0
171 195 0
173 196 0
174 196 0
171 194 0
173 197 0
172 195 0
172 195 0
172 196 0
172 195 0
173 196 0
173 197 0
172 196 0
174 197 0
171 194 0
172 195 0
170 194 0
170 194 0
172 195 0
157 172 34
115 111 56
128 123 67
142 136 68
125 119 66
134 128 71
136 131 70
136 132 77
135 130 78
145 140 82
150 144 87
149 144 83
147 143 84
144 140 85
145 140 88
141 138 87
148 143 87
145 140 89
152 147 92
143 139 89
152 148 94
144 141 92
157 153 97
155 151 98
152 148 94
160 155 101
146 144 94
155 151 96
154 150 98
146 144 95
154 151 98
151 147 98
145 143 94
159 155 102
158 155 102
158 156 105
155 151 100
156 153 102
156 154 103
168 164 108
157 155 103
165 161 107
166 162 108
155 153 103
167 164 109
159 157 105
157 156 105
161 158 106
164 161 107
160 158 106
170 167 112
167 164 109
166 165 111
162 159 106
163 160 106
172 168 112
169 166 110
165 162 109
168 166 111
163 161 108
167 165 110
168 165 110
170 167 111
163 161 107
165 163 109
172 168 112
169 166 111
168 165 110
170 166 111
172 169 113
168 164 109
171 167 111
171 168 112
165 161 108
171 167 111
167 163 109
168 166 111
171 168 112
171 169 112
170 166 110
171 168 112
169 166 110
169 165 110
168 165 109
167 164 109
168 166 110
169 167 111
169 165 109
168 165 109
169 165 109
171 168 112
169 166 110
169 165 109
172 169 112
168 165 109
172 168 111
172 168 112
170 166 108
165 162 107
171 168 110
169 166 109
169 165 109
169 165 109
169 166 109
165 161 107
162 159 104
166 162 106
167 162 105
168 163 106
164 160 104
163 160 104
165 160 105
164 160 105
164 159 103
165 160 105
163 158 100
164 158 99
158 153 99
166 161 102
160 155 98
163 159 102
161 157 102
158 154 98
160 156 96
163 157 99
160 154 96
160 154 97
162 157 97
159 153 95
149 145 87
158 153 95
155 150 93
153 148 89
151 145 89
151 145 87
157 152 92
154 147 87
151 145 84
155 149 90
146 141 80
140 134 77
151 146 83
135 130 77
146 140 80
134 129 70
138 132 74
136 130 66
163 180 28
173 195 0
174 197 0
172 194 0
174 197 0
173 196 0
174 197 0
174 197 0
173 196 0
174 197 0
174 198 0
174 197 0
171 194 0
174 197 0
174 197 0
173 197 0
175 198 0
174 198 0
176 198 0
173 197 0
172 197 0
174 198 0
173 197 0
173 197 0
175 198 0
173 197 0
174 197 0
175 198 0
174 197 0
178 199 0
173 196 0
175 198 0
174 197 0
173 196 0
174 197 0
172 196 0
172 195 0
173 197 0
174 197 0
175 198 0
174 197 0
174 198 0
173 196 0
172 196 0
174 197 0
173 197 0
174 198 0
173 197 0
174 197 0
174 197 0
174 197 0
173 197 0
173 197 0
174 197 0
174 198 0
173 196 0
174 197 0
173 197 0
172 195 0
172 196 0
174 197 0
173 196 0
173 197 0
174 198 0
174 197 0
173 197 0
173 196 0
174 196 0
174 197 0
174 198 0
174 197 0
174 196 0
173 196 0
174 197 0
173 197 0
173 197 0
173 197 0
171 195 0
174 197 0
173 196 0
172 196 0
172 196 0
173 196 0
173 197 0
172 196 0
174 197 0
174 197 0
172 196 0
172 196 0
174 198 0
173 197 0
175 198 0
172 196 0
173 196 0
174 198 0
173 197 0
172 195 0
171 195 0
176 199 0
172 196 0
171 195 0
172 195 0
174 196 0
171 194 0
173 197 0
172 196 0
172 196 0
173 196 0
174 197 0
174 196 0
172 196 0
173 196 0
173 196 0
172 195 0
172 195 0
174 197 0
174 198 0
172 196 0
174 197 0
171 194 0
173 196 0
173 196 0
172 195 0
172 195 0
173 196 0
174 198 0
172 195 0
174 196 0
174 197 0
174 197 0
172 195 0
173 196 0
173 196 0
174 197 0
173 197 0
169 194 0
172 196 0
174 197 0
173 196 0
173 196 0
173 196 0
173 196 0
175 198 0
174 198 0
173 197 0
173 196 0
170 193 0
173 196 0
172 196 0
173 196 0
173 195 0
170 193 25
133 159 118
95 124 160
62 99 179
62 99 179
62 99 180
62 99 180
63 100 181
61 98 179
61 99 181
61 99 180
62 99 180
61 98 179
62 99 180
61 99 181
62 99 181
62 99 181
62 99 181
62 99 181
62 99 181
62 99 181
61 98 181
62 99 181
61 99 181
61 99 181
61 98 181
61 99 181
61 99 181
61 98 181
62 99 181
61 98 181
61 98 181
61 99 181
61 99 181
62 99 181
61 99 181
61 99 181
61 99 181
61 98 180
62 99 180
62 99 181
62 99 181
61 99 181
62 99 181
62 99 181
61 99 181
61 99 181
62 99 181
62 99 181
61 99 181
61 98 180
62 99 181
62 99 180
61 98 181
61 98 179
61 98 181
62 99 181
62 99 181
61 99 179
62 99 180
61 98 179
62 99 180
62 99 181
61 98 179
61 98 177
61 98 177
61 98 176
62 99 179
62 99 179
71 105 170
122 148 132
155 179 82
175 198 0
172 195 0
173 197 0
172 195 0
171 193 0
173 197 0
172 196 0
172 194 0
174 196 0
172 194 0
171 194 0
172 194 0
171 194 0
170 194 0
172 195 0
173 195 0
172 194 0
173 196 0
167 190 0
171 194 0
170 193 0
173 196 0
174 197 0
174 197 0
170 193 0
172 195 0
170 194 0
174 196 0
173 197 0
174 197 0
138 143 47
135 129 66
128 123 65
141 136 70
140 135 75
127 122 68
132 127 68
141 135 76
145 139 81
143 139 79
136 132 80
136 134 80
147 143 87
139 135 82
151 147 90
145 141 89
148 143 91
155 150 96
147 142 88
153 147 94
146 142 93
148 145 96
149 146 94
151 147 94
154 151 96
161 157 101
148 145 96
155 151 99
149 146 99
152 148 98
150 148 100
154 151 99
154 151 102
151 148 97
148 146 98
153 151 101
155 153 100
158 156 104
160 157 104
159 156 104
156 153 103
149 147 100
164 162 109
157 155 104
162 159 106
159 157 106
163 160 106
160 157 106
163 160 107
165 162 109
163 161 108
166 164 110
165 162 107
160 157 105
165 162 109
156 153 103
168 166 111
162 160 108
164 161 108
165 163 109
162 160 107
169 166 110
166 163 109
168 166 111
171 168 111
173 170 112
168 165 109
166 163 109
173 169 112
169 167 111
172 169 112
169 167 111
168 165 110
170 166 110
169 166 110
170 167 111
169 167 112
167 165 110
170 167 111
173 171 114
168 165 109
170 167 111
171 168 112
175 171 113
169 166 110
173 169 112
167 165 110
172 169 112
171 168 111
171 169 113
170 167 111
167 163 108
170 167 111
172 167 110
171 168 111
168 165 109
171 168 112
169 165 109
168 164 108
172 167 110
171 167 110
168 165 108
169 165 109
168 164 109
167 163 106
168 163 107
159 155 102
170 167 107
168 164 108
162 158 101
162 159 104
167 164 105
163 158 104
169 164 107
163 158 100
165 160 103
161 156 101
163 159 102
162 156 101
166 161 104
166 161 103
156 151 93
163 158 100
166 161 102
159 155 97
164 159 99
159 152 94
163 158 100
160 155 97
147 142 88
166 161 101
155 151 93
151 146 88
154 148 92
153 148 90
152 146 87
145 140 83
138 133 78
140 134 78
151 145 86
148 142 84
141 135 77
146 139 84
147 140 77
142 136 78
140 134 74
142 135 78
142 146 53
174 198 0
172 196 0
176 198 0
172 195 0
175 198 0
172 196 0
174 197 0
173 197 0
172 195 0
172 195 0
173 196 0
173 196 0
173 196 0
174 197 0
175 198 0
175 198 0
173 197 0
175 198 0
177 199 0
174 197 0
173 196 0
173 197 0
173 196 0
174 198 0
172 197 0
174 197 0
172 196 0
174 197 0
172 196 0
171 194 0
174 197 0
173 196 0
175 198 0
174 198 0
173 197 0
175 198 0
174 197 0
173 196 0
173 196 0
175 197 0
174 197 0
174 197 0
173 196 0
175 198 0
170 194 0
174 197 0
174 197 0
174 197 0
174 197 0
176 198 0
174 197 0
174 197 0
175 198 0
174 197 0
174 198 0
173 196 0
174 197 0
173 196 0
170 194 0
174 197 0
173 197 0
174 197 0
174 197 0
174 197 0
173 197 0
174 197 0
172 195 0
175 198 0
172 196 0
172 196 0
170 194 0
173 196 0
173 196 0
172 195 0
174 197 0
173 197 0
171 194 0
173 197 0
173 197 0
174 197 0
172 196 0
173 196 0
174 197 0
174 197 0
173 196 0
172 196 0
173 196 0
172 196 0
176 198 0
173 196 0
172 195 0
174 197 0
171 195 0
174 198 0
173 196 0
174 198 0
173 196 0
174 197 0
172 196 0
175 198 0
175 198 0
172 196 0
172 196 0
173 196 0
174 197 0
173 197 0
172 195 0
172 195 0
174 196 0
172 196 0
172 196 0
174 197 0
171 195 0
171 194 0
172 196 0
172 196 0
173 196 0
171 195 0
174 197 0
174 197 0
169 193 0
172 196 0
172 196 0
174 197 0
174 197 0
173 196 0
172 196 0
174 198 0
176 198 0
174 197 0
171 196 0
171 194 0
174 198 0
174 197 0
174 197 0
173 196 0
173 196 0
172 196 0
173 196 0
171 194 0
171 194 0
172 195 0
173 195 0
173 197 0
172 195 0
172 196 0
173 196 0
169 193 0
166 190 57
119 146 139
71 106 172
61 98 177
62 99 180
62 99 176
61 99 181
62 99 177
62 99 181
62 99 179
61 98 179
62 99 181
61 98 180
61 99 181
62 99 181
62 99 181
62 99 180
62 99 181
62 99 181
61 98 180
62 99 181
61 98 181
61 99 181
62 99 181
62 99 181
61 98 181
61 99 181
61 99 181
61 99 181
61 99 181
62 99 181
62 99 181
61 99 181
62 99 181
62 99 181
61 98 181
61 99 181
61 98 181
61 99 181
62 99 181
61 99 181
62 99 181
62 99 181
61 99 181
62 99 181
61 99 181
61 99 181
61 99 181
62 99 181
62 99 181
61 98 181
61 98 181
62 99 181
62 99 180
61 99 181
61 98 181
62 99 180
61 99 180
62 99 180
61 99 181
62 99 180
61 98 179
62 99 179
61 98 180
62 99 178
62 99 180
61 98 180
61 98 179
61 98 178
62 99 180
61 98 176
62 99 178
61 98 178
62 99 178
99 127 150
148 172 90
173 196 0
173 195 0
172 195 0
173 196 0
173 195 0
171 195 0
171 193 0
171 194 0
172 194 0
171 195 0
171 193 0
175 197 0
173 196 0
173 195 0
174 197 0
172 196 0
173 196 0
173 196 0
173 195 0
172 196 0
171 193 0
172 195 0
171 196 0
171 193 0
172 194 0
173 196 0
174 197 0
160 180 22
134 128 66
126 123 61
140 134 73
136 131 71
136 130 73
139 134 77
139 134 78
125 121 68
142 136 77
150 145 90
147 142 85
151 145 89
139 135 85
145 140 87
145 139 86
145 141 91
144 140 87
144 140 87
146 142 91
149 146 95
151 145 93
153 150 96
158 154 99
148 144 94
147 144 94
149 145 96
152 149 96
145 142 94
159 155 100
154 151 101
152 150 101
150 148 98
149 147 98
161 157 103
152 148 99
153 150 100
156 155 104
155 153 102
160 157 105
149 147 98
162 158 105
159 157 105
157 153 103
161 158 106
160 157 104
159 157 106
170 167 111
155 152 103
164 161 108
162 159 107
164 162 108
165 162 108
166 164 109
166 162 108
163 161 108
171 168 112
166 164 110
162 159 106
164 162 108
161 159 107
169 166 110
168 166 111
165 164 110
172 169 112
168 164 109
171 168 111
169 166 110
163 161 108
168 165 110
171 168 112
171 168 112
173 169 113
170 168 113
171 168 112
168 165 110
168 166 111
172 169 113
173 170 113
165 163 109
171 167 110
173 170 112
170 166 110
170 167 110
174 170 113
170 166 110
174 170 113
169 166 110
170 167 110
173 170 113
171 167 110
165 163 108
171 168 110
169 165 108
167 164 109
174 170 112
170 166 110
169 166 110
167 163 108
170 167 109
172 168 110
168 164 108
168 163 106
167 163 105
170 166 107
163 159 106
167 163 104
166 161 104
166 162 106
168 163 106
169 164 108
170 165 106
169 164 105
160 155 97
174 169 109
162 158 101
166 162 104
163 158 101
164 160 103
162 157 101
164 158 101
170 165 107
164 160 101
162 157 101
163 158 99
163 157 99
164 160 102
157 152 96
164 158 101
154 150 93
155 150 90
152 147 91
151 146 87
164 158 98
158 151 93
160 154 93
151 146 88
149 143 88
154 148 88
146 141 87
161 154 91
140 134 80
141 136 80
143 137 81
139 133 75
146 140 80
136 130 72
136 130 71
129 124 59
169 188 25
173 196 0
173 196 0
173 196 0
174 197 0
173 195 0
174 197 0
173 196 0
175 198 0
174 198 0
173 195 0
175 198 0
172 195 0
174 197 0
174 197 0
175 198 0
173 197 0
175 198 0
175 198 0
174 197 0
171 196 0
173 197 0
173 197 0
174 197 0
172 196 0
174 197 0
173 196 0
174 197 0
172 196 0
173 196 0
173 197 0
176 198 0
173 196 0
173 197 0
174 197 0
174 197 0
174 197 0
174 197 0
174 197 0
171 194 0
172 195 0
175 198 0
172 195 0
173 196 0
173 196 0
173 196 0
175 198 0
172 195 0
175 198 0
173 197 0
174 197 0
173 196 0
171 195 0
172 196 0
172 196 0
174 197 0
174 197 0
170 194 0
173 197 0
170 193 0
173 196 0
174 197 0
174 198 0
174 197 0
176 199 0
175 198 0
171 195 0
175 198 0
176 198 0
173 197 0
175 198 0
174 197 0
173 196 0
173 196 0
174 197 0
174 197 0
174 197 0
173 195 0
173 197 0
172 196 0
174 197 0
174 197 0
171 195 0
175 197 0
173 196 0
174 197 0
174 197 0
170 195 0
175 198 0
172 195 0
174 197 0
173 196 0
174 197 0
173 197 0
173 196 0
174 197 0
173 196 0
173 197 0
175 198 0
175 198 0
174 197 0
173 197 0
171 195 0
172 195 0
174 197 0
173 196 0
174 198 0
171 194 0
172 196 0
173 196 0
173 196 0
173 196 0
171 195 0
173 195 0
172 196 0
173 197 0
174 196 0
171 194 0
172 195 0
172 196 0
174 197 0
171 194 0
172 196 0
170 193 0
172 196 0
174 198 0
172 195 0
172 195 0
173 197 0
174 197 0
174 197 0
173 195 0
174 197 0
171 195 0
174 197 0
175 197 0
169 192 0
172 196 0
174 197 0
172 195 0
172 196 0
172 196 0
172 196 0
175 198 0
171 195 0
172 195 0
163 187 70
121 148 135
62 99 177
63 99 177
62 99 181
62 99 177
62 99 179
62 99 181
61 98 179
61 99 180
62 99 181
61 99 181
62 99 181
62 99 181
62 99 181
62 99 181
62 99 181
62 99 181
61 99 181
61 98 181
61 98 181
61 98 181
62 99 181
61 98 181
62 99 181
61 99 181
61 99 181
61 98 181
61 99 181
62 99 181
62 99 181
61 99 181
61 99 181
61 98 181
61 98 181
62 99 181
61 99 181
61 99 181
61 98 181
61 99 181
61 99 181
61 99 181
62 99 181
62 99 181
61 98 181
62 99 181
61 98 181
61 98 181
61 99 181
62 99 181
61 98 181
62 99 181
61 99 180
61 99 181
61 98 179
62 99 181
61 98 181
60 98 180
62 99 181
61 99 180
61 98 180
62 99 181
61 98 181
62 99 180
61 98 179
62 99 180
62 99 180
62 99 181
62 99 181
61 98 178
62 98 178
62 99 179
61 98 177
61 98 178
60 96 175
62 98 175
61 97 176
61 97 175
82 113 162
142 166 109
171 195 25
171 193 0
171 194 0
175 197 0
171 194 0
173 195 0
172 195 0
171 193 0
171 195 0
172 194 0
173 197 0
170 193 0
174 196 0
174 197 0
172 195 0
171 194 0
172 195 0
173 196 0
174 197 0
170 193 0
171 194 0
170 193 0
172 196 0
171 195 0
170 192 0
137 142 48
136 130 68
139 133 66
145 139 73
141 135 77
145 140 79
148 143 83
136 131 77
143 138 80
138 133 81
148 142 85
147 143 82
150 145 88
134 130 80
145 141 86
143 138 87
145 140 91
150 145 93
148 144 92
147 143 92
147 143 91
153 148 92
140 137 88
146 143 90
142 139 93
148 145 94
154 151 100
156 152 100
150 147 96
154 152 102
152 150 100
157 153 101
149 147 99
155 153 102
154 150 98
154 151 101
155 153 103
158 155 104
154 151 103
160 158 105
152 149 100
162 159 107
156 154 104
163 159 105
162 158 105
162 159 106
167 164 109
163 160 107
165 162 108
164 161 108
164 161 109
164 162 108
166 164 110
160 158 105
164 161 108
167 164 110
164 161 108
164 161 108
168 164 110
168 165 110
163 161 109
169 166 111
170 166 111
168 165 111
170 167 111
163 160 107
165 162 108
172 168 111
169 166 112
169 166 110
170 168 112
170 167 111
170 166 111
169 166 111
171 168 112
169 166 111
173 170 113
170 166 110
170 167 111
173 169 112
168 165 110
166 163 109
172 168 110
171 168 110
171 168 111
173 169 112
170 167 110
171 168 111
172 168 112
168 164 109
174 170 113
170 167 110
170 167 111
168 164 109
169 165 109
172 168 110
170 166 110
166 162 108
170 167 110
168 164 108
170 165 108
168 164 106
170 166 109
170 167 109
172 167 110
171 167 109
163 159 103
167 162 104
170 166 109
165 161 103
161 158 103
163 159 104
162 157 103
171 166 108
170 166 105
165 161 103
159 154 96
168 163 107
159 153 97
159 155 100
162 158 101
164 159 101
159 154 99
170 163 104
168 161 101
162 156 99
158 154 95
156 149 92
165 160 101
156 150 92
161 155 93
160 154 98
164 158 95
159 153 93
158 153 92
159 153 93
152 146 88
152 146 91
163 156 93
153 148 86
154 147 82
150 145 86
145 139 83
142 135 76
144 138 78
140 135 76
134 129 69
137 131 71
135 130 69
149 161 37
174 197 0
172 195 0
173 197 0
172 195 0
173 196 0
174 197 0
173 196 0
173 196 0
172 196 0
174 196 0
172 196 0
172 196 0
174 198 0
173 197 0
171 195 0
173 197 0
173 197 0
175 198 0
173 197 0
174 198 0
174 198 0
172 196 0
172 196 0
173 196 0
171 195 0
174 197 0
177 199 0
174 197 0
174 197 0
174 197 0
175 198 0
173 197 0
175 198 0
173 196 0
173 196 0
174 197 0
173 196 0
173 197 0
174 198 0
174 197 0
172 195 0
172 196 0
174 197 0
175 198 0
173 195 0
173 196 0
174 197 0
172 196 0
173 197 0
173 197 0
173 196 0
174 198 0
173 196 0
171 195 0
174 197 0
175 197 0
171 195 0
174 197 0
171 195 0
173 196 0
173 197 0
172 196 0
174 197 0
174 197 0
173 196 0
174 197 0
174 197 0
175 198 0
174 197 0
172 196 0
175 198 0
174 197 0
174 197 0
172 196 0
172 195 0
171 195 0
173 196 0
172 195 0
173 196 0
171 195 0
173 196 0
170 193 0
173 197 0
172 196 0
173 196 0
177 199 0
173 196 0
171 195 0
173 197 0
175 198 0
173 197 0
171 195 0
171 193 0
172 194 0
173 197 0
172 196 0
171 195 0
174 197 0
174 198 0
173 197 0
170 194 0
175 198 0
173 196 0
173 197 0
173 196 0
171 194 0
172 195 0
173 197 0
174 197 0
172 196 0
174 196 0
172 195 0
172 196 0
174 197 0
173 197 0
174 197 0
171 194 0
171 196 0
172 195 0
173 196 0
173 197 0
175 198 0
173 197 0
172 195 0
170 194 0
172 195 0
174 197 0
173 197 0
172 195 0
174 197 0
172 197 0
173 196 0
175 198 0
175 198 0
173 196 0
173 197 0
173 196 0
172 196 0
172 196 0
171 195 0
172 195 0
172 194 0
173 197 0
165 189 47
118 144 140
64 101 179
62 99 181
62 99 180
62 99 178
61 99 179
62 99 181
62 99 180
61 99 180
62 99 180
61 99 180
61 99 180
61 99 180
62 99 181
61 98 181
61 99 181
62 99 181
61 99 181
62 99 181
62 99 181
61 98 181
62 99 181
61 98 181
62 99 181
61 99 181
61 99 181
61 99 181
62 99 181
61 98 181
62 99 181
61 98 181
61 98 181
62 99 181
61 99 181
61 98 181
61 99 181
61 99 181
61 99 181
62 99 181
61 99 181
62 99 181
62 99 181
62 99 181
61 98 181
61 99 181
61 98 181
61 99 181
61 99 181
61 98 181
62 99 181
61 98 179
61 99 181
61 99 181
61 99 181
61 98 180
61 99 181
61 99 181
61 98 181
62 99 181
62 99 181
61 99 181
61 99 181
62 99 181
62 99 181
62 99 181
61 98 180
62 99 180
61 98 179
61 98 178
62 99 181
62 99 180
61 99 180
61 99 179
61 98 179
62 99 179
61 97 177
62 98 176
62 99 178
61 97 176
61 98 176
61 98 177
82 113 166
144 169 103
171 194 31
172 195 0
175 198 0
171 193 0
172 195 0
173 195 0
167 189 0
173 196 0
172 195 0
173 195 0
172 195 0
170 192 0
173 196 0
171 195 0
171 195 0
174 197 0
170 193 0
173 197 0
173 195 0
173 196 0
171 194 0
172 194 0
166 187 22
135 129 62
134 129 65
131 126 68
137 131 73
146 140 77
141 135 75
141 137 76
138 132 79
149 143 86
138 133 80
145 140 82
140 135 81
146 142 84
146 142 86
147 142 88
148 143 89
139 136 84
145 142 88
147 144 93
148 144 90
146 143 90
151 148 96
148 145 95
153 150 98
155 152 99
150 147 97
159 154 101
149 147 98
154 151 99
153 149 98
147 145 96
152 149 98
156 152 100
151 147 99
157 153 101
163 159 104
148 146 98
157 154 102
152 150 100
158 156 104
164 161 108
156 153 104
149 148 100
161 158 107
160 157 106
158 156 105
158 156 105
155 153 103
168 164 109
166 163 109
164 163 110
168 165 110
160 157 106
165 163 110
167 164 110
166 165 111
168 165 110
172 169 112
161 159 107
166 164 110
169 166 111
167 164 110
163 161 108
168 164 110
171 167 111
164 161 107
167 165 110
166 164 110
169 165 109
165 163 109
169 167 112
168 165 110
173 170 113
170 166 110
172 169 112
167 164 110
172 169 113
175 170 113
171 168 112
170 168 112
171 168 112
168 164 109
169 165 110
169 165 110
172 170 112
172 168 110
172 169 112
171 168 110
170 166 110
173 169 112
169 165 109
174 169 112
169 166 110
168 164 108
174 169 110
170 166 110
171 166 107
172 168 110
170 166 109
171 167 109
168 165 109
168 164 108
168 164 108
166 162 106
170 165 106
170 166 109
171 166 109
168 164 109
165 162 103
164 160 103
166 162 106
168 164 109
172 167 108
166 161 104
168 164 106
165 161 104
168 163 103
167 161 101
163 159 101
159 155 100
166 161 102
167 162 104
158 153 97
160 156 99
164 160 103
165 159 99
157 152 93
157 151 94
166 160 99
157 152 94
162 157 96
159 155 96
157 151 91
159 153 91
164 158 96
156 150 87
162 155 94
147 142 84
153 148 84
161 154 91
146 141 83
155 150 87
149 144 83
151 144 84
136 131 75
141 135 77
144 138 79
141 135 75
132 126 67
124 123 60
175 197 0
175 197 0
174 197 0
173 197 0
175 198 0
173 195 0
175 198 0
173 197 0
172 195 0
173 196 0
172 196 0
173 196 0
173 196 0
172 195 0
173 197 0
174 198 0
175 198 0
173 196 0
172 196 0
174 197 0
171 194 0
173 197 0
173 197 0
173 197 0
173 196 0
173 196 0
173 197 0
173 196 0
171 196 0
173 197 0
173 197 0
173 196 0
173 196 0
174 198 0
172 195 0
174 198 0
175 198 0
174 198 0
172 196 0
173 196 0
176 198 0
172 196 0
174 197 0
174 198 0
172 196 0
172 196 0
172 196 0
172 196 0
174 197 0
172 195 0
175 198 0
173 196 0
173 197 0
173 196 0
175 198 0
174 197 0
173 196 0
174 197 0
174 197 0
174 197 0
172 195 0
173 197 0
171 195 0
173 197 0
175 198 0
175 198 0
172 196 0
173 196 0
173 196 0
174 197 0
173 197 0
172 196 0
173 197 0
174 197 0
174 198 0
177 199 0
173 197 0
173 196 0
173 195 0
171 195 0
172 196 0
174 197 0
170 194 0
172 196 0
175 198 0
173 197 0
173 197 0
170 194 0
171 195 0
172 196 0
175 198 0
171 194 0
173 196 0
171 195 0
172 197 0
173 197 0
174 197 0
173 196 0
172 195 0
171 194 0
173 196 0
174 197 0
173 197 0
173 196 0
172 196 0
172 196 0
171 194 0
171 195 0
171 195 0
172 196 0
171 195 0
173 196 0
172 196 0
174 196 0
174 197 0
171 194 0
168 192 0
170 193 0
173 196 0
172 195 0
174 197 0
173 197 0
172 195 0
172 196 0
173 195 0
172 195 0
172 196 0
175 198 0
173 196 0
172 195 0
172 195 0
172 196 0
172 196 0
172 196 0
171 195 0
172 196 0
171 194 0
171 194 0
170 193 0
174 197 0
171 194 0
168 190 47
127 153 129
62 99 179
62 99 181
62 99 175
62 99 179
62 99 177
62 99 180
62 99 179
62 99 179
62 99 180
61 99 180
62 99 181
62 99 181
61 99 181
61 99 180
62 99 181
62 99 181
62 99 180
62 99 181
62 99 181
61 99 181
61 99 181
62 99 181
61 99 181
61 98 181
61 99 181
62 99 181
62 99 181
61 98 181
61 99 181
61 99 181
62 99 181
61 99 181
61 98 181
61 98 181
61 98 181
62 99 181
61 99 181
61 98 181
62 99 181
61 99 181
61 98 181
61 99 181
61 99 181
61 99 181
62 99 181
62 99 181
61 98 181
61 98 181
61 99 181
61 99 181
61 99 181
62 99 181
61 99 181
61 99 181
61 99 181
61 99 181
61 98 181
61 98 181
61 98 181
61 98 181
61 99 180
61 98 181
61 99 181
61 99 181
61 98 180
61 98 181
62 99 181
61 98 180
62 99 181
61 98 178
61 99 180
62 99 180
61 99 181
61 98 180
61 98 176
61 99 181
62 99 179
61 98 177
60 97 177
62 98 176
61 98 176
61 98 177
61 98 175
62 98 177
93 121 152
148 172 92
172 194 0
170 192 0
171 194 0
173 195 0
173 195 0
172 197 0
173 196 0
173 196 0
170 193 0
173 197 0
173 195 0
171 194 0
173 196 0
175 198 0
168 192 0
172 195 0
175 197 0
173 196 0
173 196 0
174 197 0
141 149 47
128 122 63
137 131 70
134 129 69
136 131 67
139 132 73
141 136 75
142 137 75
138 134 75
140 135 78
143 139 79
138 133 81
132 129 75
138 134 79
143 138 87
144 140 85
147 143 91
143 140 89
146 142 90
147 143 90
150 147 95
142 139 87
140 138 87
146 142 91
143 141 92
144 142 95
151 148 95
155 151 100
152 149 99
156 153 102
150 148 100
140 139 93
147 146 99
156 153 102
153 150 100
150 148 99
157 154 102
158 154 103
163 159 106
157 153 101
154 151 100
156 154 104
153 150 101
160 157 105
155 154 103
154 152 102
159 156 105
163 159 106
155 153 104
162 159 107
158 155 105
167 164 109
163 160 106
165 162 108
159 157 105
165 162 108
164 161 108
165 162 108
165 162 108
166 163 109
165 163 109
167 164 109
167 164 109
171 167 111
165 163 109
167 163 109
167 165 111
169 166 111
169 165 110
170 166 110
169 166 111
168 165 110
169 166 110
172 169 112
172 169 113
167 165 110
172 169 112
170 167 111
171 168 112
172 169 112
169 166 110
173 169 112
172 170 113
169 166 110
171 168 112
168 165 110
170 167 111
171 168 111
174 170 113
169 167 110
170 167 110
174 170 112
170 167 110
171 167 110
169 167 110
168 165 108
167 164 109
168 165 110
171 167 110
171 167 109
172 168 109
173 168 109
169 165 107
173 169 110
170 165 108
166 163 108
173 168 110
165 161 104
169 165 109
166 163 108
171 166 109
165 161 103
170 165 108
166 161 103
166 162 104
161 157 100
168 164 108
163 158 103
164 159 100
169 164 104
163 158 101
170 165 106
166 161 103
166 161 104
163 158 98
164 160 99
166 161 104
161 156 97
161 157 99
159 153 97
161 155 95
156 151 95
159 153 95
160 154 95
157 151 94
157 151 93
156 151 90
154 149 89
151 145 89
154 147 84
153 148 88
154 147 90
147 141 77
149 143 78
149 143 84
148 142 85
148 141 83
141 135 70
139 134 73
137 132 67
137 131 65
157 174 28
174 197 0
172 195 0
171 194 0
175 198 0
173 197 0
173 196 0
174 197 0
173 196 0
174 196 0
175 198 0
173 197 0
173 196 0
174 197 0
172 196 0
174 197 0
174 198 0
172 196 0
174 197 0
173 196 0
176 198 0
173 197 0
173 196 0
173 196 0
176 199 0
173 197 0
174 197 0
172 195 0
175 198 0
173 196 0
174 197 0
174 197 0
174 197 0
170 194 0
174 197 0
172 196 0
172 196 0
173 197 0
171 195 0
172 196 0
173 196 0
172 195 0
171 195 0
172 196 0
175 198 0
174 197 0
175 198 0
172 195 0
174 198 0
171 195 0
174 197 0
174 197 0
173 197 0
173 197 0
173 197 0
175 197 0
174 197 0
172 196 0
173 196 0
171 195 0
170 194 0
172 195 0
173 197 0
174 198 0
171 195 0
171 195 0
173 197 0
170 194 0
174 197 0
172 195 0
174 197 0
173 197 0
173 196 0
173 197 0
172 196 0
173 197 0
173 197 0
172 196 0
173 196 0
173 197 0
171 193 0
173 197 0
175 198 0
175 198 0
174 197 0
173 196 0
174 198 0
171 196 0
173 196 0
172 195 0
173 196 0
172 196 0
173 197 0
174 198 0
170 195 0
172 196 0
173 196 0
173 197 0
174 197 0
172 196 0
172 195 0
173 197 0
174 197 0
173 197 0
174 197 0
170 194 0
173 196 0
169 193 0
171 195 0
174 197 0
173 197 0
173 196 0
173 196 0
174 197 0
172 195 0
173 197 0
168 191 0
174 197 0
172 195 0
172 195 0
173 196 0
173 197 0
171 194 0
172 195 0
172 195 0
172 196 0
174 198 0
175 197 0
170 194 0
174 197 0
174 197 0
172 195 0
171 194 0
168 191 0
172 195 0
171 195 0
171 194 0
171 194 0
172 196 0
172 195 31
120 146 135
70 105 174
62 99 178
62 99 180
62 99 181
62 99 179
63 100 181
61 99 178
62 99 181
62 99 181
62 99 180
62 99 180
61 99 181
61 99 181
61 99 181
62 99 180
62 99 181
62 99 179
62 99 181
62 99 181
62 99 181
61 99 181
61 98 181
62 99 181
61 98 181
61 99 181
62 99 181
61 99 181
62 99 181
62 99 181
62 99 181
61 99 181
61 99 181
61 99 181
61 99 181
61 98 181
61 98 181
61 98 181
61 99 181
61 99 181
61 99 181
62 99 181
61 98 181
61 99 181
62 99 181
61 98 181
62 99 181
61 98 181
62 99 181
61 98 181
61 99 181
62 99 181
61 98 181
61 98 181
62 99 181
61 98 181
62 99 181
61 99 181
61 98 180
62 99 181
61 99 181
62 99 181
61 98 181
61 98 181
61 99 181
62 99 180
62 99 181
61 98 178
62 99 181
61 99 180
62 99 180
61 99 181
62 99 181
60 98 180
61 98 181
61 98 180
62 99 180
62 99 180
62 99 180
62 99 180
61 98 177
61 98 178
61 98 179
62 98 178
61 98 176
62 98 178
61 98 177
61 98 177
62 98 178
101 128 144
158 181 72
170 192 0
171 194 0
172 194 0
173 195 0
172 196 0
173 196 0
172 195 0
171 194 0
169 193 0
173 196 0
172 195 0
170 193 0
170 193 0
170 193 0
171 195 0
174 197 0
171 194 0
167 190 0
124 122 56
127 120 68
140 134 70
131 127 62
128 123 68
139 134 71
144 139 75
135 131 71
138 132 78
143 138 82
139 135 79
147 142 85
152 147 92
139 135 81
151 146 92
138 134 88
146 142 90
156 151 95
143 139 91
139 135 88
149 146 95
148 144 94
145 142 92
146 142 90
151 149 97
145 142 93
150 146 96
147 144 93
145 143 96
149 145 96
158 155 103
145 142 94
149 147 99
155 151 101
150 147 99
149 147 98
154 152 102
154 152 104
162 159 106
159 156 104
143 142 97
162 159 106
160 158 105
154 153 103
160 157 105
157 155 105
158 155 104
155 152 102
154 152 102
163 161 108
169 165 110
157 155 106
159 157 106
167 165 111
161 158 105
165 161 108
169 165 110
163 161 108
165 162 108
167 164 109
172 169 113
163 161 108
169 166 110
163 160 107
172 168 110
165 163 109
167 165 109
164 162 108
169 165 109
173 169 112
171 168 112
170 167 111
174 170 113
172 168 111
172 168 111
171 167 109
172 169 113
169 166 110
172 168 111
174 169 112
175 171 113
174 170 113
168 164 109
169 165 109
171 168 111
173 170 112
174 170 113
170 166 109
174 170 112
168 165 109
172 168 110
171 168 110
169 165 109
172 169 112
176 172 112
172 168 112
172 169 111
171 166 108
173 169 110
170 167 109
169 165 105
169 164 107
167 163 107
169 165 108
165 161 105
167 163 104
170 165 107
172 168 110
172 168 110
168 164 105
162 160 104
167 162 106
166 162 103
166 162 105
166 161 102
170 165 105
168 164 106
167 162 103
164 160 103
162 157 99
164 159 101
160 156 99
168 163 100
169 163 103
164 159 101
167 162 102
161 156 99
161 156 95
166 160 99
158 152 93
166 160 101
161 155 99
167 160 97
163 157 96
155 151 94
165 158 97
147 142 80
150 144 86
148 143 86
142 135 84
153 145 90
157 150 84
158 152 87
148 142 80
140 136 79
140 135 75
142 137 76
140 134 71
142 137 73
134 129 66
144 137 78
148 156 45
175 197 0
174 197 0
173 196 0
172 196 0
174 197 0
172 195 0
173 196 0
174 197 0
173 197 0
173 196 0
171 194 0
174 197 0
174 197 0
175 198 0
173 196 0
173 197 0
173 196 0
174 196 0
171 195 0
174 197 0
174 197 0
173 197 0
173 197 0
174 197 0
173 196 0
173 197 0
175 197 0
174 198 0
174 198 0
174 197 0
174 197 0
173 197 0
174 197 0
172 196 0
170 194 0
174 197 0
171 195 0
174 197 0
173 197 0
174 197 0
173 197 0
173 197 0
174 197 0
175 198 0
173 196 0
173 196 0
173 197 0
172 196 0
174 197 0
173 195 0
171 195 0
173 197 0
175 198 0
173 195 0
174 198 0
175 198 0
170 194 0
174 197 0
171 194 0
175 198 0
173 196 0
171 194 0
174 197 0
173 196 0
175 198 0
173 197 0
172 195 0
174 196 0
172 196 0
172 196 0
174 197 0
169 193 0
173 197 0
171 196 0
173 196 0
172 197 0
171 195 0
172 196 0
173 196 0
174 197 0
173 196 0
175 198 0
172 196 0
171 193 0
170 194 0
173 196 0
175 198 0
170 194 0
176 198 0
171 195 0
169 192 0
174 197 0
172 195 0
173 197 0
171 194 0
175 197 0
174 197 0
173 196 0
174 198 0
174 197 0
173 196 0
174 197 0
170 194 0
173 197 0
172 196 0
172 195 0
169 192 0
171 195 0
171 195 0
171 194 0
173 197 0
173 197 0
171 195 0
173 197 0
173 195 0
172 195 0
172 196 0
172 195 0
173 195 0
171 194 0
171 194 0
173 197 0
172 196 0
172 196 0
172 195 0
174 197 0
172 195 0
171 194 0
173 197 0
174 197 0
173 196 0
174 197 0
173 196 0
172 195 0
172 195 0
173 196 0
173 195 0
151 176 88
93 123 160
62 99 175
62 99 178
62 99 180
61 99 178
63 100 177
62 99 178
62 99 178
61 98 180
62 99 179
62 99 181
62 99 179
62 99 181
62 99 181
62 99 179
62 99 180
61 98 181
62 99 181
62 99 181
62 99 181
62 99 181
62 99 180
61 98 181
62 99 181
61 99 180
62 99 181
62 99 181
61 98 181
61 99 181
61 98 181
61 99 181
62 99 181
62 99 181
62 99 181
61 99 181
61 98 181
61 99 181
61 99 181
62 99 181
61 99 181
62 99 181
62 99 181
62 99 181
61 99 181
61 99 181
61 98 181
61 99 181
62 99 181
62 99 181
61 98 181
62 99 181
61 98 181
61 99 181
62 99 181
61 99 181
61 99 181
62 99 181
62 99 180
61 98 181
61 98 181
61 99 181
62 99 181
62 99 181
62 99 181
61 99 181
61 98 180
62 99 181
61 98 180
62 99 180
62 99 181
62 99 180
62 99 179
62 99 179
62 99 179
62 99 181
62 99 181
61 99 181
62 99 181
61 98 179
61 97 176
62 99 179
62 99 178
62 98 177
62 99 180
62 99 180
62 98 177
62 99 179
62 98 178
62 99 179
61 98 175
62 98 176
65 100 172
125 150 130
165 189 54
169 191 0
171 194 0
174 196 0
172 196 0
172 195 0
167 190 0
170 193 0
171 195 0
171 194 0
173 196 0
174 196 0
173 197 0
172 196 0
169 193 0
171 195 0
157 170 42
128 123 53
132 127 60
141 135 71
132 127 69
137 133 76
136 131 78
139 134 74
137 132 75
131 128 78
140 137 78
142 137 82
144 139 85
145 140 87
136 132 84
140 137 85
143 139 86
138 135 84
143 139 87
149 145 91
152 149 95
136 134 88
144 142 89
147 144 93
145 142 95
146 142 94
156 152 96
146 143 93
141 139 92
147 145 97
148 146 96
152 149 97
142 141 97
147 144 97
155 152 102
149 147 98
149 147 100
149 146 98
148 145 96
148 147 100
150 147 98
163 159 107
152 151 102
153 151 102
159 156 104
159 157 106
162 159 107
164 161 107
158 156 105
158 156 106
160 158 106
168 164 109
161 158 106
167 164 108
164 161 108
165 162 107
163 161 108
168 164 110
161 159 107
163 160 106
167 163 109
169 166 111
164 163 110
169 166 111
165 162 108
167 165 108
163 160 108
171 168 112
168 165 108
173 168 111
169 166 110
171 167 110
171 168 112
170 166 110
167 165 109
171 168 112
171 168 112
176 172 113
170 167 110
169 166 109
175 171 113
174 170 113
173 169 110
170 168 111
174 170 112
171 167 111
174 170 112
173 169 111
168 166 110
172 168 110
172 168 110
172 168 111
168 165 109
171 167 110
169 166 108
168 165 109
172 168 109
171 166 109
168 163 107
168 165 109
172 168 110
170 166 109
166 163 107
170 166 109
168 165 108
165 160 103
170 165 108
163 160 103
166 162 103
166 162 104
172 167 108
172 167 109
170 165 108
172 166 109
160 156 101
161 156 98
171 166 106
165 158 101
161 157 102
171 166 104
172 167 108
173 167 106
165 160 102
157 152 98
164 159 99
169 164 106
160 156 97
158 152 99
162 157 99
161 156 97
158 152 94
157 151 91
156 152 96
159 153 93
163 157 99
150 144 87
160 154 93
153 148 88
157 151 93
146 141 83
141 137 80
150 144 87
148 143 85
147 140 77
140 135 80
147 142 79
151 145 80
145 139 71
135 128 72
147 140 78
124 119 66
130 124 64
138 133 64
172 194 11
174 197 0
175 197 0
173 197 0
174 197 0
172 194 0
173 196 0
170 193 0
174 197 0
174 197 0
173 197 0
173 197 0
175 198 0
175 198 0
175 198 0
174 198 0
174 198 0
175 198 0
172 195 0
173 197 0
171 196 0
175 198 0
173 197 0
172 196 0
174 197 0
175 198 0
174 197 0
172 196 0
173 196 0
173 197 0
174 197 0
174 198 0
174 197 0
173 197 0
174 197 0
174 197 0
173 197 0
173 197 0
175 198 0
173 196 0
173 197 0
173 196 0
171 194 0
174 197 0
171 195 0
173 197 0
174 197 0
175 198 0
173 196 0
172 196 0
172 196 0
173 196 0
174 197 0
174 197 0
172 195 0
174 197 0
171 195 0
172 196 0
172 196 0
175 198 0
172 195 0
173 197 0
172 195 0
173 196 0
172 196 0
170 194 0
173 196 0
173 196 0
172 195 0
171 195 0
171 195 0
173 196 0
172 196 0
174 196 0
174 198 0
173 197 0
171 195 0
174 197 0
171 196 0
177 199 0
173 196 0
173 196 0
173 196 0
169 192 0
173 197 0
171 195 0
172 196 0
173 196 0
172 196 0
173 196 0
171 195 0
172 196 0
173 197 0
173 196 0
173 197 0
173 196 0
174 197 0
171 195 0
172 196 0
170 194 0
174 197 0
172 195 0
174 197 0
173 197 0
170 194 0
174 197 0
174 198 0
172 196 0
173 197 0
174 197 0
174 197 0
172 195 0
173 197 0
174 198 0
173 197 0
172 195 0
173 196 0
171 195 0
173 196 0
170 194 0
172 196 0
173 196 0
173 195 0
172 196 0
173 197 0
175 198 0
173 196 0
174 197 0
174 197 0
173 196 0
173 197 0
174 197 0
175 198 0
172 195 0
173 197 0
163 186 67
112 139 143
62 99 179
62 99 177
62 99 180
61 99 177
62 99 180
61 99 178
62 99 179
62 99 180
62 99 179
62 99 181
62 99 180
61 98 180
62 99 180
61 99 181
61 99 180
62 99 180
62 99 181
61 99 180
61 99 179
61 99 180
62 99 181
61 98 181
61 98 180
62 99 181
61 99 181
62 99 181
61 99 181
62 99 181
61 99 180
62 99 181
61 98 181
61 99 181
62 99 181
62 99 181
61 99 181
61 99 181
62 99 181
61 99 181
62 99 181
61 98 181
61 99 181
61 99 181
62 99 181
61 99 181
61 99 181
62 99 181
62 99 181
61 98 181
61 99 181
62 99 181
61 98 181
61 99 181
61 99 181
60 98 181
61 98 181
62 99 181
61 98 181
61 99 181
61 98 180
61 99 181
61 99 181
61 99 181
61 99 181
61 99 181
62 99 181
61 99 181
62 99 181
62 99 180
61 99 181
62 99 181
62 99 181
61 98 179
62 99 180
62 99 181
61 99 181
61 99 180
61 98 179
62 99 181
61 98 179
61 98 179
61 98 179
61 98 178
61 99 180
62 98 177
62 98 176
61 98 177
62 99 178
61 97 174
61 98 176
61 98 176
61 98 177
61 98 177
61 98 176
60 96 172
82 113 166
139 163 105
169 192 0
173 195 0
173 196 0
172 195 0
171 193 0
174 196 0
173 195 0
168 190 0
172 195 0
172 195 0
173 196 0
170 193 0
174 198 0
171 195 0
138 143 47
130 126 59
142 137 72
137 132 74
138 133 71
143 137 75
141 135 78
137 132 74
141 136 81
132 128 75
145 139 80
143 139 82
131 128 75
147 142 85
144 140 85
142 139 87
146 142 92
137 134 87
140 137 86
142 140 92
152 149 99
145 142 92
137 135 89
146 144 96
146 142 93
153 149 98
143 141 93
147 144 95
157 153 98
139 137 93
143 141 93
144 142 98
147 146 100
157 153 102
156 154 102
156 152 102
151 149 101
145 144 97
157 155 102
157 155 105
151 148 100
151 149 101
162 159 107
160 157 104
153 150 101
150 149 101
156 153 102
165 162 109
156 153 103
158 155 104
165 161 107
158 156 105
167 165 110
164 160 108
164 161 108
156 155 104
170 167 111
162 159 107
163 161 107
166 163 109
170 167 111
164 162 108
170 167 111
166 164 110
167 164 109
169 166 110
174 170 113
168 165 110
171 167 110
169 165 110
170 167 110
169 166 111
171 168 112
171 168 111
170 167 112
167 164 110
174 171 113
171 167 110
170 166 109
169 166 109
167 164 110
174 171 114
172 169 111
173 170 113
175 171 113
174 170 111
171 167 111
174 170 111
174 169 112
173 170 112
174 170 112
173 169 112
174 170 113
172 168 110
172 168 110
173 168 110
171 166 108
170 166 109
173 169 110
167 163 106
169 164 106
173 169 110
171 166 109
169 164 107
175 171 112
171 166 107
166 162 104
169 164 103
167 162 107
170 166 107
168 163 106
171 166 107
170 166 108
173 168 109
173 168 108
167 162 103
171 166 106
166 161 101
168 163 105
169 165 106
169 163 101
171 167 105
165 160 99
165 160 101
164 159 101
158 153 95
164 160 101
166 161 102
165 160 97
159 154 95
161 156 100
163 158 97
162 157 96
164 158 96
158 152 92
156 151 93
156 150 91
156 151 91
160 154 93
160 154 95
160 154 93
151 146 85
152 146 85
157 151 89
150 144 82
150 144 86
142 136 79
141 135 72
144 138 77
150 144 79
146 138 77
132 127 67
135 129 71
155 170 30
172 196 0
172 196 0
172 195 0
173 196 0
175 198 0
174 197 0
173 196 0
174 197 0
175 197 0
173 197 0
173 196 0
175 198 0
171 195 0
173 196 0
173 196 0
173 196 0
174 197 0
173 197 0
174 198 0
174 197 0
174 197 0
173 197 0
173 196 0
173 197 0
173 196 0
177 199 0
173 197 0
171 194 0
172 195 0
173 196 0
173 196 0
174 198 0
173 196 0
172 196 0
174 197 0
175 198 0
173 197 0
175 198 0
174 197 0
175 197 0
173 196 0
172 196 0
172 196 0
173 196 0
175 198 0
172 196 0
172 196 0
173 196 0
173 196 0
174 197 0
171 195 0
175 198 0
173 197 0
171 194 0
173 197 0
172 195 0
171 195 0
174 197 0
171 195 0
171 195 0
172 196 0
174 197 0
174 197 0
173 197 0
172 195 0
174 197 0
172 196 0
175 198 0
171 195 0
174 197 0
175 198 0
172 196 0
173 197 0
173 197 0
173 196 0
174 197 0
172 196 0
173 197 0
173 196 0
173 196 0
173 196 0
173 197 0
174 196 0
173 196 0
172 195 0
174 196 0
170 194 0
172 196 0
172 195 0
174 197 0
174 198 0
172 196 0
173 196 0
172 195 0
172 195 0
173 196 0
171 195 0
170 193 0
170 194 0
172 196 0
173 196 0
173 196 0
173 197 0
172 196 0
173 196 0
171 195 0
174 197 0
172 194 0
174 198 0
173 196 0
171 195 0
171 195 0
174 197 0
172 196 0
173 197 0
172 194 0
174 197 0
173 196 0
174 196 0
173 197 0
171 194 0
173 196 0
172 195 0
174 197 0
173 196 0
171 194 0
168 192 0
171 193 0
173 196 0
172 195 0
172 195 0
174 198 0
173 196 0
135 160 117
74 108 172
61 98 175
61 98 175
62 99 179
62 99 180
62 99 177
62 99 181
62 99 180
61 98 180
62 99 181
62 99 179
62 99 179
61 99 179
61 99 180
62 99 180
61 98 181
62 99 181
62 99 181
62 99 181
62 99 179
61 99 181
61 99 181
62 99 181
62 99 181
62 99 181
61 98 181
62 99 181
61 99 181
61 99 181
61 99 181
61 99 181
62 99 181
61 99 181
61 99 181
62 99 181
61 98 181
61 98 181
61 98 181
61 99 181
62 99 181
62 99 181
61 99 181
62 99 181
61 98 181
61 99 181
61 99 181
61 98 181
62 99 181
61 98 181
61 98 181
62 99 181
61 99 181
62 99 181
61 99 181
61 99 181
61 99 181
61 99 181
61 99 181
61 99 181
62 99 181
62 99 181
62 99 181
61 99 181
62 99 181
62 99 181
62 99 181
62 99 181
61 99 181
61 99 181
62 99 181
62 99 181
61 99 181
62 99 181
62 99 181
62 99 180
62 99 178
63 100 181
62 99 181
62 99 180
61 98 179
62 98 178
61 98 178
62 98 178
61 99 180
62 99 181
62 99 180
62 99 180
61 98 176
61 98 178
61 97 175
61 98 176
62 99 178
60 97 175
61 98 176
61 97 176
61 98 177
61 97 173
61 97 175
124 149 132
160 183 62
171 195 0
173 196 0
170 194 0
171 194 0
171 193 0
173 196 0
171 195 0
171 194 0
174 195 0
172 196 0
171 193 0
167 188 22
129 124 61
139 132 68
135 129 72
131 127 66
131 125 71
135 130 75
128 124 65
142 136 78
136 132 75
141 136 78
141 136 80
146 142 88
137 133 80
140 136 81
143 139 86
130 125 78
136 133 85
137 134 85
140 137 87
150 145 92
146 142 89
151 147 98
148 146 95
139 136 89
134 133 89
154 150 99
138 136 92
147 143 95
143 142 96
151 148 98
147 143 94
142 141 95
145 143 96
149 147 98
149 146 97
135 135 93
154 151 99
160 157 104
155 154 104
153 151 103
150 147 98
153 150 101
157 155 105
149 147 100
154 151 101
147 146 100
159 156 104
156 154 104
160 157 104
151 150 102
163 161 108
157 156 106
158 156 105
158 157 106
163 160 107
159 156 105
157 155 104
162 160 108
168 164 108
167 163 109
168 165 110
169 165 109
164 162 109
170 165 109
164 161 108
168 165 111
169 166 111
167 164 109
167 164 109
168 165 110
160 158 106
169 165 110
168 164 107
170 166 110
173 170 113
172 168 110
169 166 110
169 166 110
170 167 111
167 165 108
174 171 112
173 169 111
172 168 110
174 171 112
174 170 112
170 167 110
169 166 109
170 167 111
170 167 110
176 172 113
174 169 110
168 165 108
172 169 110
169 165 110
168 165 109
173 168 110
168 165 109
171 168 109
173 168 109
174 170 111
171 167 108
171 167 108
172 167 107
173 169 109
171 166 108
170 165 108
173 169 110
169 164 104
167 164 103
172 167 106
172 167 108
169 165 108
171 166 107
163 158 101
172 167 107
167 162 102
169 164 105
171 166 108
169 164 102
162 158 99
169 164 106
168 163 101
167 163 103
162 155 96
159 155 96
165 159 95
163 159 97
161 156 98
171 165 103
164 159 97
166 159 95
158 153 93
162 156 96
164 159 94
157 151 93
157 151 92
157 152 88
158 152 92
158 153 91
151 146 85
158 151 93
152 146 84
157 152 85
159 153 90
151 146 87
147 141 80
139 134 75
144 139 80
139 134 73
140 134 73
143 137 75
140 135 65
127 121 64
153 157 63
172 196 0
175 197 0
173 197 0
172 196 0
175 197 0
173 196 0
172 195 0
174 197 0
172 195 0
176 198 0
175 198 0
173 197 0
174 197 0
175 198 0
173 197 0
170 195 0
172 195 0
173 197 0
176 198 0
174 198 0
168 192 0
173 196 0
172 195 0
172 195 0
174 196 0
174 197 0
173 196 0
174 197 0
173 197 0
176 199 0
174 197 0
172 195 0
174 197 0
173 196 0
175 198 0
173 197 0
174 197 0
173 196 0
172 196 0
174 197 0
171 194 0
173 197 0
173 197 0
173 197 0
173 196 0
174 197 0
173 197 0
173 196 0
173 197 0
175 198 0
174 197 0
168 192 0
174 197 0
171 194 0
175 197 0
171 195 0
174 198 0
175 198 0
175 198 0
174 196 0
174 196 0
171 195 0
174 197 0
171 195 0
175 197 0
174 197 0
173 197 0
173 197 0
171 195 0
173 197 0
176 199 0
173 196 0
173 196 0
173 197 0
175 198 0
172 195 0
174 197 0
172 195 0
173 196 0
172 194 0
174 197 0
172 195 0
173 196 0
173 196 0
174 197 0
174 196 0
173 196 0
174 197 0
174 197 0
175 198 0
172 196 0
172 196 0
174 197 0
171 194 0
171 195 0
173 196 0
174 196 0
172 195 0
172 196 0
171 194 0
172 194 0
174 196 0
173 196 0
173 197 0
172 196 0
176 198 0
173 196 0
174 197 0
172 195 0
173 196 0
173 197 0
172 196 0
172 195 0
173 196 0
174 196 0
172 196 0
173 196 0
172 195 0
174 198 0
171 194 0
173 196 0
171 194 0
170 194 0
172 196 0
175 198 0
173 197 0
170 195 0
173 196 0
172 196 0
172 196 0
172 195 0
168 192 44
106 134 151
62 99 178
62 98 173
61 98 177
62 99 173
62 99 178
61 99 177
62 99 180
62 99 177
62 99 178
62 99 179
61 99 177
62 99 180
62 99 181
62 99 179
61 99 181
62 99 181
61 98 180
62 99 180
61 98 181
62 99 179
62 99 180
61 99 181
62 99 180
61 99 181
62 99 181
61 99 181
62 99 180
62 99 181
62 99 181
61 99 181
62 99 181
61 99 181
62 99 180
61 98 181
61 99 181
62 99 181
62 99 181
61 99 181
61 99 181
61 99 181
61 99 181
62 99 181
62 99 181
61 98 181
62 99 181
61 99 181
62 99 181
61 99 181
62 99 181
62 99 181
61 99 181
62 99 181
62 99 181
62 99 181
61 98 181
61 99 181
61 99 181
61 99 181
62 99 181
62 99 181
62 99 181
62 99 181
62 99 181
61 98 181
61 99 180
62 99 181
61 99 181
61 99 181
61 99 181
62 99 181
61 99 181
61 99 181
61 98 179
61 98 180
61 99 181
62 99 181
61 98 179
62 99 180
61 99 179
62 99 179
62 99 180
62 99 181
63 100 181
61 99 179
61 98 179
62 99 179
61 98 177
62 99 179
62 99 180
61 98 178
61 98 177
61 98 180
61 98 175
61 98 177
62 99 180
61 97 173
62 99 179
61 97 176
61 97 175
61 97 170
79 110 166
142 166 107
169 192 0
168 191 0
169 191 0
169 192 0
173 197 0
174 197 0
170 192 0
171 193 0
173 195 0
173 195 0
151 166 34
127 122 60
128 123 64
125 123 54
136 131 74
132 127 67
129 126 70
144 138 74
140 134 78
137 132 77
133 128 76
135 131 80
136 131 79
143 137 86
148 143 86
149 144 91
138 135 87
136 132 84
130 127 82
149 145 95
135 133 87
140 137 86
137 134 88
133 133 91
146 143 90
141 139 93
140 138 93
140 137 91
142 139 92
155 152 98
147 145 99
148 145 97
145 143 95
142 141 95
143 142 97
149 147 99
145 143 98
142 141 97
147 146 99
149 147 99
148 145 98
155 152 103
158 156 104
148 145 98
148 147 102
158 155 104
153 152 103
161 158 105
159 156 105
159 156 103
152 150 101
161 159 107
165 162 109
160 158 107
163 161 108
159 156 106
161 158 106
156 155 104
166 163 108
166 163 109
168 165 110
166 163 109
169 165 110
166 163 108
166 163 108
171 167 110
166 164 111
166 163 108
170 166 110
170 168 111
169 166 111
171 167 111
172 169 112
168 165 109
173 169 111
167 165 110
173 169 112
171 167 110
171 167 111
168 164 108
172 168 111
171 168 111
173 170 113
172 168 111
172 168 112
172 168 110
174 170 112
171 167 109
175 171 111
172 168 110
170 167 110
175 170 111
170 166 109
173 168 108
172 169 110
173 169 111
175 170 112
174 171 112
173 169 110
166 163 108
172 168 109
172 167 108
173 168 109
173 169 110
174 168 109
169 166 108
170 166 109
173 168 106
169 166 108
170 165 108
168 162 103
169 164 106
170 164 105
174 169 110
169 165 103
174 169 108
167 162 102
166 162 103
160 156 98
164 159 101
168 162 102
167 162 103
164 159 103
160 155 97
167 161 100
166 161 102
162 157 101
166 160 100
163 158 99
164 158 100
163 157 93
163 157 95
160 155 95
159 154 95
166 160 98
157 150 92
155 150 87
160 155 93
161 156 90
153 148 90
159 153 93
154 149 87
161 154 93
155 148 87
157 150 84
154 149 85
148 141 82
148 141 79
129 124 67
136 130 73
134 129 71
138 133 70
147 140 79
144 138 74
134 131 60
172 194 16
173 197 0
173 196 0
171 195 0
174 197 0
172 196 0
174 197 0
173 197 0
172 196 0
176 198 0
175 198 0
175 198 0
173 197 0
172 196 0
174 197 0
176 199 0
174 198 0
173 197 0
173 196 0
172 196 0
174 197 0
173 197 0
174 197 0
174 197 0
174 197 0
174 198 0
174 198 0
171 195 0
171 194 0
173 197 0
174 198 0
172 195 0
171 195 0
172 196 0
173 196 0
173 196 0
171 195 0
173 197 0
175 198 0
174 196 0
174 197 0
174 197 0
173 197 0
174 197 0
174 197 0
172 195 0
171 195 0
173 196 0
174 198 0
172 196 0
175 198 0
169 193 0
173 196 0
173 196 0
174 197 0
174 197 0
174 197 0
173 197 0
171 195 0
169 193 0
172 196 0
172 196 0
172 195 0
172 196 0
175 198 0
173 197 0
173 197 0
174 197 0
173 196 0
172 195 0
173 197 0
174 197 0
173 197 0
173 196 0
173 196 0
173 195 0
173 196 0
173 196 0
175 197 0
173 197 0
173 197 0
174 197 0
174 198 0
173 197 0
173 197 0
173 196 0
172 196 0
171 194 0
172 195 0
173 196 0
175 198 0
172 195 0
169 192 0
171 195 0
175 198 0
172 196 0
175 197 0
173 196 0
172 195 0
172 196 0
176 198 0
174 197 0
173 196 0
173 196 0
172 195 0
173 196 0
173 196 0
173 196 0
173 196 0
173 196 0
171 195 0
172 197 0
174 197 0
171 195 0
171 195 0
173 197 0
171 194 0
171 195 0
170 193 0
171 195 0
173 196 0
173 195 0
171 195 0
173 196 0
172 194 0
170 194 0
173 195 0
175 198 0
171 195 0
173 196 0
141 166 105
77 109 167
62 99 175
62 99 179
62 99 177
62 99 177
62 99 179
62 99 180
62 99 180
62 99 181
62 99 179
62 99 181
61 98 179
62 99 181
62 100 181
62 99 179
62 99 180
62 99 179
62 99 180
62 99 180
62 99 181
61 99 180
61 99 180
62 99 181
62 99 181
62 99 180
62 99 181
62 99 181
61 99 181
62 99 181
61 99 181
61 99 181
62 99 181
61 98 181
62 99 181
62 99 181
61 99 181
62 99 181
61 99 181
62 99 181
61 99 181
62 99 181
62 99 181
62 99 181
61 98 181
61 99 181
61 98 181
61 98 181
61 98 181
62 99 181
62 99 181
61 99 181
62 99 181
61 99 181
61 99 181
62 99 181
61 99 181
61 99 181
61 99 181
61 99 181
62 99 181
61 99 181
61 99 181
62 99 181
62 99 181
61 99 181
62 99 181
61 99 181
61 98 181
61 99 181
61 98 181
62 99 181
61 98 180
62 99 181
62 99 180
62 99 180
62 99 180
61 99 180
61 99 180
61 99 180
61 98 181
62 99 181
62 99 179
62 99 179
62 99 180
62 99 180
62 98 178
61 99 181
62 99 181
61 98 180
61 98 179
61 98 177
62 98 174
62 99 179
62 98 176
61 98 176
61 97 174
61 98 176
62 99 177
61 97 176
62 98 174
61 97 173
62 98 174
62 98 176
60 94 168
122 146 129
167 190 47
171 194 0
171 194 0
173 195 0
172 195 0
172 195 0
174 195 0
170 194 0
172 195 0
135 139 51
126 121 59
128 123 62
129 125 64
140 135 72
141 135 75
132 128 66
139 134 73
141 136 80
137 132 78
127 124 73
139 135 84
143 139 80
138 135 81
143 139 80
136 134 85
136 132 84
143 140 89
133 130 83
136 134 86
147 143 91
145 142 91
142 138 86
134 133 89
144 141 91
147 143 94
146 144 96
140 138 91
139 138 92
149 146 98
146 145 98
136 135 91
147 145 97
139 138 95
153 151 102
148 146 98
147 146 98
150 148 100
150 147 98
157 155 105
147 144 98
151 149 102
152 151 102
153 151 102
155 154 105
154 152 103
159 156 104
156 155 104
162 159 106
162 159 106
157 155 105
164 160 107
158 156 105
158 155 104
161 158 106
164 161 107
154 153 103
164 161 108
162 160 108
166 164 109
164 161 108
165 162 108
165 162 108
166 163 108
162 160 109
173 169 111
165 163 109
168 165 110
167 164 109
168 165 108
168 164 109
171 167 110
173 169 110
171 167 109
172 168 111
172 167 108
169 166 110
170 166 110
172 168 111
172 168 111
171 167 111
172 168 110
172 168 110
173 168 110
173 169 110
171 168 110
169 165 109
168 165 108
171 166 108
172 168 110
173 169 109
175 171 112
174 169 110
173 169 108
170 167 109
174 170 110
176 170 112
169 165 108
173 168 108
169 166 107
172 168 111
174 169 109
167 163 107
178 172 112
170 166 109
171 167 108
172 167 108
176 170 109
167 163 103
171 167 106
171 167 109
173 168 110
171 165 106
167 162 104
166 161 104
174 168 106
171 166 106
172 166 104
172 167 107
169 163 105
175 168 107
167 162 104
162 157 97
164 159 101
160 154 97
163 159 99
163 158 99
158 152 91
164 159 99
162 156 96
161 155 97
156 152 93
162 157 99
162 157 94
157 153 93
162 157 95
159 154 95
155 150 92
162 156 92
154 148 90
158 152 89
164 157 95
151 146 84
155 149 87
147 141 84
148 141 77
140 136 80
146 140 83
145 140 78
143 137 80
141 135 75
155 147 81
143 137 70
134 129 67
143 136 72
163 181 32
173 196 0
173 196 0
171 195 0
172 196 0
173 196 0
173 197 0
175 197 0
174 197 0
174 197 0
174 197 0
171 194 0
170 194 0
173 196 0
173 197 0
172 196 0
173 197 0
175 198 0
171 195 0
174 197 0
170 194 0
172 196 0
173 197 0
175 198 0
173 197 0
172 195 0
174 197 0
173 197 0
175 198 0
173 197 0
174 197 0
174 197 0
175 198 0
173 196 0
172 196 0
174 198 0
174 197 0
175 198 0
172 196 0
173 196 0
170 194 0
175 198 0
171 195 0
171 195 0
174 197 0
173 196 0
172 195 0
172 195 0
173 196 0
173 196 0
172 196 0
175 198 0
174 198 0
173 196 0
175 198 0
172 196 0
175 197 0
173 195 0
173 196 0
173 196 0
173 197 0
173 197 0
171 194 0
174 197 0
174 198 0
173 197 0
173 197 0
172 195 0
175 198 0
173 197 0
174 197 0
174 197 0
172 196 0
171 195 0
174 197 0
174 197 0
172 196 0
170 193 0
171 195 0
169 193 0
174 197 0
173 196 0
174 197 0
174 197 0
174 197 0
172 196 0
172 195 0
174 197 0
173 196 0
173 196 0
174 197 0
172 195 0
172 195 0
173 196 0
173 196 0
171 194 0
174 197 0
171 194 0
175 198 0
172 194 0
173 197 0
173 196 0
171 195 0
172 196 0
175 198 0
174 197 0
171 193 0
171 196 0
171 195 0
171 194 0
173 195 0
172 195 0
173 196 0
174 196 0
176 199 0
173 196 0
173 196 0
174 197 0
172 195 0
173 195 0
174 197 0
169 193 0
173 196 0
171 195 0
171 195 0
173 196 0
173 196 0
174 197 0
171 195 25
114 141 136
62 99 177
62 99 175
62 99 177
62 99 180
62 99 180
62 99 178
62 99 177
62 99 179
62 99 176
62 99 178
62 99 181
62 99 179
62 99 180
61 98 176
61 98 179
62 99 179
62 100 181
61 99 179
62 99 180
61 99 179
62 99 181
62 99 179
61 99 181
62 99 181
62 99 181
62 99 181
61 99 181
62 99 180
62 99 180
62 99 181
62 99 180
61 99 181
62 99 181
61 99 181
61 99 180
61 99 181
62 99 181
61 99 181
62 99 181
62 99 181
61 98 181
62 99 181
62 99 181
61 99 181
61 99 181
61 99 181
61 99 181
62 99 181
62 99 181
62 99 181
61 99 181
61 99 181
61 98 181
62 99 181
62 99 181
61 98 181
62 99 181
61 99 181
61 99 181
61 99 181
61 98 181
62 99 181
61 99 181
62 99 181
62 99 181
61 99 181
62 99 181
61 99 181
61 99 181
62 99 181
61 98 181
61 98 181
62 99 181
61 99 180
61 99 181
61 98 179
61 99 181
62 99 180
62 99 181
61 98 181
62 99 180
61 98 180
62 99 181
61 99 179
62 99 180
61 99 181
61 99 178
62 99 179
61 98 179
62 99 178
62 98 179
61 98 178
61 99 180
62 98 177
62 99 177
61 98 175
62 98 177
62 98 176
62 99 179
61 98 176
61 98 176
61 97 174
62 98 176
61 98 176
62 97 172
61 97 175
81 112 164
156 179 76
172 194 0
173 195 0
171 193 0
173 195 0
174 196 0
171 194 0
167 189 16
127 123 53
132 127 66
132 127 66
139 135 76
131 127 68
139 133 70
145 139 80
141 136 76
143 138 78
143 138 81
141 135 82
134 131 79
136 133 78
142 138 83
137 133 83
129 126 75
123 122 81
134 131 80
142 139 84
148 144 93
137 135 89
132 131 86
136 133 87
139 138 92
151 148 97
142 140 92
146 143 95
137 135 93
137 135 90
146 143 95
142 140 94
142 140 95
143 141 96
136 135 92
143 141 95
140 139 95
142 141 95
146 143 96
147 145 98
150 148 101
144 143 97
155 152 103
153 152 104
152 149 100
157 154 104
147 145 99
150 149 100
157 155 103
157 155 105
156 154 104
158 155 103
163 160 108
158 156 105
158 155 104
163 160 107
163 160 108
160 158 106
169 166 110
161 159 106
162 160 108
164 161 109
168 164 108
164 160 107
165 162 107
170 166 110
168 164 110
166 163 109
168 164 109
167 163 108
168 165 110
169 166 109
169 166 110
172 168 111
170 167 110
173 170 111
171 167 110
171 167 108
172 168 110
169 166 110
175 170 110
169 165 108
175 172 113
172 168 109
173 169 112
174 170 110
171 168 110
175 170 112
175 170 111
174 169 111
170 167 108
173 170 112
173 169 109
173 169 110
170 166 108
174 169 110
173 168 109
173 169 109
171 167 108
174 169 110
171 167 106
175 170 111
170 165 108
173 169 109
169 164 106
171 166 106
170 165 104
171 166 108
172 167 109
170 166 108
176 170 109
174 169 109
169 165 106
171 166 106
167 161 104
175 169 108
169 164 103
171 165 104
166 161 103
167 162 104
163 158 100
170 164 105
163 158 98
168 163 103
168 163 102
159 154 95
167 161 102
162 156 96
167 161 101
162 156 93
159 153 94
156 150 92
155 150 93
163 158 94
167 161 100
168 161 100
166 160 100
162 156 91
157 151 88
160 154 90
158 151 91
150 146 83
154 149 81
159 152 88
158 152 90
150 144 80
148 141 84
148 142 81
146 140 73
148 143 80
147 141 80
143 136 72
141 135 71
136 130 71
138 132 70
119 114 57
151 162 42
172 196 0
173 196 0
173 197 0
174 197 0
173 196 0
173 196 0
175 197 0
172 196 0
171 195 0
173 196 0
172 196 0
174 198 0
173 197 0
174 197 0
175 198 0
172 196 0
173 197 0
174 197 0
174 197 0
172 196 0
174 196 0
174 197 0
173 197 0
173 196 0
171 195 0
171 194 0
173 197 0
175 198 0
173 197 0
174 197 0
174 197 0
171 194 0
172 196 0
171 195 0
173 196 0
174 197 0
171 195 0
173 197 0
173 196 0
174 197 0
172 195 0
173 196 0
174 197 0
174 196 0
173 196 0
173 197 0
173 195 0
172 196 0
174 197 0
173 197 0
173 196 0
173 197 0
174 197 0
175 197 0
173 197 0
173 196 0
176 199 0
172 196 0
175 198 0
173 197 0
172 195 0
172 197 0
172 196 0
173 196 0
174 197 0
172 195 0
171 195 0
172 196 0
172 195 0
173 196 0
175 198 0
175 198 0
172 196 0
173 195 0
171 193 0
174 198 0
171 195 0
174 197 0
173 197 0
172 196 0
172 195 0
175 198 0
175 198 0
172 195 0
172 196 0
172 195 0
170 194 0
174 198 0
171 194 0
173 196 0
173 196 0
175 198 0
175 198 0
173 196 0
174 196 0
175 198 0
174 198 0
172 194 0
171 194 0
174 197 0
172 196 0
173 196 0
171 195 0
172 195 0
169 193 0
172 195 0
173 196 0
172 195 0
175 198 0
170 194 0
174 197 0
174 197 0
173 197 0
170 194 0
173 197 0
172 196 0
175 198 0
172 196 0
172 195 0
172 195 0
173 196 0
173 196 0
174 197 0
172 196 0
170 194 0
174 196 0
164 188 57
95 124 157
62 99 179
63 100 180
62 99 176
62 99 176
62 99 177
62 99 179
62 99 177
63 99 179
63 100 180
61 99 180
62 99 180
61 98 178
62 99 180
61 98 178
62 99 180
62 99 180
62 99 179
61 99 180
62 99 180
61 99 181
62 99 180
61 99 179
62 99 179
62 99 181
62 99 180
61 99 180
62 99 180
62 99 181
62 99 181
61 99 181
61 99 180
62 99 181
62 99 180
61 99 181
62 99 181
61 99 181
61 99 181
62 99 181
62 99 181
62 99 181
62 99 181
62 99 181
61 99 181
62 99 181
61 99 181
61 99 181
62 99 181
61 99 181
61 99 181
62 99 181
61 99 181
62 99 181
61 99 181
62 99 181
62 99 181
62 99 181
62 99 181
61 99 181
62 99 181
61 99 181
61 99 181
62 99 181
61 98 181
61 99 181
61 99 181
62 99 181
62 99 180
62 99 181
61 99 181
61 99 181
61 98 181
61 99 181
62 99 181
62 99 180
62 99 181
62 99 180
62 99 180
61 99 181
62 99 179
62 99 180
62 99 180
61 98 180
62 99 181
62 99 180
61 98 179
62 99 180
62 99 180
62 99 180
61 98 179
62 99 179
61 99 178
62 98 178
62 98 176
61 98 177
61 98 176
62 99 180
62 99 179
62 98 178
63 99 178
62 99 177
61 98 176
62 99 175
62 99 178
62 99 178
61 97 174
62 98 175
61 97 173
59 94 167
64 99 166
142 166 106
168 190 0
168 192 0
170 192 0
172 194 0
172 195 0
158 172 36
132 127 61
130 124 66
129 124 60
136 130 61
133 128 69
136 131 73
132 127 74
131 125 73
133 129 74
148 142 83
130 127 71
129 127 71
140 136 83
135 131 85
135 133 81
137 134 86
130 127 78
126 123 74
132 129 82
125 124 82
136 134 90
147 144 94
137 135 89
151 148 98
134 132 89
135 133 89
131 129 88
137 136 91
136 134 90
138 137 93
145 143 95
150 148 100
139 138 94
149 146 96
138 137 94
149 147 100
142 141 97
148 147 99
148 146 100
148 147 100
154 152 102
150 148 101
157 154 104
149 148 101
151 148 100
155 153 104
153 151 102
156 154 104
149 148 101
160 156 104
160 157 105
163 160 107
160 157 106
158 155 104
162 159 107
158 156 105
161 158 105
162 160 107
163 160 107
163 160 107
164 162 108
164 162 108
164 161 109
163 161 108
165 162 107
162 160 107
164 161 106
167 165 108
169 166 108
164 162 108
171 168 109
170 166 109
170 167 111
173 169 111
172 168 111
171 168 111
172 168 111
171 168 111
174 169 110
174 170 111
171 168 110
173 169 110
173 170 113
171 168 111
171 167 109
171 167 108
171 167 109
175 170 113
173 169 110
172 168 110
175 171 112
173 169 108
175 171 111
173 169 108
174 170 111
177 171 111
171 166 106
173 169 110
174 170 108
167 163 106
174 168 109
175 171 112
173 169 109
175 170 110
172 168 109
173 169 109
169 165 108
172 166 106
170 166 107
172 167 108
171 166 107
168 163 103
170 165 105
173 168 107
175 170 108
164 160 104
171 165 103
164 160 104
163 158 99
168 163 106
165 160 99
171 166 106
168 163 101
162 158 101
164 159 101
157 152 92
157 153 93
165 159 99
168 162 101
166 159 101
166 159 98
159 154 91
160 154 94
154 149 90
159 154 93
155 149 90
157 151 91
156 150 90
157 151 88
150 145 86
157 151 87
166 159 93
157 152 84
154 148 88
153 147 78
158 152 85
151 145 85
136 132 73
156 148 85
149 143 80
144 138 73
145 138 74
132 126 72
140 134 70
137 131 69
144 148 53
174 196 0
171 196 0
173 197 0
174 196 0
173 196 0
173 196 0
174 197 0
172 195 0
171 196 0
175 198 0
175 198 0
174 197 0
174 197 0
173 197 0
172 196 0
175 198 0
175 198 0
171 195 0
174 198 0
172 196 0
172 196 0
175 198 0
173 196 0
174 197 0
171 195 0
173 196 0
172 196 0
172 195 0
174 197 0
170 193 0
175 197 0
173 197 0
169 193 0
172 197 0
174 197 0
172 197 0
175 198 0
173 197 0
174 197 0
173 196 0
173 197 0
174 197 0
173 197 0
174 197 0
174 197 0
172 196 0
175 198 0
174 197 0
171 194 0
171 195 0
174 197 0
173 196 0
173 196 0
174 198 0
173 196 0
176 198 0
174 197 0
171 195 0
172 195 0
176 198 0
173 196 0
173 197 0
174 197 0
171 194 0
173 196 0
173 196 0
170 193 0
174 198 0
173 196 0
172 196 0
174 197 0
172 196 0
174 198 0
172 196 0
173 196 0
171 194 0
172 195 0
172 196 0
172 195 0
171 194 0
172 196 0
170 193 0
175 198 0
170 194 0
175 198 0
173 196 0
172 196 0
173 197 0
172 196 0
173 196 0
170 194 0
175 198 0
173 197 0
175 198 0
171 195 0
174 197 0
174 197 0
176 199 0
172 195 0
172 195 0
171 195 0
171 193 0
173 196 0
173 196 0
173 196 0
173 196 0
173 196 0
173 196 0
171 195 0
171 194 0
173 196 0
170 194 0
173 196 0
171 194 0
169 193 0
168 192 0
173 196 0
171 194 0
173 196 0
172 195 0
171 195 0
171 195 0
169 193 0
175 198 0
173 196 0
147 170 99
81 113 163
63 99 177
62 99 180
63 100 180
62 99 178
62 99 178
62 99 177
62 99 177
62 99 181
62 99 179
61 99 177
62 99 178
62 99 176
62 99 180
62 99 178
62 99 179
62 99 180
62 99 181
62 99 179
62 99 180
62 99 181
63 100 181
61 99 181
62 99 180
62 99 181
62 99 180
62 99 181
61 99 181
62 99 181
62 99 181
61 98 181
62 99 180
61 99 181
62 99 180
62 99 181
61 98 181
62 99 181
61 99 181
62 99 180
62 99 180
61 98 181
62 99 181
61 99 181
61 99 181
61 99 181
61 99 181
61 99 181
62 99 181
61 99 181
62 99 181
62 99 181
61 99 180
62 99 181
61 99 181
61 99 181
62 99 181
61 99 181
61 98 181
61 98 181
61 99 181
62 99 181
61 98 181
61 99 181
61 99 181
61 99 181
61 99 181
62 99 181
62 99 181
62 99 181
61 99 181
61 99 180
61 98 180
62 99 181
62 99 181
61 99 181
62 99 180
61 98 181
62 99 181
62 99 181
61 99 181
62 99 181
62 99 181
62 99 180
62 99 180
61 98 180
62 99 181
61 98 180
62 99 180
61 98 180
61 99 180
61 98 178
62 99 178
61 99 179
61 99 178
61 98 175
61 98 179
62 99 178
62 99 181
61 98 178
62 99 179
62 99 179
62 99 178
62 99 178
62 98 177
61 97 174
61 98 176
61 97 175
61 98 178
61 97 172
61 98 176
61 96 170
61 96 170
109 136 143
168 190 27
171 194 0
169 192 0
172 195 0
148 158 45
127 123 54
125 121 56
122 118 62
134 129 63
128 123 66
127 122 70
141 136 81
134 130 72
127 124 75
132 127 75
134 130 80
147 142 89
135 132 85
141 138 85
133 131 82
129 126 80
136 133 85
132 131 81
138 135 87
131 129 82
133 131 84
141 139 92
139 137 88
128 127 86
135 135 93
141 140 92
134 133 90
140 139 95
142 140 95
137 136 93
138 137 93
145 143 97
139 138 95
150 148 100
139 137 94
149 147 100
140 139 95
148 146 99
143 142 96
149 147 100
148 146 100
147 145 96
155 153 103
147 146 99
156 154 103
147 146 99
153 150 100
159 157 107
156 153 103
153 151 103
152 151 102
159 156 104
160 157 105
156 154 104
158 155 104
160 158 107
165 162 107
159 157 106
165 161 106
157 154 103
167 164 110
166 164 109
169 165 108
165 162 107
165 163 109
164 161 106
168 165 109
167 164 109
169 166 110
169 166 109
168 165 108
169 165 108
172 169 110
171 167 108
171 167 109
173 168 110
170 167 111
172 167 109
171 167 108
172 167 110
172 168 111
172 169 109
173 169 111
174 170 111
175 170 111
174 170 112
171 167 109
175 170 109
171 167 108
171 168 110
172 167 108
173 167 108
173 168 109
172 167 109
176 171 111
171 167 106
167 163 106
168 164 107
176 170 109
173 170 112
173 169 109
170 166 108
170 165 105
172 168 109
172 167 109
171 165 106
174 169 110
170 166 106
175 169 108
172 167 108
168 164 104
166 161 102
169 165 106
170 164 105
167 163 103
170 165 105
168 163 104
165 161 102
173 168 106
169 162 101
167 163 101
163 158 99
167 161 101
165 160 101
162 157 97
172 165 100
163 157 96
169 163 100
167 161 98
162 157 95
163 156 94
164 157 96
163 157 93
157 151 90
159 155 92
162 156 89
157 151 94
163 157 97
156 151 90
156 151 90
160 154 92
155 149 87
156 150 89
155 149 90
154 146 87
160 153 84
155 150 84
145 139 77
159 152 85
142 136 75
145 139 69
143 136 75
148 141 80
138 132 67
132 127 63
127 122 62
174 195 16
174 197 0
173 196 0
172 195 0
173 196 0
174 196 0
172 196 0
173 197 0
175 198 0
173 197 0
174 197 0
172 196 0
173 197 0
169 192 0
174 197 0
173 197 0
175 198 0
171 195 0
173 197 0
174 197 0
172 196 0
173 197 0
175 198 0
170 194 0
173 197 0
171 195 0
175 198 0
175 198 0
172 195 0
174 197 0
175 198 0
175 198 0
174 197 0
174 198 0
170 195 0
172 196 0
173 196 0
173 196 0
174 197 0
173 196 0
175 198 0
174 197 0
174 197 0
170 194 0
174 197 0
171 195 0
173 196 0
174 197 0
173 196 0
172 196 0
175 198 0
174 197 0
173 196 0
173 196 0
173 196 0
173 196 0
174 197 0
172 196 0
173 195 0
173 196 0
175 198 0
173 197 0
174 197 0
173 197 0
171 195 0
173 196 0
173 197 0
172 196 0
171 194 0
171 195 0
173 196 0
173 197 0
172 196 0
174 197 0
172 195 0
173 196 0
169 192 0
173 196 0
174 197 0
173 196 0
175 198 0
174 196 0
175 198 0
173 196 0
172 195 0
172 196 0
173 196 0
172 196 0
171 195 0
173 197 0
173 196 0
173 196 0
170 194 0
174 197 0
173 197 0
171 195 0
176 199 0
172 196 0
173 196 0
170 193 0
171 194 0
172 196 0
175 198 0
173 196 0
173 197 0
174 196 0
172 196 0
174 197 0
173 196 0
172 195 0
174 198 0
174 197 0
173 197 0
172 196 0
173 197 0
171 195 0
172 195 0
173 197 0
171 194 0
170 193 0
173 196 0
172 196 0
172 195 0
173 197 0
140 165 111
72 106 161
62 99 174
61 98 172
62 99 176
62 99 178
62 98 172
62 99 180
62 99 177
62 99 179
62 99 177
62 99 180
62 99 179
62 99 176
62 99 179
62 99 180
62 99 180
62 99 181
62 99 179
62 99 181
61 99 181
61 99 180
61 98 179
61 99 181
61 98 180
60 98 181
61 99 180
62 99 181
62 99 181
62 99 179
62 99 181
62 99 181
61 99 181
62 99 181
62 99 181
61 99 181
62 99 181
61 99 181
61 99 181
61 99 180
62 99 181
62 99 181
62 99 181
62 99 181
61 98 181
62 99 181
62 99 181
62 99 181
62 99 181
62 99 181
61 99 181
61 99 181
61 98 181
62 99 181
62 99 181
61 98 181
62 99 181
61 99 181
61 98 181
61 99 181
61 99 181
62 99 181
61 99 181
62 99 181
62 99 181
62 99 181
61 99 181
61 99 180
61 99 181
61 99 181
61 99 181
62 99 181
61 99 181
61 99 181
61 99 180
61 99 181
62 99 181
61 99 179
62 99 181
62 99 180
62 99 181
62 99 180
61 99 181
62 99 181
61 98 179
62 99 180
62 99 181
62 99 179
61 99 180
62 99 181
62 99 180
62 99 179
62 99 181
62 99 179
61 98 178
62 99 180
62 98 177
62 99 179
62 99 179
62 98 176
61 98 180
62 99 176
62 99 175
62 98 174
62 99 176
61 98 176
61 98 175
61 98 177
62 99 175
60 96 173
61 98 176
61 97 174
61 97 173
61 97 170
61 97 172
88 117 156
166 189 47
169 190 0
171 193 0
133 135 49
127 122 52
134 128 63
135 130 72
128 123 61
136 132 76
137 133 72
132 128 70
128 124 73
140 135 76
135 131 79
139 134 80
136 133 80
137 133 82
142 139 86
128 126 75
121 119 79
138 135 83
135 133 85
134 132 86
132 129 83
139 136 87
136 134 85
132 130 88
134 132 89
131 130 88
131 129 85
138 136 88
137 136 91
140 138 92
139 138 94
140 138 94
136 135 93
146 144 97
146 145 98
133 132 91
146 144 98
138 137 94
143 141 95
145 144 99
153 151 102
151 149 101
154 153 105
147 145 98
148 147 99
157 155 104
150 149 103
148 148 102
146 144 98
156 154 105
152 150 102
163 160 106
154 152 102
163 159 105
157 155 104
162 160 107
158 156 105
161 158 104
163 160 106
156 154 102
164 161 108
162 160 106
163 160 108
158 155 103
168 165 110
170 166 109
170 168 111
167 164 110
170 166 110
164 162 106
175 171 113
169 165 108
170 166 110
169 166 109
168 165 108
174 169 110
171 167 108
172 169 110
173 169 110
174 169 110
176 171 111
173 169 110
173 168 106
174 168 108
173 169 110
175 170 109
172 169 109
173 168 108
173 169 108
175 170 109
168 165 109
173 169 110
176 171 110
178 172 113
171 166 108
171 167 107
173 168 109
171 166 106
174 168 109
171 167 108
173 168 106
171 166 108
169 165 107
172 167 106
172 167 104
171 166 107
172 167 106
170 165 104
173 168 106
173 169 109
170 165 106
170 166 104
168 163 106
164 160 99
169 164 101
170 166 102
165 160 102
171 166 103
164 159 99
165 160 102
168 163 104
162 158 99
168 162 101
171 165 103
170 164 101
168 162 103
157 152 90
169 162 100
168 163 104
163 157 95
165 160 98
162 156 95
168 161 100
160 155 96
165 159 97
155 150 87
155 150 87
160 155 93
158 153 86
161 154 90
158 152 92
161 154 87
159 152 90
157 151 87
166 159 89
145 140 80
152 146 82
145 140 80
142 136 75
159 152 85
144 138 78
144 138 79
146 139 75
137 131 73
140 134 71
138 133 68
131 126 65
165 182 28
174 197 0
173 196 0
174 196 0
176 198 0
173 197 0
171 194 0
173 196 0
172 196 0
172 195 0
172 196 0
173 197 0
173 196 0
174 197 0
172 195 0
172 195 0
173 197 0
173 197 0
174 197 0
172 195 0
175 198 0
170 195 0
174 197 0
171 195 0
173 197 0
174 198 0
173 197 0
174 197 0
173 197 0
175 198 0
173 197 0
172 195 0
174 198 0
172 196 0
172 196 0
173 196 0
173 196 0
175 198 0
171 195 0
174 197 0
175 198 0
175 198 0
171 195 0
174 197 0
173 197 0
172 196 0
174 198 0
173 196 0
171 194 0
172 195 0
175 198 0
174 197 0
170 194 0
170 193 0
172 196 0
173 196 0
173 196 0
173 196 0
172 196 0
173 196 0
173 196 0
171 195 0
170 193 0
173 196 0
174 197 0
170 193 0
174 197 0
172 196 0
173 196 0
175 197 0
174 197 0
175 197 0
172 196 0
175 198 0
173 196 0
173 196 0
173 196 0
172 196 0
174 197 0
174 197 0
172 196 0
173 196 0
172 195 0
174 196 0
171 195 0
173 197 0
175 198 0
171 194 0
171 194 0
174 197 0
175 198 0
172 196 0
175 198 0
174 197 0
173 196 0
173 197 0
171 194 0
168 191 0
173 196 0
172 195 0
172 195 0
169 193 0
173 197 0
172 195 0
172 196 0
174 197 0
174 197 0
171 194 0
172 195 0
172 196 0
172 195 0
171 195 0
171 194 0
173 197 0
170 194 0
172 196 0
171 194 0
171 194 0
171 194 0
172 195 0
174 196 0
171 194 0
168 192 25
113 140 141
62 98 173
62 99 179
62 99 178
62 99 177
62 99 176
62 99 178
62 99 179
62 99 177
62 99 178
62 99 179
62 99 178
61 99 178
62 99 180
62 99 181
61 99 180
62 99 178
62 99 179
62 99 180
62 99 176
62 99 181
62 99 178
62 99 181
62 99 181
62 99 181
61 98 180
61 98 181
62 99 181
62 99 181
62 99 181
61 99 181
62 99 181
62 99 181
61 99 181
62 99 181
62 99 181
62 99 181
62 99 181
62 99 181
62 99 181
62 99 181
61 99 181
61 99 181
62 99 181
62 99 181
62 99 180
62 99 181
62 99 181
61 98 181
61 98 181
62 99 180
61 99 181
62 99 181
62 99 181
62 99 181
61 98 181
62 99 181
61 98 181
61 99 180
62 99 181
62 99 181
61 99 181
62 99 181
62 99 181
61 98 181
61 99 181
62 99 181
61 99 181
61 98 181
61 99 181
62 99 181
62 99 181
62 99 181
61 98 181
62 99 181
62 99 181
61 99 180
61 98 180
62 99 181
61 99 181
61 99 181
61 98 180
62 99 181
62 99 180
62 99 181
61 99 180
62 99 180
62 99 179
61 99 180
61 99 180
61 98 179
62 99 179
62 99 180
61 98 177
62 99 180
62 99 178
62 99 180
62 99 179
61 98 177
61 98 176
62 99 178
62 99 180
62 99 180
61 98 177
62 99 177
62 99 180
62 98 173
62 98 176
62 98 176
62 99 176
61 96 171
62 98 176
62 99 177
61 97 172
61 97 174
61 97 174
60 95 168
74 107 167
157 179 66
169 189 25
130 124 60
132 126 66
139 133 73
133 128 67
132 128 69
127 123 61
142 136 76
132 128 72
136 133 74
138 134 77
130 126 75
134 131 81
139 135 81
134 131 78
122 118 73
129 126 78
131 128 81
145 141 90
139 137 90
127 125 76
136 133 86
139 136 89
135 132 86
140 138 90
130 129 85
132 129 85
128 127 84
133 132 90
138 136 91
144 142 98
132 131 87
131 131 90
133 132 92
142 140 95
138 138 96
145 143 97
141 140 97
139 139 95
135 134 92
133 134 93
151 149 101
151 148 99
145 144 97
149 148 101
149 147 100
144 143 99
156 153 102
152 151 103
149 148 99
154 152 101
155 153 105
161 158 106
154 152 102
160 157 105
161 158 103
160 157 105
166 162 106
163 161 109
164 161 108
160 157 103
162 160 106
164 161 107
159 157 105
157 155 104
161 159 105
167 163 108
166 164 108
162 159 107
170 166 109
165 162 105
169 166 108
168 165 109
172 168 111
171 168 110
172 167 110
174 169 110
171 167 108
170 167 110
172 167 108
171 167 111
173 169 108
176 171 111
172 168 108
173 169 110
174 169 110
167 163 106
177 172 110
175 170 112
173 169 109
176 171 110
174 169 109
174 170 110
174 169 108
172 169 108
173 170 109
170 166 107
175 169 110
174 170 107
172 168 110
175 169 106
171 166 107
166 162 104
172 168 108
171 166 108
170 165 103
173 168 107
171 165 102
170 166 105
171 166 103
171 166 107
169 165 102
171 167 106
171 166 105
167 162 104
169 164 104
172 166 102
171 166 104
167 162 103
172 166 106
167 163 103
165 160 98
168 163 101
173 167 105
166 161 102
162 157 96
168 162 99
168 163 101
164 158 99
159 153 95
164 159 99
167 161 101
168 162 100
163 158 97
169 162 99
163 158 93
169 162 99
156 151 90
155 149 86
160 154 95
163 156 94
162 155 95
155 148 88
149 143 83
154 149 87
150 145 82
147 140 77
157 152 86
155 149 88
149 143 81
149 142 80
149 143 80
153 147 84
144 138 79
145 138 70
139 133 73
142 136 70
135 129 70
145 158 34
175 198 0
174 197 0
174 197 0
172 196 0
174 197 0
176 198 0
172 195 0
173 197 0
173 196 0
172 196 0
175 198 0
173 196 0
173 197 0
175 198 0
174 197 0
173 197 0
171 196 0
171 195 0
173 197 0
174 197 0
172 195 0
174 197 0
174 198 0
172 196 0
174 197 0
173 197 0
174 197 0
172 196 0
174 197 0
171 194 0
173 197 0
175 197 0
174 197 0
174 197 0
172 196 0
173 197 0
171 195 0
175 198 0
175 198 0
174 196 0
173 196 0
175 198 0
172 195 0
175 198 0
173 196 0
174 197 0
173 197 0
174 197 0
173 196 0
170 194 0
172 196 0
174 197 0
175 198 0
171 196 0
173 195 0
171 195 0
174 197 0
172 196 0
172 195 0
171 194 0
171 195 0
170 194 0
172 195 0
170 194 0
172 196 0
174 198 0
169 193 0
173 196 0
172 196 0
174 197 0
172 196 0
174 197 0
170 193 0
171 194 0
174 198 0
173 197 0
170 194 0
170 193 0
171 194 0
171 195 0
173 197 0
172 196 0
172 196 0
172 196 0
170 194 0
171 195 0
170 193 0
175 198 0
175 197 0
174 197 0
173 197 0
173 196 0
172 196 0
172 196 0
173 196 0
168 192 0
171 194 0
173 197 0
169 193 0
171 195 0
174 197 0
173 196 0
171 194 0
173 197 0
168 192 0
167 191 0
170 193 0
171 195 0
172 195 0
173 196 0
172 196 0
172 195 0
173 196 0
175 198 0
171 194 0
171 194 0
172 196 0
168 192 0
175 198 0
170 192 0
170 194 31
106 134 150
62 99 176
62 98 172
63 99 176
62 99 177
62 99 175
62 99 177
63 100 179
63 100 178
61 99 179
63 100 181
61 98 174
62 99 180
62 99 180
62 99 180
62 99 180
63 100 180
61 98 179
62 99 180
62 99 180
62 99 179
62 99 180
62 99 180
62 99 180
62 99 179
62 99 180
62 99 180
62 99 180
62 99 181
61 99 179
62 99 179
62 99 180
63 100 181
62 99 180
62 99 181
61 99 181
62 99 181
62 99 181
61 99 181
61 98 180
62 99 181
62 99 181
62 99 181
62 99 181
61 99 181
62 99 181
62 99 181
62 99 181
62 99 181
62 99 181
62 99 181
61 99 181
62 99 181
61 99 180
61 99 181
61 98 180
61 99 181
61 98 181
62 99 181
62 99 181
61 99 180
61 99 181
61 98 181
61 99 181
61 99 181
62 99 181
61 99 181
61 99 180
61 99 181
62 99 181
61 99 181
62 99 181
61 99 181
62 99 181
62 99 181
61 99 181
62 99 181
61 99 181
62 99 180
62 99 181
61 99 181
62 99 179
61 98 181
62 99 181
62 99 180
62 99 181
62 99 180
61 99 181
61 99 179
62 99 179
62 99 180
62 99 178
61 98 177
61 98 177
61 99 179
62 99 181
61 98 178
62 99 181
61 98 176
62 99 178
62 99 176
62 99 178
61 98 178
62 99 177
61 97 174
62 99 177
62 99 179
62 99 179
62 99 175
61 98 177
61 97 171
62 98 176
62 98 175
62 99 178
62 98 174
62 99 178
62 98 175
60 95 167
60 96 169
65 100 169
129 146 80
131 127 62
118 113 63
125 121 61
131 127 58
126 121 68
141 135 76
129 126 69
136 130 74
132 128 71
140 135 78
123 121 73
128 125 75
139 135 82
132 128 82
123 121 74
130 129 81
142 139 89
138 135 84
143 140 88
130 128 84
132 130 84
127 126 84
137 135 91
136 134 88
124 124 84
144 142 95
128 126 86
137 135 91
137 136 90
142 140 94
131 129 87
137 136 95
140 138 92
132 132 91
145 143 97
133 133 91
139 138 95
142 141 97
145 144 98
150 147 97
139 138 96
139 138 94
140 141 99
143 143 98
148 146 99
159 156 106
153 151 103
148 147 100
153 151 102
153 151 101
155 152 102
160 157 105
158 156 104
156 154 103
155 153 104
162 159 107
163 160 106
161 158 105
159 157 105
163 159 105
164 161 106
161 158 105
169 166 106
159 157 105
163 160 104
164 161 106
167 164 109
168 164 109
173 168 110
170 166 109
173 168 111
167 163 108
170 167 110
172 168 108
173 168 110
164 161 106
170 167 110
166 163 107
171 167 109
173 169 111
169 166 108
173 169 111
172 167 107
175 170 111
172 168 110
173 169 110
174 170 110
170 166 110
174 170 111
176 170 110
172 169 110
174 169 108
175 171 110
176 171 111
175 169 109
173 169 109
174 169 109
172 167 108
170 167 108
173 168 106
175 170 109
173 168 110
173 168 108
172 167 106
171 167 108
166 161 102
174 168 107
171 166 103
169 165 102
166 160 97
172 168 107
173 168 106
168 162 102
170 165 103
171 166 105
175 169 105
168 164 104
164 160 101
174 167 103
171 167 106
170 164 102
168 162 101
160 155 93
168 162 102
168 162 100
171 165 99
169 163 103
168 162 99
164 158 97
166 160 100
158 153 93
161 155 96
167 161 96
169 162 100
165 159 97
167 161 97
163 157 91
161 155 94
153 148 85
160 155 93
150 146 84
151 146 86
154 149 83
155 150 86
156 150 87
147 141 80
153 146 84
143 139 75
149 143 81
153 147 79
148 143 77
139 133 78
142 135 68
144 138 77
142 136 75
137 131 67
132 126 61
142 150 45
175 198 0
173 196 0
173 195 0
174 197 0
172 195 0
174 197 0
173 195 0
175 197 0
174 198 0
173 195 0
173 197 0
172 196 0
175 198 0
175 198 0
174 197 0
173 196 0
173 196 0
172 196 0
174 197 0
175 198 0
173 196 0
170 194 0
173 197 0
173 197 0
174 197 0
174 197 0
173 197 0
172 195 0
171 195 0
172 196 0
173 196 0
172 195 0
175 198 0
173 197 0
172 195 0
175 198 0
171 195 0
174 198 0
170 194 0
173 197 0
175 198 0
174 197 0
174 198 0
172 196 0
174 197 0
172 195 0
175 198 0
173 197 0
174 198 0
171 195 0
173 196 0
174 197 0
173 196 0
174 198 0
173 196 0
172 195 0
174 197 0
172 196 0
173 196 0
172 195 0
172 196 0
174 198 0
173 196 0
173 197 0
173 197 0
174 197 0
172 195 0
171 194 0
172 195 0
172 196 0
173 196 0
171 195 0
173 196 0
173 196 0
174 198 0
175 198 0
173 196 0
173 197 0
174 197 0
173 196 0
171 195 0
173 196 0
171 195 0
172 195 0
174 197 0
174 197 0
173 197 0
173 197 0
174 196 0
172 196 0
171 194 0
172 195 0
173 196 0
173 196 0
171 194 0
172 195 0
173 197 0
173 195 0
172 195 0
170 194 0
173 196 0
172 195 0
173 196 0
172 196 0
172 195 0
172 196 0
170 194 0
168 191 0
173 196 0
172 195 0
169 193 0
173 195 0
172 196 0
171 194 0
172 196 0
172 195 0
172 196 0
173 196 0
172 196 0
165 189 44
103 131 149
63 100 178
62 98 175
63 99 178
63 99 173
61 98 173
62 99 177
62 99 179
63 99 176
62 99 177
62 99 179
62 99 180
61 98 179
62 99 178
62 99 179
63 99 179
61 98 179
62 99 181
62 99 179
62 99 180
62 99 181
62 99 179
62 99 179
62 99 181
62 99 181
61 99 181
62 99 180
62 99 181
61 99 180
62 99 181
62 99 180
62 99 181
62 99 179
62 99 181
62 99 180
62 99 181
61 99 181
62 99 181
62 99 180
62 99 180
62 99 180
62 99 181
62 99 180
62 99 181
62 99 181
61 99 181
62 99 181
62 99 180
62 99 180
62 99 181
61 99 181
61 99 181
61 99 180
62 99 181
61 99 181
61 99 181
62 99 180
62 99 181
62 99 181
62 99 181
62 99 180
62 99 181
62 99 181
61 99 181
62 99 181
61 99 181
62 99 181
61 99 181
62 99 181
61 99 181
61 99 181
62 99 181
62 99 180
61 99 181
61 99 181
61 99 181
62 99 181
62 99 180
62 99 180
62 99 180
62 99 180
61 99 181
62 99 179
62 99 181
61 99 180
62 99 181
61 99 181
62 99 180
62 99 179
62 99 180
61 99 179
62 99 180
62 99 179
61 99 181
62 99 180
62 99 180
62 99 180
61 98 177
62 99 179
62 98 177
62 99 178
62 99 180
62 99 179
62 99 180
62 99 179
62 99 178
62 99 177
62 98 176
62 99 179
61 98 177
62 98 177
61 98 176
63 100 178
62 98 175
61 97 171
61 97 175
61 98 176
62 98 174
61 98 175
61 97 172
62 98 175
60 95 166
106 112 112
124 119 63
127 121 60
126 123 65
123 119 63
142 137 76
123 121 73
137 132 72
140 136 80
126 122 74
134 131 79
135 131 84
123 120 78
130 127 80
126 124 77
137 134 84
129 127 82
121 120 77
128 126 81
131 129 84
125 124 85
128 127 85
128 126 85
135 134 89
134 132 89
105 108 76
138 136 90
121 121 82
132 131 87
129 128 87
128 127 88
134 132 90
131 131 89
133 131 90
126 128 89
137 137 96
140 139 95
142 142 97
146 144 98
135 136 93
145 143 97
144 142 97
145 145 100
157 155 104
147 145 98
148 147 101
157 155 104
150 149 101
154 152 101
154 152 102
150 149 101
151 149 100
163 159 106
158 155 104
151 150 102
155 153 104
165 162 106
161 159 107
166 163 108
166 163 108
162 159 106
162 159 106
160 158 103
167 164 108
163 160 106
167 164 108
165 162 104
169 165 108
170 165 108
168 164 108
166 162 106
170 166 108
169 166 109
168 165 108
170 167 110
171 167 108
171 168 109
169 165 107
173 169 109
174 170 110
177 172 109
174 169 111
169 165 104
175 171 112
174 170 108
175 170 110
173 170 111
174 170 112
172 168 108
173 168 107
174 169 110
171 167 107
171 169 110
173 169 107
175 169 108
175 170 108
173 168 109
174 169 106
172 168 109
173 168 106
179 172 111
173 168 108
172 167 106
176 170 108
169 164 105
174 169 108
175 169 106
170 165 104
170 165 103
176 170 108
168 164 106
169 164 101
173 167 107
167 162 102
171 165 104
175 169 109
166 162 103
175 168 105
174 168 104
164 159 98
169 164 103
168 163 101
169 163 102
170 164 103
171 166 104
165 159 97
170 165 101
162 158 95
168 163 101
155 150 95
164 159 96
159 153 90
166 160 99
165 159 96
158 153 93
161 155 93
163 157 94
159 154 91
163 157 94
162 156 95
157 152 90
153 147 86
153 148 86
155 149 88
153 147 80
157 151 86
150 144 81
151 145 75
146 140 80
149 144 77
151 143 82
149 143 77
143 137 74
136 132 67
138 131 71
127 122 63
136 131 63
133 132 57
172 196 0
173 196 0
175 198 0
175 197 0
174 196 0
175 197 0
174 197 0
174 197 0
172 196 0
172 196 0
173 196 0
172 195 0
173 197 0
172 196 0
175 198 0
175 198 0
175 198 0
174 197 0
174 197 0
171 194 0
173 196 0
174 197 0
174 197 0
172 196 0
174 198 0
174 197 0
170 194 0
172 196 0
171 195 0
173 197 0
174 197 0
173 196 0
172 196 0
173 196 0
173 197 0
173 197 0
176 198 0
175 198 0
171 195 0
173 197 0
174 198 0
171 195 0
170 193 0
173 196 0
171 195 0
173 197 0
170 193 0
173 196 0
173 195 0
174 198 0
174 198 0
175 198 0
172 195 0
172 195 0
172 196 0
174 196 0
172 196 0
175 197 0
175 197 0
173 197 0
171 196 0
172 195 0
172 195 0
173 196 0
171 194 0
171 195 0
172 196 0
175 198 0
172 195 0
173 197 0
172 195 0
175 198 0
172 195 0
172 196 0
172 196 0
172 195 0
173 197 0
173 196 0
172 196 0
174 197 0
174 198 0
174 197 0
172 196 0
174 197 0
173 197 0
171 195 0
174 197 0
172 196 0
169 194 0
171 195 0
173 196 0
172 196 0
171 194 0
171 194 0
172 195 0
172 195 0
173 197 0
171 195 0
173 197 0
173 197 0
173 197 0
174 197 0
172 195 0
171 195 0
173 197 0
173 197 0
173 196 0
171 194 0
170 194 0
170 194 0
172 195 0
172 196 0
172 194 0
173 197 0
173 196 0
175 198 0
173 197 0
171 195 0
167 191 36
95 124 149
63 99 174
62 99 173
63 100 177
62 99 176
63 100 179
62 99 174
62 99 178
62 99 179
61 99 178
62 99 178
62 99 176
63 99 178
61 98 177
62 99 179
62 99 174
61 98 178
62 99 179
62 99 179
61 98 178
62 99 179
62 99 181
62 99 179
62 99 181
62 99 177
62 99 179
62 99 181
61 98 179
61 98 179
61 98 180
62 99 181
62 99 180
62 99 181
62 99 181
62 99 181
62 99 180
62 99 181
62 99 181
62 99 180
62 99 180
62 99 181
62 99 181
62 99 181
62 99 181
62 99 181
62 99 181
62 99 180
62 99 181
62 99 181
61 99 181
61 98 181
62 99 181
61 98 181
62 99 181
62 99 181
62 99 181
62 99 181
62 99 181
61 98 181
62 99 181
61 99 181
62 99 181
62 99 180
62 99 180
62 99 181
62 99 181
61 99 181
62 99 181
62 99 180
62 99 180
61 99 181
61 98 181
61 98 181
61 99 181
61 99 179
61 99 179
61 98 181
61 99 181
61 98 179
61 98 180
61 98 180
62 99 181
62 99 181
62 99 180
62 99 181
62 99 181
62 99 180
62 99 181
62 99 181
61 98 179
62 99 180
62 99 180
62 99 180
62 99 180
62 99 180
62 99 180
61 98 180
62 99 181
62 99 178
61 98 178
61 98 174
62 98 179
62 99 178
62 99 181
61 98 178
62 99 180
61 98 177
61 97 178
60 97 174
61 98 176
61 98 174
62 98 177
61 98 176
62 98 174
62 99 179
61 98 176
62 98 174
61 98 175
62 98 174
61 97 174
61 96 169
61 96 170
59 95 167
60 94 165
100 105 103
119 116 60
133 128 70
119 115 60
124 121 67
130 126 75
138 135 73
123 119 67
129 127 76
131 128 74
134 130 81
141 137 86
129 126 78
127 123 74
129 126 81
131 130 82
118 118 77
131 129 83
122 121 79
134 132 85
126 125 79
129 128 85
123 123 83
129 128 86
125 124 82
125 125 85
124 123 83
126 126 85
133 132 88
131 131 91
127 128 88
138 137 95
137 136 92
138 137 93
136 135 90
138 137 93
139 137 93
129 129 91
140 139 96
137 138 94
141 140 96
148 147 100
146 145 100
144 142 97
146 144 98
135 135 95
148 147 101
148 147 100
148 146 99
159 156 105
154 153 102
152 151 103
158 155 103
154 152 102
159 157 106
159 155 101
151 149 98
160 157 105
149 148 101
167 164 106
161 158 105
166 162 107
163 160 105
166 163 108
165 162 107
165 162 105
168 165 108
160 158 104
167 165 109
175 170 111
166 163 105
170 166 108
170 166 108
170 166 108
166 163 109
170 166 108
173 168 109
172 168 110
174 169 108
171 167 109
172 168 107
172 168 108
176 171 110
173 168 107
174 170 110
172 168 108
173 169 109
172 168 110
175 170 108
174 169 111
174 170 109
173 168 108
172 168 108
173 169 107
176 170 110
167 164 104
174 168 106
177 171 109
174 169 107
173 168 107
176 171 110
169 165 105
170 166 104
175 170 109
175 169 106
170 165 105
171 166 104
170 165 103
169 166 103
173 167 105
171 166 104
169 164 103
169 164 103
169 164 102
170 165 103
170 165 103
171 166 103
171 166 105
168 163 102
167 162 101
175 170 108
164 159 97
169 164 103
166 161 97
166 161 98
164 159 99
167 161 98
163 158 97
170 163 99
168 161 97
159 154 90
170 164 102
160 154 92
159 154 90
161 156 93
162 156 92
159 153 90
161 156 93
162 155 92
151 146 78
157 151 80
152 146 83
154 147 84
152 146 80
153 147 82
153 147 84
153 147 84
148 142 77
150 144 84
139 132 70
148 142 77
138 132 69
132 127 59
132 127 64
144 138 72
142 135 73
126 122 45
169 192 11
173 197 0
171 194 0
173 196 0
174 198 0
174 197 0
172 196 0
173 197 0
174 197 0
173 197 0
172 196 0
173 197 0
175 198 0
173 197 0
174 197 0
174 197 0
173 197 0
174 198 0
173 196 0
171 195 0
172 196 0
173 197 0
172 196 0
173 196 0
172 195 0
171 194 0
174 197 0
175 198 0
174 197 0
174 197 0
173 197 0
174 197 0
173 197 0
174 198 0
174 197 0
173 196 0
173 196 0
174 197 0
175 198 0
175 198 0
172 195 0
174 197 0
172 195 0
171 195 0
172 196 0
171 195 0
174 198 0
172 195 0
168 192 0
174 197 0
172 196 0
173 196 0
175 198 0
173 196 0
173 197 0
172 196 0
171 195 0
173 196 0
173 197 0
170 194 0
174 196 0
172 195 0
172 195 0
172 195 0
173 197 0
171 195 0
171 195 0
173 196 0
174 197 0
174 197 0
175 198 0
172 195 0
170 193 0
173 196 0
173 196 0
174 198 0
174 197 0
173 196 0
174 197 0
173 197 0
171 195 0
172 196 0
169 192 0
174 196 0
173 196 0
173 196 0
172 196 0
174 196 0
174 197 0
173 197 0
173 196 0
173 197 0
170 194 0
173 196 0
172 195 0
171 195 0
173 197 0
173 196 0
172 196 0
172 196 0
174 196 0
171 195 0
174 197 0
173 196 0
172 196 0
172 196 0
171 194 0
174 197 0
172 196 0
170 193 0
173 196 0
174 197 0
170 194 0
173 196 0
171 195 0
171 194 0
171 194 0
160 183 72
83 115 160
62 98 168
62 99 171
62 99 174
62 99 174
62 99 177
62 99 177
62 99 174
62 99 180
63 99 177
63 99 177
62 99 179
62 99 176
62 99 179
62 99 177
62 99 177
62 99 179
62 99 178
62 99 179
62 99 179
62 99 180
62 99 179
62 99 181
62 99 180
61 98 178
62 99 180
62 99 180
62 99 180
62 99 181
61 99 181
61 99 181
62 99 179
62 99 181
61 98 180
62 99 181
62 99 181
62 99 181
62 99 180
62 99 181
61 99 181
62 99 179
62 99 181
62 99 181
61 99 181
62 99 181
62 99 181
62 99 181
62 99 180
62 99 180
62 99 181
61 99 181
62 99 180
62 99 181
62 99 181
62 99 181
62 99 181
61 99 181
61 99 181
62 99 181
61 99 180
62 99 181
61 99 180
62 99 181
62 99 181
61 99 180
62 99 181
62 99 181
62 99 181
61 99 180
62 99 181
61 99 181
62 99 180
61 99 181
62 99 181
61 98 180
62 99 181
61 99 181
61 99 180
62 99 181
61 99 178
61 98 181
62 99 181
62 99 181
61 99 181
62 99 180
61 99 180
61 99 179
61 98 179
62 99 178
62 99 181
62 99 180
61 98 176
63 100 181
62 99 179
62 99 177
62 99 180
61 99 180
62 99 180
62 99 181
61 99 179
62 99 178
61 98 176
61 98 178
62 99 178
61 99 178
62 99 178
62 99 178
62 99 176
61 98 175
62 99 177
61 98 176
61 98 177
62 99 178
62 99 178
62 98 175
62 99 174
62 98 176
62 98 176
61 97 173
61 97 175
60 96 168
61 97 172
61 97 173
62 98 174
60 95 167
60 94 166
108 115 120
142 136 72
126 122 65
125 121 63
128 124 70
136 131 73
132 129 74
120 118 65
119 116 65
120 117 68
133 129 79
131 129 79
125 123 74
122 120 78
125 123 79
106 107 71
129 128 85
122 122 83
129 127 84
126 125 85
127 125 84
129 127 86
126 126 83
127 127 88
129 130 91
132 131 89
119 120 82
130 130 86
140 138 93
133 133 92
138 137 94
132 132 91
135 135 94
136 134 90
132 132 93
140 138 94
140 139 94
147 146 99
133 132 92
148 147 101
148 146 99
142 142 97
147 145 98
142 141 96
146 145 100
154 152 103
147 145 100
150 149 100
154 151 100
137 137 93
158 155 101
151 149 99
158 155 102
162 159 106
156 153 101
158 154 102
161 158 104
162 158 102
163 161 107
162 159 107
158 156 104
167 164 108
161 158 107
163 160 106
162 159 104
163 160 107
170 166 108
169 165 107
170 166 108
164 161 107
166 163 104
173 168 108
172 169 110
167 163 107
168 164 104
169 166 106
173 168 108
170 166 107
170 166 107
173 168 106
175 170 110
176 171 112
169 166 107
174 169 109
176 172 112
175 170 110
175 171 110
176 170 108
173 169 108
174 169 108
177 171 108
176 171 109
174 169 110
174 169 109
171 166 103
173 168 104
178 172 110
172 168 105
174 169 109
174 168 106
176 171 110
176 170 108
173 168 105
169 164 101
169 165 106
173 168 108
170 166 104
178 172 110
172 166 103
171 167 107
169 164 104
173 167 106
172 166 104
169 164 104
172 166 104
169 164 103
167 163 98
167 161 99
170 164 103
173 166 101
164 159 99
166 161 99
165 160 94
169 164 97
164 158 98
160 156 95
167 161 98
166 160 97
164 159 96
161 155 93
164 158 94
166 160 96
164 158 93
164 158 94
157 152 89
162 157 92
154 149 84
158 153 87
156 150 90
161 154 89
156 150 86
160 154 89
155 149 87
158 152 86
154 147 81
154 148 83
149 143 80
160 153 87
152 145 80
138 133 67
144 138 74
148 141 76
138 133 69
136 130 68
136 131 64
120 115 56
168 187 30
173 195 0
172 194 0
173 197 0
173 195 0
176 199 0
177 199 0
175 197 0
171 195 0
173 197 0
171 195 0
171 196 0
173 196 0
171 195 0
172 196 0
173 197 0
173 196 0
173 197 0
174 197 0
174 198 0
174 197 0
173 196 0
169 193 0
171 195 0
173 196 0
171 195 0
173 196 0
173 196 0
172 196 0
173 196 0
173 196 0
170 193 0
173 197 0
172 196 0
172 196 0
176 198 0
172 195 0
171 195 0
171 194 0
171 195 0
172 196 0
174 198 0
172 196 0
171 194 0
174 197 0
174 197 0
172 196 0
173 196 0
173 196 0
173 197 0
175 197 0
173 197 0
172 196 0
173 196 0
175 198 0
172 195 0
172 196 0
173 195 0
171 195 0
171 194 0
173 196 0
171 194 0
171 195 0
168 192 0
172 195 0
170 193 0
172 196 0
175 198 0
173 196 0
175 198 0
174 197 0
172 196 0
172 194 0
172 196 0
171 194 0
174 197 0
172 195 0
172 195 0
172 195 0
172 195 0
172 195 0
173 195 0
171 194 0
170 194 0
169 193 0
173 197 0
172 195 0
171 194 0
171 194 0
169 194 0
172 195 0
172 195 0
173 197 0
173 196 0
172 194 0
170 194 0
170 194 0
172 195 0
173 196 0
174 197 0
171 195 0
173 196 0
171 195 0
172 196 0
175 198 0
173 196 0
171 194 0
174 197 0
172 195 0
171 195 0
170 194 0
173 196 0
170 194 0
169 193 0
173 196 0
175 198 0
169 193 36
84 115 159
62 99 172
62 99 175
61 98 174
62 99 172
62 99 176
62 99 174
62 99 170
61 98 174
62 99 177
62 98 174
62 99 178
62 99 179
62 99 176
62 99 181
62 99 179
62 99 179
62 99 179
62 99 181
61 99 178
61 99 180
62 99 179
62 99 181
62 99 178
62 99 180
62 99 181
62 99 181
62 99 181
62 99 180
61 98 178
62 99 179
62 99 181
62 99 181
62 99 180
62 99 179
62 99 180
62 99 180
62 99 181
62 99 181
62 99 181
62 99 180
61 99 180
62 99 180
62 99 180
62 99 181
61 98 181
62 99 181
61 98 181
61 99 181
61 99 181
61 99 181
62 99 181
62 99 181
62 99 181
61 98 181
62 99 181
62 99 181
62 99 181
62 99 181
62 99 181
62 99 181
62 99 181
62 99 181
62 99 180
62 99 181
61 99 180
62 99 180
62 99 177
62 99 181
61 99 181
62 99 180
61 98 180
62 99 181
62 99 181
62 99 181
62 99 181
62 99 180
61 99 180
62 99 181
62 99 181
62 99 180
62 99 180
61 99 180
62 99 180
61 98 180
61 99 180
61 99 179
61 99 181
62 99 179
62 99 181
62 99 179
61 98 179
61 98 178
62 99 180
62 99 180
62 99 180
61 99 181
62 99 180
61 98 178
62 99 180
61 99 177
62 99 178
62 99 179
61 98 174
61 99 177
61 98 178
62 98 177
62 99 179
62 98 176
61 98 176
62 99 178
61 98 175
61 98 173
62 99 179
62 99 178
62 98 176
60 97 174
61 97 171
62 99 177
61 97 170
61 97 172
62 98 176
61 97 172
61 96 166
61 97 173
61 97 170
60 95 168
60 96 169
107 112 104
133 128 71
139 133 78
132 127 73
139 134 80
134 130 73
124 121 74
122 120 75
124 122 75
127 124 76
121 118 74
124 123 76
129 126 77
121 118 73
132 130 82
111 111 73
127 125 81
123 121 78
117 118 78
131 130 88
130 128 86
114 115 81
133 132 92
131 131 88
133 132 88
124 124 85
133 133 91
131 131 92
120 121 84
134 133 91
133 132 89
142 140 95
132 131 91
135 135 93
139 138 95
139 138 93
126 127 90
142 140 95
140 140 95
141 139 95
143 142 97
149 147 100
136 137 94
147 147 101
141 142 99
146 146 100
154 152 101
153 152 101
158 156 104
152 150 100
160 157 105
157 155 103
155 154 105
149 148 100
157 154 104
161 159 106
165 162 107
166 163 107
161 159 105
156 154 102
163 160 105
163 160 105
163 160 104
169 165 107
163 160 105
168 164 109
169 165 108
168 164 107
167 164 108
165 162 106
170 166 108
172 167 108
167 164 107
172 168 108
168 164 108
174 169 110
173 169 108
170 166 106
173 168 108
172 168 109
175 170 109
172 168 108
173 168 106
172 168 110
172 166 105
177 171 110
168 165 105
176 170 109
175 170 110
176 171 110
179 173 111
171 166 104
175 170 108
177 170 108
176 171 107
174 169 110
173 168 108
172 167 105
171 167 106
173 168 106
175 169 107
174 169 106
173 167 106
175 170 108
172 167 103
177 171 109
168 163 99
175 169 106
173 168 104
167 163 101
171 166 104
168 163 101
169 163 99
173 167 105
171 165 101
169 164 102
167 161 102
169 163 100
163 157 99
167 162 100
165 159 97
162 157 97
168 162 98
167 161 99
164 159 96
165 159 99
168 162 101
166 160 96
162 157 93
166 159 94
159 153 90
163 158 97
159 154 91
163 155 93
162 155 93
160 155 93
158 153 86
160 154 95
165 158 93
152 147 85
153 147 82
159 152 87
153 147 84
143 138 75
145 139 80
155 148 84
150 143 81
151 145 81
145 139 75
143 138 72
129 123 64
146 140 76
129 124 59
141 135 70
124 120 51
157 171 37
174 197 0
174 197 0
173 197 0
173 197 0
173 195 0
173 197 0
173 197 0
173 197 0
172 196 0
175 198 0
174 198 0
173 196 0
173 197 0
173 197 0
174 197 0
176 198 0
173 196 0
173 197 0
174 198 0
173 197 0
175 198 0
174 197 0
170 193 0
175 198 0
171 194 0
170 194 0
172 196 0
174 197 0
172 196 0
171 194 0
174 197 0
173 197 0
173 196 0
175 198 0
176 198 0
169 194 0
173 197 0
170 194 0
173 197 0
173 196 0
173 197 0
172 196 0
174 197 0
175 198 0
169 193 0
171 195 0
172 196 0
175 198 0
175 198 0
170 194 0
172 195 0
173 197 0
173 196 0
172 195 0
171 194 0
173 197 0
172 195 0
172 195 0
175 198 0
171 195 0
174 197 0
173 197 0
173 197 0
172 196 0
173 197 0
173 196 0
173 196 0
171 195 0
175 197 0
170 194 0
174 197 0
170 192 0
173 197 0
173 197 0
172 196 0
175 198 0
173 197 0
173 196 0
171 195 0
173 197 0
170 193 0
175 198 0
174 197 0
173 196 0
172 195 0
176 198 0
175 197 0
174 197 0
171 195 0
170 194 0
172 195 0
172 195 0
173 197 0
172 197 0
172 196 0
171 194 0
172 196 0
172 196 0
168 191 0
171 195 0
172 195 0
170 194 0
170 193 0
172 195 0
170 194 0
173 196 0
173 197 0
173 196 0
172 195 0
170 193 0
171 194 0
173 197 0
172 195 0
172 196 0
161 184 54
77 110 164
62 99 172
62 99 172
62 99 176
61 98 176
62 98 172
61 98 173
63 99 178
62 99 176
62 99 177
62 99 177
62 99 180
62 99 175
62 99 177
62 99 180
62 99 180
62 99 178
62 99 179
62 99 180
62 99 176
61 98 179
61 99 181
62 99 178
62 99 181
62 99 178
61 98 177
62 99 181
63 100 181
62 99 180
62 99 180
62 99 180
61 99 180
62 99 181
62 99 181
62 99 180
62 99 181
62 99 181
62 99 181
62 99 181
62 99 180
61 99 181
61 99 180
62 99 180
62 99 181
62 99 180
62 99 181
61 99 180
62 99 181
62 99 181
61 99 180
62 99 180
61 99 181
61 99 180
62 99 181
62 99 181
61 99 181
61 99 181
62 99 180
62 99 179
61 99 180
62 99 180
62 99 181
62 99 181
62 99 181
61 98 179
62 99 180
62 99 180
62 99 180
62 99 179
61 98 181
61 99 181
62 99 181
62 99 179
61 99 181
62 99 181
62 99 181
61 99 180
63 100 181
62 99 181
62 99 180
62 99 181
61 99 181
61 99 181
62 99 181
62 99 180
62 99 180
62 99 181
62 99 181
62 99 180
61 99 180
62 99 180
62 99 180
62 99 181
62 99 181
62 99 180
62 99 180
61 99 181
62 99 179
62 99 180
62 99 178
61 98 176
62 98 177
62 99 180
62 99 179
62 99 177
62 99 178
61 98 177
61 98 177
62 99 179
61 98 176
62 99 178
61 98 178
62 99 179
61 98 174
61 98 177
62 99 176
61 98 176
60 97 172
62 99 176
62 98 178
62 98 175
62 98 175
60 96 172
61 97 169
61 98 176
60 95 169
61 96 171
61 95 164
61 96 168
60 93 163
109 115 115
135 131 71
139 134 77
127 124 70
128 124 76
121 119 67
125 122 68
125 122 75
131 128 79
125 123 79
124 123 79
120 119 76
126 124 81
110 109 69
116 116 78
132 131 86
127 125 84
121 121 82
116 116 81
131 130 87
125 125 82
132 130 88
125 126 87
141 139 94
131 130 87
119 121 85
119 119 83
122 124 88
128 130 93
136 136 95
136 135 93
136 136 94
129 129 88
130 131 93
135 136 95
141 139 95
145 143 98
130 129 91
141 140 96
145 144 98
138 138 97
143 141 95
148 147 100
148 147 101
138 136 93
149 147 100
156 154 103
155 152 103
151 149 102
156 153 102
156 154 104
153 151 101
151 150 102
157 154 100
163 159 106
156 154 103
163 160 107
165 161 106
160 157 103
158 156 104
162 158 104
167 163 105
165 161 104
165 161 106
165 162 108
164 162 104
170 166 110
169 165 106
170 166 106
165 163 107
171 167 106
170 165 106
169 166 109
170 166 105
173 169 110
174 169 109
174 169 109
171 166 105
174 168 108
175 170 106
174 169 107
174 170 109
174 170 110
173 169 107
173 169 112
170 166 105
175 170 109
176 171 109
178 172 108
174 169 108
172 168 109
172 168 106
173 168 106
172 167 107
172 167 103
171 167 104
172 167 105
173 167 107
171 167 107
170 166 103
176 171 108
174 169 108
175 170 108
173 167 103
171 166 105
173 167 107
173 167 104
171 166 104
171 166 99
176 170 106
170 164 103
174 169 108
172 166 101
171 166 103
172 167 103
171 164 99
165 160 95
175 168 104
166 161 99
168 163 100
169 163 102
165 159 97
171 165 101
162 156 95
156 152 90
162 156 94
165 160 96
167 160 91
163 156 93
163 157 93
158 151 88
155 149 88
160 153 91
159 152 90
155 149 89
149 143 75
150 144 78
149 145 77
157 151 87
156 149 86
157 151 87
151 146 80
156 150 84
143 138 78
143 138 75
151 146 79
147 140 80
147 141 75
156 149 84
150 144 78
144 138 72
144 138 71
127 122 63
122 117 56
155 166 47
173 196 0
173 197 0
173 196 0
172 194 0
172 195 0
172 195 0
173 197 0
173 196 0
175 198 0
175 198 0
172 196 0
174 197 0
172 195 0
172 196 0
174 197 0
173 197 0
174 197 0
174 198 0
175 198 0
172 196 0
172 196 0
172 195 0
173 196 0
172 195 0
172 196 0
173 197 0
174 197 0
174 197 0
173 197 0
173 197 0
172 196 0
174 197 0
175 198 0
172 196 0
173 195 0
172 196 0
173 196 0
173 196 0
173 197 0
172 196 0
171 195 0
173 196 0
172 196 0
174 198 0
172 195 0
171 195 0
173 197 0
174 197 0
174 198 0
171 194 0
169 193 0
172 196 0
172 195 0
173 197 0
173 196 0
172 195 0
172 196 0
170 193 0
173 195 0
172 196 0
172 195 0
174 198 0
171 195 0
172 195 0
172 195 0
171 194 0
174 197 0
173 196 0
175 198 0
171 194 0
171 196 0
173 196 0
170 193 0
174 197 0
174 197 0
171 194 0
174 196 0
173 196 0
175 198 0
171 195 0
174 198 0
174 197 0
173 196 0
169 192 0
172 195 0
170 193 0
174 197 0
174 197 0
170 193 0
172 195 0
172 196 0
174 197 0
173 197 0
175 197 0
171 194 0
173 197 0
173 195 0
171 194 0
171 194 0
171 195 0
172 195 0
172 195 0
170 194 0
170 193 0
173 195 0
173 196 0
172 196 0
175 198 0
172 196 0
170 194 0
169 192 0
172 194 0
172 195 0
167 190 36
95 124 152
62 99 173
62 99 173
62 99 171
62 99 172
62 99 173
61 98 174
62 98 169
62 98 169
62 98 172
62 99 175
62 99 175
62 99 176
61 98 174
62 99 176
62 99 177
62 98 175
62 99 179
62 99 180
62 99 180
62 99 179
62 99 179
61 98 175
62 99 177
63 99 179
62 99 178
63 100 181
62 99 179
62 99 176
62 99 181
62 99 179
62 99 179
62 99 180
62 99 180
62 99 179
62 99 181
62 99 181
62 99 181
61 99 179
62 99 180
61 99 181
62 99 180
61 99 181
61 99 180
62 99 180
62 99 180
61 99 179
62 99 181
62 99 181
62 99 179
62 99 181
62 99 181
62 99 181
62 99 180
62 99 181
62 99 180
61 99 180
62 99 181
62 99 180
61 99 181
62 99 181
62 99 180
61 99 180
62 99 181
62 99 181
62 99 179
61 99 180
62 99 181
62 99 181
62 99 181
62 99 180
62 99 181
62 99 181
62 99 181
61 98 181
62 99 180
62 99 180
62 99 181
62 99 179
62 99 180
62 99 180
62 99 181
62 99 181
61 98 179
61 99 180
62 99 181
62 99 181
62 99 180
62 99 181
62 99 179
62 99 180
61 98 179
62 99 177
61 99 179
61 98 178
62 99 179
61 98 176
62 99 179
62 99 179
62 99 180
62 99 179
62 99 179
62 99 178
62 99 181
62 98 179
62 99 178
62 99 176
62 99 176
61 98 176
62 99 176
62 98 177
62 99 176
62 99 179
61 98 173
62 99 176
61 98 179
61 98 174
62 99 176
62 99 177
63 99 174
62 98 176
62 98 174
62 98 171
62 98 175
61 98 174
61 97 172
61 97 172
62 98 172
61 98 173
60 95 167
61 97 171
63 97 169
111 115 109
128 123 73
131 128 75
121 119 68
114 113 67
129 127 78
121 118 73
122 121 75
113 112 67
117 116 74
123 122 79
125 123 78
124 123 81
117 117 77
122 122 82
122 120 80
119 119 78
124 124 85
117 117 80
127 127 88
111 111 78
124 124 83
115 116 84
125 124 85
135 134 90
119 120 86
129 127 86
121 122 85
126 126 88
140 138 93
132 133 90
143 142 98
137 136 95
135 135 94
137 136 93
137 136 93
141 141 96
132 133 94
141 139 93
139 138 96
145 143 98
152 150 102
150 148 99
143 142 96
137 136 95
153 150 102
154 152 103
153 152 101
155 153 102
155 153 102
151 148 98
155 153 101
157 154 102
158 156 103
153 151 102
163 159 106
160 156 102
160 158 105
164 161 106
164 160 107
163 161 106
165 162 107
163 160 106
165 162 105
165 161 105
166 162 104
172 168 108
169 165 107
170 165 109
173 168 108
173 169 104
172 168 110
168 165 108
168 164 105
175 169 107
173 168 108
174 170 109
170 167 106
172 168 105
173 169 110
174 169 107
174 170 108
167 163 103
175 169 109
172 167 106
178 172 110
175 169 104
172 168 103
177 171 107
176 171 109
173 168 104
170 166 105
174 169 104
177 172 110
177 172 110
171 166 106
174 169 106
174 168 105
174 168 108
173 168 107
173 168 103
172 168 106
175 170 104
174 168 104
172 166 104
169 164 96
169 164 99
169 164 101
173 168 105
171 166 102
171 166 105
174 168 102
172 166 102
173 168 105
170 165 103
168 163 97
168 163 103
172 166 103
168 163 99
169 164 98
166 161 97
171 164 100
157 151 91
163 157 93
164 158 95
166 159 93
162 157 87
163 157 92
164 159 95
163 157 90
165 160 93
165 158 93
164 158 97
167 160 93
159 152 87
162 156 93
156 151 90
154 149 88
155 150 85
146 141 80
160 153 83
159 154 88
148 143 76
154 147 84
150 145 75
144 139 71
152 145 81
144 140 72
147 141 69
146 140 74
137 131 71
133 128 63
126 120 62
139 144 42
173 195 0
172 195 0
172 196 0
172 194 0
173 197 0
174 198 0
174 197 0
173 196 0
175 198 0
173 197 0
175 198 0
171 194 0
171 195 0
173 197 0
174 196 0
172 195 0
174 197 0
174 197 0
170 194 0
173 197 0
175 198 0
170 194 0
173 196 0
174 197 0
174 197 0
171 195 0
175 198 0
171 195 0
171 195 0
174 197 0
175 198 0
172 196 0
173 196 0
171 194 0
171 196 0
172 195 0
172 195 0
173 196 0
173 196 0
173 195 0
173 197 0
171 195 0
173 196 0
173 196 0
173 196 0
173 197 0
172 196 0
172 195 0
172 195 0
174 196 0
172 195 0
174 197 0
173 197 0
175 198 0
172 195 0
172 196 0
171 195 0
170 194 0
171 195 0
175 198 0
171 195 0
172 195 0
171 195 0
173 196 0
173 196 0
174 198 0
173 197 0
170 194 0
169 193 0
170 194 0
174 198 0
171 195 0
173 197 0
172 195 0
172 194 0
172 195 0
170 193 0
172 196 0
174 197 0
172 196 0
170 194 0
172 195 0
173 196 0
171 194 0
173 196 0
172 196 0
171 194 0
172 196 0
173 197 0
170 194 0
174 197 0
172 196 0
169 192 0
171 195 0
173 196 0
172 196 0
175 198 0
173 197 0
173 196 0
173 196 0
169 192 0
170 194 0
172 194 0
175 197 0
174 197 0
173 195 0
173 196 0
172 195 0
173 196 0
168 191 0
173 196 0
173 196 0
171 194 31
105 133 148
62 98 170
62 98 168
62 99 173
63 99 175
63 99 176
63 100 177
62 99 176
62 98 174
62 99 175
62 99 175
62 99 176
62 99 179
62 99 180
62 99 175
62 99 177
62 99 178
62 99 176
62 99 179
62 99 179
62 99 179
62 99 178
63 100 181
61 99 180
62 99 180
62 99 181
62 99 180
62 99 181
62 99 178
62 99 181
62 99 180
62 99 179
62 99 181
61 99 181
62 99 179
61 99 179
62 99 181
61 99 181
62 99 181
62 99 180
62 99 181
62 99 179
62 99 181
62 99 181
62 99 181
61 99 180
62 99 180
61 99 181
62 99 181
62 99 179
62 99 181
62 99 181
62 99 179
62 99 181
62 99 181
62 99 181
62 99 181
62 99 180
62 99 181
62 99 181
62 99 181
62 99 181
62 99 179
62 99 181
62 99 181
62 99 181
62 99 180
61 99 181
62 99 181
62 99 180
61 99 180
61 99 181
62 99 180
61 98 180
61 99 181
62 99 180
62 99 180
62 99 181
62 99 181
62 99 180
61 99 181
62 99 180
62 99 180
62 99 180
62 99 181
62 99 179
61 99 180
61 99 181
62 99 180
62 99 179
62 99 178
61 99 180
61 99 180
62 99 180
62 99 180
61 99 181
62 99 180
61 99 180
62 99 179
62 99 179
62 99 179
62 99 178
61 98 178
62 99 178
62 99 180
61 98 178
62 99 179
62 99 176
62 99 178
61 99 179
62 99 175
61 98 173
61 98 172
62 99 180
61 98 174
61 98 176
62 99 177
62 99 177
62 99 177
62 98 172
63 99 178
61 97 174
62 99 178
61 98 174
62 98 171
61 98 175
62 98 174
61 97 174
62 98 175
61 96 170
60 95 170
60 96 170
60 95 165
59 94 163
112 114 97
132 128 72
125 121 69
125 122 69
121 119 68
118 117 69
122 120 76
132 128 82
127 126 81
120 119 77
127 125 83
111 110 73
93 95 65
120 120 78
123 121 81
121 120 83
121 122 81
112 113 79
119 119 80
126 125 85
116 118 81
110 111 79
124 124 85
114 116 82
129 129 88
124 125 88
129 130 91
123 123 86
127 128 90
132 132 89
130 130 91
142 141 96
137 138 94
142 141 95
138 137 95
137 136 94
138 137 93
142 141 96
144 143 100
146 145 99
142 141 96
140 140 97
149 147 98
144 143 97
153 152 101
145 145 99
153 150 99
152 150 100
146 145 97
154 152 98
158 156 104
159 157 102
161 158 105
159 157 105
159 156 103
161 158 102
158 156 102
168 164 108
157 155 101
165 161 106
166 163 106
163 159 104
166 163 105
171 167 108
171 167 105
167 162 105
167 163 106
166 163 105
168 164 106
170 166 106
169 166 106
174 169 106
170 166 105
173 168 110
173 168 109
173 169 108
174 169 106
175 170 109
173 168 105
172 168 104
172 168 107
173 167 106
173 169 108
174 169 107
177 172 110
176 171 108
171 167 104
174 169 108
174 170 109
175 170 109
178 172 108
175 171 110
177 171 107
175 170 107
177 172 110
175 169 105
174 168 107
173 168 108
172 166 102
173 168 103
174 168 104
171 166 103
172 166 106
172 167 101
170 164 101
172 166 102
170 164 103
173 167 104
174 169 106
171 165 104
168 162 97
169 163 102
167 162 96
167 162 95
167 161 100
170 164 102
172 166 101
168 161 96
165 159 97
169 164 97
165 159 94
161 156 90
164 159 87
170 164 97
159 154 87
164 157 90
161 155 93
164 158 93
163 157 94
160 154 90
152 147 80
165 159 92
159 152 84
160 155 87
156 151 87
162 155 88
156 149 88
157 152 80
152 146 80
162 156 88
157 150 82
155 147 84
148 143 76
142 136 75
148 143 78
147 141 75
152 146 80
146 140 72
138 133 65
129 123 65
133 129 64
137 131 66
140 144 53
172 195 0
172 196 0
170 194 0
173 195 0
174 197 0
171 194 0
170 194 0
172 196 0
175 198 0
175 198 0
174 197 0
175 198 0
176 199 0
174 197 0
173 196 0
173 196 0
173 196 0
174 197 0
173 196 0
173 195 0
174 198 0
172 195 0
174 197 0
172 197 0
174 197 0
172 196 0
174 197 0
175 198 0
173 197 0
176 198 0
172 195 0
174 197 0
174 197 0
174 197 0
173 196 0
171 195 0
174 198 0
173 196 0
172 195 0
173 196 0
172 194 0
174 198 0
174 197 0
173 197 0
172 196 0
174 197 0
172 196 0
174 197 0
172 195 0
171 195 0
172 196 0
171 194 0
172 196 0
171 195 0
173 197 0
173 196 0
173 196 0
171 195 0
173 196 0
170 193 0
174 197 0
171 195 0
172 195 0
176 198 0
172 195 0
174 196 0
170 194 0
172 195 0
172 195 0
172 196 0
171 194 0
173 196 0
171 195 0
173 196 0
171 194 0
172 195 0
172 195 0
174 197 0
171 195 0
170 193 0
169 193 0
172 195 0
174 197 0
171 195 0
172 195 0
173 197 0
173 196 0
172 194 0
170 193 0
173 196 0
171 194 0
172 195 0
174 197 0
170 194 0
174 196 0
172 195 0
172 195 0
171 194 0
172 195 0
171 194 0
173 196 0
172 195 0
173 197 0
175 198 0
173 195 0
174 197 0
171 195 0
170 193 0
170 195 0
173 195 0
172 196 0
172 195 0
112 139 144
63 100 173
62 98 174
61 98 171
62 98 169
62 99 176
62 99 174
62 99 180
62 99 178
63 100 178
63 99 178
61 98 175
62 99 179
62 99 176
62 99 175
61 98 175
62 99 179
61 98 176
62 99 178
61 98 176
62 99 180
62 99 176
62 99 178
62 99 180
62 99 181
62 99 177
62 99 178
62 99 180
62 99 177
62 99 180
62 99 179
63 99 179
62 99 180
62 99 179
62 99 180
62 99 177
63 100 181
62 99 181
62 99 180
62 99 180
62 99 180
62 99 178
62 99 181
61 98 180
62 99 181
62 99 181
61 99 181
61 99 181
62 99 180
62 99 181
62 99 181
61 99 180
62 99 180
62 99 181
61 99 181
62 99 181
62 99 181
62 99 181
62 99 181
62 99 180
61 99 181
62 99 180
61 98 180
61 99 181
62 99 181
61 98 181
62 99 179
62 99 180
62 99 181
62 99 181
61 99 179
61 99 181
62 99 181
62 99 181
62 99 180
62 99 180
61 99 178
62 99 180
62 99 181
62 99 180
61 99 180
61 99 180
62 99 181
62 99 180
62 99 181
61 99 180
62 99 181
62 99 181
62 99 180
63 100 181
62 99 180
61 99 180
62 99 181
62 99 179
62 99 178
63 100 180
61 98 178
61 99 179
62 99 181
62 99 178
61 99 180
61 98 178
62 99 178
62 99 179
62 99 177
62 99 180
62 99 177
62 99 178
62 99 181
62 99 177
63 99 176
62 99 178
62 99 177
61 99 179
62 99 178
62 99 176
62 98 176
62 99 177
62 99 177
63 99 176
62 99 179
61 97 174
62 98 176
61 97 171
62 98 176
62 98 173
62 98 175
61 97 173
62 98 172
61 96 170
61 96 171
61 96 167
62 98 171
61 97 169
61 96 171
67 97 155
119 121 106
127 123 76
132 129 80
122 119 72
123 122 76
113 112 73
116 116 71
119 118 75
111 111 75
117 116 72
112 111 71
120 119 78
123 123 80
121 120 80
131 129 86
116 117 80
114 115 78
114 114 80
109 110 77
114 115 81
122 121 82
118 118 84
121 123 87
118 118 82
129 128 87
129 127 84
130 129 89
130 129 89
127 127 90
121 122 86
126 127 89
114 116 79
137 137 95
131 131 93
133 134 95
136 135 92
137 138 97
141 141 96
149 148 101
137 137 94
147 146 98
147 146 97
153 150 98
151 150 100
160 157 104
150 147 98
148 146 99
154 152 99
159 156 105
150 148 96
160 156 104
160 158 106
154 152 98
166 162 105
154 152 100
161 158 104
163 160 107
161 158 104
159 155 102
165 162 104
161 158 101
161 158 99
164 161 104
168 163 107
165 161 103
164 160 104
172 168 110
170 166 105
167 164 107
170 166 107
171 167 109
172 167 109
173 168 106
173 168 104
172 167 104
173 168 109
176 170 107
173 168 104
173 168 106
175 170 106
175 170 106
172 169 107
175 170 108
170 165 104
173 167 104
178 172 109
172 167 103
177 171 106
175 169 105
175 169 104
173 168 102
172 167 101
166 162 101
176 170 107
175 169 104
178 172 109
175 170 107
173 169 100
174 168 104
173 167 101
171 166 100
172 167 101
170 164 100
171 165 100
172 166 98
170 165 103
170 164 99
171 166 103
172 167 103
168 163 98
162 158 95
171 165 100
171 165 95
174 168 103
171 165 103
168 163 100
170 164 97
171 165 99
165 160 93
167 161 97
171 166 101
165 159 95
169 162 98
156 150 87
164 158 93
161 155 92
165 159 94
164 157 91
164 157 95
162 156 89
162 156 90
157 151 90
152 146 84
155 149 90
160 154 92
156 149 81
151 145 78
153 147 86
154 149 82
160 153 86
153 147 81
144 138 78
147 141 78
152 146 80
153 146 79
151 144 79
142 137 67
146 140 75
137 131 63
138 131 72
133 128 60
139 140 53
173 196 0
174 196 0
173 197 0
172 195 0
171 195 0
173 196 0
170 194 0
173 196 0
172 195 0
172 196 0
172 196 0
175 198 0
172 196 0
175 198 0
173 196 0
171 195 0
173 197 0
171 194 0
173 196 0
173 196 0
173 197 0
171 194 0
171 194 0
174 197 0
174 198 0
175 198 0
174 197 0
169 193 0
173 196 0
171 195 0
175 198 0
172 196 0
172 195 0
175 198 0
168 190 0
172 195 0
173 196 0
171 195 0
174 197 0
174 197 0
174 197 0
172 196 0
173 197 0
175 198 0
172 196 0
172 196 0
172 195 0
172 196 0
173 197 0
173 196 0
172 195 0
174 197 0
169 192 0
171 195 0
172 195 0
173 197 0
172 196 0
173 197 0
173 196 0
171 194 0
171 195 0
171 195 0
173 196 0
172 195 0
172 195 0
171 194 0
172 194 0
170 193 0
173 197 0
171 195 0
173 196 0
174 197 0
174 197 0
171 194 0
172 196 0
173 196 0
171 194 0
172 195 0
171 195 0
169 193 0
173 196 0
168 190 0
173 197 0
168 191 0
173 196 0
173 196 0
172 196 0
171 195 0
173 197 0
175 198 0
170 193 0
174 197 0
172 196 0
170 192 0
169 192 0
170 194 0
172 196 0
171 195 0
171 194 0
170 193 0
171 193 0
172 195 0
172 196 0
173 195 0
174 197 0
174 197 0
172 195 0
173 197 0
173 197 0
171 193 0
172 194 0
129 155 117
62 98 171
62 99 174
62 99 169
62 99 174
62 98 172
62 99 174
62 99 176
62 99 175
62 99 178
62 99 176
62 99 177
62 98 173
62 99 176
62 99 176
62 99 179
62 99 179
62 99 178
62 99 176
62 99 177
62 99 180
62 99 180
62 99 179
62 99 177
61 99 178
62 100 181
62 99 181
62 99 177
62 99 178
62 99 179
62 99 180
61 99 181
63 100 181
62 99 180
62 99 180
62 99 179
62 99 180
62 99 178
62 99 181
62 99 180
61 99 179
62 99 179
62 99 181
61 99 180
61 99 181
62 99 180
62 99 181
62 99 181
62 99 180
62 99 181
62 99 180
62 99 180
62 99 180
62 99 180
61 99 179
61 99 181
61 98 181
61 99 181
62 99 181
62 99 181
62 99 181
61 98 181
62 99 180
62 99 180
62 99 180
62 99 179
61 98 180
62 99 181
61 99 180
62 99 180
62 99 181
63 100 181
61 99 179
61 98 178
61 99 179
61 99 180
61 99 180
62 99 180
61 98 179
63 99 180
62 99 180
61 98 180
62 99 178
62 99 180
62 99 180
62 99 178
62 99 181
62 99 179
62 99 179
61 99 181
62 99 178
61 99 179
62 99 181
62 99 178
62 99 181
62 99 180
62 99 179
62 99 181
62 99 178
62 99 179
62 99 181
62 99 180
62 99 180
61 99 180
62 99 179
62 99 180
62 99 178
61 98 176
62 99 178
61 98 175
62 99 178
62 99 178
61 98 171
62 99 178
62 99 179
62 99 176
62 99 177
62 98 175
62 98 177
62 98 174
61 98 178
62 99 176
62 99 179
61 98 175
61 98 174
61 98 176
62 99 176
61 98 170
62 98 172
62 98 174
62 98 173
61 96 170
61 96 167
61 96 166
62 97 170
59 94 164
60 95 165
72 97 152
96 99 79
131 127 75
123 120 70
118 116 70
124 121 73
111 110 71
123 120 75
113 113 75
102 104 67
120 119 78
122 121 80
120 119 78
116 115 79
113 114 77
112 113 79
120 120 81
115 117 82
114 116 82
110 113 79
129 129 88
119 118 81
128 128 89
121 122 87
113 115 84
131 131 90
127 128 87
132 131 90
118 120 85
125 126 88
133 133 92
127 127 87
139 137 93
134 134 92
139 138 93
136 137 95
134 134 91
142 141 96
145 144 97
143 143 98
142 141 96
145 144 98
144 142 95
144 143 96
154 152 100
146 145 96
149 146 98
152 150 99
154 152 100
153 151 100
162 159 105
153 151 100
154 151 97
158 155 102
154 153 103
159 157 102
165 161 105
161 159 106
162 159 102
162 159 102
163 160 104
167 163 107
165 161 104
164 161 104
166 162 105
170 166 107
169 166 107
171 166 107
169 165 107
172 168 106
175 170 107
171 167 108
173 168 108
172 168 107
174 168 106
171 167 105
172 168 105
175 170 108
173 168 106
174 169 107
173 168 106
175 170 111
173 168 106
174 169 107
174 169 107
172 168 105
175 169 102
176 170 106
176 170 109
178 171 107
173 169 104
174 169 107
174 169 103
176 170 107
175 170 107
171 167 98
174 169 104
177 170 109
170 164 97
171 165 101
174 169 105
172 166 103
173 168 101
171 166 105
173 168 105
171 165 100
170 164 103
168 163 99
171 164 99
172 167 103
168 163 99
172 165 101
168 163 99
169 163 97
169 163 98
170 163 101
169 164 99
170 163 99
170 163 99
162 155 88
167 161 91
167 161 95
164 158 95
169 163 95
164 157 88
159 155 93
167 160 95
164 158 91
160 153 85
161 155 91
162 156 88
165 158 90
155 151 86
157 151 84
159 153 88
168 162 93
154 149 83
156 150 87
156 150 88
158 152 82
149 143 83
154 146 84
142 135 74
144 138 74
146 139 73
143 138 67
143 137 66
135 129 73
145 138 73
137 131 70
125 120 61
134 135 49
174 197 0
173 197 0
172 195 0
171 194 0
172 195 0
173 196 0
176 199 0
171 194 0
173 196 0
174 198 0
173 197 0
173 197 0
174 198 0
172 195 0
173 197 0
174 197 0
172 196 0
175 198 0
172 196 0
174 197 0
171 195 0
174 196 0
171 195 0
172 196 0
173 197 0
174 197 0
173 196 0
172 195 0
174 197 0
172 196 0
172 196 0
173 196 0
172 195 0
173 196 0
171 194 0
172 195 0
173 196 0
172 196 0
173 196 0
172 195 0
174 197 0
174 197 0
173 195 0
176 199 0
175 198 0
174 197 0
171 193 0
173 197 0
172 196 0
174 197 0
173 197 0
173 197 0
173 196 0
168 192 0
174 197 0
174 197 0
170 194 0
171 193 0
171 194 0
171 195 0
174 197 0
174 197 0
170 194 0
172 196 0
175 198 0
174 196 0
172 195 0
172 195 0
173 196 0
171 195 0
172 194 0
173 197 0
173 196 0
174 197 0
172 195 0
170 193 0
172 195 0
169 194 0
173 196 0
172 195 0
169 193 0
168 192 0
171 195 0
171 194 0
172 195 0
172 195 0
170 195 0
171 195 0
174 197 0
173 195 0
168 190 0
172 195 0
173 196 0
171 194 0
172 195 0
172 195 0
173 196 0
173 195 0
169 192 0
169 193 0
172 195 0
169 193 0
173 196 0
174 196 0
169 193 0
172 195 0
172 195 0
172 195 0
173 196 0
171 194 0
145 170 86
62 98 168
63 100 178
61 98 171
62 98 167
61 98 172
63 99 176
62 99 175
62 99 177
62 99 178
62 99 176
62 99 171
62 99 174
62 99 177
62 99 176
62 99 177
63 99 178
62 99 177
62 99 177
62 99 180
61 98 176
62 99 178
62 99 181
62 99 177
62 99 179
62 99 179
62 99 180
62 99 178
62 99 179
62 99 180
62 99 180
62 99 179
62 99 181
62 99 179
61 99 180
62 99 178
62 99 181
62 99 181
61 98 177
62 99 181
62 99 180
62 99 179
62 99 181
61 99 180
61 99 180
61 99 179
62 99 181
61 99 181
62 99 181
62 99 180
62 99 181
62 99 179
62 99 181
61 99 181
62 99 180
62 99 181
62 99 179
61 99 181
62 99 181
61 99 179
62 99 180
61 98 181
62 99 181
62 99 180
61 99 181
62 99 179
61 99 181
62 99 181
62 99 181
62 99 181
62 99 179
62 99 181
62 99 180
62 99 181
62 99 180
62 99 181
62 99 181
62 99 181
61 98 174
61 98 181
62 99 180
62 99 179
62 99 180
62 99 179
62 99 181
62 99 180
62 99 179
62 99 179
61 98 178
62 99 180
61 98 180
62 99 178
61 99 179
62 99 180
62 99 181
62 99 180
61 98 179
61 98 178
61 99 181
62 99 180
62 99 180
62 99 180
62 99 178
62 99 179
62 99 179
62 99 180
62 99 176
63 99 177
62 99 179
62 99 180
62 99 177
62 98 173
62 99 177
61 99 177
62 99 178
62 99 177
61 98 174
62 98 176
62 98 175
61 98 173
62 99 178
62 99 175
61 98 177
62 98 176
61 98 173
62 99 174
62 99 174
62 99 177
62 99 177
61 97 170
62 98 175
62 98 172
61 98 174
62 98 176
61 97 169
61 97 169
61 97 174
60 95 161
61 96 168
83 105 151
125 123 80
111 110 70
114 112 72
121 119 69
120 118 74
126 124 78
111 110 70
110 108 67
110 110 74
110 109 72
114 115 77
110 110 75
120 120 82
112 113 75
114 116 82
112 113 79
115 116 80
111 113 80
110 111 79
109 111 78
115 116 83
117 117 82
121 122 86
120 121 84
123 124 86
129 128 87
126 125 87
126 126 88
138 138 94
129 128 88
131 131 91
137 136 92
144 142 96
143 143 97
126 127 89
143 142 96
140 140 97
149 147 99
151 149 98
150 147 98
142 140 93
153 150 98
148 147 99
148 146 96
152 150 100
144 143 98
141 140 93
154 152 102
158 155 99
151 150 99
154 152 99
155 153 101
156 154 100
161 158 103
165 161 103
159 156 101
155 154 103
164 161 104
162 158 102
165 161 105
168 164 105
168 164 105
169 165 106
162 159 104
173 168 107
165 162 105
166 162 102
169 165 104
167 163 105
171 167 108
170 166 104
173 168 107
171 166 104
171 166 105
173 168 105
174 169 108
173 168 107
171 165 102
176 170 107
175 170 108
172 168 106
174 170 106
176 170 108
175 169 103
172 167 104
176 170 103
170 166 105
177 171 104
175 169 105
173 167 102
171 166 103
175 169 106
176 170 104
176 170 106
175 169 104
172 167 102
173 167 101
177 171 109
172 167 104
170 165 100
176 170 108
175 168 104
175 168 102
170 164 101
171 166 101
165 161 99
169 162 95
173 166 96
167 162 99
166 162 97
168 162 96
169 163 101
171 164 101
168 162 96
163 158 93
172 166 103
172 165 98
168 163 99
166 159 95
169 163 97
162 155 95
168 162 93
167 160 97
159 153 90
164 158 89
156 151 88
161 155 87
157 150 87
159 154 84
151 144 81
161 155 87
164 157 92
158 151 86
153 147 82
154 148 84
149 144 77
155 148 84
154 147 79
154 147 83
151 145 75
144 138 69
147 141 72
144 137 75
145 139 75
145 138 75
136 131 66
141 135 67
140 134 65
140 134 60
132 128 61
173 195 0
172 195 0
171 194 0
171 194 0
173 196 0
173 196 0
173 196 0
173 197 0
170 193 0
173 196 0
173 197 0
172 196 0
172 195 0
173 196 0
172 196 0
173 197 0
171 196 0
173 196 0
175 197 0
175 198 0
171 195 0
172 195 0
175 197 0
174 197 0
171 194 0
175 198 0
171 196 0
173 197 0
171 194 0
173 197 0
173 196 0
172 196 0
173 196 0
172 196 0
172 196 0
172 194 0
173 196 0
173 196 0
173 196 0
173 196 0
171 195 0
174 197 0
174 197 0
173 197 0
171 195 0
173 197 0
170 193 0
175 198 0
174 198 0
174 197 0
175 198 0
171 194 0
174 198 0
171 195 0
172 196 0
173 196 0
174 197 0
171 194 0
173 197 0
173 196 0
173 197 0
172 195 0
171 194 0
174 197 0
172 196 0
170 194 0
173 196 0
171 194 0
171 195 0
173 197 0
172 195 0
172 196 0
171 195 0
171 194 0
173 195 0
174 196 0
172 195 0
172 195 0
170 194 0
172 195 0
172 195 0
172 195 0
171 194 0
173 196 0
175 198 0
174 196 0
170 194 0
172 195 0
172 196 0
174 196 0
172 195 0
173 197 0
170 193 0
173 196 0
171 194 0
173 197 0
172 195 0
170 194 0
171 195 0
170 194 0
173 195 0
170 194 0
173 197 0
170 193 0
171 194 0
171 195 0
172 196 0
171 194 0
172 196 0
156 179 74
66 101 166
61 98 165
62 99 172
62 98 170
62 99 175
62 98 174
62 99 175
63 99 175
62 99 172
62 99 174
63 99 177
62 99 175
61 98 176
62 99 177
61 98 177
61 99 178
62 99 175
62 99 178
62 99 180
62 99 180
62 99 178
61 99 177
62 99 178
61 98 180
62 99 179
62 99 178
62 99 178
62 99 180
62 99 180
62 99 181
62 99 180
62 99 180
61 98 179
61 98 177
62 99 181
62 99 178
62 99 179
62 99 181
63 99 179
61 98 178
61 98 178
63 100 181
62 99 180
61 99 180
62 99 180
62 99 178
62 99 181
62 99 180
62 99 181
63 100 181
62 99 180
61 99 181
61 98 180
62 99 181
62 99 180
61 98 179
61 99 181
62 99 181
62 99 179
62 99 181
61 99 181
61 99 178
62 99 181
62 99 180
61 98 181
61 99 180
62 99 180
62 99 181
61 99 180
62 99 179
62 99 180
62 99 180
62 99 178
62 99 181
62 99 181
62 99 181
62 99 181
62 99 181
61 99 180
62 99 181
62 99 176
62 99 180
61 99 178
62 99 180
63 100 181
61 99 180
62 99 180
61 99 177
62 99 181
62 99 177
62 99 181
62 99 180
62 99 180
61 99 179
61 99 178
62 99 177
62 99 178
62 99 180
62 99 178
62 99 178
62 99 180
62 99 177
62 99 178
62 99 180
62 99 178
61 98 176
62 99 175
61 99 180
63 99 178
62 99 177
62 98 176
62 99 175
62 99 179
62 99 178
61 98 172
62 99 177
62 99 177
62 98 174
62 99 178
61 97 171
62 99 178
62 99 177
61 98 172
62 99 179
61 97 172
62 99 178
62 99 176
61 98 172
62 99 177
62 98 171
61 98 174
61 98 173
61 98 172
62 98 170
61 96 165
62 98 172
60 95 167
62 97 171
60 94 164
61 96 167
82 99 134
112 111 69
122 120 75
116 115 73
117 115 70
114 113 75
115 114 74
99 100 68
106 107 73
106 105 71
115 114 77
117 116 78
118 118 82
105 107 75
112 115 78
119 119 81
107 108 75
109 110 75
121 121 84
123 124 85
121 121 84
121 123 87
116 118 82
125 126 88
109 112 81
130 130 89
132 131 91
125 126 89
133 133 92
131 132 91
144 143 99
128 129 89
136 135 91
123 124 88
132 133 94
136 137 96
132 132 91
138 138 96
141 140 95
146 144 97
142 141 94
143 143 98
156 153 104
151 149 100
153 152 102
155 153 100
155 152 101
148 146 97
145 144 96
159 157 101
165 160 103
164 161 104
158 155 102
164 161 105
168 164 106
166 161 104
161 157 100
156 154 100
170 165 105
162 159 102
172 167 107
167 164 104
162 158 100
166 163 103
173 168 105
173 168 107
168 164 101
172 167 107
171 166 108
172 167 104
174 168 109
175 169 106
169 166 104
174 168 105
174 169 106
174 168 105
173 168 105
174 169 107
175 170 106
177 171 108
173 168 106
174 169 104
174 169 105
176 170 104
175 170 106
174 170 104
175 170 106
177 170 107
178 171 107
171 167 101
173 167 101
175 169 103
174 169 107
175 169 103
168 163 100
174 168 101
173 167 103
172 167 103
169 164 99
172 167 100
172 167 101
175 168 104
174 169 106
171 166 99
167 161 96
173 167 101
172 165 102
171 165 99
171 165 100
172 166 99
166 161 97
166 160 98
169 163 97
170 164 99
173 166 99
167 161 93
162 158 93
168 161 94
166 160 96
165 159 95
163 157 91
160 154 88
163 157 90
168 162 95
165 159 93
165 159 94
164 157 90
159 154 87
162 157 90
162 155 91
162 156 89
159 153 87
158 151 80
159 153 86
154 149 84
166 157 87
157 151 83
145 139 71
154 147 85
149 142 78
154 148 80
146 140 74
146 139 75
141 135 71
147 140 72
146 140 70
137 131 68
131 126 64
128 124 59
118 113 51
171 193 0
174 197 0
173 196 0
174 196 0
172 195 0
173 196 0
173 196 0
174 198 0
171 195 0
169 193 0
171 194 0
171 196 0
175 197 0
174 197 0
173 196 0
172 196 0
172 196 0
173 197 0
173 197 0
172 196 0
174 197 0
172 196 0
173 197 0
172 195 0
175 198 0
173 197 0
172 195 0
172 196 0
171 195 0
176 198 0
172 196 0
173 196 0
172 195 0
172 195 0
173 197 0
173 196 0
175 198 0
174 197 0
173 196 0
172 196 0
176 198 0
173 196 0
171 194 0
171 195 0
174 197 0
174 197 0
171 195 0
171 194 0
173 196 0
172 196 0
171 195 0
172 194 0
173 196 0
172 195 0
171 194 0
174 198 0
174 197 0
169 192 0
172 196 0
172 196 0
174 197 0
174 198 0
172 195 0
172 195 0
173 196 0
172 195 0
171 194 0
171 195 0
171 194 0
173 196 0
174 197 0
172 196 0
172 196 0
172 195 0
174 197 0
173 196 0
172 195 0
172 194 0
172 194 0
173 196 0
172 195 0
170 193 0
172 196 0
169 192 0
174 198 0
171 195 0
170 193 0
171 194 0
174 197 0
173 197 0
171 195 0
168 191 0
171 194 0
170 194 0
172 196 0
171 195 0
173 196 0
170 194 0
170 194 0
174 197 0
171 194 0
169 192 0
172 196 0
171 194 0
172 195 0
171 193 0
172 196 0
174 196 0
162 186 57
93 123 156
62 99 169
62 98 169
62 99 172
63 99 173
62 99 174
62 99 175
62 98 166
62 99 173
62 99 171
62 98 174
62 98 172
63 100 177
62 99 179
62 99 177
62 99 176
63 100 177
62 99 175
62 99 179
62 99 180
62 99 175
62 99 176
61 98 177
62 99 178
62 99 176
62 99 178
61 98 177
61 99 181
62 99 179
62 99 180
62 99 179
62 99 179
62 99 177
61 98 179
62 99 181
62 99 181
61 99 180
62 99 179
62 99 179
62 99 179
62 99 181
62 99 180
62 99 180
62 99 180
62 99 181
62 99 180
62 99 180
62 99 179
62 99 180
62 99 179
62 99 180
62 99 179
62 99 179
62 99 181
62 99 181
62 99 180
62 99 180
62 99 178
62 99 180
62 99 180
62 99 180
61 98 177
62 99 181
62 99 179
62 99 180
62 99 181
62 99 180
61 99 180
61 99 180
62 99 181
62 99 179
62 99 180
62 99 180
62 99 180
62 99 181
61 98 178
62 99 179
61 99 180
61 98 177
62 99 180
63 99 180
61 99 180
61 99 180
62 99 179
62 99 179
62 99 180
62 99 180
62 99 180
61 99 181
62 99 179
62 99 179
62 99 178
62 99 179
62 99 178
62 99 179
62 99 179
62 99 179
62 99 179
62 99 179
62 99 180
62 99 179
62 99 179
62 99 178
62 99 176
62 99 179
62 99 179
63 99 178
62 99 179
62 98 175
62 99 177
62 99 178
62 99 178
63 100 180
62 99 175
62 99 179
62 99 176
62 99 179
62 98 173
62 99 180
61 98 176
62 99 177
62 99 176
62 99 178
62 98 176
62 99 176
62 99 175
62 98 173
62 98 173
62 98 173
62 98 177
62 97 170
62 98 173
62 98 171
62 98 172
62 98 174
61 97 166
60 95 164
61 97 169
61 97 168
60 95 162
61 96 167
60 95 165
88 99 116
112 110 68
124 121 76
105 104 61
120 119 74
113 114 74
100 102 67
127 124 79
100 102 70
94 98 71
104 105 74
106 106 73
106 107 70
113 113 75
109 110 74
94 98 72
112 113 81
107 110 79
120 120 82
119 120 84
110 111 78
121 121 86
122 122 85
128 127 87
135 135 94
118 119 83
127 127 86
131 132 92
122 122 84
135 135 93
126 127 88
138 136 92
124 123 86
122 124 87
146 144 99
134 134 90
132 132 90
137 136 90
147 144 96
148 146 97
148 146 99
153 151 100
146 145 98
147 145 95
146 144 97
151 149 99
153 151 100
153 151 99
152 150 98
145 144 93
150 148 97
155 153 101
159 156 99
167 162 103
162 158 102
162 158 100
161 158 101
166 161 107
160 158 104
166 162 104
163 159 101
166 163 104
167 163 105
164 160 103
174 169 109
165 161 103
172 167 108
168 164 107
170 166 104
170 166 106
166 163 103
166 162 103
173 168 106
174 168 102
173 169 107
176 170 106
173 168 105
173 168 107
174 169 104
173 168 106
176 171 110
173 169 106
174 168 100
176 170 105
173 167 102
175 169 107
177 171 105
176 170 107
176 170 105
174 168 105
173 168 104
172 167 104
175 169 103
172 167 103
175 169 103
174 168 103
176 169 106
173 167 102
171 165 103
172 165 102
171 166 101
178 170 104
172 165 101
171 166 100
169 163 101
168 162 97
168 163 98
171 166 101
169 164 95
176 169 101
172 166 97
167 161 99
170 164 98
167 161 94
166 160 94
172 165 101
165 160 96
171 164 97
168 161 92
169 163 96
161 155 89
165 158 91
165 159 95
162 157 89
166 159 89
164 158 92
161 155 86
160 154 88
154 148 82
166 159 90
162 156 87
158 152 84
155 148 83
158 151 84
155 148 84
150 144 74
152 147 86
152 147 80
140 135 74
147 141 71
155 148 82
141 136 72
137 131 63
142 135 70
152 145 75
130 125 62
135 131 60
130 126 59
125 118 60
166 189 11
173 196 0
172 194 0
173 196 0
174 197 0
174 196 0
174 197 0
173 197 0
175 198 0
174 198 0
173 196 0
174 197 0
172 195 0
173 196 0
176 199 0
170 194 0
172 196 0
174 196 0
173 197 0
172 195 0
170 194 0
174 196 0
173 196 0
172 196 0
172 196 0
174 197 0
173 196 0
175 197 0
175 198 0
172 196 0
169 193 0
174 197 0
173 196 0
174 197 0
172 196 0
172 196 0
170 194 0
175 198 0
174 197 0
174 197 0
171 195 0
174 196 0
172 196 0
174 197 0
171 195 0
174 197 0
173 196 0
171 195 0
173 196 0
173 196 0
174 197 0
172 195 0
174 197 0
170 194 0
173 196 0
173 196 0
173 197 0
172 196 0
173 196 0
170 194 0
170 194 0
173 197 0
173 196 0
172 195 0
171 195 0
172 195 0
170 194 0
172 196 0
174 197 0
174 197 0
172 195 0
173 196 0
171 194 0
172 195 0
170 194 0
172 195 0
169 192 0
174 197 0
173 196 0
172 195 0
173 196 0
173 196 0
172 195 0
170 194 0
174 196 0
174 196 0
173 196 0
169 192 0
170 194 0
171 194 0
169 193 0
172 195 0
172 196 0
171 196 0
173 196 0
170 194 0
173 196 0
171 195 0
170 193 0
173 196 0
169 193 0
169 193 0
171 194 0
173 197 0
172 194 0
172 195 0
173 196 0
173 196 0
110 137 142
62 98 172
62 99 172
62 98 171
63 99 173
63 100 179
62 99 171
61 98 170
62 99 171
62 99 173
63 99 177
62 99 177
62 99 172
62 99 176
62 99 176
62 99 174
62 99 176
61 99 178
62 99 177
62 99 172
62 99 180
62 99 177
62 99 178
62 99 177
62 98 175
62 99 176
62 99 178
62 98 174
62 99 181
62 100 181
62 99 179
62 99 176
62 99 181
63 100 180
62 99 178
62 99 181
62 99 178
61 98 177
62 99 180
62 99 178
62 99 179
62 99 180
62 99 180
62 99 180
61 98 180
61 99 180
62 99 181
61 99 179
62 99 181
62 99 179
61 99 179
62 99 180
62 99 179
62 99 180
62 99 180
61 99 181
62 99 180
62 99 180
61 99 179
62 99 180
61 99 181
61 98 179
62 99 181
62 99 181
62 99 181
63 99 180
62 99 181
62 99 180
62 99 179
61 99 179
61 98 180
62 99 179
62 99 179
62 99 179
61 99 179
62 99 180
63 100 180
61 98 179
62 99 180
62 99 179
62 99 181
62 99 179
62 99 177
61 98 178
62 99 179
61 98 176
62 99 181
61 98 176
62 99 179
62 99 179
62 99 179
62 99 179
62 99 178
61 98 173
62 99 178
61 99 177
62 99 178
63 100 181
62 99 180
62 99 178
62 99 177
62 99 179
62 99 179
62 99 180
61 98 178
62 99 179
62 99 178
62 99 177
62 99 179
62 99 178
62 99 178
62 99 180
62 99 181
62 99 175
62 99 177
61 98 175
61 98 176
62 98 174
61 98 176
62 99 176
62 99 178
62 99 177
62 99 174
62 98 175
62 99 175
62 98 174
62 99 177
62 98 172
62 98 177
61 97 170
62 99 173
61 98 174
62 97 168
62 98 174
62 98 175
61 98 172
62 98 170
61 97 170
60 96 167
61 97 169
60 96 168
61 96 167
61 95 165
59 93 157
98 105 99
104 102 63
97 97 63
98 98 60
107 108 70
103 104 69
106 108 74
112 113 75
107 107 69
103 105 72
111 112 74
112 112 74
112 112 77
104 105 76
115 115 76
122 122 82
108 110 77
104 106 78
121 120 82
103 105 77
99 102 73
109 112 82
117 118 82
125 126 88
104 107 79
122 123 88
115 116 81
119 120 85
136 136 93
126 127 87
133 133 91
130 130 91
135 135 92
141 140 96
142 141 94
132 133 92
143 142 95
144 142 96
148 146 95
145 143 95
149 147 98
149 148 97
149 146 95
151 149 98
155 153 101
156 154 98
149 148 99
157 155 99
161 159 106
163 159 105
158 154 98
162 160 105
163 160 103
160 157 100
157 155 101
161 158 100
158 156 101
163 160 102
164 161 103
165 161 102
165 161 100
167 162 105
168 164 102
165 161 102
166 162 103
167 163 104
170 166 107
170 165 105
172 167 106
173 168 104
172 167 103
169 165 102
174 169 105
174 169 104
172 168 104
174 168 103
175 169 107
174 168 101
177 171 108
173 169 105
175 169 104
172 167 104
173 169 103
175 170 106
177 170 106
178 172 106
174 168 104
177 171 106
174 169 106
168 164 98
173 168 105
173 167 103
173 167 99
173 167 104
174 168 103
172 167 99
173 167 102
171 166 98
173 168 98
175 169 103
172 166 105
172 167 103
170 164 95
174 167 101
171 165 98
172 166 102
167 161 95
169 164 95
170 164 98
170 164 96
168 161 99
170 164 99
164 158 94
165 160 90
164 158 92
163 157 92
164 158 91
168 162 99
165 159 93
161 155 93
162 156 88
167 161 92
160 154 85
164 157 90
166 160 90
156 151 86
163 157 90
156 150 87
162 156 85
157 151 85
159 153 86
154 147 83
147 142 75
151 146 81
154 148 82
155 148 79
159 153 85
156 149 83
144 138 78
149 143 73
151 145 73
143 136 72
147 140 77
134 129 67
143 137 68
125 120 57
139 132 68
123 119 52
168 189 16
172 195 0
173 197 0
173 197 0
173 196 0
172 194 0
173 196 0
174 198 0
174 198 0
173 197 0
172 195 0
172 196 0
175 197 0
174 197 0
175 198 0
173 196 0
172 195 0
172 196 0
174 197 0
172 195 0
171 193 0
173 196 0
173 197 0
172 195 0
172 196 0
170 195 0
174 197 0
172 196 0
174 197 0
173 196 0
175 198 0
172 196 0
173 197 0
172 196 0
175 198 0
172 195 0
174 198 0
174 198 0
172 196 0
172 196 0
173 197 0
172 196 0
167 192 0
169 192 0
170 194 0
172 196 0
172 196 0
172 195 0
175 198 0
174 197 0
173 196 0
172 196 0
170 193 0
173 197 0
172 196 0
172 195 0
172 196 0
172 196 0
176 198 0
173 196 0
171 194 0
174 196 0
171 195 0
169 193 0
174 198 0
175 198 0
173 196 0
172 196 0
173 196 0
173 196 0
172 195 0
172 196 0
173 195 0
173 197 0
171 194 0
174 198 0
171 194 0
171 194 0
172 194 0
173 196 0
172 195 0
173 196 0
172 196 0
170 193 0
172 195 0
169 193 0
174 197 0
171 194 0
171 194 0
172 195 0
171 195 0
170 193 0
172 195 0
172 195 0
172 195 0
172 194 0
172 196 0
174 197 0
171 194 0
172 195 0
172 196 0
172 196 0
173 196 0
172 196 0
171 194 0
170 194 0
171 194 0
122 148 128
62 98 164
61 98 167
63 99 171
62 99 173
62 99 175
62 98 170
62 99 173
62 99 173
62 99 175
62 98 174
63 100 180
62 99 173
63 99 175
62 99 174
62 99 175
62 99 177
62 99 174
62 99 176
62 99 179
62 99 177
62 99 178
62 99 179
62 99 178
62 99 178
62 99 178
62 99 176
62 99 178
62 99 179
62 99 180
62 99 174
61 98 176
62 99 180
62 99 178
62 99 178
62 100 181
62 99 181
61 99 180
61 99 178
61 99 178
62 99 180
61 99 181
62 99 176
61 98 179
61 99 178
62 99 180
62 99 181
62 99 178
62 99 180
62 99 181
62 99 179
62 99 181
61 98 179
62 99 181
62 99 181
62 99 181
62 99 181
61 99 180
62 99 179
61 98 180
62 99 180
62 99 181
62 99 180
62 99 180
61 99 179
62 99 180
61 98 178
62 99 179
62 99 179
62 99 181
62 99 179
62 99 179
62 99 180
61 98 179
62 99 180
61 98 177
63 100 180
62 99 181
62 99 181
62 99 180
61 99 179
62 99 180
61 99 181
62 99 178
61 99 177
62 99 179
62 99 178
62 99 180
62 99 178
62 99 180
61 99 178
62 99 177
62 99 178
62 98 176
62 99 178
62 99 174
62 99 178
62 99 176
62 99 180
62 99 176
62 99 181
61 98 175
62 99 177
62 99 179
61 98 178
62 99 176
62 99 179
61 98 176
62 99 180
62 99 176
61 98 173
62 99 178
62 99 178
61 98 177
62 99 179
62 99 179
62 99 177
63 100 177
61 98 172
62 98 171
62 99 176
62 99 176
62 99 177
61 98 174
61 98 174
62 99 175
62 99 175
61 97 168
62 99 178
62 98 170
62 98 175
62 99 174
61 97 170
61 98 171
61 98 171
62 98 174
61 97 171
62 98 173
61 97 169
60 95 165
61 97 171
62 97 170
61 96 166
60 94 162
61 97 168
68 95 153
95 97 69
112 111 68
110 110 67
99 99 62
110 110 74
90 91 62
105 105 70
102 102 68
104 106 73
103 104 71
115 116 80
116 115 77
101 102 72
110 110 77
97 100 74
105 107 77
116 116 80
106 108 78
108 109 77
112 115 80
114 116 81
119 120 84
118 119 85
102 106 77
112 113 80
126 126 85
107 111 81
134 133 93
129 129 88
125 126 86
133 133 91
135 134 90
130 130 88
126 126 87
141 140 94
132 132 88
146 144 97
143 141 96
142 142 96
145 142 94
139 139 94
142 140 93
148 145 94
142 142 95
143 143 96
148 147 98
159 156 100
156 153 98
157 154 99
155 153 100
168 164 106
158 155 100
160 157 101
161 157 99
160 157 100
157 154 102
168 165 105
165 162 103
164 161 103
159 156 100
159 156 95
168 164 104
167 163 103
170 165 103
170 166 103
173 167 104
173 168 106
171 166 106
172 167 104
173 168 105
172 167 104
171 166 105
171 166 103
174 169 108
170 166 102
173 167 101
176 170 105
176 170 106
172 167 107
176 169 103
175 169 103
172 168 104
177 171 108
175 170 105
171 166 104
173 168 104
173 167 98
173 168 101
175 169 103
178 171 101
175 169 106
175 169 104
168 163 90
172 165 99
173 168 104
173 167 102
174 169 104
170 164 97
174 169 103
173 166 99
172 166 99
169 163 97
171 164 91
174 167 101
174 167 100
170 164 95
172 165 101
164 159 90
170 162 99
169 163 98
167 161 99
163 158 92
169 162 95
166 161 95
165 159 95
166 160 93
163 157 94
163 158 86
160 154 88
169 164 98
166 160 93
162 156 91
161 155 89
162 156 88
162 156 89
162 156 85
160 153 84
160 153 88
155 149 85
161 154 86
157 151 80
158 152 84
158 151 84
148 143 75
139 133 72
158 150 84
157 152 77
144 138 72
139 134 67
150 145 75
133 127 65
154 148 74
141 135 72
132 127 59
134 128 62
129 124 59
121 117 47
165 184 16
172 195 0
169 192 0
173 196 0
172 195 0
174 197 0
172 196 0
172 196 0
174 197 0
175 198 0
174 197 0
174 197 0
172 195 0
174 197 0
174 197 0
174 197 0
172 196 0
171 195 0
173 195 0
173 196 0
172 195 0
176 198 0
171 194 0
171 195 0
172 196 0
174 197 0
171 195 0
170 193 0
174 197 0
174 196 0
175 198 0
171 195 0
172 195 0
170 194 0
172 196 0
170 193 0
173 196 0
172 196 0
175 198 0
173 197 0
175 198 0
171 194 0
174 197 0
171 194 0
173 196 0
174 197 0
171 194 0
172 196 0
175 198 0
172 195 0
174 197 0
172 195 0
172 196 0
173 196 0
171 194 0
171 195 0
172 196 0
169 193 0
172 196 0
172 195 0
170 193 0
173 196 0
171 194 0
172 196 0
170 193 0
169 193 0
175 198 0
171 195 0
171 195 0
174 197 0
167 191 0
172 196 0
168 192 0
174 197 0
174 196 0
170 194 0
172 196 0
174 197 0
169 193 0
170 193 0
172 195 0
172 196 0
169 192 0
172 194 0
171 194 0
173 195 0
173 196 0
171 194 0
171 195 0
172 196 0
171 194 0
172 195 0
172 196 0
171 195 0
172 196 0
172 195 0
171 194 0
170 194 0
169 192 0
170 193 0
171 194 0
171 195 0
173 197 0
170 193 0
168 192 0
170 193 0
153 176 80
64 100 164
62 98 173
62 99 171
62 99 173
63 100 177
63 99 174
62 99 178
62 99 173
62 99 175
62 99 170
62 99 177
62 99 179
62 99 175
62 99 178
62 98 172
63 100 178
62 98 174
62 99 180
62 99 177
61 98 177
62 99 176
62 99 179
62 99 177
62 99 177
62 99 178
62 99 180
62 99 180
61 99 178
62 99 180
62 99 180
62 99 180
62 99 177
62 99 180
63 100 179
62 99 179
62 99 176
62 99 181
62 99 180
62 99 180
62 99 179
62 99 180
62 99 180
62 99 181
62 99 180
61 99 180
62 99 180
62 99 180
62 99 179
62 99 180
61 98 177
62 99 180
62 99 181
61 99 181
62 99 180
62 99 181
62 99 180
62 99 181
62 99 178
61 98 179
62 100 181
62 99 179
62 99 181
62 99 181
62 99 180
62 99 180
62 99 181
62 99 179
62 99 179
62 99 181
62 99 179
62 99 179
61 98 178
62 99 180
62 99 177
62 99 178
62 99 179
61 99 181
61 98 177
62 99 181
61 99 180
62 99 180
62 99 181
62 99 180
62 99 181
62 99 180
62 99 180
62 99 181
62 99 181
62 99 179
63 100 179
62 99 180
62 99 179
61 98 177
62 99 180
62 99 180
62 99 178
62 99 180
62 99 180
62 99 181
62 99 176
61 98 175
61 98 177
62 99 178
63 100 181
63 100 180
62 99 178
62 99 178
62 98 173
63 100 181
62 99 177
62 99 180
62 99 178
62 99 179
62 99 174
62 99 179
62 99 177
62 99 179
62 99 176
62 99 176
62 99 176
62 99 175
62 99 176
62 99 176
62 99 172
62 99 178
62 99 174
62 99 174
61 97 170
60 96 167
62 99 176
61 97 171
61 98 170
62 98 174
62 98 174
63 99 172
62 98 172
62 98 171
61 97 170
61 98 173
61 97 170
61 97 169
61 97 166
61 96 168
62 98 172
61 95 162
60 94 161
73 92 124
98 97 60
99 99 67
103 104 68
87 90 64
98 97 65
103 104 69
98 100 71
113 113 74
96 99 69
98 101 74
108 109 75
106 108 76
102 104 72
117 118 81
115 117 85
107 110 80
105 108 78
105 106 76
107 111 81
110 112 79
106 109 77
134 134 91
110 111 77
114 115 81
124 125 88
118 118 82
132 132 90
130 130 89
138 137 92
127 127 86
138 136 91
134 135 94
143 143 97
139 138 92
135 134 90
135 135 93
139 139 92
139 138 93
143 143 94
146 144 95
149 147 98
155 152 99
139 138 95
154 151 100
149 147 95
155 153 98
149 147 93
157 154 96
155 152 98
147 146 95
159 155 98
165 161 105
162 159 103
163 160 102
157 155 99
165 161 102
164 160 100
163 159 101
163 159 98
170 165 103
165 162 101
168 164 102
170 165 100
169 165 104
172 166 105
166 162 101
171 166 105
169 165 105
171 166 99
173 168 101
167 163 101
172 167 105
175 169 108
171 166 103
172 167 102
171 166 105
173 167 105
175 169 103
172 167 101
176 171 105
174 168 103
173 167 100
174 168 102
173 168 103
176 170 102
174 168 101
176 170 106
174 168 103
173 167 101
178 171 106
174 168 100
173 168 100
168 165 103
172 167 104
173 167 101
170 165 98
172 166 97
174 168 100
170 164 101
170 164 100
170 164 99
171 164 99
174 167 101
171 164 97
171 164 95
167 161 95
170 164 99
172 165 98
168 162 97
168 163 95
167 161 97
167 161 97
167 160 93
168 162 97
162 157 90
167 161 87
162 156 89
162 156 86
165 160 91
170 164 96
161 156 82
164 158 91
159 154 87
162 156 88
159 153 86
159 153 82
159 153 83
146 140 76
155 149 80
151 145 79
160 153 87
142 137 74
148 143 75
150 145 78
160 152 83
153 147 80
147 142 70
147 141 73
145 139 71
135 129 64
128 122 61
130 125 59
146 139 68
137 131 60
133 128 62
126 121 59
170 189 28
175 197 0
174 195 0
174 196 0
174 196 0
172 195 0
173 196 0
172 196 0
172 195 0
174 198 0
173 197 0
172 196 0
175 198 0
173 196 0
174 197 0
170 192 0
173 197 0
174 198 0
171 194 0
173 196 0
173 197 0
175 198 0
173 196 0
175 197 0
173 197 0
174 197 0
174 197 0
170 194 0
171 195 0
175 198 0
173 196 0
171 195 0
172 195 0
171 194 0
171 195 0
176 198 0
172 195 0
173 197 0
172 195 0
169 192 0
175 198 0
172 196 0
173 197 0
172 196 0
172 196 0
172 195 0
174 198 0
172 196 0
169 193 0
172 196 0
173 196 0
172 196 0
172 195 0
170 193 0
171 194 0
174 197 0
170 193 0
171 195 0
174 197 0
171 195 0
172 196 0
171 194 0
173 196 0
170 194 0
173 197 0
172 196 0
173 196 0
172 195 0
169 193 0
171 194 0
171 195 0
171 194 0
171 194 0
173 197 0
173 196 0
173 197 0
171 195 0
171 195 0
171 195 0
169 193 0
172 195 0
171 194 0
174 196 0
171 194 0
174 196 0
174 197 0
170 193 0
172 196 0
173 197 0
171 194 0
172 195 0
171 195 0
171 194 0
171 195 0
169 192 0
171 195 0
170 194 0
171 195 0
167 191 0
171 195 0
172 196 0
167 191 0
171 193 0
173 196 0
173 196 0
170 193 31
88 119 157
62 99 169
63 99 171
63 100 176
63 99 171
62 99 175
61 98 167
62 99 177
63 100 178
62 99 174
62 98 178
62 99 173
62 98 171
62 99 176
61 98 174
63 99 177
62 99 174
62 99 180
62 99 177
61 98 174
62 98 175
62 99 179
62 99 178
62 99 177
62 99 180
61 98 175
62 99 180
62 99 180
62 99 179
62 99 177
62 99 179
62 99 180
62 99 178
62 99 180
62 99 181
62 99 180
62 99 180
62 99 180
62 99 179
62 99 180
62 99 179
62 99 181
62 99 180
62 99 180
62 99 181
62 99 178
62 99 179
62 99 180
62 99 180
62 99 181
62 99 179
62 99 181
62 99 181
61 99 181
62 99 181
62 99 179
61 99 180
62 99 180
62 99 179
62 99 180
62 99 179
62 99 177
62 99 180
61 99 179
62 99 181
62 99 180
62 99 179
61 99 179
62 99 181
62 99 179
62 99 180
61 99 180
62 99 178
62 99 181
62 99 179
62 99 181
62 99 181
62 99 181
62 99 181
61 99 179
61 98 176
61 99 179
62 99 179
62 99 180
62 99 177
62 99 181
62 99 178
62 99 180
62 99 181
62 99 178
61 98 174
62 99 177
62 99 180
62 99 180
62 99 178
62 99 179
61 98 179
61 99 178
63 100 180
62 99 178
63 100 180
62 99 180
62 99 178
62 99 179
62 99 175
62 99 177
62 99 178
62 99 180
62 99 177
62 99 178
62 99 180
62 99 176
62 99 174
63 100 178
62 99 178
62 99 178
63 99 177
62 99 178
62 99 176
62 98 174
63 100 178
61 98 172
62 99 179
62 99 174
62 99 178
62 99 178
62 98 172
61 98 169
61 97 170
63 99 176
62 98 174
62 98 174
62 98 175
61 98 173
62 98 173
61 97 172
62 97 171
62 98 172
62 98 173
62 98 173
60 96 171
61 97 167
60 95 163
60 95 163
61 96 165
60 95 164
62 98 173
60 94 163
87 97 105
97 99 66
112 111 70
101 101 63
90 93 63
90 91 61
95 97 65
94 96 67
95 96 64
103 105 74
95 97 69
106 107 74
95 98 73
97 99 70
97 99 68
116 117 81
99 101 74
111 113 79
111 112 79
112 114 78
117 118 82
123 123 85
112 113 80
120 122 85
122 124 85
125 126 89
109 113 81
128 130 90
125 127 89
131 132 90
130 131 90
136 134 90
134 134 92
137 136 89
134 135 93
143 142 92
137 136 91
136 135 90
151 149 97
150 147 94
146 143 93
155 153 99
144 143 95
144 143 94
154 151 96
148 145 93
155 153 98
158 155 99
151 148 95
161 157 100
158 156 96
159 155 99
158 156 99
168 163 104
164 159 97
162 159 101
165 162 102
158 155 99
166 162 99
161 159 99
161 158 98
170 165 103
168 163 100
168 164 103
173 168 104
170 164 99
169 165 103
172 167 103
172 167 103
170 166 100
168 163 100
174 169 105
173 167 102
172 167 101
174 168 104
176 170 104
171 166 100
172 167 102
176 171 107
174 168 100
173 169 103
169 165 101
173 168 104
175 169 104
171 165 102
171 166 99
171 165 103
173 168 102
176 169 104
177 170 104
173 168 99
173 167 104
171 167 103
173 167 102
173 167 99
172 166 98
178 170 101
172 165 99
169 163 98
172 165 95
175 168 102
169 164 96
164 159 93
171 165 97
168 161 96
163 157 91
170 164 101
172 165 94
167 160 97
168 162 96
162 157 91
167 160 93
169 162 97
166 160 89
163 157 86
165 158 91
157 151 87
166 160 90
158 152 85
157 152 84
159 153 82
169 162 94
162 157 87
157 151 84
166 159 93
160 154 81
159 152 81
161 154 91
159 153 84
155 148 80
158 151 87
153 147 78
155 149 80
152 145 78
153 147 76
155 149 78
147 142 71
148 143 69
145 140 66
139 133 64
149 143 70
149 143 70
131 125 60
123 118 52
134 128 61
119 114 53
170 189 16
171 193 0
172 194 0
172 193 0
172 193 0
171 194 0
172 196 0
173 196 0
173 196 0
174 197 0
173 196 0
173 196 0
172 195 0
173 196 0
173 196 0
174 198 0
174 197 0
173 195 0
173 197 0
173 196 0
173 196 0
174 197 0
173 197 0
172 195 0
173 197 0
172 195 0
175 198 0
171 194 0
173 196 0
174 197 0
173 196 0
171 195 0
175 197 0
172 195 0
173 196 0
167 190 0
172 196 0
173 197 0
173 196 0
173 196 0
173 197 0
175 198 0
170 193 0
173 197 0
173 197 0
172 195 0
174 198 0
170 194 0
170 193 0
172 195 0
174 197 0
173 197 0
170 193 0
173 197 0
174 197 0
174 197 0
173 196 0
170 194 0
172 195 0
172 196 0
170 193 0
172 195 0
173 196 0
171 194 0
172 195 0
171 195 0
170 194 0
174 196 0
171 195 0
171 195 0
171 195 0
173 196 0
173 196 0
173 197 0
171 195 0
175 198 0
172 195 0
172 195 0
170 193 0
172 196 0
173 196 0
174 197 0
174 197 0
170 193 0
168 191 0
174 198 0
170 194 0
172 196 0
171 195 0
171 194 0
170 193 0
173 196 0
169 192 0
174 196 0
172 195 0
172 194 0
173 196 0
171 195 0
168 192 0
170 192 0
172 194 0
170 194 0
169 193 0
175 198 0
170 192 0
129 154 113
62 98 166
62 98 168
63 99 172
62 98 167
62 98 169
62 98 167
62 99 172
61 98 171
62 98 170
62 99 174
62 99 177
62 99 177
62 99 175
62 99 176
62 99 178
62 98 172
62 99 174
62 99 176
62 99 178
62 99 175
62 99 179
61 99 176
62 99 177
62 99 176
62 99 178
62 99 181
62 99 175
61 99 178
62 99 178
62 99 180
62 99 179
62 99 176
62 99 176
62 99 181
61 99 179
62 99 178
62 99 180
62 99 179
62 99 179
62 99 181
62 99 180
62 99 180
62 99 176
62 99 179
62 99 181
62 99 177
61 99 181
62 99 181
62 99 180
62 99 181
62 99 180
62 99 181
62 99 180
62 99 180
62 99 181
62 99 180
62 99 180
62 99 178
62 99 179
62 99 178
62 99 180
62 99 181
62 99 181
62 99 180
62 99 178
62 99 179
61 99 179
61 98 178
62 99 179
61 98 180
62 99 181
61 98 178
62 99 180
62 99 176
62 99 177
63 99 178
62 99 181
62 99 180
61 99 177
62 99 178
62 99 180
62 99 180
62 99 180
62 99 180
62 99 180
62 99 178
62 99 180
62 99 179
62 99 180
62 99 178
62 99 178
62 99 181
62 99 177
62 99 179
62 99 176
62 99 175
62 99 177
63 100 181
62 99 179
62 99 180
62 99 180
62 99 179
63 100 179
62 99 175
62 99 179
62 99 179
61 98 176
62 99 178
62 99 178
62 98 174
62 99 178
62 99 176
63 100 179
62 99 179
62 99 179
62 99 177
62 99 178
62 99 177
61 98 175
62 99 175
61 98 174
61 98 170
62 99 177
62 98 175
61 97 171
62 99 175
62 99 177
62 99 175
62 99 175
61 98 168
61 98 170
62 98 170
62 99 174
62 98 174
61 98 172
61 98 172
62 99 176
61 98 171
62 98 170
61 97 167
62 98 172
61 97 166
61 97 168
62 98 169
60 95 164
62 98 167
61 97 163
61 96 167
59 94 164
94 96 74
95 95 61
104 104 67
92 93 66
87 90 60
98 100 71
97 100 72
99 101 73
93 95 67
98 101 72
106 108 75
90 94 69
104 106 77
93 97 71
104 106 77
98 100 71
109 111 78
104 107 78
101 104 73
122 123 85
133 133 91
111 113 82
106 109 78
106 108 77
108 111 78
112 114 81
123 123 85
128 128 86
123 124 88
127 128 88
135 135 91
135 134 90
129 129 88
131 130 85
136 136 92
139 137 91
137 136 89
143 142 93
148 145 93
139 138 89
152 149 98
150 149 97
151 148 95
155 152 98
157 154 101
155 152 97
157 153 97
159 156 102
166 161 103
160 156 99
160 156 99
157 154 95
160 157 101
155 152 93
160 157 100
164 160 102
169 164 102
165 161 101
166 162 103
162 158 100
170 164 102
168 164 101
167 162 102
171 166 104
166 161 100
169 164 97
171 165 102
169 165 103
172 166 101
173 168 100
176 170 105
171 166 104
172 166 101
176 170 107
173 168 101
175 169 105
172 168 105
172 167 100
172 167 99
177 170 104
171 165 97
174 168 102
173 168 103
174 168 98
176 170 102
175 169 101
175 169 100
174 169 104
177 170 106
175 170 104
174 168 100
173 167 99
171 166 98
169 164 98
176 170 104
172 166 97
169 164 95
170 165 99
171 165 95
171 164 95
176 169 97
165 160 92
173 167 97
168 163 95
165 160 94
169 163 95
168 162 95
170 163 97
168 162 95
167 161 97
169 163 97
170 163 97
170 163 96
163 157 90
170 163 95
165 159 93
167 161 92
156 150 86
163 156 89
166 159 91
161 155 86
161 154 84
167 160 89
164 157 89
151 145 79
153 148 83
157 150 84
162 156 84
154 147 78
154 148 80
147 141 75
150 144 74
159 153 79
150 144 74
149 144 71
150 144 71
151 145 69
148 141 75
143 137 69
149 142 72
149 143 73
139 133 67
126 121 54
137 131 64
123 117 56
167 185 22
172 195 0
171 194 0
175 197 0
173 195 0
171 194 0
172 195 0
173 196 0
170 194 0
173 197 0
171 194 0
169 193 0
171 195 0
173 196 0
172 196 0
173 196 0
174 198 0
171 195 0
174 198 0
173 197 0
172 195 0
173 197 0
175 198 0
174 198 0
175 197 0
173 196 0
174 197 0
174 198 0
171 194 0
171 195 0
172 196 0
173 195 0
171 194 0
171 194 0
170 193 0
169 193 0
172 195 0
173 197 0
173 197 0
173 196 0
173 196 0
171 193 0
170 194 0
175 198 0
168 192 0
174 196 0
173 197 0
174 196 0
175 197 0
173 196 0
170 194 0
171 195 0
174 197 0
171 194 0
172 195 0
174 197 0
174 197 0
172 196 0
171 195 0
174 197 0
174 197 0
173 196 0
173 196 0
174 197 0
173 196 0
173 196 0
172 196 0
170 193 0
172 195 0
171 194 0
171 194 0
169 192 0
172 195 0
173 196 0
172 195 0
172 195 0
169 193 0
172 196 0
171 194 0
171 194 0
173 197 0
173 197 0
172 195 0
172 196 0
170 194 0
169 191 0
173 196 0
168 191 0
173 196 0
171 194 0
174 197 0
171 193 0
172 195 0
173 197 0
172 195 0
172 195 0
170 193 0
169 193 0
171 194 0
173 196 0
168 191 0
170 193 0
171 195 0
171 194 0
152 176 80
64 99 162
62 99 168
61 98 171
62 99 176
62 99 174
62 99 170
62 98 172
63 99 177
62 99 176
63 99 177
62 99 175
62 99 176
62 99 175
62 99 177
62 99 169
62 98 172
61 98 173
62 99 178
62 99 175
63 100 179
62 99 174
62 99 179
62 99 175
62 99 178
62 99 178
62 99 178
61 98 178
62 99 178
62 99 178
62 99 177
62 99 178
63 99 179
61 98 174
62 99 176
62 99 179
62 99 179
62 99 181
62 99 180
62 99 180
62 99 179
62 99 179
62 99 181
62 99 179
63 100 180
63 100 178
62 99 178
61 99 179
62 99 178
61 99 179
61 99 181
62 99 181
62 99 179
62 99 179
62 99 180
62 99 181
62 99 181
62 99 180
61 99 180
61 98 177
62 99 180
62 99 179
62 99 180
62 99 180
61 99 179
62 99 180
61 99 179
61 98 178
62 99 180
63 100 181
61 98 180
62 99 181
62 99 180
62 99 179
63 100 180
62 99 179
62 99 180
62 99 180
62 99 179
62 99 180
62 99 179
62 99 179
62 99 180
62 99 179
62 99 178
62 99 181
62 100 181
62 99 179
62 99 178
62 99 179
61 99 180
62 99 178
62 99 178
62 99 178
62 99 179
62 99 179
62 99 179
62 99 179
62 99 178
62 99 180
61 98 175
63 99 178
62 99 178
62 99 177
61 99 180
61 98 177
61 98 177
62 99 176
62 99 180
62 99 180
61 98 174
62 99 178
62 99 178
62 99 177
63 100 179
62 99 174
62 99 180
62 99 177
63 99 177
62 99 179
62 99 176
62 99 178
62 99 177
62 99 176
62 99 176
62 98 172
62 99 176
61 98 170
62 98 174
62 98 170
62 98 169
62 99 176
61 97 172
61 98 175
62 98 173
62 98 174
61 98 167
61 98 171
62 98 171
62 99 174
61 97 171
62 99 174
61 96 170
61 97 170
62 98 172
61 97 168
61 95 163
60 93 158
60 95 163
59 94 160
60 94 159
80 101 145
95 96 62
96 98 67
81 84 60
80 84 59
101 101 66
85 88 63
92 93 65
94 94 66
96 98 71
80 85 65
100 103 72
100 103 73
92 97 72
99 101 71
100 102 74
95 99 69
102 105 74
109 112 79
107 108 76
100 104 75
97 101 75
111 113 79
124 124 86
122 122 86
124 124 86
118 120 84
117 120 86
111 113 76
121 123 84
125 125 86
128 128 87
127 128 87
136 136 91
141 139 90
144 143 96
139 138 93
144 144 95
143 140 90
138 137 93
152 149 97
146 145 94
150 148 97
152 149 96
152 150 95
155 152 99
142 140 87
155 151 94
158 155 96
152 149 97
163 159 100
158 155 99
156 153 97
157 154 96
162 159 100
160 156 98
169 164 102
166 161 102
165 160 102
167 162 101
162 158 96
166 161 99
167 163 102
168 164 103
172 166 104
164 159 93
168 163 99
170 164 99
168 164 98
173 168 102
174 167 100
174 169 103
175 169 105
175 169 106
176 169 101
171 166 94
171 166 98
172 166 101
174 169 103
175 169 99
170 165 99
173 168 102
174 168 98
173 167 99
177 170 103
175 169 102
174 168 98
175 169 103
173 167 99
175 168 101
171 166 96
173 166 96
172 166 100
170 165 95
173 167 95
171 165 98
170 163 94
173 166 100
169 163 95
173 166 97
168 162 95
172 166 95
171 165 97
169 163 95
169 163 94
169 164 95
165 159 90
167 160 87
170 163 97
170 164 95
159 154 87
171 164 96
169 163 92
165 159 90
169 162 93
167 160 90
164 158 92
164 157 86
160 155 84
169 162 94
161 155 84
157 152 81
159 153 84
165 159 85
155 150 80
159 153 83
148 143 80
157 151 78
158 152 77
157 150 76
156 149 82
152 146 80
147 141 76
155 149 79
147 142 77
150 144 73
145 138 73
149 143 75
143 137 69
145 139 73
139 134 63
138 132 60
131 126 63
131 126 51
133 126 53
168 189 16
176 198 0
173 196 0
174 196 0
171 195 0
173 196 0
170 193 0
172 195 0
173 196 0
172 195 0
171 195 0
173 196 0
169 193 0
170 195 0
172 195 0
173 197 0
172 195 0
173 197 0
171 194 0
171 195 0
171 195 0
174 197 0
173 196 0
172 195 0
170 194 0
172 196 0
172 196 0
173 196 0
173 196 0
172 196 0
173 196 0
172 196 0
173 196 0
172 195 0
170 194 0
174 198 0
174 198 0
173 197 0
172 196 0
173 197 0
171 195 0
169 192 0
173 197 0
172 195 0
173 197 0
172 195 0
174 198 0
172 195 0
172 195 0
171 195 0
173 197 0
173 196 0
171 194 0
173 197 0
169 194 0
172 194 0
174 197 0
171 195 0
172 196 0
172 196 0
168 191 0
173 196 0
172 196 0
173 196 0
173 196 0
174 198 0
168 192 0
170 194 0
173 196 0
172 196 0
171 194 0
171 195 0
169 192 0
175 198 0
171 193 0
173 196 0
169 192 0
173 196 0
174 197 0
172 195 0
167 191 0
169 193 0
174 197 0
169 192 0
170 193 0
171 194 0
172 196 0
174 197 0
174 197 0
171 195 0
170 193 0
170 194 0
169 191 0
170 193 0
171 194 0
172 195 0
169 192 0
171 195 0
171 195 0
170 194 0
173 196 0
173 196 0
171 194 0
170 194 25
90 119 156
63 99 168
62 98 167
62 98 159
62 99 172
61 98 171
63 99 176
63 99 177
61 98 168
61 98 172
62 99 176
62 99 174
62 99 180
61 98 168
62 99 174
61 98 172
62 99 174
63 99 177
62 99 179
62 99 176
61 98 174
62 99 174
62 99 178
62 99 178
62 99 179
63 99 178
62 99 180
62 99 179
62 99 179
62 99 181
62 99 179
62 99 180
62 99 180
62 99 180
62 99 176
62 99 179
62 99 175
62 99 178
62 99 177
62 99 177
62 99 179
62 98 177
62 99 179
61 98 174
62 99 180
62 99 180
62 99 178
62 99 180
62 99 177
61 99 181
62 98 176
62 99 179
61 99 180
62 99 181
62 99 178
61 98 176
61 99 180
62 99 178
62 99 178
63 100 180
62 99 178
63 99 179
62 99 179
61 98 178
62 99 179
62 99 180
62 99 177
62 99 180
63 100 181
63 100 179
62 99 181
62 99 181
63 100 178
61 98 178
62 99 180
61 98 180
62 99 179
61 99 178
62 99 181
62 99 180
62 99 179
62 99 180
61 98 180
62 99 180
62 99 179
62 99 180
61 99 177
61 98 178
61 99 179
62 99 177
62 99 177
62 99 180
61 99 178
63 100 178
62 99 176
62 99 180
62 99 179
62 99 178
62 99 178
61 99 178
62 99 181
62 99 177
62 99 180
62 99 177
62 99 178
62 99 177
62 99 177
62 99 179
62 99 180
62 99 178
62 98 176
62 99 176
61 98 175
62 99 179
62 99 178
62 99 176
62 99 177
61 98 172
62 99 177
62 99 178
62 98 174
62 99 175
62 99 174
61 97 168
62 99 176
62 99 175
61 98 173
62 99 178
61 98 174
62 99 174
63 99 175
61 98 174
62 98 171
62 99 173
61 97 169
62 98 173
62 99 174
61 98 171
61 98 173
61 97 170
62 98 170
61 97 170
61 97 167
61 96 162
61 97 165
61 97 168
61 95 163
61 96 164
61 96 167
60 95 161
60 94 161
60 93 158
79 89 106
102 101 68
98 98 63
97 96 64
97 99 70
95 96 66
84 86 59
97 99 68
94 97 70
111 111 77
88 92 67
101 104 76
87 91 66
95 98 71
117 118 83
99 101 69
90 93 67
99 103 74
111 114 82
107 108 75
116 117 82
106 109 78
112 114 79
119 120 82
123 123 83
125 126 86
122 124 86
126 125 84
122 122 82
136 135 89
139 138 93
130 129 83
135 134 91
133 132 89
133 132 87
136 135 91
151 149 97
145 144 95
140 137 87
142 141 92
146 145 91
150 148 95
157 154 99
160 157 99
146 143 94
154 151 97
154 151 96
154 151 99
157 153 95
163 158 101
163 159 101
162 158 102
165 160 98
164 159 102
163 159 98
165 161 99
168 164 100
164 160 102
167 162 101
165 162 99
164 160 103
166 162 101
170 166 102
171 166 101
165 160 99
170 165 104
173 168 104
170 164 100
171 165 101
175 169 101
175 169 104
171 165 102
175 169 103
173 167 98
174 169 106
173 167 99
175 169 101
174 168 101
175 169 103
175 168 101
177 171 106
172 166 96
173 168 103
175 169 99
173 167 102
178 170 105
177 170 101
174 168 100
174 168 98
179 171 102
172 166 98
174 167 96
169 164 95
172 166 97
169 163 95
174 168 97
171 165 98
172 166 103
172 166 101
168 162 94
174 166 95
170 164 97
175 167 102
170 163 94
171 165 97
172 165 93
172 165 93
167 161 93
168 162 95
164 159 90
169 163 98
171 165 95
170 164 93
164 158 82
162 157 92
168 161 90
163 156 87
167 161 93
158 153 85
167 161 92
163 156 84
164 158 82
157 151 84
159 152 85
158 152 81
164 158 91
160 154 87
149 143 73
160 153 84
158 152 75
152 146 73
157 150 80
156 150 83
132 128 70
149 142 69
159 152 78
139 133 66
151 145 73
148 142 73
133 128 61
140 134 67
132 126 63
128 122 62
124 119 53
172 194 0
171 193 0
171 193 0
172 195 0
174 197 0
170 192 0
174 198 0
172 195 0
172 196 0
174 197 0
172 196 0
173 197 0
172 196 0
173 196 0
172 195 0
170 194 0
174 197 0
172 195 0
173 196 0
173 197 0
172 196 0
173 196 0
172 195 0
173 196 0
171 195 0
172 195 0
173 196 0
172 195 0
172 195 0
172 195 0
172 196 0
173 196 0
172 195 0
172 196 0
173 197 0
174 197 0
172 195 0
170 194 0
172 195 0
171 195 0
172 195 0
174 197 0
172 196 0
174 197 0
173 196 0
172 196 0
171 195 0
173 196 0
172 195 0
171 195 0
169 193 0
170 194 0
170 193 0
170 193 0
172 195 0
170 194 0
173 195 0
172 196 0
172 196 0
174 197 0
171 195 0
174 197 0
173 196 0
169 193 0
171 194 0
173 196 0
173 196 0
169 192 0
174 197 0
169 192 0
170 194 0
171 195 0
172 196 0
173 196 0
169 193 0
169 193 0
173 196 0
172 194 0
171 194 0
170 193 0
171 195 0
172 195 0
167 191 0
170 193 0
172 196 0
170 193 0
169 193 0
171 195 0
171 195 0
171 194 0
173 196 0
169 193 0
174 196 0
170 193 0
171 194 0
171 194 0
172 196 0
172 195 0
172 195 0
169 192 0
170 194 0
170 193 0
173 195 0
132 157 108
62 99 168
61 98 168
63 99 164
62 98 167
62 99 173
62 99 173
62 99 175
62 99 177
63 100 177
62 98 164
62 99 172
62 99 173
62 99 179
62 99 177
62 99 174
62 99 174
63 100 178
62 99 175
61 98 176
62 98 173
63 100 178
62 99 179
62 99 179
61 99 177
62 99 178
62 99 177
62 99 175
62 99 178
62 99 177
63 100 180
62 99 177
62 99 178
62 99 176
61 98 173
62 99 178
62 99 175
62 99 178
62 99 176
62 99 179
62 99 179
62 99 176
62 99 180
61 98 177
61 99 179
62 99 177
62 99 179
63 100 179
62 99 179
62 99 181
62 99 177
62 99 179
61 99 179
61 99 181
61 98 179
61 98 177
61 99 181
62 99 181
62 99 178
62 99 178
62 99 180
62 99 181
62 99 179
62 99 179
62 99 179
62 99 178
62 99 180
63 100 179
62 99 180
62 99 177
62 99 178
62 99 176
62 99 176
62 99 180
62 99 179
61 98 178
62 99 181
62 99 179
61 98 176
62 99 178
62 99 177
62 99 178
62 99 180
62 99 179
62 99 180
62 99 177
62 99 177
62 99 180
62 99 177
62 99 178
62 99 180
63 99 178
62 99 180
62 99 181
62 99 177
62 99 178
62 99 178
62 99 179
62 99 178
62 99 176
61 99 177
62 99 175
61 98 175
62 99 179
62 99 179
62 99 177
62 99 178
62 99 177
63 100 178
62 99 176
62 99 174
62 99 179
62 99 179
62 99 178
62 99 177
62 99 176
63 99 177
62 99 176
62 99 177
62 99 175
62 99 178
62 99 174
63 100 180
62 99 175
63 99 177
62 99 176
62 98 171
62 98 171
61 97 172
62 98 175
63 100 177
62 98 172
62 99 175
62 98 172
62 99 178
62 98 173
62 99 175
61 97 169
62 99 174
62 99 173
62 98 172
61 98 172
61 97 166
62 98 167
61 97 168
62 98 173
61 96 163
61 97 167
61 96 167
61 96 169
61 96 164
61 97 169
60 94 163
63 94 152
72 77 64
99 99 66
81 84 60
92 94 63
80 83 57
76 81 60
80 83 60
89 92 64
90 93 67
99 101 70
92 95 69
94 98 73
94 97 69
92 94 68
96 99 72
107 109 77
114 115 81
107 109 78
109 111 76
106 109 77
112 115 82
105 108 73
112 115 81
125 125 85
120 121 82
131 131 88
119 120 82
119 120 76
131 131 88
122 124 87
129 129 88
130 131 87
131 131 84
139 138 93
137 136 90
143 142 94
141 141 90
142 140 93
145 143 91
138 137 90
137 138 86
148 147 94
147 146 95
154 151 98
153 150 95
161 157 99
154 151 94
152 150 95
156 153 92
159 155 96
163 159 100
163 158 99
161 157 96
164 160 97
164 159 98
170 165 101
163 159 98
165 161 100
165 162 99
164 160 97
168 163 101
168 164 103
164 161 101
171 165 99
169 164 97
167 163 101
171 166 98
170 164 98
172 167 99
170 166 99
170 165 101
176 170 104
174 168 102
174 168 101
173 167 99
172 167 99
172 166 101
171 166 98
174 168 96
175 168 101
171 165 97
172 166 99
175 169 106
173 167 99
172 167 99
174 167 103
175 169 101
173 166 99
174 168 103
172 166 99
176 169 103
169 163 97
175 169 103
170 164 93
174 167 99
174 168 97
173 167 102
173 167 95
171 165 97
172 165 95
168 163 93
171 165 94
161 155 89
163 158 87
172 165 98
165 160 94
170 164 94
169 162 90
170 164 93
167 162 95
164 157 90
172 165 95
159 154 86
170 163 92
162 156 84
164 158 90
163 158 83
159 152 83
161 154 87
165 158 90
161 155 83
150 144 78
154 148 75
161 155 80
154 149 79
147 141 72
152 147 76
151 145 75
152 145 76
154 148 75
144 140 67
137 132 59
149 144 74
153 146 83
143 137 66
145 140 70
137 131 64
143 138 67
140 134 65
137 132 58
131 127 54
132 127 57
126 122 48
171 194 0
171 193 0
172 195 0
171 194 0
172 195 0
174 197 0
173 195 0
172 196 0
171 194 0
173 196 0
174 198 0
172 196 0
174 197 0
174 198 0
171 195 0
173 197 0
173 196 0
170 194 0
174 198 0
171 195 0
173 197 0
173 197 0
171 194 0
175 197 0
174 196 0
173 196 0
173 197 0
174 197 0
172 195 0
173 196 0
173 197 0
173 196 0
172 196 0
170 194 0
173 197 0
172 196 0
172 195 0
173 197 0
173 196 0
171 195 0
172 196 0
173 196 0
173 196 0
173 196 0
173 195 0
174 196 0
172 196 0
167 191 0
173 197 0
173 196 0
174 198 0
174 196 0
173 197 0
169 192 0
170 194 0
172 195 0
171 194 0
171 194 0
171 194 0
172 195 0
173 196 0
171 194 0
172 196 0
173 196 0
172 194 0
172 196 0
173 197 0
170 194 0
169 192 0
170 194 0
174 197 0
172 195 0
171 194 0
174 197 0
173 195 0
170 193 0
173 196 0
167 191 0
167 190 0
170 194 0
172 195 0
170 194 0
172 196 0
173 196 0
172 196 0
170 194 0
173 197 0
172 196 0
171 195 0
171 194 0
171 194 0
172 195 0
172 196 0
171 193 0
170 193 0
165 189 0
169 193 0
172 195 0
171 194 0
169 192 0
170 193 0
172 195 0
158 183 67
67 101 159
61 98 169
61 98 168
63 100 175
62 98 168
63 99 170
61 98 173
62 98 168
62 99 175
62 99 173
61 98 167
62 98 172
61 98 174
62 99 172
63 99 173
62 99 176
62 99 173
62 99 178
61 98 170
62 99 175
62 99 178
63 100 179
62 99 175
62 99 175
62 99 175
62 99 176
62 99 177
62 99 178
62 99 180
62 99 175
62 99 179
61 98 176
63 100 178
62 99 177
63 99 175
62 98 173
62 99 179
61 98 178
62 99 178
62 99 180
62 99 177
61 99 179
62 99 179
63 100 180
62 99 180
62 99 179
62 99 178
62 99 179
62 99 181
63 99 179
62 99 180
62 99 178
62 99 180
62 99 179
62 99 176
62 99 178
62 99 178
62 99 181
62 99 178
62 99 178
61 99 178
61 99 177
62 99 179
62 99 179
62 99 179
62 99 179
62 99 178
63 100 181
62 99 177
61 99 179
61 98 178
63 99 180
62 99 180
61 98 178
62 99 179
62 99 179
62 99 176
62 99 179
62 99 176
61 99 178
62 99 179
62 99 180
62 99 177
62 99 179
62 99 178
62 99 179
61 98 179
62 99 180
62 99 180
61 99 178
61 98 179
61 98 178
61 99 177
61 98 178
61 98 178
61 98 178
63 99 178
61 98 176
62 99 180
62 99 176
63 100 179
63 100 180
62 99 178
61 98 172
62 99 178
63 99 178
62 99 177
62 99 175
62 99 177
62 99 176
61 98 175
62 99 179
62 99 177
62 99 174
63 99 176
62 99 179
62 99 174
61 98 172
62 99 177
62 99 177
62 98 174
62 99 176
62 99 173
62 99 177
61 98 171
62 99 174
62 99 175
62 99 175
62 98 175
62 99 171
62 98 174
62 99 172
61 98 173
61 98 172
62 99 171
61 97 171
62 98 166
62 98 172
61 97 167
62 99 173
62 99 171
61 97 166
61 98 171
62 98 167
61 98 173
62 98 176
62 98 174
61 96 159
62 98 165
60 96 162
61 96 164
59 93 154
60 94 164
60 94 160
67 88 123
95 95 61
76 79 56
82 84 55
91 92 65
87 89 59
90 91 62
77 81 59
88 90 63
91 93 66
82 86 62
90 94 69
91 94 68
96 98 70
88 91 65
107 109 74
107 109 77
103 105 76
106 111 81
104 106 73
108 110 77
109 111 79
116 116 82
110 112 76
111 113 78
120 122 85
133 132 87
123 123 83
131 131 89
131 131 82
118 121 86
123 125 87
133 133 89
144 142 93
139 138 89
134 133 86
142 141 92
141 140 93
152 150 98
146 143 91
137 136 88
151 148 98
147 145 89
152 150 97
157 154 100
151 149 91
151 149 93
157 153 96
159 156 100
155 151 93
151 148 87
163 159 96
154 151 93
161 157 95
164 160 97
163 159 98
163 159 97
160 156 87
163 159 97
165 161 101
163 159 92
162 158 94
169 165 102
167 162 98
169 164 98
165 161 99
166 162 97
172 166 101
174 167 101
169 164 100
169 164 97
170 165 95
176 169 105
172 166 99
170 165 97
168 164 97
171 165 91
171 166 99
175 169 100
177 170 103
174 169 102
172 166 100
176 170 104
172 166 96
177 170 103
173 168 99
172 166 96
173 167 97
173 166 98
177 170 99
171 165 97
173 167 95
175 168 95
170 164 96
165 160 93
174 168 101
171 165 95
171 164 95
170 164 97
171 165 97
169 163 91
168 162 93
168 162 93
167 162 93
166 161 91
170 163 93
164 158 89
170 163 93
166 161 90
167 160 90
162 156 89
166 160 91
166 161 93
164 158 93
163 157 85
162 156 82
164 157 86
157 151 85
157 152 84
169 161 94
163 156 81
158 153 79
153 147 75
158 151 80
161 154 79
161 154 83
160 153 80
150 145 68
149 143 74
148 142 76
156 150 75
141 135 65
152 145 75
147 141 70
143 138 69
141 136 62
129 123 53
143 137 68
139 133 67
133 129 61
138 131 67
136 131 58
119 116 45
173 195 0
173 195 0
173 194 0
172 194 0
174 197 0
172 195 0
173 196 0
173 197 0
173 197 0
172 196 0
173 196 0
172 195 0
172 195 0
174 197 0
173 196 0
173 197 0
173 197 0
172 196 0
172 196 0
173 195 0
172 195 0
170 193 0
172 195 0
174 197 0
173 197 0
172 195 0
171 196 0
174 197 0
171 195 0
172 195 0
172 196 0
173 197 0
168 192 0
171 195 0
172 196 0
172 196 0
170 193 0
170 194 0
175 198 0
174 198 0
174 197 0
170 192 0
171 195 0
171 193 0
170 194 0
173 197 0
170 194 0
170 193 0
170 194 0
170 193 0
173 197 0
175 197 0
170 193 0
172 195 0
172 196 0
172 196 0
171 195 0
172 196 0
175 197 0
171 194 0
173 196 0
171 195 0
175 198 0
173 196 0
173 196 0
171 194 0
171 194 0
175 198 0
172 194 0
172 195 0
172 196 0
173 196 0
167 189 0
173 196 0
171 194 0
172 196 0
173 196 0
172 196 0
173 196 0
172 195 0
171 194 0
173 196 0
171 194 0
171 194 0
173 197 0
172 196 0
169 193 0
171 193 0
171 194 0
174 197 0
172 195 0
170 193 0
169 192 0
174 198 0
172 194 0
174 197 0
170 194 0
170 193 0
173 195 0
170 194 0
173 196 0
173 197 0
112 139 139
61 98 164
62 98 168
62 99 166
62 98 167
62 98 170
62 99 172
63 100 175
62 99 174
63 99 175
62 99 173
62 98 170
62 99 172
61 98 172
62 98 172
62 99 173
61 98 172
62 99 176
61 99 179
63 99 176
62 98 174
63 99 177
62 99 175
63 99 176
63 99 177
62 99 174
62 99 177
62 99 178
62 99 175
62 99 179
63 99 180
62 99 177
62 99 177
62 99 177
62 99 179
62 99 179
62 99 177
62 99 180
62 99 176
62 99 179
62 99 180
62 99 178
62 99 180
62 99 179
62 99 180
62 99 180
63 99 179
62 99 181
62 99 179
63 99 179
62 99 179
62 99 179
62 99 180
62 99 179
63 100 179
62 99 180
62 99 177
62 99 178
61 99 180
62 99 180
62 99 179
62 99 180
62 99 178
62 99 178
62 99 176
62 99 178
62 99 179
62 99 177
62 99 180
62 99 181
62 99 176
62 99 181
62 99 177
62 99 179
62 99 180
63 100 179
62 99 179
62 99 181
62 99 178
62 99 178
62 99 180
62 99 178
62 99 179
62 99 178
62 99 180
62 99 175
62 99 178
62 99 178
62 99 178
63 99 179
62 99 181
62 99 179
62 99 176
63 99 177
62 99 176
63 99 179
62 99 176
61 98 177
62 99 178
62 99 180
62 99 177
62 99 178
62 99 177
62 99 179
61 98 176
62 99 177
62 99 179
62 99 179
62 99 175
62 99 178
62 99 175
62 99 175
62 99 176
62 99 177
62 99 179
62 99 176
63 100 179
62 98 171
61 98 175
62 99 175
62 99 177
61 98 174
62 99 171
62 99 177
62 98 172
61 98 176
62 98 172
62 99 178
62 99 176
62 99 174
61 98 173
62 99 172
61 98 171
62 98 173
63 99 172
63 99 175
62 98 175
63 99 171
62 98 170
62 98 171
62 97 170
62 99 171
63 99 177
61 98 173
62 97 167
61 97 164
62 98 170
61 97 169
61 97 168
61 96 163
61 96 168
61 96 162
60 94 160
59 94 162
58 92 158
59 93 156
73 81 76
76 79 55
82 84 56
76 78 54
74 79 56
87 90 62
79 83 59
71 75 56
91 94 66
91 93 65
89 93 66
78 84 65
91 94 67
99 102 73
101 104 74
102 105 75
100 103 71
95 99 70
110 112 80
104 106 76
106 109 75
103 107 77
116 117 79
113 116 81
125 126 85
127 128 86
118 120 83
127 127 85
131 130 86
121 123 85
133 132 84
133 133 85
133 133 85
138 137 86
145 143 92
144 143 94
135 135 83
144 142 89
138 137 87
145 144 94
142 141 90
146 143 90
136 136 86
150 146 94
151 148 90
154 151 94
157 153 93
159 156 96
151 148 91
160 157 101
155 152 94
161 157 97
167 162 99
165 160 97
163 159 98
161 157 95
164 160 94
166 161 98
170 165 97
171 166 100
165 161 98
168 163 99
171 166 100
172 166 96
169 163 95
165 160 95
170 165 104
172 166 99
172 166 101
166 162 97
174 168 98
167 162 93
170 165 98
172 167 99
170 165 99
175 168 103
173 166 97
176 170 102
170 164 94
175 169 101
178 171 103
173 167 101
172 166 97
176 169 101
175 169 100
173 167 98
172 166 96
174 167 101
169 163 93
173 167 99
173 167 98
171 164 99
169 163 87
171 165 97
168 162 93
169 162 97
176 169 102
171 164 92
169 163 94
173 166 94
171 165 99
171 164 91
167 160 93
169 163 95
166 159 87
167 159 90
164 158 91
165 159 86
163 158 84
172 165 97
160 155 86
172 164 94
160 155 82
166 161 89
160 154 85
159 154 85
166 160 89
154 150 78
157 152 80
154 148 80
158 152 82
158 152 84
161 155 84
157 150 82
152 147 75
154 148 80
155 150 80
151 145 74
150 144 76
154 147 76
143 137 71
151 144 75
146 139 72
151 145 75
141 135 64
149 143 68
131 125 65
139 134 64
132 126 58
139 133 71
132 126 53
126 129 37
171 193 0
172 194 0
174 196 0
171 195 0
172 196 0
172 195 0
172 195 0
173 197 0
170 194 0
173 196 0
174 197 0
174 196 0
171 195 0
176 198 0
173 197 0
171 194 0
171 194 0
171 195 0
171 195 0
171 193 0
172 196 0
172 195 0
174 198 0
170 193 0
174 198 0
171 195 0
171 194 0
174 197 0
172 195 0
172 196 0
170 194 0
173 196 0
173 197 0
173 196 0
174 197 0
172 196 0
173 196 0
173 196 0
171 194 0
173 196 0
171 194 0
174 197 0
173 196 0
172 195 0
172 195 0
172 195 0
173 196 0
168 192 0
170 193 0
172 195 0
170 194 0
174 197 0
173 196 0
173 196 0
171 195 0
169 193 0
172 195 0
173 195 0
171 194 0
172 196 0
172 196 0
174 197 0
170 193 0
174 196 0
174 197 0
170 192 0
169 193 0
170 194 0
172 195 0
170 193 0
170 194 0
172 195 0
169 192 0
172 195 0
171 195 0
173 196 0
173 197 0
173 196 0
174 197 0
172 195 0
172 195 0
171 194 0
172 196 0
171 195 0
171 194 0
169 192 0
171 194 0
169 192 0
169 193 0
170 194 0
171 193 0
170 193 0
170 194 0
171 194 0
170 193 0
172 196 0
172 195 0
172 195 0
168 191 0
170 194 0
171 194 0
154 177 74
61 97 162
62 98 169
61 98 163
62 99 168
62 99 170
62 99 173
63 99 174
62 98 171
61 98 168
63 99 176
63 99 174
63 99 174
62 99 177
62 99 175
62 99 173
62 99 177
62 99 174
62 99 176
62 98 175
62 99 177
61 98 171
63 99 176
62 99 171
62 98 175
62 99 177
62 99 177
62 99 179
62 99 173
62 99 176
62 99 179
62 99 179
62 99 180
62 99 180
62 99 177
62 99 176
62 99 177
62 99 178
62 99 178
62 99 178
62 99 180
62 99 179
62 99 179
61 99 179
62 99 180
61 98 178
62 99 180
62 99 178
62 99 180
62 99 178
62 99 181
63 100 178
62 99 179
62 99 178
61 99 180
62 99 179
62 99 177
62 99 178
62 99 178
62 99 174
61 99 178
62 99 180
62 99 180
62 99 180
61 98 177
62 99 178
62 99 179
61 98 179
61 99 179
61 98 176
61 98 176
62 99 177
63 100 181
62 99 179
62 99 180
62 99 179
62 99 179
62 99 179
62 99 180
62 99 180
61 98 178
62 99 180
62 99 180
62 99 177
62 99 178
62 99 179
62 99 178
62 99 179
62 99 176
62 99 180
62 99 178
62 99 177
62 99 180
62 99 178
62 99 174
62 99 179
62 99 180
62 99 177
62 99 180
63 100 178
62 99 181
61 98 179
62 99 179
62 99 176
62 99 177
63 100 178
62 99 175
62 99 179
62 99 176
62 99 174
62 99 179
62 99 173
62 99 175
62 99 176
62 99 177
62 99 178
62 99 176
62 99 178
62 99 177
62 99 176
62 99 177
61 98 173
62 99 179
62 99 176
62 99 174
62 99 177
63 99 169
62 99 174
62 98 170
62 99 172
62 98 171
62 99 176
62 99 173
62 98 174
62 99 172
62 99 171
62 99 175
61 97 168
61 97 169
61 98 172
62 98 173
62 98 173
61 98 174
62 98 171
62 99 174
61 98 171
63 98 172
62 98 172
62 99 172
61 97 166
62 98 169
60 95 163
62 97 170
61 96 166
60 95 160
61 97 168
59 92 153
66 90 135
75 78 51
82 83 54
68 73 53
71 76 56
79 82 57
77 81 59
78 82 61
82 87 64
72 77 61
93 95 69
89 92 66
76 80 56
96 100 76
94 97 70
106 107 73
92 95 66
88 92 67
94 98 68
106 108 73
117 117 79
108 109 77
114 116 81
117 119 82
114 115 78
119 119 82
126 126 80
126 127 86
133 132 88
133 131 85
137 135 88
127 127 84
141 139 93
126 127 85
143 141 86
138 138 92
139 138 91
141 139 91
140 138 89
153 150 94
155 151 94
147 144 91
144 143 88
144 142 90
159 156 97
155 151 96
156 152 97
156 152 92
157 154 94
163 159 94
156 153 94
157 155 96
161 157 95
157 155 96
161 157 96
161 157 97
156 154 90
164 160 95
166 161 99
167 162 97
159 155 97
167 163 103
165 161 95
168 164 96
168 163 98
173 167 99
168 163 96
166 162 93
169 164 103
166 160 90
171 165 100
171 165 99
173 167 100
172 166 100
171 166 103
175 168 99
170 165 95
169 164 92
172 166 99
170 165 95
174 168 99
171 165 93
174 168 97
170 164 92
172 166 99
172 166 97
175 169 100
173 167 90
172 165 97
172 166 94
173 166 97
168 162 91
169 163 97
164 159 88
172 166 97
171 164 88
169 163 93
171 165 94
171 164 93
175 168 100
166 160 91
168 161 90
162 156 85
166 161 89
169 163 97
170 164 101
166 159 90
165 159 94
169 162 97
164 158 87
168 163 93
167 161 90
163 158 89
164 158 87
166 158 89
162 155 80
162 156 91
164 158 87
163 156 87
151 146 77
157 150 83
165 159 88
149 143 71
155 150 75
156 150 83
165 159 82
152 146 79
156 149 76
152 144 80
147 142 68
149 143 73
151 146 70
141 136 65
150 143 74
143 137 70
141 136 63
141 134 68
144 138 69
133 128 54
135 130 59
133 128 57
130 136 34
172 195 0
171 193 0
169 191 0
170 192 0
171 193 0
172 195 0
172 196 0
173 196 0
172 196 0
171 194 0
172 196 0
175 198 0
174 197 0
174 197 0
174 197 0
171 195 0
175 197 0
172 195 0
170 193 0
172 196 0
169 193 0
173 197 0
171 195 0
174 197 0
173 195 0
175 198 0
173 195 0
171 195 0
175 198 0
170 194 0
173 197 0
171 195 0
171 195 0
171 195 0
171 194 0
170 194 0
172 196 0
174 197 0
169 193 0
173 196 0
169 193 0
172 195 0
172 196 0
172 196 0
172 194 0
172 195 0
169 193 0
173 197 0
171 194 0
172 195 0
173 195 0
171 194 0
174 197 0
169 193 0
170 193 0
172 195 0
170 194 0
173 196 0
170 193 0
172 196 0
172 195 0
169 192 0
173 196 0
170 194 0
170 194 0
171 194 0
170 193 0
171 194 0
174 197 0
171 195 0
170 193 0
170 193 0
171 193 0
171 195 0
172 195 0
174 197 0
169 193 0
166 190 0
170 193 0
173 196 0
171 194 0
170 193 0
171 195 0
170 193 0
173 195 0
174 197 0
171 195 0
172 195 0
172 196 0
170 193 0
171 195 0
170 194 0
171 194 0
172 195 0
171 194 0
173 197 0
171 194 0
170 193 0
173 196 0
170 193 0
169 192 0
89 119 153
63 99 170
62 99 168
62 98 166
62 98 169
62 98 165
62 99 173
62 99 170
62 99 171
62 99 175
62 99 172
62 99 173
61 98 165
62 99 173
62 99 169
62 99 173
63 99 172
62 99 172
62 99 175
62 99 180
62 99 173
61 98 177
62 99 174
63 99 177
61 98 171
61 98 172
62 99 177
63 99 175
62 99 177
62 99 176
62 99 176
62 99 178
62 99 179
63 99 179
62 99 181
62 99 180
62 99 176
61 98 176
62 99 178
62 99 178
62 99 180
62 99 176
62 99 176
63 100 177
62 99 178
62 99 180
62 99 179
61 99 180
62 99 178
62 99 181
62 99 178
63 100 177
62 99 179
62 99 178
62 99 176
63 99 179
63 100 181
62 99 179
62 99 176
62 99 181
61 98 179
62 99 176
62 99 179
62 99 179
61 99 179
62 98 176
62 99 173
62 99 181
62 99 178
62 99 180
62 99 181
61 99 178
62 99 178
62 99 179
61 99 178
62 99 181
63 99 180
62 99 180
62 99 179
62 99 178
62 99 179
62 99 178
63 99 178
62 99 180
61 98 178
62 99 179
63 99 178
62 99 176
62 99 176
63 99 176
61 98 177
62 99 179
62 99 178
62 99 177
62 99 175
62 99 176
62 99 177
62 99 178
62 99 178
61 98 175
62 99 176
62 99 177
62 99 180
62 99 179
62 99 177
62 99 177
62 99 176
62 99 177
62 99 180
62 98 170
61 98 175
62 98 172
62 99 177
61 98 174
61 98 172
63 100 181
62 99 173
62 99 175
62 98 175
62 99 174
62 99 174
62 98 170
62 99 173
62 99 176
62 98 172
62 99 173
63 99 178
61 98 173
62 99 176
62 99 176
62 98 168
63 99 175
62 99 176
63 99 177
62 98 172
62 99 172
62 99 174
62 99 169
62 98 172
62 98 172
62 98 175
61 97 171
61 98 171
61 98 174
62 98 167
62 98 172
62 98 169
61 95 165
61 97 166
62 98 168
61 97 165
61 96 167
60 95 159
60 95 164
61 95 158
61 96 162
60 95 162
59 92 157
71 83 96
78 81 56
81 83 59
75 78 56
72 77 56
74 78 56
74 78 58
79 81 59
74 79 57
84 88 63
98 101 74
103 104 73
87 92 65
83 88 65
83 87 65
91 95 69
93 96 67
92 96 68
103 105 75
107 109 75
105 108 76
108 110 75
114 115 78
117 118 77
125 125 80
119 120 82
118 119 82
120 123 84
124 124 81
130 129 84
128 128 87
132 131 86
141 140 90
134 134 87
139 137 87
149 147 94
143 142 91
148 145 91
138 138 89
149 147 92
149 147 92
155 152 97
145 144 92
148 146 91
151 148 91
150 147 93
153 149 95
155 152 91
154 150 94
156 153 94
165 160 99
157 154 93
158 155 90
165 160 96
162 157 90
165 160 94
167 162 98
167 162 97
168 163 96
170 165 105
170 165 100
171 165 102
171 166 99
170 164 100
165 160 97
167 161 92
167 162 92
170 164 98
168 163 96
170 165 96
170 165 99
170 165 95
174 168 102
171 165 97
173 167 99
175 169 99
175 168 99
175 169 99
175 169 103
168 163 90
173 166 96
173 167 96
172 165 97
172 166 94
170 164 95
170 164 97
177 171 103
174 168 95
171 165 93
169 163 91
167 161 90
171 164 95
170 163 93
174 167 103
168 162 90
166 161 85
172 165 95
169 162 96
169 162 95
167 162 90
170 164 95
169 163 96
168 162 88
169 163 92
165 159 87
169 163 94
165 159 91
163 157 84
162 157 90
167 160 92
164 157 94
160 155 84
156 150 80
165 159 86
162 155 86
166 159 87
165 158 88
155 149 82
167 160 89
160 154 79
156 150 80
167 159 84
159 152 84
154 147 80
152 145 74
160 153 79
154 147 80
150 144 75
145 140 63
145 139 72
151 145 72
154 147 75
144 138 67
144 137 68
150 144 72
140 135 63
137 132 56
142 137 62
131 126 54
127 121 49
147 154 47
172 195 0
171 192 0
173 196 0
174 196 0
172 193 0
173 195 0
169 193 0
173 197 0
173 196 0
173 197 0
171 195 0
172 196 0
170 195 0
172 196 0
172 195 0
174 197 0
173 195 0
169 193 0
171 195 0
172 196 0
174 197 0
174 197 0
172 196 0
173 196 0
174 197 0
170 194 0
172 196 0
172 195 0
173 196 0
173 197 0
172 196 0
171 194 0
172 194 0
171 195 0
173 196 0
173 196 0
171 195 0
173 196 0
169 194 0
171 193 0
170 195 0
170 193 0
171 195 0
174 197 0
170 194 0
169 193 0
172 195 0
174 197 0
172 195 0
174 197 0
171 195 0
169 193 0
172 195 0
172 196 0
170 194 0
172 196 0
171 194 0
173 196 0
172 195 0
172 195 0
172 195 0
169 192 0
171 194 0
167 191 0
173 197 0
173 196 0
171 194 0
171 194 0
171 194 0
170 193 0
172 195 0
173 197 0
168 191 0
172 195 0
172 195 0
168 191 0
170 195 0
173 196 0
170 194 0
172 196 0
170 193 0
172 194 0
169 193 0
170 194 0
172 195 0
171 194 0
168 191 0
174 197 0
172 196 0
171 194 0
170 194 0
167 189 0
169 192 0
173 196 0
171 195 0
170 193 0
172 196 0
170 193 0
171 194 0
170 194 0
140 164 94
62 98 165
61 98 167
61 98 166
62 99 172
61 98 164
62 99 172
62 99 169
62 98 170
62 99 170
63 99 174
62 99 174
62 98 174
62 98 171
63 99 171
62 99 170
63 100 176
61 98 169
62 99 179
61 98 166
62 99 177
62 99 175
62 98 173
62 99 174
62 99 175
62 98 176
62 99 174
62 99 175
62 99 180
62 98 175
62 99 176
62 98 174
61 99 177
62 99 179
61 99 178
62 99 178
63 100 179
61 98 171
62 99 179
62 99 179
62 99 176
62 99 178
62 99 179
62 99 176
62 99 178
62 99 178
62 99 178
62 99 174
62 99 175
62 99 176
63 100 180
62 99 180
62 99 179
62 99 179
62 99 179
61 98 181
61 99 180
62 99 176
62 99 180
62 99 177
61 99 177
61 98 176
62 99 180
61 98 178
61 98 176
62 99 176
63 100 180
62 99 180
62 100 181
62 99 177
61 98 180
62 99 179
62 99 176
63 99 178
61 99 180
62 99 177
63 99 177
61 98 177
62 99 174
62 99 176
62 99 178
62 99 179
61 98 178
62 99 176
62 99 178
62 99 177
62 99 178
62 99 176
62 99 175
62 99 178
62 99 177
62 99 176
63 99 176
61 98 176
62 99 176
62 99 177
62 99 180
62 99 178
61 98 177
62 99 179
62 99 176
62 99 177
62 99 177
62 99 179
62 99 178
62 99 177
62 98 174
61 98 176
63 99 178
62 99 179
62 99 177
62 99 177
62 99 176
62 99 175
62 99 177
62 99 170
62 99 177
62 99 174
61 98 174
61 98 173
62 99 176
63 99 175
61 98 176
62 99 176
62 99 176
61 98 170
62 99 178
62 99 176
62 99 174
62 99 176
62 99 170
62 99 176
61 98 173
63 99 173
62 99 171
62 99 174
63 99 173
61 98 173
62 99 174
62 99 175
62 98 172
62 98 170
61 98 173
61 97 169
62 98 167
62 99 174
61 97 166
62 98 172
62 98 166
62 98 172
61 96 167
61 96 164
62 97 165
60 95 158
60 94 162
60 95 159
60 95 161
61 96 159
60 94 160
67 92 141
71 75 54
73 75 51
63 68 49
81 84 60
69 72 52
83 87 65
77 80 58
75 80 60
83 84 55
83 87 63
99 101 70
99 103 71
97 99 70
90 94 71
90 95 69
95 97 69
99 103 72
108 111 77
97 100 71
106 109 78
115 115 76
110 112 77
114 115 78
121 122 82
125 125 81
124 124 82
125 124 79
126 126 84
128 128 84
125 125 79
131 131 84
135 135 90
135 134 86
138 136 84
138 137 88
142 140 88
131 132 88
138 137 87
149 147 92
147 145 92
146 144 89
151 149 93
156 152 95
163 159 94
146 144 91
159 155 95
152 149 91
157 153 94
157 152 93
160 155 94
157 154 94
160 157 94
157 153 91
166 161 97
160 157 93
165 162 98
161 156 91
165 160 94
166 162 97
166 162 101
164 160 92
173 166 100
166 162 95
165 161 95
170 163 94
173 166 94
170 164 93
171 165 96
169 164 96
170 165 96
175 169 101
168 162 91
170 165 97
171 165 98
170 165 98
176 169 97
177 170 100
174 167 98
173 167 97
171 165 93
172 166 97
171 165 93
178 169 99
168 163 94
173 166 94
172 166 98
173 166 95
169 162 92
174 167 99
171 165 94
170 164 95
171 164 89
169 163 92
166 160 88
166 159 90
167 162 90
171 165 97
167 160 90
159 154 89
166 160 91
166 160 91
163 156 84
165 159 87
168 162 95
166 159 90
169 163 93
167 160 89
156 150 83
163 157 90
162 156 84
165 160 85
162 156 86
157 150 82
155 149 80
164 158 84
152 146 82
160 153 82
161 156 80
157 150 77
161 154 84
158 152 77
162 154 85
151 145 75
152 146 79
153 146 80
145 140 66
150 143 77
149 142 74
146 140 72
138 132 65
143 138 64
150 143 71
138 133 61
139 135 61
134 129 58
139 133 63
136 131 52
129 124 51
132 127 59
149 160 42
169 192 0
173 195 0
173 195 0
173 195 0
172 192 0
173 195 0
171 195 0
171 194 0
172 196 0
173 196 0
175 197 0
173 196 0
169 193 0
170 194 0
174 197 0
173 196 0
172 194 0
172 196 0
173 197 0
169 192 0
172 195 0
173 197 0
171 195 0
173 196 0
173 197 0
172 195 0
171 195 0
174 197 0
173 197 0
170 193 0
172 195 0
172 196 0
171 194 0
172 196 0
171 194 0
173 196 0
171 195 0
174 197 0
171 194 0
168 192 0
171 194 0
170 194 0
171 194 0
173 196 0
168 192 0
172 195 0
173 196 0
172 195 0
174 197 0
175 198 0
174 197 0
173 196 0
174 197 0
171 195 0
169 193 0
172 196 0
170 194 0
170 194 0
172 196 0
167 191 0
170 193 0
173 196 0
171 194 0
168 191 0
171 195 0
171 194 0
174 198 0
170 193 0
172 195 0
170 194 0
175 197 0
171 194 0
169 193 0
170 193 0
172 195 0
172 196 0
171 195 0
172 195 0
173 196 0
170 194 0
174 196 0
169 193 0
172 196 0
169 193 0
169 192 0
171 194 0
170 193 0
173 197 0
171 194 0
171 194 0
173 197 0
171 195 0
168 192 0
172 195 0
173 196 0
169 193 0
168 192 0
169 192 0
172 196 0
168 191 18
83 114 147
62 99 170
62 99 171
62 98 164
62 99 171
62 98 167
61 97 164
62 98 166
63 99 174
61 98 172
62 99 176
61 98 174
62 99 172
62 99 174
62 98 174
62 99 175
63 99 175
61 98 171
61 98 173
62 99 174
62 99 176
62 99 177
62 99 179
62 99 179
62 99 175
63 99 177
62 99 175
62 99 177
61 98 173
62 99 180
61 98 177
62 99 177
62 99 180
62 99 180
62 99 178
62 99 174
62 99 176
62 99 176
62 99 175
62 99 177
62 99 179
62 99 179
62 99 180
62 99 176
62 99 179
62 99 180
63 100 179
62 99 180
62 99 177
62 99 179
62 99 178
62 99 180
61 98 175
61 98 179
62 99 180
62 99 178
62 99 177
62 99 178
62 99 178
61 98 175
62 99 180
62 99 180
62 99 176
62 99 176
61 98 177
61 98 176
62 99 178
62 99 176
62 99 177
62 99 179
62 99 175
61 99 179
62 99 179
62 99 178
63 100 181
62 99 176
63 99 174
61 99 178
62 99 179
62 99 176
62 99 177
62 99 173
63 99 175
62 99 180
62 99 177
62 99 178
62 99 180
62 99 176
61 99 177
62 99 177
62 98 176
63 99 175
62 99 176
62 99 175
62 99 179
62 99 177
62 99 177
62 99 177
62 99 179
62 99 178
62 99 178
63 99 179
62 99 175
62 99 178
62 99 172
62 99 178
62 99 174
62 99 180
62 99 176
62 99 176
61 98 174
62 99 176
62 99 175
62 99 179
62 99 173
62 99 176
62 98 174
62 99 175
62 99 176
61 98 174
62 99 176
62 99 174
63 100 177
62 99 174
62 99 171
62 98 171
62 99 175
62 99 175
62 99 176
62 99 171
63 99 175
62 98 173
62 98 171
61 98 173
62 99 171
62 99 175
62 98 172
62 98 171
62 99 171
63 100 176
61 98 166
62 98 169
63 99 174
63 100 176
61 97 168
62 97 167
61 97 165
62 98 167
61 97 159
61 97 169
62 98 169
61 97 166
61 97 166
60 95 163
62 98 172
61 97 164
60 96 161
60 94 158
58 91 154
58 92 159
59 76 95
65 69 50
59 65 49
78 81 56
75 77 54
64 70 53
85 88 62
84 87 62
81 86 63
77 81 59
73 78 55
78 84 62
80 86 62
90 94 66
93 96 67
85 89 58
102 106 76
96 101 71
106 108 73
107 109 75
96 100 72
99 102 69
111 112 77
108 111 75
119 119 77
115 116 79
119 120 79
124 123 81
125 125 81
118 119 79
126 127 80
139 138 88
137 136 86
144 142 90
137 136 83
149 146 92
134 132 82
150 147 93
146 143 86
140 138 85
151 148 91
155 151 93
144 143 90
150 148 92
153 150 90
151 148 95
154 150 91
158 154 95
155 152 91
157 154 90
154 150 90
162 157 93
165 161 97
166 161 99
162 158 92
161 157 88
163 159 91
165 160 96
165 160 93
168 163 99
168 163 97
167 162 96
163 159 89
167 162 95
171 165 98
167 162 98
166 162 97
171 164 96
168 164 97
174 168 100
172 167 96
171 166 97
171 165 96
171 165 95
171 165 94
174 168 98
175 168 98
172 166 99
171 165 95
173 166 96
175 168 100
175 167 97
173 167 99
174 167 99
174 167 93
173 166 99
170 164 95
171 164 94
173 167 97
173 166 96
167 161 90
172 166 95
171 165 97
171 165 97
169 163 93
170 163 95
168 162 93
166 161 90
168 162 93
172 165 94
171 165 97
169 162 93
162 155 85
168 162 90
169 162 90
165 159 84
165 159 90
159 153 79
159 153 83
167 160 93
161 154 79
162 156 83
164 158 81
164 157 80
161 154 80
158 152 80
161 155 81
160 153 79
162 155 83
158 152 80
155 149 76
150 144 68
150 144 72
158 152 80
152 146 70
151 145 71
161 155 78
156 149 81
148 141 71
142 137 60
149 143 73
143 137 69
144 138 68
139 134 56
148 141 69
141 134 61
129 124 51
134 129 56
130 125 52
153 166 30
173 195 0
170 192 0
173 195 0
171 193 0
173 194 0
173 195 0
174 197 0
174 197 0
174 196 0
172 195 0
170 193 0
173 196 0
173 196 0
171 195 0
173 197 0
172 195 0
174 197 0
174 197 0
172 195 0
172 196 0
170 194 0
171 195 0
172 196 0
172 195 0
172 195 0
172 195 0
172 196 0
175 198 0
171 194 0
173 196 0
173 196 0
171 194 0
173 196 0
173 196 0
173 196 0
169 193 0
172 195 0
172 195 0
171 196 0
171 196 0
172 196 0
170 194 0
171 194 0
173 196 0
172 196 0
171 195 0
170 193 0
172 195 0
172 196 0
172 196 0
172 195 0
170 193 0
173 197 0
172 195 0
170 193 0
172 196 0
170 193 0
174 197 0
172 195 0
173 197 0
171 195 0
169 192 0
171 195 0
170 194 0
170 193 0
172 195 0
170 194 0
170 193 0
170 193 0
171 194 0
172 195 0
168 192 0
171 194 0
167 189 0
170 194 0
171 193 0
173 195 0
171 196 0
173 196 0
172 196 0
171 194 0
171 195 0
173 196 0
169 192 0
169 193 0
167 191 0
168 192 0
170 193 0
169 194 0
169 192 0
170 193 0
171 194 0
172 195 0
170 194 0
170 194 0
170 193 0
172 196 0
171 195 0
168 192 0
145 168 92
63 99 165
62 98 166
63 99 170
61 98 166
61 98 168
62 98 171
62 98 167
62 99 172
62 99 172
61 98 173
63 99 170
63 99 173
62 99 173
63 99 176
62 99 171
62 98 172
61 98 173
61 98 168
61 98 167
61 98 167
62 99 170
62 99 178
62 99 179
62 99 177
63 99 175
62 99 175
62 99 173
63 99 176
62 99 176
62 99 176
61 98 172
62 99 180
62 99 175
62 99 177
61 98 174
62 99 175
62 99 177
62 99 178
61 98 177
62 99 176
62 98 174
62 99 177
62 99 176
62 99 180
62 99 178
62 99 177
62 99 177
62 99 179
61 99 179
61 98 175
61 98 178
62 99 178
62 99 179
61 98 175
62 99 179
62 99 178
62 99 179
62 99 174
62 99 179
61 98 177
62 99 178
62 99 180
61 98 179
62 99 179
62 99 173
62 99 177
62 99 176
62 99 177
61 99 177
62 99 176
62 99 178
62 99 176
62 99 180
62 99 180
63 100 179
62 99 179
62 99 176
61 98 177
62 99 179
62 99 178
62 99 179
62 99 177
62 98 175
62 99 178
62 99 176
62 99 177
61 98 172
62 99 179
62 99 177
62 99 177
62 99 177
62 99 176
63 99 179
62 99 177
62 99 179
62 99 175
63 99 176
62 99 179
63 99 177
61 98 175
62 99 179
63 99 177
63 99 177
62 99 177
63 100 180
62 99 176
62 99 176
63 100 179
62 99 173
62 99 176
62 99 176
63 100 178
62 99 175
62 99 175
62 99 174
62 99 176
62 99 175
62 99 177
62 99 174
62 99 175
61 98 168
62 98 174
63 99 176
62 99 172
63 100 178
62 98 171
62 98 172
62 99 173
62 99 178
62 99 175
61 98 167
63 99 173
62 99 175
62 99 172
61 98 173
63 99 175
62 99 176
62 98 174
62 99 173
62 99 173
62 99 171
61 97 161
62 99 173
62 99 173
62 98 171
61 97 168
62 98 170
61 98 171
62 99 170
62 98 168
61 97 168
61 97 168
61 96 165
62 97 167
61 96 165
60 95 166
59 94 155
61 96 158
59 93 154
59 93 158
58 87 139
68 72 53
67 72 55
66 71 49
68 73 52
73 77 56
69 74 54
70 76 58
75 79 54
86 92 67
78 82 57
70 76 53
94 97 70
89 92 61
95 100 71
89 92 63
90 93 66
106 108 75
102 103 70
104 106 72
110 111 75
106 109 73
101 104 73
111 114 77
114 116 73
118 120 80
115 116 77
127 126 79
127 126 80
128 128 79
134 133 85
141 140 86
135 134 88
136 136 85
138 137 85
133 132 85
139 137 86
135 135 85
141 140 88
138 137 82
145 143 91
147 145 91
155 151 94
142 140 83
151 148 88
158 153 93
150 147 87
152 149 86
156 152 91
163 158 95
154 151 94
164 159 94
167 161 97
173 166 98
163 158 92
159 155 89
153 150 92
168 163 92
169 164 103
167 161 96
169 164 95
161 157 94
171 165 95
168 164 95
163 159 95
167 162 86
168 163 90
169 164 99
168 162 95
175 168 99
169 163 94
172 166 97
173 166 95
169 164 95
171 165 91
171 164 95
169 163 91
176 169 96
167 162 88
171 164 95
175 168 99
175 167 97
172 164 95
171 164 93
171 165 94
173 166 97
175 168 99
173 166 98
170 164 96
171 164 92
171 164 94
168 162 87
175 168 97
170 163 90
169 163 90
167 161 87
170 164 90
167 161 89
173 166 95
168 162 90
165 158 86
169 162 90
165 159 87
166 160 84
168 161 89
159 152 80
163 157 80
169 163 94
161 154 81
166 160 84
158 152 81
165 159 82
165 157 84
166 159 89
159 152 83
158 152 78
155 149 78
160 154 84
159 152 78
160 153 80
161 154 83
159 152 79
159 152 79
153 145 81
153 147 78
153 146 77
149 143 68
149 143 75
155 149 67
139 133 65
151 144 73
146 140 69
145 140 63
137 132 58
133 128 57
127 121 52
135 130 53
119 115 49
125 120 56
159 177 22
173 196 0
172 195 0
168 190 0
173 195 0
172 194 0
173 196 0
172 196 0
171 195 0
174 197 0
176 198 0
175 197 0
173 196 0
171 195 0
172 196 0
174 197 0
171 195 0
172 196 0
172 196 0
175 198 0
173 196 0
173 196 0
171 195 0
173 196 0
173 196 0
171 194 0
171 195 0
172 194 0
174 197 0
173 196 0
172 195 0
173 195 0
173 196 0
173 196 0
175 198 0
169 192 0
171 195 0
172 196 0
172 195 0
172 196 0
170 194 0
174 197 0
172 196 0
172 195 0
173 196 0
170 194 0
171 193 0
172 195 0
172 195 0
174 197 0
171 195 0
175 198 0
171 195 0
171 194 0
175 198 0
170 194 0
174 197 0
169 192 0
171 195 0
171 195 0
172 195 0
172 196 0
173 196 0
169 192 0
173 196 0
168 192 0
170 194 0
171 194 0
173 196 0
170 195 0
172 196 0
168 191 0
172 196 0
168 191 0
173 196 0
169 193 0
170 194 0
171 194 0
171 195 0
171 193 0
173 197 0
173 196 0
168 193 0
171 196 0
172 196 0
173 196 0
171 194 0
170 194 0
170 194 0
172 195 0
168 192 0
167 191 0
171 193 0
167 190 0
171 194 0
173 196 0
172 194 0
170 194 0
169 192 0
169 192 25
87 117 150
61 97 158
62 99 167
62 99 169
61 98 168
62 98 165
61 97 162
63 99 168
62 99 168
62 99 174
62 99 169
63 99 170
62 99 173
62 99 177
63 99 176
62 99 176
62 98 174
62 98 170
61 98 171
62 99 178
62 99 172
63 100 178
62 98 173
63 99 178
62 99 173
61 97 171
62 99 177
62 99 178
61 98 176
62 99 181
62 99 179
62 99 178
62 99 175
62 99 178
62 99 177
62 99 177
62 99 176
62 99 177
61 98 177
62 99 176
62 99 178
62 99 175
62 99 179
61 99 179
61 98 177
62 99 179
62 99 180
62 99 178
61 98 176
62 99 179
62 99 176
61 99 178
62 99 179
62 99 175
62 98 176
62 99 177
63 99 178
62 99 177
62 99 181
62 99 179
62 99 179
62 99 177
62 99 179
62 99 179
62 99 180
62 99 179
62 99 178
62 99 179
63 100 181
62 99 179
62 99 181
62 99 179
62 99 179
62 99 179
62 99 179
63 100 180
62 99 179
62 99 177
62 99 175
62 99 173
62 99 180
62 99 179
62 99 175
62 99 179
62 99 180
63 100 180
62 99 175
62 99 176
62 99 180
62 99 178
63 100 180
62 99 178
62 99 177
62 99 175
63 99 176
62 99 178
62 99 175
62 99 177
62 99 174
62 99 180
62 99 178
62 99 178
62 99 177
62 99 178
63 99 177
61 98 176
62 99 176
62 99 176
62 99 179
62 99 177
62 99 175
62 99 176
62 99 176
62 99 178
63 100 178
63 100 178
63 99 177
62 99 173
62 99 177
62 98 173
63 99 175
61 98 176
61 98 178
62 99 175
62 99 174
62 99 173
62 98 170
61 99 176
62 99 175
62 98 171
62 99 176
62 98 173
61 98 177
62 99 172
62 99 174
61 98 170
62 99 174
61 98 171
62 99 176
62 99 174
63 99 174
63 99 174
62 99 173
62 98 172
62 98 169
62 99 172
62 98 166
63 99 169
62 98 168
62 98 168
61 97 162
62 98 169
61 97 165
62 98 166
61 97 170
61 96 162
61 96 162
60 96 164
61 96 165
60 94 156
61 96 164
57 90 149
66 79 97
53 58 44
66 70 52
71 75 55
69 73 52
73 78 59
84 87 60
75 80 59
67 74 57
73 78 55
75 80 59
77 83 60
90 93 64
89 92 60
89 91 61
105 108 74
105 108 74
97 100 70
99 101 71
108 109 72
115 117 81
116 117 79
106 109 71
117 118 80
100 104 70
123 122 76
116 117 74
116 117 77
131 130 81
119 121 78
134 133 82
128 128 82
136 135 84
128 128 83
133 132 79
145 142 89
139 138 85
143 140 84
134 133 81
145 143 85
144 142 88
153 150 94
152 149 89
154 151 91
149 146 88
160 156 94
162 157 97
148 146 87
156 153 91
159 155 96
162 157 90
158 154 93
159 155 91
164 158 89
160 156 91
161 157 90
159 156 96
164 160 98
162 158 90
165 160 98
166 161 95
166 161 95
170 164 96
170 164 94
167 162 97
172 166 94
174 167 97
166 161 92
168 163 94
173 167 100
173 166 95
169 163 87
169 163 94
173 167 93
172 165 94
175 169 103
172 165 93
171 166 93
176 169 98
172 165 96
169 163 93
172 166 90
170 164 96
175 168 97
172 166 93
171 165 94
172 165 97
171 165 93
174 168 95
172 166 93
171 164 93
170 163 90
167 161 87
166 160 84
171 165 93
170 164 97
170 164 90
173 166 93
168 161 87
165 159 90
166 160 86
167 161 95
168 161 90
166 160 85
167 160 87
162 155 84
159 154 81
163 157 84
161 156 91
168 161 93
163 156 87
162 156 92
158 152 82
158 152 83
155 148 77
161 155 80
152 146 69
158 152 79
158 151 80
156 150 75
158 151 83
150 144 74
148 143 62
153 147 70
141 135 65
153 146 76
158 151 76
148 142 66
145 140 65
141 135 63
144 138 65
140 133 59
137 133 61
136 131 56
125 120 49
130 125 58
119 115 45
131 127 48
163 183 19
174 195 0
172 194 0
173 195 0
173 195 0
173 196 0
172 195 0
172 195 0
173 197 0
174 197 0
173 196 0
171 195 0
173 196 0
172 195 0
175 197 0
174 197 0
174 197 0
173 196 0
173 196 0
175 197 0
170 194 0
172 196 0
172 196 0
172 195 0
172 196 0
174 197 0
173 196 0
171 195 0
173 196 0
172 195 0
172 196 0
173 196 0
173 197 0
173 196 0
172 195 0
170 194 0
171 195 0
171 195 0
171 194 0
171 194 0
172 196 0
171 195 0
173 197 0
173 196 0
172 196 0
171 194 0
174 197 0
172 196 0
174 197 0
172 195 0
171 195 0
173 197 0
175 198 0
171 195 0
174 197 0
171 195 0
171 194 0
170 194 0
171 194 0
173 197 0
169 193 0
169 191 0
173 196 0
171 194 0
171 194 0
168 192 0
173 197 0
168 191 0
170 194 0
171 195 0
172 195 0
173 196 0
171 194 0
174 197 0
169 192 0
167 190 0
172 194 0
173 196 0
170 194 0
171 194 0
169 194 0
169 192 0
172 195 0
170 194 0
166 189 0
173 196 0
171 194 0
171 196 0
170 193 0
170 193 0
171 193 0
173 195 0
170 193 0
169 193 0
171 195 0
169 193 0
166 190 0
172 195 0
172 195 0
137 162 107
62 99 168
62 98 166
63 99 174
61 98 164
63 99 169
62 98 164
62 98 166
62 98 173
62 99 173
61 98 168
61 98 172
62 98 169
62 99 173
61 97 170
62 99 171
62 99 170
63 99 174
61 98 175
62 99 172
62 99 172
61 98 171
62 99 177
62 99 170
61 98 171
62 99 173
62 99 177
62 99 178
61 98 179
62 99 177
62 99 175
62 99 177
62 99 177
63 99 178
62 99 179
62 98 174
63 99 178
62 99 175
61 98 175
63 100 180
62 99 178
62 99 177
62 98 176
62 99 181
62 99 180
62 99 179
62 99 179
63 100 180
62 99 175
62 99 174
62 99 175
62 99 180
62 98 174
62 99 178
62 99 177
62 99 179
62 99 179
62 99 178
62 99 181
62 99 179
62 99 180
62 99 180
61 98 179
62 99 177
62 99 180
62 99 179
62 99 177
62 99 177
61 99 177
62 99 178
62 99 180
62 99 181
62 99 178
62 99 175
61 98 177
62 99 180
62 99 178
62 99 177
62 99 175
61 98 175
62 99 178
62 99 178
62 99 181
62 99 178
62 99 179
62 99 179
62 99 179
63 99 175
62 99 177
62 99 176
62 99 179
62 99 176
62 99 177
62 99 178
62 99 178
63 99 177
62 99 178
62 99 175
62 99 179
62 99 177
62 99 177
61 98 175
62 99 174
62 99 174
62 99 172
62 99 175
62 99 180
62 99 172
62 99 173
61 98 176
62 99 172
63 100 178
62 99 172
62 99 174
62 99 178
63 99 178
61 98 172
61 98 173
62 99 176
62 99 180
62 99 177
62 99 173
62 99 177
63 99 176
61 98 170
62 99 175
62 98 174
62 99 172
63 99 174
62 99 170
63 99 172
63 99 175
61 98 172
62 99 177
62 99 173
62 98 172
62 99 173
62 99 177
61 97 165
61 97 169
62 99 172
62 99 171
62 98 171
62 99 172
61 97 167
61 98 169
62 99 170
62 98 170
62 98 169
61 97 168
62 98 168
61 96 163
61 97 164
62 98 165
63 99 170
61 97 164
61 97 164
60 94 151
61 96 162
62 97 166
61 94 156
59 93 147
59 92 148
55 85 135
63 67 44
63 68 50
61 65 46
60 67 52
63 68 50
71 77 60
69 73 51
79 83 58
69 74 55
89 92 63
72 77 56
90 91 61
90 94 64
95 99 68
90 94 68
98 101 66
104 107 64
107 110 74
102 105 70
107 109 72
103 105 69
113 114 73
112 114 75
111 113 76
111 111 74
109 111 77
128 128 80
123 123 76
121 122 79
134 133 84
126 126 78
126 127 83
137 136 80
133 132 80
137 135 84
143 141 87
142 140 90
147 144 84
140 139 88
139 137 84
141 140 87
152 148 89
148 146 86
155 151 94
163 158 98
162 157 96
154 150 90
158 154 89
162 157 93
161 156 89
160 156 94
163 158 95
160 156 93
165 160 94
165 160 92
170 164 97
160 154 86
159 156 87
156 153 83
163 158 92
166 160 95
171 164 93
170 163 95
164 160 85
169 163 94
169 163 94
172 165 93
173 166 94
171 165 96
172 166 95
170 164 96
169 163 94
167 161 87
167 161 88
173 166 94
171 165 95
175 168 93
172 166 97
175 169 101
175 168 101
168 163 88
169 163 92
171 166 96
169 162 95
169 163 90
172 165 93
173 166 95
171 164 90
165 159 85
164 159 84
166 161 90
167 161 87
171 165 87
161 155 86
169 162 88
169 163 91
172 165 91
160 155 80
170 164 88
171 164 95
165 158 82
171 164 90
162 155 84
164 157 83
166 160 84
156 151 77
159 153 80
163 156 85
155 149 75
162 156 85
156 151 79
159 153 84
164 157 84
157 151 75
157 150 71
149 143 70
163 156 82
155 149 81
156 150 75
149 144 70
153 148 75
159 152 79
146 141 71
147 141 74
151 145 70
146 139 70
145 139 69
148 142 63
135 130 57
142 135 71
128 123 52
143 136 63
130 125 57
141 136 64
136 130 63
136 131 56
133 131 48
172 194 0
170 191 0
173 196 0
171 194 0
174 195 0
171 193 0
171 191 0
173 197 0
172 195 0
174 198 0
171 196 0
171 195 0
171 194 0
173 197 0
173 196 0
170 194 0
170 193 0
174 197 0
167 191 0
173 197 0
173 197 0
173 197 0
175 197 0
170 194 0
171 195 0
173 197 0
169 193 0
169 193 0
169 192 0
173 196 0
171 194 0
173 197 0
172 195 0
173 196 0
174 197 0
175 198 0
170 193 0
171 194 0
171 195 0
172 196 0
169 193 0
172 195 0
168 192 0
171 195 0
172 196 0
173 196 0
172 196 0
170 194 0
172 195 0
171 194 0
173 196 0
172 195 0
171 194 0
173 197 0
171 193 0
174 197 0
174 196 0
171 195 0
170 194 0
174 197 0
169 193 0
170 194 0
168 192 0
169 193 0
171 195 0
168 191 0
172 195 0
169 193 0
172 195 0
170 194 0
172 195 0
172 194 0
171 194 0
171 194 0
170 194 0
173 195 0
173 196 0
170 194 0
171 194 0
170 193 0
170 193 0
169 192 0
169 192 0
168 191 0
174 197 0
172 195 0
168 191 0
171 194 0
167 190 0
169 193 0
169 193 0
169 192 0
170 193 0
170 194 0
172 196 0
170 194 0
173 196 0
171 194 0
168 191 0
104 132 133
62 98 163
62 98 164
63 99 165
62 98 168
62 98 167
62 99 168
62 99 170
62 99 174
62 99 173
62 99 172
62 98 172
63 99 170
61 98 174
62 98 172
62 98 174
62 99 175
62 98 173
62 98 169
62 99 180
62 99 179
62 99 175
63 99 176
62 99 173
62 98 171
63 99 175
61 97 173
61 98 174
62 99 174
63 99 175
62 99 176
61 98 175
62 99 181
62 99 179
63 99 175
62 99 178
62 99 178
63 99 178
62 98 173
62 99 175
62 99 179
62 99 177
61 98 172
62 99 178
63 100 181
62 99 176
62 99 180
62 99 179
62 99 179
62 99 181
61 98 174
62 99 177
62 99 180
62 99 174
62 99 180
62 99 176
63 99 176
62 99 177
62 99 181
62 99 178
62 99 179
61 98 171
62 99 175
62 98 172
62 99 179
63 99 179
62 99 177
62 99 178
62 99 178
62 99 179
62 99 179
62 99 176
62 99 177
62 99 176
62 99 178
62 99 177
62 99 174
62 99 178
62 99 178
61 99 178
62 99 176
62 99 178
62 99 180
63 99 176
62 99 177
63 99 179
62 99 179
63 100 178
62 99 176
63 99 178
62 99 175
62 99 178
62 99 175
62 99 176
62 99 176
62 99 177
62 99 170
62 99 178
62 99 177
62 99 175
62 99 176
62 99 175
62 99 178
62 99 173
63 100 179
62 99 174
62 99 175
63 99 176
62 99 176
62 99 177
63 99 174
62 99 172
62 99 177
62 99 176
63 100 180
62 98 173
63 99 177
62 99 173
62 99 177
62 98 175
62 99 177
63 99 172
61 98 172
62 98 172
62 99 175
62 99 174
62 99 174
63 100 175
62 99 176
62 99 175
62 99 176
61 98 167
63 99 172
62 99 173
62 98 170
62 98 168
63 99 174
63 99 172
62 99 174
61 98 167
62 99 176
61 98 168
62 98 172
62 99 176
64 100 175
62 99 171
62 97 170
61 98 171
62 98 169
63 99 173
61 98 172
61 98 169
62 98 170
61 96 160
62 97 163
62 98 170
62 98 168
61 96 161
61 96 158
61 96 165
60 95 158
60 95 160
59 93 151
60 94 159
51 66 88
69 73 51
57 61 42
70 74 51
65 71 55
59 65 49
63 71 53
80 83 60
81 84 55
88 91 62
66 72 54
91 93 62
82 87 63
90 95 68
103 104 66
85 89 61
107 107 71
84 89 63
106 107 67
108 111 75
111 113 72
115 116 76
103 106 68
101 104 65
110 112 71
116 117 78
126 126 82
116 117 77
127 126 83
130 129 79
132 130 80
129 128 82
136 135 83
143 141 83
136 135 85
133 132 81
141 140 89
145 143 91
150 147 89
138 136 87
141 140 86
149 146 90
149 147 89
150 147 94
156 153 97
156 153 90
152 149 90
155 152 85
156 152 91
165 160 97
163 158 91
167 162 95
168 162 96
160 156 90
159 155 92
158 153 89
161 156 93
165 159 89
163 159 93
170 163 94
170 164 95
168 162 91
168 163 93
164 158 85
172 165 99
165 159 91
167 162 93
166 161 95
171 165 94
169 163 93
168 163 91
166 162 88
175 168 96
171 165 90
174 167 94
174 168 95
170 164 97
169 162 87
175 168 96
171 165 92
169 164 88
170 164 93
175 168 97
167 162 86
173 167 96
169 163 84
169 163 91
169 163 92
174 167 93
173 166 92
169 162 88
175 168 92
171 165 93
169 162 91
162 155 84
164 158 84
162 157 78
167 161 86
165 160 86
165 160 85
172 164 94
164 157 85
160 155 78
167 161 86
162 155 87
165 158 80
166 160 86
160 154 80
160 154 81
165 158 85
162 156 84
168 161 90
165 159 78
165 158 83
156 150 79
158 153 77
158 151 79
152 146 75
158 152 75
155 149 80
155 148 75
153 147 73
153 148 75
140 134 60
146 141 64
145 139 71
141 136 64
146 140 68
142 137 58
144 138 68
138 133 58
144 137 67
142 134 64
140 134 59
130 125 57
125 120 54
137 140 48
173 194 0
169 189 0
173 194 0
172 194 0
173 195 0
173 194 0
170 193 0
172 195 0
170 194 0
172 196 0
170 194 0
173 196 0
171 195 0
172 196 0
169 193 0
174 196 0
170 194 0
173 197 0
173 196 0
172 196 0
173 196 0
173 196 0
168 191 0
173 196 0
171 195 0
170 193 0
173 197 0
169 193 0
173 196 0
172 196 0
172 196 0
171 194 0
172 195 0
171 195 0
172 195 0
173 196 0
172 196 0
172 195 0
169 193 0
173 197 0
172 196 0
171 195 0
172 194 0
172 196 0
172 196 0
171 196 0
173 196 0
171 194 0
170 194 0
171 194 0
172 196 0
172 195 0
170 194 0
173 196 0
169 193 0
174 197 0
172 195 0
172 195 0
173 196 0
168 192 0
170 193 0
173 197 0
171 194 0
172 196 0
174 197 0
169 192 0
172 196 0
174 197 0
174 197 0
170 195 0
171 194 0
171 194 0
172 196 0
171 195 0
173 196 0
173 196 0
171 194 0
169 193 0
170 194 0
170 193 0
170 194 0
166 190 0
172 195 0
173 196 0
171 195 0
171 194 0
169 192 0
170 193 0
170 192 0
169 192 0
170 193 0
171 195 0
169 193 0
173 197 0
171 195 0
168 192 0
173 195 0
173 196 0
150 174 70
63 99 167
62 98 165
61 98 165
62 98 166
62 98 166
62 98 165
62 98 162
61 98 170
61 98 164
61 98 169
63 100 173
63 99 174
62 99 177
61 98 171
61 98 167
62 98 174
62 99 172
62 99 177
62 99 175
62 99 176
62 99 177
62 99 176
62 99 176
62 99 173
62 99 177
62 99 176
62 99 178
62 99 175
62 98 172
62 99 176
62 99 178
62 99 172
62 99 175
62 99 179
62 99 176
62 99 176
62 99 174
62 99 177
62 99 174
62 99 177
63 100 180
62 98 172
62 99 175
62 99 176
62 99 175
62 99 177
62 99 178
62 99 177
62 99 176
62 99 177
62 99 176
62 99 178
62 99 176
62 99 177
62 99 180
62 99 176
62 99 178
62 99 178
62 99 176
62 99 179
62 99 178
62 99 176
62 99 175
62 98 174
61 99 178
63 99 179
62 99 176
62 99 179
61 98 175
63 99 175
61 98 176
62 99 176
62 99 178
62 99 175
62 99 176
62 99 175
61 98 172
62 99 178
61 98 176
62 99 179
62 99 179
62 99 178
62 99 177
62 99 179
62 99 178
62 99 178
62 99 179
63 100 178
62 99 177
62 99 174
63 99 178
62 99 179
62 99 175
62 99 178
62 99 177
62 99 176
63 99 175
61 98 173
62 99 174
63 100 176
62 99 176
62 99 179
63 99 175
62 99 177
62 99 173
61 98 175
62 99 175
62 99 179
62 99 176
61 98 169
62 99 176
62 99 175
62 99 175
62 99 174
63 100 178
62 99 175
62 99 178
62 99 178
62 99 176
63 99 176
62 99 179
62 99 171
62 99 177
63 99 172
62 99 176
62 99 171
62 99 172
62 99 174
62 98 170
62 98 170
62 99 173
62 99 176
63 99 174
62 99 178
62 99 175
62 99 173
62 98 170
62 98 167
61 98 168
62 98 166
63 99 174
63 99 173
62 98 171
62 99 171
62 99 174
61 98 165
62 98 164
62 98 169
62 99 171
61 97 169
62 99 170
62 98 166
61 97 166
61 97 164
61 97 164
61 95 160
62 98 169
61 96 160
62 97 161
61 96 163
60 94 158
60 95 158
60 94 160
59 93 152
60 84 128
58 63 42
65 69 50
73 77 53
60 65 49
68 73 56
64 71 55
63 69 51
76 81 56
61 67 50
85 89 61
65 69 46
89 92 64
87 91 64
85 89 62
86 90 58
105 106 69
99 101 68
96 100 69
104 105 67
98 101 70
118 118 78
103 105 66
121 121 71
124 124 76
111 113 71
133 131 84
118 119 80
134 134 85
129 129 81
130 128 76
133 131 78
142 140 85
131 130 78
133 131 82
135 134 85
136 135 81
141 138 82
144 141 85
149 146 87
149 146 84
156 152 91
152 149 88
141 138 83
151 147 89
153 150 88
155 151 89
160 155 91
155 152 92
159 156 92
161 156 89
160 156 87
160 156 91
163 158 94
157 154 90
163 158 88
170 164 95
166 161 95
166 161 92
167 162 93
170 164 96
169 163 93
165 159 88
168 162 93
168 163 92
170 164 95
171 164 94
170 164 94
166 161 87
170 165 91
169 163 92
173 166 91
172 166 95
167 162 89
170 164 95
173 167 97
171 165 95
166 160 86
176 169 94
172 165 95
165 159 89
169 163 92
173 167 95
170 164 95
171 165 89
169 162 86
167 161 88
168 162 87
172 165 93
167 161 90
171 164 93
172 165 90
166 160 87
170 162 87
171 165 95
164 158 82
169 163 87
169 161 89
159 153 80
169 162 88
169 162 88
162 156 83
165 158 85
167 160 92
162 155 81
170 163 90
163 156 84
162 155 81
163 157 84
166 158 85
154 149 72
158 152 82
157 150 71
143 137 69
157 151 83
155 149 72
150 144 73
154 149 75
158 152 84
156 150 74
157 150 80
153 146 70
147 141 69
154 147 72
146 140 66
134 130 61
144 138 62
137 132 61
141 136 61
152 146 68
136 130 54
131 126 54
139 133 67
127 123 48
125 120 51
124 120 47
154 164 37
170 192 0
172 194 0
169 190 0
171 195 0
172 193 0
173 194 0
171 192 0
171 195 0
172 195 0
171 195 0
171 194 0
170 194 0
174 198 0
174 198 0
173 197 0
171 194 0
173 197 0
171 195 0
171 194 0
172 196 0
174 197 0
171 194 0
172 196 0
174 198 0
173 197 0
169 193 0
171 194 0
169 191 0
170 193 0
173 196 0
168 192 0
172 196 0
174 197 0
173 197 0
169 193 0
174 198 0
174 198 0
171 194 0
174 197 0
172 195 0
175 198 0
169 193 0
171 194 0
173 196 0
171 195 0
171 194 0
170 193 0
172 195 0
173 197 0
171 195 0
172 195 0
169 192 0
172 195 0
172 195 0
173 196 0
173 197 0
173 195 0
171 195 0
171 194 0
172 196 0
167 190 0
171 194 0
171 195 0
171 195 0
170 193 0
170 193 0
171 194 0
167 191 0
173 196 0
174 198 0
174 197 0
171 194 0
168 192 0
170 194 0
165 188 0
171 193 0
173 197 0
168 191 0
169 193 0
169 193 0
170 193 0
169 192 0
170 193 0
167 190 0
167 190 0
172 196 0
170 194 0
169 193 0
173 197 0
171 194 0
173 196 0
169 192 0
164 188 0
168 190 0
170 193 0
171 193 0
169 192 0
170 193 0
102 130 133
62 97 153
62 98 164
62 99 167
62 98 163
62 98 169
62 99 170
62 98 164
61 98 168
63 99 170
62 98 166
62 99 173
62 98 167
62 98 170
62 98 169
63 99 172
62 98 167
62 98 169
62 99 173
62 99 174
62 99 172
63 99 178
62 99 172
62 99 175
62 99 175
62 99 176
62 99 179
62 99 171
62 99 176
62 98 168
62 98 174
62 99 175
63 99 177
62 99 177
62 99 175
62 99 175
62 99 177
63 100 179
62 99 174
62 99 176
62 99 177
62 99 177
62 99 176
62 99 172
62 99 178
62 99 178
62 99 178
62 99 178
63 99 179
62 99 178
62 99 180
63 99 178
62 99 177
62 99 179
62 99 178
62 99 176
62 99 177
62 99 175
63 99 176
62 99 175
62 99 180
62 99 177
61 98 178
62 99 178
62 99 180
63 100 178
62 99 179
62 99 177
61 99 178
62 99 178
61 98 172
61 98 178
62 99 177
62 99 176
62 99 176
61 98 175
62 99 179
62 99 177
62 99 179
61 98 173
61 98 177
62 99 174
62 99 178
62 99 177
62 99 181
63 100 177
62 99 177
62 99 175
62 99 175
62 99 178
61 98 175
62 99 173
62 99 176
61 98 178
63 100 178
62 99 175
62 99 180
62 99 172
62 99 177
62 99 173
62 99 171
62 99 175
61 98 176
62 99 175
62 99 177
62 99 178
62 98 172
62 99 177
62 99 174
62 99 177
62 99 177
62 99 171
62 99 176
62 99 170
63 99 174
63 99 177
62 99 178
62 99 172
62 99 176
62 99 175
62 99 175
62 99 172
62 98 168
62 99 170
62 99 175
63 100 175
62 98 168
62 99 173
62 99 174
62 98 171
62 99 173
62 98 168
61 98 167
62 99 171
61 98 170
62 98 174
61 98 167
61 98 173
62 98 171
62 98 170
62 99 173
62 98 169
61 98 172
63 100 177
61 97 169
63 99 171
62 99 170
62 99 172
61 98 168
62 98 169
62 99 169
62 98 171
62 99 171
62 97 157
62 98 167
61 97 163
62 98 166
62 97 165
62 97 164
61 96 164
60 95 155
61 96 161
60 94 153
61 96 163
61 95 163
61 96 162
55 67 80
52 58 42
73 78 54
60 66 49
61 67 49
63 70 56
69 73 48
62 69 50
69 74 52
80 82 57
64 70 52
79 83 57
78 85 63
90 94 67
88 93 66
99 101 65
90 95 64
91 94 62
95 99 68
104 106 67
113 114 73
113 113 70
111 111 69
120 121 77
121 122 75
125 125 79
121 121 79
128 128 82
126 126 77
134 132 82
136 134 82
133 132 80
131 130 79
135 134 83
133 132 79
137 135 80
138 137 83
154 150 92
145 142 82
151 148 88
138 137 82
145 142 84
145 143 84
151 148 83
154 150 87
158 154 89
154 150 86
159 154 89
146 143 79
161 156 94
156 152 85
159 154 89
160 155 89
165 160 87
166 161 97
167 162 96
162 157 91
157 153 88
168 162 93
167 161 91
167 162 94
171 164 90
166 161 87
167 162 88
169 163 84
171 165 95
168 162 89
163 157 88
172 165 90
168 162 87
172 165 96
167 162 89
171 165 89
167 162 90
171 165 95
172 166 92
176 169 91
170 164 91
166 160 84
171 164 90
172 165 94
171 164 86
171 164 90
171 165 89
165 158 85
170 163 86
168 162 87
163 158 84
167 160 83
164 158 86
168 161 90
170 163 89
173 166 95
165 159 81
165 158 87
159 153 80
169 162 90
169 163 84
169 161 88
165 158 87
165 159 87
163 158 84
159 153 79
165 158 87
161 155 79
165 158 85
164 158 82
162 156 84
158 151 77
169 162 85
163 156 81
149 143 70
158 151 73
156 150 71
155 148 76
160 153 87
155 149 73
159 152 75
152 146 75
154 147 72
143 138 62
150 144 73
150 143 64
145 140 69
142 137 63
147 141 62
142 137 60
139 134 60
142 136 65
145 138 67
142 136 59
140 134 63
130 125 56
116 113 44
129 124 52
160 174 32
171 192 0
172 193 0
173 195 0
171 194 0
173 195 0
172 194 0
174 196 0
173 197 0
173 196 0
171 194 0
172 194 0
174 197 0
173 196 0
172 196 0
174 197 0
173 196 0
172 195 0
172 196 0
171 195 0
171 195 0
173 196 0
171 195 0
168 192 0
171 195 0
170 194 0
172 195 0
174 198 0
174 197 0
171 196 0
169 193 0
172 195 0
173 196 0
173 196 0
172 195 0
171 195 0
172 195 0
170 192 0
167 190 0
170 195 0
174 197 0
172 196 0
172 195 0
170 193 0
172 196 0
170 193 0
169 192 0
175 198 0
170 193 0
171 195 0
174 197 0
173 197 0
172 195 0
172 196 0
174 197 0
171 195 0
171 194 0
172 195 0
171 194 0
169 193 0
172 195 0
172 195 0
171 194 0
169 192 0
171 195 0
169 192 0
167 191 0
172 195 0
172 195 0
168 191 0
168 191 0
172 195 0
170 194 0
173 197 0
170 194 0
170 194 0
171 194 0
170 193 0
171 194 0
169 192 0
170 193 0
172 195 0
170 193 0
172 196 0
170 193 0
173 196 0
168 191 0
173 196 0
171 194 0
170 193 0
173 196 0
170 193 0
171 193 0
171 194 0
166 190 0
170 192 0
172 194 0
170 193 0
158 182 47
64 99 158
61 98 167
62 98 168
62 98 166
62 98 162
63 99 170
62 98 165
62 98 167
61 97 164
62 99 173
62 99 172
62 98 172
62 99 172
62 99 170
62 98 175
62 98 172
61 98 173
62 99 178
62 98 173
62 99 174
62 99 175
62 98 173
62 99 175
61 98 171
62 99 178
63 99 174
62 99 172
62 99 177
62 99 179
62 99 172
62 99 174
62 98 175
62 99 175
63 100 181
62 99 179
62 99 175
63 100 176
62 99 177
63 100 179
63 100 178
61 98 174
61 98 176
61 99 177
62 99 175
62 98 175
62 99 176
61 98 174
62 99 176
62 99 176
62 99 178
62 99 177
62 99 178
62 99 179
61 98 175
62 99 174
62 99 180
62 99 172
62 99 174
62 99 179
62 99 180
62 99 176
63 99 176
61 98 177
62 99 176
62 99 177
62 99 172
61 98 174
62 99 177
62 99 178
61 98 174
62 99 175
62 99 175
62 99 175
62 99 174
63 99 176
63 99 179
62 99 175
62 99 174
62 99 176
62 99 175
62 99 179
62 99 173
62 99 175
61 98 177
62 99 176
62 99 179
63 99 177
62 99 177
62 99 175
62 99 177
61 98 175
62 99 176
62 99 178
62 99 179
62 99 179
62 99 175
61 99 179
63 100 179
62 99 180
62 99 176
62 99 177
62 99 175
63 100 173
62 99 178
62 99 177
62 98 173
63 100 177
61 99 176
62 99 176
61 98 170
62 99 175
62 99 173
63 100 177
62 99 174
62 99 176
62 99 173
62 99 171
62 99 175
63 100 178
62 99 176
62 99 170
63 99 177
62 99 173
62 98 173
62 98 169
62 99 172
62 99 173
62 98 171
62 99 176
63 99 172
62 98 168
62 98 168
62 99 175
62 99 174
62 99 170
62 98 169
62 98 170
62 98 169
62 99 174
63 99 171
62 99 174
62 98 171
61 98 165
62 99 172
61 97 169
61 98 170
60 97 170
62 98 168
62 98 170
61 97 166
62 99 172
63 99 173
61 96 165
61 97 165
61 97 164
62 98 170
62 98 167
61 97 162
61 97 164
61 97 163
63 98 172
60 95 156
61 96 161
59 93 154
61 95 156
60 93 153
56 78 116
66 68 49
41 49 38
57 62 45
55 60 43
69 74 51
58 64 48
51 59 44
63 68 50
70 75 51
75 80 53
77 83 60
91 94 61
82 85 56
92 94 60
87 91 65
96 98 63
102 104 66
98 101 68
107 108 70
102 105 71
110 112 68
111 113 76
119 119 70
130 129 79
120 119 75
127 126 78
121 121 72
126 126 78
126 126 77
118 119 72
118 119 68
134 134 80
134 133 83
142 139 86
142 139 81
143 141 82
143 141 85
140 138 82
154 150 89
149 145 85
146 144 85
143 140 78
151 148 82
149 147 87
154 151 86
150 147 81
155 150 84
155 151 86
156 152 88
151 147 87
155 151 87
159 155 86
163 159 91
165 160 91
160 155 90
166 160 89
166 161 85
172 165 93
161 156 83
166 160 88
164 160 89
170 164 93
165 160 89
172 165 93
165 160 94
169 163 85
170 164 92
169 163 91
172 165 90
171 164 95
168 162 91
171 164 92
171 164 89
169 163 89
169 163 89
172 165 95
168 162 89
170 163 87
175 168 95
168 162 92
168 162 90
167 160 87
167 161 90
172 165 93
167 160 87
169 162 90
169 162 87
169 162 90
165 158 79
169 162 89
163 156 80
167 160 83
163 157 84
166 160 87
167 161 88
168 161 90
171 164 90
166 159 86
170 163 91
166 160 86
162 155 80
166 159 86
161 155 80
165 157 85
167 160 81
165 158 85
155 149 77
167 160 84
164 157 85
163 157 80
155 148 74
155 148 78
157 150 77
153 147 71
149 143 70
158 151 79
160 153 83
142 136 64
148 142 71
151 145 66
145 139 68
147 140 70
149 143 68
140 135 62
149 143 68
146 140 68
152 146 65
141 136 60
152 146 68
139 133 58
129 124 51
132 126 60
126 121 47
127 122 48
165 185 11
171 192 0
173 195 0
173 196 0
173 195 0
171 194 0
174 196 0
170 191 0
174 197 0
172 196 0
173 196 0
171 194 0
172 196 0
172 196 0
173 196 0
173 196 0
175 198 0
171 195 0
174 197 0
174 198 0
174 196 0
172 194 0
172 194 0
172 195 0
172 196 0
172 195 0
171 194 0
171 195 0
172 196 0
174 197 0
172 195 0
170 194 0
173 197 0
171 195 0
170 193 0
170 193 0
174 197 0
171 194 0
170 194 0
170 193 0
174 197 0
173 196 0
169 192 0
170 193 0
174 197 0
172 195 0
171 194 0
171 194 0
172 195 0
171 194 0
170 193 0
175 197 0
173 196 0
173 195 0
169 193 0
172 195 0
174 197 0
173 196 0
169 193 0
172 195 0
173 197 0
173 195 0
170 194 0
172 195 0
170 193 0
173 196 0
172 195 0
173 196 0
172 195 0
171 194 0
168 192 0
174 197 0
166 190 0
168 191 0
171 194 0
170 194 0
169 192 0
171 194 0
174 197 0
171 195 0
170 194 0
171 194 0
168 191 0
173 195 0
168 191 0
170 193 0
170 193 0
171 194 0
171 195 0
172 196 0
169 192 0
171 194 0
166 190 0
171 194 0
170 193 0
170 194 0
171 194 0
169 193 0
131 156 107
62 98 158
62 98 162
62 98 166
62 98 165
61 97 163
62 98 169
62 99 171
62 99 174
61 98 166
62 98 168
62 98 170
62 99 171
62 98 167
62 99 174
62 99 175
61 98 171
62 98 170
63 99 172
62 98 171
62 99 173
62 99 173
63 100 174
62 99 177
62 99 180
62 99 177
62 98 172
62 98 174
63 99 176
62 99 177
63 100 177
61 98 173
62 99 177
62 99 175
62 99 176
62 99 176
61 98 174
62 99 177
62 99 180
62 98 173
62 99 177
63 99 177
61 98 171
62 99 176
63 99 179
62 99 174
62 99 177
61 98 174
62 99 174
62 99 178
62 99 178
62 99 177
62 99 179
62 99 178
62 99 176
62 99 177
63 100 180
62 99 176
62 99 178
62 99 176
61 98 176
62 99 177
62 99 178
62 99 178
62 99 178
62 99 177
62 99 177
61 98 174
62 99 176
61 99 178
62 99 174
61 98 172
62 99 177
62 99 177
62 99 178
63 99 176
61 98 176
62 99 172
62 99 178
62 98 171
61 98 174
63 99 177
62 99 176
62 99 176
62 99 176
62 99 178
62 99 175
62 99 175
62 99 177
62 99 178
63 99 176
62 99 176
62 99 177
62 99 176
62 99 177
62 99 179
63 99 176
63 100 178
62 99 174
62 99 173
63 100 179
62 98 171
62 99 175
62 99 176
62 99 176
62 98 167
62 99 175
62 98 172
63 100 180
63 100 176
62 99 177
62 99 177
62 99 173
63 99 175
62 99 175
62 99 177
62 98 168
61 98 174
62 99 179
62 99 179
62 99 172
62 99 173
62 98 169
62 98 169
63 99 177
63 99 170
62 99 177
62 99 177
62 99 173
63 99 175
62 99 173
62 99 173
63 99 175
62 98 173
61 98 170
62 99 175
62 99 170
61 98 164
62 99 174
61 98 167
61 98 168
62 98 165
61 98 168
62 99 171
62 98 172
62 98 170
62 99 169
62 98 170
62 98 170
62 99 170
62 98 167
61 98 168
61 97 169
62 98 168
62 98 169
62 99 174
62 98 167
61 97 162
61 96 163
61 97 162
63 98 170
62 97 166
59 93 154
61 96 158
62 97 165
60 95 157
60 93 154
56 88 135
62 67 58
53 58 39
61 67 48
58 63 43
58 61 39
64 70 52
73 77 53
63 68 47
70 76 55
64 70 51
74 80 57
76 80 57
95 97 63
91 95 58
70 76 49
97 100 68
102 105 67
104 106 70
101 103 66
104 105 68
112 114 76
111 111 71
116 117 71
127 127 80
130 129 80
119 119 75
138 135 85
123 124 76
132 131 80
136 134 76
114 115 72
143 141 80
138 136 81
134 133 79
135 135 82
136 134 78
137 135 78
136 134 77
144 142 81
149 145 84
148 144 81
144 142 81
161 156 89
157 153 86
153 150 88
156 152 86
145 143 78
156 152 89
152 148 83
153 149 85
162 158 93
158 153 86
157 153 86
163 158 92
166 160 90
161 157 91
168 162 90
163 158 83
164 159 88
164 159 86
161 157 84
165 160 88
168 163 91
173 165 93
168 162 85
169 163 89
172 166 91
169 163 87
169 162 89
170 164 90
169 164 90
163 158 86
172 166 91
172 166 91
165 160 87
173 166 93
170 164 89
175 167 97
166 160 87
166 161 84
171 166 92
170 163 89
170 163 90
170 163 90
164 158 87
169 163 85
171 163 87
170 163 94
171 164 93
174 166 92
167 161 83
163 157 82
170 164 93
172 165 96
161 155 79
158 153 80
167 161 84
165 159 84
160 154 79
161 156 81
156 151 75
162 156 83
162 156 81
162 156 86
160 154 77
156 150 75
164 157 80
156 149 79
163 156 82
157 151 75
163 156 84
162 156 79
161 154 82
156 150 76
157 150 78
153 146 77
146 141 70
155 149 72
141 135 63
156 149 76
152 146 68
136 131 64
141 136 59
148 142 69
145 139 69
142 136 62
135 129 57
131 127 52
138 132 62
142 136 60
135 130 54
132 126 56
131 126 56
136 137 48
170 193 0
171 193 0
171 193 0
173 194 0
171 192 0
174 195 0
172 193 0
171 193 0
173 196 0
172 195 0
169 193 0
172 196 0
173 196 0
171 195 0
173 196 0
173 196 0
170 194 0
173 196 0
171 194 0
172 195 0
173 196 0
171 195 0
171 195 0
174 197 0
170 194 0
171 194 0
171 195 0
172 196 0
170 194 0
172 195 0
173 197 0
172 196 0
170 194 0
173 197 0
168 191 0
169 193 0
173 197 0
170 193 0
174 197 0
170 193 0
168 192 0
172 195 0
168 191 0
172 195 0
170 195 0
171 194 0
170 194 0
171 195 0
170 193 0
169 193 0
170 194 0
170 194 0
173 196 0
170 194 0
171 194 0
171 195 0
174 197 0
172 194 0
175 198 0
172 195 0
170 192 0
171 194 0
171 195 0
174 197 0
170 194 0
171 195 0
168 191 0
168 191 0
170 194 0
172 195 0
170 194 0
170 194 0
169 192 0
170 195 0
165 189 0
172 195 0
171 195 0
167 191 0
170 194 0
171 194 0
171 195 0
170 193 0
164 188 0
172 194 0
170 193 0
170 193 0
168 191 0
173 196 0
172 194 0
173 196 0
170 194 0
168 193 0
169 193 0
171 195 0
169 192 0
170 194 0
170 192 0
166 189 18
86 114 140
62 98 161
63 99 166
61 97 159
62 99 168
62 98 161
62 98 169
62 98 167
63 99 173
61 98 165
62 99 170
62 98 172
62 99 173
63 99 173
61 98 175
62 99 173
63 99 171
63 100 177
62 98 170
61 98 172
62 99 179
62 99 173
62 99 172
62 99 176
61 98 174
62 99 172
62 98 174
62 99 175
62 99 176
62 99 176
62 98 173
62 99 175
63 100 175
61 98 175
61 98 173
62 99 175
62 99 178
61 98 177
62 99 174
63 99 176
62 98 174
62 99 177
63 99 175
62 99 178
62 99 177
62 99 179
63 99 177
62 99 176
62 99 178
62 99 179
62 99 180
63 99 177
62 99 177
62 99 177
62 99 176
62 99 176
62 98 176
62 99 179
61 98 173
62 99 178
62 99 177
62 99 176
62 99 174
63 99 179
62 99 177
62 99 179
62 99 177
62 99 176
61 99 177
63 99 179
62 99 179
62 99 178
63 99 178
62 99 177
63 99 176
62 99 175
62 99 176
62 99 178
62 99 178
61 98 176
62 99 178
62 99 178
62 99 179
62 99 176
62 99 176
61 98 174
62 98 175
62 99 175
62 99 177
62 99 178
62 99 176
62 99 174
61 98 175
62 99 173
61 99 177
62 98 173
61 98 177
62 99 176
62 99 176
62 99 174
62 99 176
62 99 173
62 99 178
62 98 170
62 99 176
61 98 172
61 98 176
62 99 176
63 100 172
62 99 174
62 99 171
63 99 177
63 100 178
62 99 170
62 99 178
63 99 174
62 99 174
62 99 171
62 99 177
62 99 175
62 99 170
62 98 172
62 99 170
62 98 168
62 99 174
62 99 172
61 98 174
62 99 171
62 99 176
61 98 170
63 99 175
63 100 177
63 99 174
62 99 176
63 99 177
61 97 170
62 99 169
61 98 169
61 98 162
62 99 171
61 98 165
62 99 175
62 99 172
62 98 173
62 99 170
63 99 172
61 98 170
62 99 167
61 97 167
62 98 170
61 97 160
61 97 164
62 98 167
62 99 167
62 97 169
61 97 157
62 97 167
62 98 167
61 96 161
61 96 159
61 95 159
61 96 163
61 96 154
61 95 157
60 94 154
61 95 164
59 94 157
59 93 150
56 72 92
49 55 39
55 62 46
48 56 41
59 63 42
65 69 46
55 61 45
69 74 51
79 83 58
63 69 45
76 80 50
77 81 52
71 77 56
95 98 61
94 96 58
92 94 59
106 108 68
101 104 68
103 106 68
107 109 64
107 109 64
112 112 70
107 108 65
120 119 75
119 119 75
126 125 76
129 128 76
127 126 73
131 130 79
132 131 82
133 132 80
124 122 72
143 140 81
138 137 79
135 134 82
139 137 79
142 141 79
147 144 84
145 143 80
144 142 88
140 139 82
149 146 79
157 152 89
143 141 79
154 151 89
153 149 79
153 148 86
153 149 81
158 153 89
152 148 80
161 157 87
165 159 89
158 153 87
163 157 88
165 159 92
160 155 88
164 159 89
159 153 80
163 158 89
164 159 84
161 155 86
169 163 90
167 161 89
165 159 83
169 163 89
167 162 89
165 158 84
173 166 90
167 161 83
167 162 87
165 160 89
170 163 90
169 163 86
168 162 90
169 163 90
170 164 91
167 161 89
167 161 86
168 161 89
170 164 87
170 163 85
171 164 87
167 162 84
172 164 89
174 168 94
165 159 85
168 161 85
168 161 84
163 158 80
164 158 81
166 160 83
165 159 86
168 161 90
166 159 87
160 154 76
166 158 83
159 153 77
164 157 88
167 160 84
164 157 86
154 149 73
166 160 86
171 164 89
161 154 80
157 151 75
164 158 83
155 149 75
160 153 78
153 147 72
156 150 72
160 153 75
159 152 81
158 152 75
157 151 75
153 147 70
153 148 76
154 148 73
153 146 73
143 137 65
150 144 66
157 150 73
150 142 73
149 142 69
153 147 63
141 135 59
148 141 64
143 138 62
143 137 65
137 133 52
133 127 54
137 131 61
138 133 61
120 116 47
143 154 28
172 194 0
173 194 0
171 192 0
173 196 0
170 193 0
171 193 0
172 193 0
168 191 0
173 197 0
172 195 0
170 194 0
171 195 0
172 195 0
170 194 0
172 195 0
173 197 0
172 196 0
172 196 0
172 195 0
169 193 0
170 194 0
173 196 0
172 196 0
169 193 0
172 196 0
174 198 0
173 196 0
173 197 0
171 195 0
172 194 0
170 193 0
171 192 0
171 194 0
172 195 0
170 192 0
174 197 0
174 196 0
167 191 0
170 193 0
168 192 0
173 195 0
170 194 0
170 193 0
173 197 0
172 195 0
172 196 0
170 194 0
171 194 0
171 194 0
175 197 0
170 193 0
173 196 0
170 193 0
171 194 0
170 195 0
172 195 0
172 196 0
172 195 0
173 196 0
173 197 0
172 195 0
171 194 0
171 194 0
169 193 0
171 195 0
172 195 0
169 193 0
170 194 0
171 195 0
174 197 0
172 195 0
171 194 0
173 196 0
172 194 0
170 194 0
172 196 0
172 195 0
170 193 0
171 195 0
169 192 0
172 195 0
168 193 0
170 193 0
173 195 0
170 192 0
168 192 0
171 194 0
170 194 0
173 196 0
170 193 0
171 194 0
170 193 0
170 193 0
171 195 0
171 194 0
171 195 0
172 195 0
154 178 78
61 97 159
62 99 165
62 98 164
62 99 167
62 98 162
61 97 164
63 99 164
62 99 170
61 98 165
62 98 166
62 98 170
62 98 167
62 98 169
62 98 169
62 98 168
63 99 172
63 99 174
62 99 172
61 97 168
62 99 171
61 98 172
62 99 169
62 99 173
61 98 169
62 98 175
62 99 178
61 98 175
62 99 175
62 98 171
61 98 172
62 99 175
63 100 179
62 99 176
62 99 173
63 99 176
62 99 174
61 98 176
62 98 176
62 99 177
63 100 179
63 100 179
62 99 178
62 99 178
62 99 178
62 99 176
61 98 175
62 99 177
62 99 178
62 99 177
62 99 176
62 98 175
62 99 177
62 99 175
62 99 172
62 99 178
62 99 176
62 99 177
62 99 180
62 99 177
62 99 177
62 98 172
62 99 176
62 99 176
62 99 176
62 99 176
62 99 175
62 99 176
62 99 177
61 98 171
62 99 176
62 99 178
63 99 177
62 99 176
62 99 174
62 99 175
62 99 178
62 99 177
63 99 177
62 99 179
62 99 178
62 99 179
62 99 175
62 99 178
62 99 179
61 98 176
62 98 173
61 98 167
62 99 176
62 98 175
62 98 174
63 100 178
62 98 171
61 97 174
62 99 172
62 99 178
62 99 174
63 99 176
62 98 173
62 99 172
62 98 170
62 99 177
62 99 171
62 98 172
62 98 173
62 99 175
62 99 175
62 99 174
62 99 174
62 99 176
63 99 174
62 99 176
62 99 172
61 98 173
63 100 176
62 99 175
62 99 177
62 99 178
61 98 171
62 99 172
62 99 174
62 99 174
63 99 173
62 98 172
63 99 176
62 99 175
62 99 172
63 99 174
62 99 175
62 99 170
62 99 175
62 99 168
62 98 164
62 98 168
62 99 170
62 99 171
62 98 171
62 99 167
62 98 166
62 98 170
62 99 170
62 98 167
62 98 172
63 99 175
62 98 167
61 98 166
61 98 173
62 99 170
63 99 174
63 99 170
61 96 162
62 98 166
62 98 163
62 98 169
61 97 161
61 97 166
61 97 167
61 97 164
61 97 165
61 96 159
61 97 167
62 97 163
61 95 161
61 96 156
60 95 159
61 95 158
61 96 153
60 95 160
60 93 154
56 86 139
60 63 40
49 55 39
46 53 36
44 53 43
60 66 45
53 61 47
72 75 49
75 79 51
72 77 50
84 88 57
88 91 60
84 90 60
87 92 62
82 87 63
97 99 60
97 99 64
85 90 62
97 100 68
103 105 61
109 109 64
102 104 65
115 114 69
118 119 72
112 113 69
133 131 75
108 110 72
118 117 75
134 131 79
116 117 71
130 128 77
126 126 74
140 138 85
138 136 76
131 130 79
142 139 73
137 136 79
143 139 78
149 145 86
148 145 87
146 142 84
143 141 76
153 149 86
149 146 82
150 147 81
149 146 84
151 147 82
155 151 84
163 158 90
154 150 85
162 156 87
164 159 90
158 153 87
159 155 88
163 157 86
165 160 91
160 156 80
167 162 92
163 158 78
167 162 93
161 157 84
166 160 92
167 162 84
172 166 93
169 163 94
173 166 95
165 159 88
167 161 87
165 160 84
172 165 89
169 163 88
169 163 91
173 166 93
168 163 89
167 161 80
168 162 86
165 159 83
168 162 90
167 161 86
168 163 86
172 166 87
168 162 87
171 163 84
167 162 84
174 166 91
166 160 84
170 163 86
170 164 93
171 164 88
172 165 90
169 162 90
165 158 85
165 158 86
163 157 81
167 160 85
170 163 89
163 157 81
165 159 82
165 158 81
165 159 84
161 154 80
165 158 84
157 151 70
165 158 74
154 147 68
160 153 75
157 151 79
159 154 75
159 152 79
158 151 78
157 151 74
157 152 77
151 145 71
147 142 64
154 147 70
159 151 78
150 144 70
151 145 72
149 143 66
151 144 70
152 146 69
142 136 62
139 134 56
152 145 70
149 142 66
144 137 68
137 133 59
135 129 63
136 131 63
137 132 56
135 130 56
131 125 51
133 128 52
150 167 16
169 192 0
173 195 0
172 194 0
171 193 0
169 191 0
171 193 0
173 194 0
170 193 0
174 197 0
171 195 0
170 193 0
171 195 0
170 193 0
173 196 0
172 196 0
172 195 0
173 196 0
172 196 0
170 194 0
170 194 0
170 193 0
173 197 0
173 196 0
175 198 0
172 195 0
173 196 0
172 196 0
174 197 0
172 195 0
173 196 0
171 195 0
169 193 0
171 196 0
169 193 0
173 196 0
169 193 0
171 194 0
172 195 0
173 196 0
171 195 0
171 194 0
172 195 0
170 193 0
169 193 0
171 195 0
171 194 0
171 194 0
170 194 0
171 195 0
171 195 0
172 195 0
175 197 0
169 192 0
172 195 0
173 196 0
171 195 0
172 196 0
171 194 0
170 194 0
172 195 0
173 196 0
172 196 0
169 193 0
168 192 0
172 195 0
171 195 0
173 197 0
170 193 0
173 197 0
172 195 0
169 192 0
171 195 0
172 195 0
171 195 0
173 196 0
168 192 0
171 194 0
171 194 0
172 195 0
170 193 0
170 193 0
171 195 0
171 195 0
169 192 0
171 195 0
171 195 0
170 193 0
169 193 0
171 194 0
168 191 0
172 195 0
169 192 0
169 193 0
170 194 0
172 195 0
172 195 0
169 192 0
122 147 114
62 98 165
62 98 162
62 98 169
62 98 166
61 97 162
62 98 164
62 98 167
62 98 170
62 98 168
62 99 169
61 98 168
62 99 171
62 98 165
61 97 160
61 98 168
62 98 169
63 99 177
61 98 168
61 98 171
62 99 171
62 98 170
62 99 172
62 99 173
63 99 173
63 100 177
62 99 174
62 99 174
62 99 175
61 98 170
61 98 174
62 98 174
62 99 172
62 99 176
62 99 177
62 99 176
63 100 180
62 99 174
62 99 173
62 99 177
62 99 175
62 99 176
62 99 178
62 99 178
62 98 173
62 99 173
62 98 173
62 99 177
62 98 176
62 99 176
62 99 176
62 99 175
62 99 173
62 99 176
62 99 177
62 99 175
62 99 177
62 99 177
62 99 179
62 99 180
62 99 178
62 99 176
61 98 176
62 99 177
62 99 175
61 98 174
62 99 178
62 99 178
63 100 178
62 98 177
62 99 179
62 99 176
62 99 177
62 99 177
62 99 174
62 99 174
62 99 175
62 99 178
62 99 178
62 99 175
63 100 178
62 99 178
63 99 177
63 99 174
62 99 178
61 98 175
62 99 179
62 99 169
63 100 176
62 99 176
62 99 177
62 99 175
62 99 176
62 99 177
62 99 175
62 99 175
62 99 175
62 99 179
62 99 177
62 99 175
62 99 175
62 99 171
62 99 177
61 98 174
62 99 177
62 99 174
63 99 175
62 98 172
62 99 177
62 99 175
63 99 175
63 100 177
63 99 175
62 99 175
62 98 171
62 98 167
62 99 172
63 99 177
62 99 173
62 99 175
61 98 175
62 99 175
62 99 175
62 99 171
62 98 171
62 98 170
62 99 174
62 99 173
62 99 170
63 99 172
62 99 176
62 99 172
62 99 173
62 99 172
63 99 175
63 99 175
62 99 170
62 99 169
62 98 168
61 98 170
62 98 170
61 98 168
61 97 164
62 98 170
62 99 174
62 99 170
62 98 170
62 98 166
61 97 161
62 98 166
63 99 171
62 99 173
61 97 164
61 97 165
61 97 161
62 97 165
61 96 164
61 96 167
60 96 158
63 99 169
62 98 165
61 97 164
60 96 160
60 95 157
60 94 152
60 94 154
59 94 152
59 93 156
59 92 148
57 89 137
51 61 61
48 56 37
61 65 39
55 61 46
54 62 48
70 73 47
77 80 49
71 77 53
67 71 44
74 78 52
73 78 53
82 84 48
84 87 56
79 83 53
76 80 47
90 93 63
95 97 58
86 90 58
95 97 57
104 107 72
113 113 67
103 104 62
112 113 70
129 127 78
121 121 69
127 126 68
124 125 76
124 124 71
128 127 73
127 126 77
131 130 79
132 131 75
140 138 77
140 137 81
141 138 78
144 141 79
151 148 84
141 139 77
134 132 74
143 140 79
149 145 85
144 141 81
161 155 87
157 153 90
155 151 82
150 146 82
153 150 86
160 155 88
148 144 83
156 152 87
158 153 82
160 156 86
158 153 86
153 149 85
160 155 88
158 154 83
164 158 85
166 159 86
163 158 89
167 161 88
169 162 87
161 155 88
168 162 89
167 160 88
169 163 89
170 163 91
165 159 83
165 159 87
162 157 82
176 168 93
172 165 89
171 163 87
165 158 86
167 161 85
170 164 87
171 164 85
167 161 84
170 163 90
163 157 78
171 163 92
168 161 84
165 159 84
166 159 84
167 160 84
173 166 92
169 162 90
168 161 85
163 157 79
166 160 87
164 157 80
167 160 81
162 156 82
169 162 86
165 158 81
167 161 86
169 162 80
162 155 80
164 157 83
166 159 82
163 158 84
167 160 85
157 152 77
153 147 76
154 148 76
161 155 81
158 152 76
154 148 77
165 158 84
156 150 76
153 147 75
155 149 70
161 154 80
158 150 81
156 150 75
147 142 64
143 137 65
145 139 69
149 143 65
143 138 61
143 136 67
146 140 65
138 132 62
147 142 62
134 129 60
144 137 66
142 135 60
146 139 69
134 130 58
136 131 61
126 122 49
126 121 44
132 127 49
167 187 16
169 191 0
173 195 0
171 193 0
171 192 0
171 193 0
171 193 0
170 190 0
172 194 0
173 196 0
174 197 0
170 194 0
172 196 0
173 197 0
170 193 0
171 194 0
174 197 0
175 198 0
172 196 0
172 195 0
173 196 0
170 194 0
172 196 0
172 196 0
172 196 0
174 197 0
172 195 0
172 196 0
172 196 0
171 195 0
174 197 0
171 193 0
169 193 0
168 191 0
174 197 0
174 197 0
169 193 0
169 193 0
168 190 0
173 196 0
165 188 0
171 194 0
173 197 0
173 195 0
173 197 0
170 193 0
171 195 0
173 195 0
173 196 0
173 196 0
173 196 0
173 197 0
171 194 0
171 195 0
173 195 0
171 195 0
171 193 0
170 193 0
168 190 0
171 195 0
170 193 0
171 195 0
170 194 0
169 191 0
171 194 0
172 195 0
168 191 0
168 191 0
170 193 0
170 193 0
171 195 0
167 189 0
168 191 0
173 196 0
172 196 0
169 192 0
169 192 0
171 194 0
171 194 0
171 193 0
170 193 0
171 195 0
171 195 0
169 193 0
172 194 0
173 196 0
167 191 0
170 193 0
170 194 0
171 194 0
172 196 0
167 191 0
170 193 0
174 195 0
167 191 0
170 193 0
173 196 0
170 194 31
71 104 151
62 98 161
62 98 160
61 97 159
62 98 164
62 98 163
63 99 168
61 98 170
63 99 167
61 98 163
62 99 170
62 98 164
62 98 169
62 99 172
61 98 171
61 97 167
63 99 171
61 98 165
62 98 172
62 99 173
61 98 174
62 99 175
62 99 173
61 98 169
63 100 177
62 99 173
62 99 178
62 98 169
63 100 180
62 99 175
62 98 172
62 99 173
61 98 175
63 99 175
61 98 172
62 99 177
63 99 176
62 99 176
61 98 176
62 99 174
62 99 174
62 99 174
62 99 177
62 99 177
61 98 176
62 99 178
62 99 180
63 99 178
62 99 177
62 99 175
63 100 178
63 100 179
62 99 176
62 99 177
62 98 171
61 98 174
62 99 178
63 99 178
62 99 176
62 99 174
61 98 175
62 99 175
62 99 178
62 99 176
62 99 176
62 99 176
62 99 176
61 98 172
62 99 177
62 99 174
62 99 179
62 99 180
62 99 175
63 100 180
63 99 175
62 99 176
62 99 175
63 100 178
62 99 175
62 98 169
63 100 179
61 98 172
62 99 178
62 99 173
62 99 176
62 99 175
62 98 173
62 99 174
62 99 180
62 99 177
62 99 176
62 99 180
62 99 172
62 99 175
62 99 176
62 98 173
63 100 179
62 99 178
62 99 174
62 98 173
62 99 176
62 98 171
61 98 171
62 98 168
62 98 173
61 98 174
61 98 171
62 99 172
62 99 169
61 98 175
63 99 174
63 99 175
62 98 169
62 99 177
61 98 171
62 99 173
62 99 175
62 98 171
62 99 176
62 99 174
62 99 172
62 98 169
62 99 176
62 99 172
62 99 175
62 99 172
62 98 169
62 99 172
63 99 174
63 99 176
61 98 166
61 98 165
62 98 163
62 99 170
62 99 174
63 99 174
62 99 170
61 97 166
63 99 170
62 98 166
63 99 175
62 98 169
61 98 165
63 99 172
62 99 171
62 98 172
62 99 170
62 98 165
62 98 165
63 99 170
62 98 170
62 97 166
62 98 170
62 98 165
60 96 154
62 99 171
61 97 161
61 97 174
62 98 168
62 97 168
61 96 167
60 96 158
61 97 158
60 95 154
61 96 158
60 94 151
61 96 161
61 95 152
59 93 150
59 92 146
54 73 103
54 58 37
47 54 37
57 63 35
47 55 37
52 60 46
67 72 46
61 69 49
69 74 46
63 69 41
78 82 53
66 72 48
87 90 56
89 92 56
99 100 63
95 98 60
101 102 60
104 105 67
96 99 67
112 113 69
104 107 69
99 100 61
116 117 74
114 115 67
108 109 65
123 123 79
126 125 75
126 124 73
127 125 70
129 127 74
134 133 76
125 125 74
123 122 70
145 142 81
135 133 79
144 142 83
146 143 74
144 142 81
141 139 76
139 135 78
149 146 82
147 144 81
142 138 78
149 145 84
154 150 79
150 146 79
153 149 84
156 152 86
151 147 75
161 156 83
157 153 84
159 153 87
155 151 86
162 157 83
160 156 85
166 160 85
159 154 85
164 158 86
164 158 89
162 157 87
153 150 75
170 163 95
161 156 86
163 158 85
169 163 87
164 158 87
163 157 87
168 162 91
166 160 90
170 163 88
169 163 89
173 165 93
162 156 81
170 163 89
172 164 87
166 161 82
169 162 89
165 160 84
169 162 87
165 159 84
171 164 91
172 166 87
167 160 81
167 161 84
163 158 80
165 159 81
168 162 84
170 163 82
168 161 83
164 157 77
158 153 76
163 157 78
162 156 78
164 156 84
170 163 88
162 156 82
169 161 85
156 151 69
164 157 82
161 154 75
166 159 83
161 154 80
155 150 75
163 157 81
156 150 72
156 150 75
154 148 74
154 149 74
157 151 72
153 148 71
155 149 72
156 150 77
151 145 64
154 147 69
151 145 64
149 143 71
147 141 69
148 142 68
146 140 59
139 133 63
148 142 67
148 143 57
146 140 63
146 140 62
148 141 64
135 129 56
133 128 49
135 129 58
138 132 58
133 129 52
129 123 54
130 135 34
172 194 0
172 195 0
171 192 0
169 191 0
172 194 0
172 194 0
172 194 0
168 190 0
170 190 0
171 195 0
174 197 0
174 198 0
172 195 0
171 195 0
170 193 0
170 193 0
172 196 0
171 195 0
171 195 0
172 195 0
171 195 0
169 193 0
171 194 0
171 194 0
170 194 0
168 192 0
173 197 0
172 195 0
170 194 0
170 193 0
172 195 0
171 195 0
171 195 0
171 195 0
172 195 0
169 193 0
170 193 0
174 197 0
172 195 0
167 191 0
172 195 0
171 194 0
173 195 0
171 194 0
169 193 0
172 195 0
171 194 0
172 195 0
173 197 0
171 195 0
170 193 0
169 194 0
171 195 0
169 192 0
168 191 0
171 194 0
171 195 0
173 197 0
170 193 0
170 194 0
170 193 0
170 194 0
173 196 0
170 193 0
168 192 0
169 192 0
170 193 0
169 193 0
171 194 0
170 194 0
169 192 0
168 191 0
170 193 0
167 191 0
168 191 0
169 192 0
167 189 0
171 194 0
169 192 0
168 192 0
172 193 0
171 193 0
171 194 0
170 193 0
166 190 0
171 194 0
168 190 0
168 190 0
165 188 0
168 191 0
169 193 0
171 195 0
169 192 0
168 191 0
169 193 0
171 194 0
170 193 0
151 175 78
63 99 165
62 99 168
61 97 163
62 98 163
62 99 164
62 98 166
61 98 167
63 99 168
62 98 168
62 98 166
62 99 173
61 98 163
63 99 171
61 98 165
61 98 168
62 98 168
62 99 169
62 99 174
61 98 169
62 98 167
63 99 175
62 99 176
62 98 172
62 98 175
62 99 175
62 99 175
61 98 173
62 99 174
62 99 172
62 99 172
62 98 176
61 98 174
62 98 172
62 98 174
63 100 177
62 99 174
61 98 174
62 99 177
62 99 174
62 99 174
61 98 175
62 99 174
63 100 180
62 99 179
62 99 173
62 99 177
62 99 175
62 99 175
62 99 174
61 98 169
62 99 174
61 98 177
62 99 175
62 99 178
61 98 175
62 99 176
62 99 178
62 99 176
62 98 175
62 99 177
62 99 179
62 99 178
62 99 178
62 99 177
63 99 178
62 99 174
63 99 179
62 99 178
62 99 176
62 99 179
62 99 175
63 99 175
62 99 175
62 99 177
62 99 176
62 99 178
62 99 171
62 99 178
62 99 173
62 98 176
62 98 174
62 99 174
62 98 172
62 99 177
62 99 175
62 99 174
62 98 173
62 99 175
62 98 173
62 99 174
63 99 178
62 99 172
61 98 172
62 99 172
63 99 175
62 99 176
62 99 177
62 99 176
62 98 171
62 99 176
62 99 176
62 98 172
62 99 175
62 99 175
62 99 176
63 99 172
62 99 176
62 99 175
62 98 172
62 98 171
62 98 173
61 98 175
62 99 171
63 99 175
63 100 177
62 98 171
62 99 170
62 99 171
62 99 173
63 99 175
62 99 172
62 98 173
62 99 172
62 98 173
62 99 175
62 99 173
61 98 172
62 99 169
62 99 174
62 99 171
62 98 171
62 99 173
62 99 168
62 99 172
63 100 173
62 99 170
61 97 165
62 99 173
62 99 174
62 99 171
62 98 169
62 98 168
62 99 175
63 99 172
62 98 167
62 99 171
62 98 166
62 98 167
62 98 167
61 98 165
61 97 168
61 97 164
62 98 168
61 97 164
61 97 159
61 96 157
62 98 166
62 98 172
61 96 158
62 98 165
63 99 166
61 97 163
61 97 165
61 96 165
60 95 154
60 94 149
60 94 153
60 94 153
60 95 160
59 93 147
54 82 124
48 55 37
53 57 36
47 54 34
47 54 37
47 55 42
60 67 43
66 72 46
57 65 46
90 91 55
82 84 56
67 72 42
88 91 56
83 86 55
84 87 58
92 94 60
89 92 52
105 105 59
93 96 58
104 106 63
114 115 67
104 105 59
125 124 73
108 109 63
114 114 69
123 123 74
115 115 69
126 125 72
126 125 69
124 123 74
136 133 75
120 120 70
124 124 73
143 140 80
143 139 82
125 124 68
133 131 73
139 136 72
154 149 86
145 141 75
144 141 77
142 139 78
140 138 72
145 142 78
152 147 81
154 149 82
150 146 73
163 156 86
156 151 86
161 156 84
157 153 87
153 149 78
161 155 86
163 157 87
162 156 84
162 157 86
163 158 88
156 151 80
169 162 89
163 158 86
158 153 80
163 158 84
165 158 87
163 158 86
163 157 83
158 153 77
168 161 86
165 159 82
168 161 86
168 162 83
167 161 84
170 163 87
170 163 86
164 158 75
165 159 84
165 159 82
169 162 83
169 161 82
164 157 84
163 157 80
162 156 79
167 160 84
167 160 88
163 157 82
167 160 82
161 156 78
165 159 80
169 162 87
165 159 84
167 160 84
168 160 84
157 152 78
163 156 83
166 159 81
165 158 83
168 161 84
169 162 79
158 153 78
160 154 74
161 154 80
159 152 76
162 155 78
164 157 77
161 155 77
152 147 67
162 155 85
158 151 69
162 156 78
157 151 80
157 150 76
160 154 75
151 145 62
142 136 66
151 144 70
148 142 65
156 149 69
149 142 68
154 147 75
146 139 67
153 147 65
139 134 62
137 133 62
145 139 59
139 134 57
134 129 57
144 138 60
135 129 58
138 133 53
128 122 57
126 121 48
126 121 51
149 162 19
173 194 0
171 194 0
171 193 0
173 194 0
171 192 0
173 194 0
169 191 0
172 194 0
172 194 0
172 195 0
171 194 0
172 195 0
173 196 0
172 196 0
171 194 0
171 194 0
171 194 0
171 194 0
173 196 0
172 195 0
171 194 0
173 197 0
169 194 0
171 194 0
170 194 0
172 194 0
170 193 0
168 191 0
172 196 0
172 195 0
170 194 0
168 191 0
170 193 0
169 193 0
173 196 0
174 197 0
171 195 0
168 191 0
172 195 0
170 193 0
169 193 0
170 194 0
172 195 0
174 197 0
170 193 0
170 195 0
168 192 0
171 194 0
170 194 0
171 194 0
172 195 0
172 195 0
170 193 0
171 195 0
170 193 0
171 194 0
170 193 0
168 192 0
167 191 0
170 194 0
172 195 0
169 192 0
171 194 0
169 192 0
172 195 0
170 194 0
173 197 0
168 192 0
170 194 0
172 196 0
168 191 0
170 194 0
172 195 0
172 194 0
172 195 0
170 193 0
169 192 0
168 192 0
168 191 0
168 191 0
172 194 0
168 192 0
170 193 0
167 190 0
167 189 0
163 187 0
170 193 0
172 195 0
170 193 0
173 195 0
170 193 0
170 193 0
168 191 0
168 190 0
171 194 0
172 195 0
171 194 0
111 139 130
62 98 162
62 97 155
62 98 163
62 98 164
60 97 161
62 98 167
62 98 164
63 99 172
61 97 164
62 99 170
62 99 171
62 98 164
62 99 171
61 96 162
62 99 172
61 98 168
61 98 161
61 98 166
62 98 168
62 99 175
62 98 171
61 98 175
62 98 170
62 98 173
62 98 176
61 98 171
62 99 172
61 98 172
62 98 176
62 99 173
63 99 174
62 99 179
61 98 176
62 98 171
62 99 174
61 98 171
61 98 174
62 99 175
62 98 173
62 99 177
62 99 177
62 99 175
61 98 177
62 99 174
63 99 177
62 99 179
61 98 175
62 99 176
62 99 174
62 99 176
62 99 177
62 99 173
62 99 179
62 99 175
62 99 177
61 98 172
62 99 174
62 99 175
62 99 174
63 100 180
61 98 176
62 98 176
61 98 175
62 99 174
62 98 171
61 98 174
62 98 175
62 98 174
63 99 178
62 99 177
62 99 174
63 99 175
63 99 177
62 99 177
62 99 171
62 99 174
62 99 174
61 98 172
61 98 171
62 98 174
62 99 176
62 98 170
62 99 177
62 99 177
61 98 171
62 99 179
62 99 178
63 99 174
63 99 176
61 98 170
62 99 172
63 100 179
61 98 170
62 99 175
62 99 174
62 99 176
62 98 171
62 99 173
61 98 173
62 98 171
62 99 176
62 99 173
62 99 179
62 99 176
62 99 174
63 100 179
61 98 173
63 99 174
61 98 174
62 99 174
62 99 174
63 100 176
62 98 169
63 99 177
62 99 174
62 99 171
62 99 171
62 98 168
62 99 172
62 99 170
62 99 176
62 99 173
62 99 168
61 98 165
63 99 174
62 99 174
62 99 175
63 99 169
62 99 171
61 98 173
62 99 172
61 98 168
62 98 167
63 99 173
62 99 169
62 99 173
62 98 167
63 99 169
62 98 167
62 99 171
61 97 162
62 98 168
62 98 164
63 99 167
62 98 166
61 97 169
62 98 166
62 98 160
62 99 172
62 98 165
62 98 169
62 97 163
62 99 169
63 99 170
62 97 166
62 98 167
61 96 161
61 96 160
61 97 164
62 98 166
62 97 167
60 95 153
62 97 168
61 96 154
60 95 160
62 97 161
60 94 152
60 95 153
60 94 156
61 95 160
59 92 144
51 60 55
42 49 35
57 63 38
56 62 37
56 62 42
64 70 49
74 77 52
76 79 45
65 71 45
85 88 54
74 78 40
69 74 43
82 85 52
81 86 59
86 89 55
96 98 63
94 97 58
111 111 65
106 108 65
108 109 68
114 113 62
107 107 66
113 113 72
113 114 65
115 116 68
118 117 69
127 126 70
123 122 65
130 128 72
122 121 69
125 125 75
124 123 67
131 129 73
135 133 73
138 136 71
149 146 85
141 139 79
145 142 81
138 136 75
141 139 82
145 140 69
140 137 72
152 148 78
154 150 79
151 148 78
158 153 83
155 150 80
154 150 77
156 152 84
154 150 78
158 152 80
155 151 79
150 146 83
148 145 72
162 156 88
166 159 89
158 153 84
166 160 82
168 161 91
167 161 84
165 159 84
165 160 87
169 163 93
164 159 86
166 160 86
159 155 79
162 156 85
165 159 84
165 158 85
168 161 87
160 154 82
164 160 83
167 161 87
167 160 81
162 156 76
166 160 82
162 157 80
173 166 87
167 160 87
173 166 90
168 161 84
168 162 83
167 161 84
165 159 82
165 158 84
168 162 84
164 158 80
166 160 84
161 155 73
166 159 87
160 154 75
157 151 77
162 156 77
170 162 84
163 157 78
162 156 79
164 156 80
164 157 79
159 153 75
159 152 74
163 156 77
161 154 76
164 157 81
155 149 72
163 155 76
161 155 76
156 150 74
160 154 68
150 144 66
155 148 73
156 149 77
150 143 69
149 143 66
157 150 75
148 142 64
148 143 67
148 142 63
153 146 67
140 135 60
143 137 64
137 131 58
144 138 61
145 139 69
148 142 63
128 122 53
136 130 53
145 139 61
132 126 54
140 135 56
128 123 45
156 172 25
171 192 0
170 191 0
171 192 0
172 195 0
170 191 0
170 190 0
171 192 0
170 191 0
170 191 0
172 196 0
172 196 0
171 195 0
174 197 0
170 193 0
173 196 0
171 194 0
174 197 0
169 193 0
172 196 0
170 194 0
170 192 0
172 196 0
175 198 0
168 192 0
174 198 0
172 196 0
172 195 0
170 194 0
172 196 0
171 194 0
171 194 0
172 195 0
172 196 0
173 196 0
170 194 0
169 192 0
172 195 0
172 196 0
170 194 0
172 196 0
171 194 0
171 195 0
173 196 0
169 193 0
172 195 0
171 195 0
175 198 0
170 194 0
169 193 0
171 194 0
171 194 0
170 193 0
169 193 0
170 194 0
171 194 0
171 194 0
171 194 0
173 195 0
166 190 0
172 195 0
172 196 0
169 193 0
173 196 0
172 195 0
171 194 0
170 193 0
170 194 0
169 192 0
173 195 0
169 193 0
172 195 0
170 193 0
170 193 0
170 192 0
167 190 0
170 193 0
171 194 0
168 193 0
169 193 0
167 191 0
171 194 0
169 191 0
170 193 0
169 191 0
170 193 0
171 195 0
169 192 0
169 192 0
170 194 0
170 193 0
168 191 0
169 193 0
168 191 0
169 194 0
171 194 0
163 186 0
165 188 18
84 113 147
63 99 161
60 96 157
63 99 168
61 97 160
61 98 164
62 99 170
63 99 170
61 98 162
62 98 167
63 99 171
61 97 164
62 99 168
62 98 166
62 99 172
61 98 172
62 99 170
62 98 169
61 98 166
63 99 174
62 98 171
63 99 174
62 99 177
62 98 175
61 97 169
63 100 172
61 97 174
60 97 171
62 99 173
62 99 177
62 99 174
61 97 169
62 99 176
62 99 176
61 98 174
62 98 170
62 99 175
62 99 174
62 99 173
61 98 176
62 99 177
62 99 176
61 97 170
62 99 179
61 98 175
61 98 174
62 99 173
62 99 175
62 99 174
62 99 176
61 98 175
62 99 174
62 99 177
62 99 173
62 99 176
62 99 175
61 98 176
62 99 176
62 99 175
62 98 174
63 99 175
62 99 177
62 99 175
61 98 175
62 98 174
62 99 178
63 100 177
62 99 176
62 99 178
61 98 171
62 99 179
62 99 172
62 99 175
61 98 169
62 99 176
62 99 170
62 98 171
62 99 173
62 99 174
62 99 176
61 98 171
62 99 175
62 99 177
62 99 175
62 99 179
62 99 175
63 99 174
61 98 173
62 99 170
62 98 169
63 99 175
62 98 170
62 98 172
62 99 174
62 99 176
62 98 169
62 99 173
62 99 177
62 99 172
62 99 173
62 98 172
62 99 174
62 98 170
62 99 175
62 99 176
62 99 172
62 98 171
62 99 171
62 99 175
63 99 177
62 98 172
62 99 170
62 99 176
62 99 176
61 98 171
62 99 173
62 99 173
62 99 169
62 99 175
62 98 170
62 98 173
62 99 173
62 99 173
63 100 174
62 99 172
62 99 174
61 98 170
62 98 165
62 98 167
62 98 171
63 99 171
62 99 173
62 99 172
62 99 173
62 98 170
63 99 170
61 98 162
62 99 170
62 98 170
62 99 172
62 98 168
62 98 167
60 96 155
62 98 165
62 99 167
62 98 164
61 98 170
62 99 170
62 98 169
61 97 166
62 98 168
63 99 165
61 97 164
62 98 163
61 97 160
62 98 164
61 98 161
61 97 168
62 97 167
62 98 166
62 98 167
61 96 158
62 97 167
61 96 160
62 97 163
62 97 163
61 97 161
61 95 158
60 95 154
61 95 156
60 93 148
58 90 142
52 69 91
44 51 30
42 51 41
59 64 37
63 68 47
55 62 41
64 68 33
72 76 44
64 69 43
62 69 45
83 85 55
75 79 42
80 84 51
96 98 56
87 91 53
92 94 59
99 101 57
97 99 58
120 119 67
102 104 65
103 104 63
118 118 70
121 120 71
116 116 71
116 116 70
123 122 63
120 119 71
118 118 65
128 127 69
125 123 70
129 127 73
126 125 75
127 126 71
128 127 72
131 129 67
135 133 74
150 146 81
147 143 81
140 137 75
143 140 78
154 149 81
141 139 79
145 142 75
145 142 81
147 143 80
152 148 77
156 152 82
157 152 81
155 151 77
152 148 80
156 152 81
157 152 80
159 154 83
159 153 81
162 157 82
152 147 71
160 155 88
158 154 74
162 157 84
164 158 81
164 158 84
161 156 78
164 159 84
164 157 87
164 158 85
167 161 87
165 159 84
166 159 86
168 161 85
169 162 87
165 159 84
168 162 86
165 158 83
163 157 82
163 157 84
167 161 83
169 162 83
167 161 83
163 158 81
170 163 84
166 160 80
168 161 81
168 162 88
164 157 79
164 158 82
165 159 81
163 157 83
166 160 80
165 157 80
162 156 79
165 158 81
169 161 84
163 157 74
164 156 81
162 157 75
156 149 75
160 154 76
157 151 72
153 147 73
161 154 80
155 149 74
164 157 80
163 155 78
156 150 76
153 146 74
152 146 68
151 145 65
157 150 72
154 147 67
150 145 62
154 148 73
154 147 69
155 148 74
150 144 63
148 143 63
145 139 67
145 139 63
142 137 60
139 134 59
148 142 65
138 134 56
139 134 53
139 133 54
140 134 58
140 135 56
150 143 64
139 134 56
136 130 59
132 126 56
122 123 34
168 189 0
167 188 0
168 189 0
172 193 0
172 194 0
173 195 0
171 194 0
168 190 0
170 193 0
171 193 0
168 192 0
169 193 0
171 195 0
172 196 0
170 194 0
172 196 0
171 195 0
171 195 0
172 195 0
172 195 0
172 196 0
171 196 0
170 194 0
172 196 0
169 192 0
172 196 0
172 195 0
171 194 0
171 195 0
171 193 0
169 192 0
172 196 0
173 195 0
171 194 0
174 197 0
169 192 0
169 194 0
171 195 0
172 196 0
172 195 0
169 192 0
170 192 0
170 194 0
174 197 0
171 195 0
172 195 0
169 192 0
173 196 0
170 195 0
171 195 0
172 195 0
170 194 0
171 194 0
171 194 0
171 194 0
170 194 0
168 191 0
169 192 0
173 197 0
170 193 0
172 195 0
171 194 0
171 194 0
173 197 0
169 193 0
168 191 0
167 191 0
170 193 0
171 194 0
170 193 0
170 193 0
172 195 0
173 196 0
168 191 0
168 191 0
169 193 0
167 190 0
170 193 0
174 197 0
166 190 0
169 192 0
168 192 0
169 193 0
172 195 0
168 192 0
165 188 0
166 189 0
169 192 0
171 194 0
174 197 0
169 193 0
169 192 0
168 191 0
169 192 0
164 188 0
166 190 0
171 195 0
155 178 67
62 98 159
62 98 162
60 97 155
61 96 156
61 98 161
62 98 169
63 99 169
61 98 164
62 98 165
61 97 157
62 98 168
61 97 158
61 98 170
61 98 165
62 99 172
62 98 171
62 99 174
62 99 170
63 99 175
62 99 172
62 99 173
62 99 172
62 99 171
62 98 172
62 98 175
62 99 176
62 99 174
61 97 173
63 99 176
62 99 178
62 99 175
62 99 176
62 99 175
62 99 175
61 98 174
62 99 177
61 98 177
62 99 178
61 98 174
62 99 176
62 99 175
62 98 175
62 99 177
62 99 177
63 100 177
62 99 177
62 99 176
62 99 176
62 99 175
63 99 176
62 98 173
62 99 175
62 99 176
62 99 177
62 99 175
61 98 174
62 98 172
62 99 177
63 99 178
61 97 171
62 98 172
62 98 173
62 98 174
62 99 177
61 98 175
61 98 175
62 98 174
62 99 177
62 98 174
61 98 175
62 99 174
62 99 176
62 98 176
62 99 174
62 99 175
62 99 174
63 99 173
62 98 174
62 99 177
62 99 175
62 98 174
62 98 171
61 98 174
62 99 176
63 99 179
62 99 176
61 98 177
62 98 170
62 99 176
62 98 167
62 99 178
61 98 171
62 99 172
62 99 178
63 99 175
62 99 177
62 99 173
62 99 176
62 99 176
62 99 178
62 98 165
62 99 178
62 99 173
62 99 175
62 99 175
62 99 171
61 98 176
62 99 174
63 99 171
62 99 170
63 99 173
61 98 169
63 99 176
62 99 176
62 99 172
63 99 173
63 99 171
62 99 176
61 98 169
61 98 170
62 99 175
62 99 174
62 99 177
61 98 169
62 99 173
62 99 176
62 99 170
63 99 172
62 98 166
62 98 170
62 99 169
61 98 166
62 98 165
63 99 171
62 99 174
62 99 170
61 98 169
62 99 173
62 99 170
62 98 170
62 98 170
62 98 168
62 99 173
63 99 165
62 99 169
62 99 170
62 98 167
62 99 169
62 98 169
61 98 166
60 96 159
62 98 169
62 97 162
61 97 166
61 97 162
62 98 166
61 97 164
61 97 167
62 98 167
60 95 158
61 96 150
61 96 158
61 97 161
61 97 161
60 95 153
61 97 159
61 96 154
62 97 162
61 95 160
61 97 164
61 95 160
59 93 153
52 79 115
44 50 33
53 59 35
50 56 36
57 61 38
51 57 39
50 57 37
57 62 39
69 73 48
77 80 46
74 78 47
81 84 49
84 88 47
77 83 51
85 88 53
98 100 54
89 91 58
97 97 55
96 98 56
119 118 65
117 116 64
114 113 68
118 118 64
108 108 61
115 114 64
118 118 65
124 123 69
129 127 68
131 128 70
127 126 73
138 136 81
128 127 66
143 139 72
146 142 77
124 123 67
145 141 79
132 131 74
145 142 77
145 141 81
142 139 77
149 146 82
155 151 86
150 145 78
146 143 78
152 148 82
154 150 80
142 140 73
149 143 76
154 149 77
156 152 86
153 149 75
156 151 80
156 152 79
165 159 88
151 147 79
157 152 85
161 155 90
167 161 88
158 154 83
162 157 82
162 156 84
160 155 76
158 153 76
162 157 78
166 160 81
165 159 81
156 151 74
169 162 87
163 156 84
169 162 90
171 164 86
163 158 82
164 157 78
160 155 75
169 163 84
165 160 80
168 161 89
169 162 85
167 160 86
167 160 81
167 160 80
160 154 78
163 157 79
162 156 78
162 156 79
166 159 82
159 154 69
159 154 78
160 154 73
167 160 81
161 155 79
161 155 75
164 157 77
164 157 81
155 149 69
160 154 74
162 156 76
162 156 78
161 155 79
158 151 72
157 151 74
154 149 69
155 148 75
157 150 78
161 155 76
160 154 74
156 149 75
155 148 76
160 153 75
152 145 70
150 145 66
146 140 62
151 145 70
160 154 71
150 144 64
140 134 57
142 136 61
148 142 58
140 135 58
144 140 59
145 140 64
134 128 54
146 140 65
145 139 64
138 132 53
139 135 47
114 109 45
124 120 42
119 114 44
143 153 28
167 188 0
167 188 0
169 190 0
171 192 0
171 192 0
171 192 0
172 194 0
171 192 0
170 191 0
173 195 0
171 194 0
172 196 0
171 194 0
170 194 0
175 197 0
170 194 0
171 194 0
172 194 0
174 197 0
171 195 0
170 195 0
173 196 0
171 194 0
171 194 0
172 196 0
172 195 0
172 196 0
171 194 0
170 193 0
170 194 0
174 197 0
172 195 0
170 193 0
172 196 0
171 195 0
168 191 0
172 195 0
172 195 0
169 192 0
169 193 0
171 193 0
171 195 0
169 192 0
170 194 0
171 194 0
169 192 0
170 194 0
173 196 0
172 195 0
172 195 0
168 191 0
164 188 0
172 196 0
170 194 0
167 190 0
172 194 0
169 193 0
170 193 0
171 194 0
169 193 0
174 197 0
167 191 0
168 192 0
172 196 0
170 194 0
168 191 0
172 195 0
167 190 0
167 190 0
168 192 0
173 196 0
168 192 0
172 194 0
171 195 0
169 192 0
170 194 0
174 195 0
170 194 0
169 194 0
168 191 0
166 190 0
167 191 0
170 193 0
170 192 0
172 195 0
170 193 0
171 194 0
171 195 0
169 192 0
168 190 0
169 192 0
171 194 0
166 190 0
166 189 0
169 192 0
167 191 0
169 191 0
118 145 124
62 98 157
62 98 157
62 98 168
61 98 164
61 97 158
62 98 169
62 98 163
61 98 163
62 98 168
62 98 170
62 98 165
61 97 158
61 98 169
63 99 171
62 98 170
62 98 167
62 98 169
62 98 171
62 98 173
62 98 169
61 98 167
62 98 167
62 98 172
61 98 166
62 99 171
61 98 171
61 98 168
62 98 174
63 99 173
61 98 170
61 98 170
62 98 173
62 99 174
62 99 174
61 98 173
63 100 178
61 98 173
62 99 172
62 99 176
62 99 178
62 99 174
61 98 173
62 99 176
62 98 173
62 99 176
62 99 178
62 98 173
62 99 173
61 98 171
61 98 176
62 98 172
61 98 175
62 99 173
61 97 174
62 99 172
61 98 174
62 99 175
62 99 172
62 99 176
62 99 176
62 99 174
62 99 174
62 99 175
62 99 174
63 99 178
62 99 176
61 98 177
62 99 175
62 99 180
62 98 171
62 99 176
62 98 171
62 99 174
63 99 176
62 99 172
62 99 174
62 99 176
63 99 173
62 99 170
62 99 177
62 99 171
62 98 171
62 99 176
62 99 178
62 99 175
63 99 177
62 99 176
62 99 175
62 99 174
62 99 176
62 99 178
62 98 170
62 99 171
62 99 176
62 99 175
62 98 170
62 99 175
62 99 174
62 98 171
62 98 173
62 99 170
62 99 175
62 99 171
62 99 172
62 99 175
62 98 173
62 99 174
61 98 170
62 99 174
62 99 174
62 99 170
63 99 176
62 99 170
61 98 173
62 99 173
62 98 169
62 98 169
62 99 168
63 100 174
62 99 176
62 98 168
62 98 167
63 99 170
62 99 170
62 98 169
62 99 174
63 99 173
63 99 172
62 98 171
63 99 175
62 99 171
62 98 169
62 98 170
63 100 176
62 99 173
62 99 169
62 98 170
62 99 167
61 98 169
62 99 170
62 99 173
62 99 175
61 98 170
62 98 170
62 98 167
63 99 168
61 97 165
62 98 164
63 99 174
62 98 165
63 99 166
63 99 167
62 98 169
62 99 168
61 97 165
61 97 159
61 96 159
62 98 170
61 97 164
61 97 164
62 97 161
61 96 159
61 97 157
61 96 159
59 95 147
61 97 162
62 97 159
60 94 148
60 95 159
60 95 150
60 93 148
59 92 149
57 90 146
53 60 48
46 54 35
46 53 31
45 53 36
53 59 37
57 60 32
58 64 37
69 73 43
70 74 43
79 83 44
74 77 48
84 86 51
81 85 53
98 100 55
96 98 56
85 89 56
97 100 57
105 107 63
96 98 59
111 112 68
111 111 66
110 111 61
118 118 68
122 120 67
120 119 66
113 113 63
133 130 73
130 128 72
121 121 68
117 117 58
123 121 64
137 135 70
126 125 68
138 136 70
136 134 73
136 134 75
140 138 78
142 139 71
143 140 79
144 140 76
140 137 73
143 140 77
153 148 82
153 149 79
153 149 76
155 150 79
150 146 75
153 148 79
150 146 75
155 149 76
162 156 82
154 149 78
167 160 86
158 152 81
158 152 82
162 157 83
155 152 80
158 152 75
157 151 81
162 155 82
162 156 80
169 163 84
164 159 79
163 158 84
164 159 82
159 154 78
164 158 77
159 154 80
168 161 86
169 162 89
166 160 86
165 159 79
166 160 81
165 160 78
166 160 79
160 154 80
162 156 78
166 160 81
162 157 80
164 157 80
166 160 84
164 158 78
156 151 73
164 157 79
168 161 81
162 155 78
166 160 80
167 160 86
155 150 75
163 157 79
160 154 75
162 155 75
156 150 66
158 152 69
159 152 79
155 149 69
165 158 77
157 152 70
157 151 72
159 153 68
161 154 77
158 151 69
155 149 70
149 143 67
160 153 76
151 146 59
154 148 68
149 144 59
155 149 71
145 139 64
154 148 67
146 141 59
141 136 54
154 148 71
141 135 60
151 144 68
144 140 57
137 132 53
147 141 62
127 122 47
137 131 51
132 126 56
141 136 57
137 131 52
138 133 58
126 121 44
134 129 49
122 118 44
166 184 16
168 189 0
169 188 0
172 192 0
171 193 0
170 192 0
172 192 0
168 189 0
170 193 0
171 193 0
170 189 0
170 194 0
172 195 0
171 194 0
173 197 0
171 195 0
169 193 0
173 196 0
170 194 0
171 194 0
172 195 0
171 194 0
170 193 0
172 195 0
172 195 0
173 197 0
172 195 0
172 195 0
172 196 0
171 195 0
173 196 0
171 195 0
172 195 0
172 195 0
172 196 0
169 192 0
172 195 0
173 196 0
171 195 0
172 196 0
171 194 0
173 196 0
172 195 0
172 196 0
169 192 0
171 194 0
172 196 0
170 194 0
170 193 0
169 193 0
172 196 0
171 194 0
171 195 0
170 193 0
170 194 0
167 191 0
170 192 0
171 195 0
168 192 0
168 191 0
165 189 0
172 195 0
170 194 0
169 192 0
169 192 0
169 192 0
170 194 0
170 193 0
169 191 0
169 193 0
170 193 0
171 195 0
169 193 0
169 192 0
169 193 0
169 192 0
174 196 0
169 192 0
170 194 0
171 194 0
173 196 0
169 192 0
168 191 0
170 194 0
170 193 0
169 192 0
166 189 0
170 193 0
170 193 0
169 192 0
168 191 0
170 193 0
164 187 0
167 191 0
171 195 0
164 186 0
170 194 0
171 194 0
105 133 137
61 96 152
61 97 156
63 99 166
61 97 157
62 99 170
62 98 167
62 98 163
62 98 162
62 98 170
62 98 164
62 98 169
61 97 161
61 98 168
61 97 163
61 97 169
62 99 174
62 98 171
62 98 172
61 98 167
62 98 169
63 99 171
62 99 175
62 99 170
62 98 167
61 98 170
63 99 175
62 99 174
62 98 174
62 99 170
62 99 178
62 98 176
62 98 170
62 99 178
61 98 175
62 98 170
62 99 179
61 97 173
62 99 175
62 99 173
62 99 180
62 99 176
62 99 175
62 99 177
62 99 173
61 98 176
62 99 172
61 98 166
61 98 175
62 99 176
62 99 178
62 99 178
62 99 177
62 99 177
62 99 176
62 99 176
62 99 175
62 98 173
62 99 176
61 98 171
61 98 171
62 99 175
62 99 177
62 99 176
61 98 175
62 99 175
62 99 178
62 99 174
61 98 174
62 98 173
62 99 177
62 99 175
63 100 175
63 100 176
62 99 173
62 99 179
63 99 178
61 98 175
61 98 167
62 98 172
62 99 174
62 99 175
62 99 174
62 99 176
62 99 174
62 98 177
62 99 175
61 97 168
62 99 175
63 99 178
63 99 178
62 99 176
61 98 176
62 98 173
62 99 177
62 99 174
62 99 174
62 99 173
62 99 172
63 100 180
62 99 170
61 98 169
62 99 172
62 98 170
63 99 173
62 99 172
61 98 166
63 99 172
62 99 170
62 98 168
62 99 177
62 99 172
62 98 171
62 99 175
63 99 173
62 99 172
63 99 172
62 99 170
63 100 177
62 98 170
62 99 173
62 99 174
61 98 171
63 99 172
63 99 174
62 98 165
61 98 169
62 99 171
63 99 173
61 98 168
62 99 171
62 99 176
61 98 169
62 99 170
61 98 167
62 99 171
63 99 172
62 98 165
62 99 170
63 99 173
62 98 164
62 99 165
62 98 164
61 98 163
62 99 174
62 98 173
62 99 173
62 99 167
61 97 162
62 97 166
61 97 164
62 98 169
62 99 171
61 97 165
62 98 164
62 98 166
61 97 161
62 98 166
62 98 165
62 97 157
62 98 163
61 97 162
61 96 158
62 97 163
61 97 162
62 97 159
61 95 154
58 92 144
61 96 159
62 97 162
61 95 154
61 95 153
59 93 151
60 92 145
53 72 104
51 59 32
48 53 20
54 59 41
50 57 34
65 70 38
66 69 38
71 75 45
71 75 43
73 77 42
75 80 51
85 88 50
86 89 50
78 82 53
94 96 50
88 91 46
93 95 50
102 102 56
99 102 60
104 105 57
116 116 67
116 117 64
105 105 64
108 109 60
116 116 60
117 117 65
120 120 67
120 120 64
119 118 69
130 129 75
130 129 71
134 132 67
141 138 73
132 130 67
135 133 71
143 140 70
145 141 81
145 141 81
139 136 67
139 136 72
145 141 79
150 148 75
147 143 76
139 136 68
151 146 81
155 150 80
151 148 80
156 152 78
149 145 73
150 146 73
153 148 79
154 150 72
157 152 74
157 151 84
156 151 76
161 155 80
156 151 79
161 155 81
161 155 84
164 158 82
165 159 78
162 157 78
160 154 81
162 157 79
166 160 84
163 157 78
163 157 82
168 161 85
170 163 86
166 160 84
164 158 78
161 154 81
167 160 80
163 156 81
168 162 84
169 162 84
162 155 75
164 158 80
166 159 80
156 150 79
163 156 76
165 158 78
159 154 76
169 163 84
160 153 72
162 156 71
164 158 77
166 158 80
161 155 75
164 158 75
162 156 77
159 153 74
155 149 75
156 151 71
157 151 69
164 157 75
160 154 70
161 154 75
161 154 77
165 158 78
153 147 65
158 151 72
156 150 71
153 148 75
160 153 67
151 144 69
156 150 77
152 146 67
149 142 67
145 140 60
153 146 72
142 137 57
151 145 66
143 137 61
139 133 59
154 147 63
135 130 45
148 143 61
147 141 59
138 133 54
144 139 59
138 133 58
132 128 52
134 127 54
132 127 53
133 126 59
131 125 51
135 136 37
172 193 0
167 189 0
170 190 0
170 192 0
170 190 0
164 184 0
168 189 0
174 197 0
168 190 0
171 192 0
171 194 0
172 195 0
171 195 0
173 196 0
168 192 0
169 192 0
172 195 0
171 194 0
171 195 0
173 196 0
172 195 0
170 194 0
170 193 0
174 197 0
171 194 0
170 192 0
170 193 0
172 195 0
172 195 0
173 197 0
173 196 0
170 194 0
172 194 0
170 193 0
171 195 0
171 195 0
167 191 0
172 195 0
170 194 0
172 196 0
171 195 0
173 196 0
171 195 0
170 194 0
171 194 0
172 196 0
169 192 0
172 196 0
170 194 0
169 193 0
165 189 0
173 196 0
173 196 0
167 190 0
170 193 0
169 192 0
172 195 0
170 194 0
172 194 0
171 195 0
170 193 0
174 197 0
170 194 0
171 194 0
172 195 0
169 192 0
171 194 0
172 195 0
167 190 0
174 196 0
170 194 0
168 191 0
168 191 0
169 192 0
170 194 0
172 195 0
168 193 0
172 195 0
167 192 0
165 189 0
166 189 0
173 196 0
170 193 0
169 192 0
169 192 0
166 189 0
170 193 0
170 194 0
170 193 0
172 195 0
172 195 0
171 194 0
167 189 0
170 193 0
168 191 0
169 193 0
167 190 0
159 182 36
61 97 155
62 98 161
62 98 162
62 98 165
62 97 159
62 99 172
63 99 172
61 97 159
62 99 173
60 96 155
61 97 163
62 98 168
63 99 171
60 96 163
62 98 168
62 99 167
61 98 167
61 97 168
62 98 171
61 98 172
62 98 166
62 99 175
62 99 171
61 98 170
63 100 181
61 98 174
62 99 170
61 98 169
62 98 171
61 98 169
61 98 171
62 99 177
61 98 174
62 98 171
62 99 174
62 99 174
62 99 174
62 98 174
62 99 175
61 97 170
62 99 178
63 99 171
62 98 170
62 98 173
62 99 174
62 99 171
62 99 173
62 99 179
62 98 171
61 98 175
62 99 175
62 99 176
62 99 173
61 98 171
62 99 175
63 99 178
63 99 176
62 99 172
62 99 176
62 99 175
61 98 169
61 98 168
62 99 178
62 99 175
62 99 173
62 99 175
62 99 175
62 99 178
61 98 174
62 99 174
62 99 173
62 98 169
62 99 172
62 99 177
62 99 178
63 99 176
62 99 173
61 98 174
62 98 172
62 99 171
62 99 176
62 99 177
61 98 169
62 98 171
63 99 175
62 99 172
62 99 176
62 98 170
62 99 175
62 99 171
62 99 174
62 99 176
62 99 176
61 98 166
62 99 171
62 98 169
62 99 172
63 99 173
62 99 174
62 99 172
63 99 173
62 99 177
62 99 170
62 99 175
62 99 170
62 98 171
62 99 174
62 99 173
62 98 169
61 98 168
62 99 176
63 99 173
62 98 169
63 99 174
63 99 171
63 99 174
62 99 170
62 99 174
62 99 172
62 98 169
61 98 168
63 99 175
61 98 170
63 99 171
61 98 170
62 99 170
61 98 167
61 98 168
61 97 169
61 98 170
62 98 170
62 99 172
62 99 170
62 98 169
62 98 169
63 100 176
62 98 168
62 99 171
62 99 171
61 98 164
61 97 164
62 98 168
62 98 166
62 98 166
62 99 168
62 98 164
62 98 165
62 98 167
61 97 162
63 98 165
63 99 170
62 98 169
62 98 168
62 98 167
61 97 163
63 99 170
62 98 164
61 97 159
62 98 166
61 97 158
62 98 163
62 98 163
61 97 157
61 97 163
61 97 162
62 98 167
60 96 156
61 97 159
61 97 167
60 95 155
59 93 150
60 93 154
60 93 150
58 91 142
49 70 103
44 51 29
45 51 30
48 55 33
57 64 37
53 60 42
57 63 35
65 70 38
65 72 44
83 84 51
86 90 57
82 85 47
83 85 43
73 78 45
93 95 55
95 97 51
95 95 50
81 86 50
118 116 62
109 109 54
108 109 56
107 108 60
110 110 57
128 126 69
129 126 67
115 115 60
122 121 65
125 124 66
124 124 65
124 122 60
132 130 65
122 122 69
134 132 67
125 124 66
129 127 63
137 134 62
138 135 67
144 141 74
130 128 66
138 135 75
150 145 76
136 132 64
151 147 79
153 148 81
149 145 75
155 150 83
156 151 77
152 148 74
156 151 80
153 147 81
151 146 70
148 144 72
155 150 78
158 153 72
152 148 77
157 152 77
155 152 74
152 148 77
163 157 82
157 152 73
157 152 69
166 160 88
164 157 73
160 155 78
160 154 78
160 155 76
169 161 80
164 158 81
165 159 83
162 156 78
160 154 71
165 159 79
159 153 75
166 159 82
164 157 74
172 165 89
165 158 80
161 155 77
159 153 71
166 160 80
163 156 73
162 157 71
168 160 85
164 158 80
167 160 82
166 159 83
162 156 75
163 156 77
161 156 80
164 158 75
163 156 76
168 160 82
162 155 75
150 146 64
159 152 74
158 152 71
157 151 68
156 151 75
156 150 61
159 153 69
160 154 75
153 147 66
156 150 68
160 153 75
149 143 61
151 146 64
157 151 74
158 151 69
146 140 65
147 141 61
152 145 68
146 139 68
149 143 61
135 130 58
141 136 52
145 140 60
139 133 57
155 148 66
141 135 60
136 130 57
127 122 51
123 118 45
140 134 57
131 126 51
135 129 53
130 124 49
120 115 47
155 170 28
165 186 0
168 187 0
170 191 0
171 192 0
167 189 0
169 189 0
172 192 0
168 188 0
173 192 0
171 193 0
168 189 0
174 196 0
169 192 0
173 197 0
172 196 0
172 196 0
172 195 0
169 192 0
171 194 0
172 195 0
172 195 0
173 196 0
172 196 0
170 192 0
175 198 0
172 195 0
171 196 0
172 195 0
172 196 0
171 195 0
170 193 0
170 193 0
173 196 0
169 193 0
173 196 0
169 193 0
174 198 0
172 195 0
171 194 0
173 197 0
169 193 0
168 192 0
173 195 0
172 195 0
170 192 0
174 196 0
169 192 0
171 195 0
172 195 0
170 194 0
172 196 0
169 193 0
172 195 0
168 191 0
171 195 0
171 195 0
172 196 0
170 193 0
172 194 0
171 193 0
172 195 0
168 191 0
170 194 0
170 194 0
168 192 0
171 196 0
171 193 0
173 196 0
168 192 0
173 196 0
171 194 0
169 192 0
170 194 0
171 194 0
168 191 0
171 194 0
173 195 0
171 195 0
170 194 0
170 192 0
165 188 0
173 196 0
170 193 0
172 195 0
169 192 0
168 191 0
166 189 0
168 191 0
167 191 0
171 194 0
169 193 0
168 192 0
168 192 0
169 192 0
167 189 0
168 191 0
169 192 0
145 169 76
62 98 159
61 97 157
62 98 156
62 98 162
61 96 162
61 98 162
62 98 161
61 96 160
63 99 168
62 99 168
61 97 160
61 97 169
62 99 170
62 98 166
62 98 168
61 98 166
61 97 165
62 98 166
61 98 171
61 98 170
63 99 175
62 98 168
62 98 175
61 97 166
61 98 168
62 98 174
62 99 168
61 98 169
62 98 169
62 98 172
62 99 174
62 99 177
62 98 172
61 98 174
61 97 172
61 98 170
62 99 176
61 98 174
61 97 170
63 100 175
62 99 176
62 98 171
62 98 169
62 99 177
63 100 179
62 98 174
63 99 173
63 100 175
62 99 176
61 98 173
62 99 176
61 98 173
62 99 178
62 99 176
63 99 175
62 98 174
62 99 176
62 99 176
62 98 174
62 98 175
62 99 171
62 99 176
63 99 176
62 98 172
61 98 175
61 98 173
62 99 177
62 99 176
62 98 173
62 99 173
61 98 173
62 99 174
63 100 178
62 99 172
61 98 174
62 99 179
62 98 170
61 98 173
62 98 173
62 99 172
63 99 176
62 98 173
62 99 171
62 99 172
62 99 168
62 98 169
61 98 170
62 99 173
63 99 173
62 99 175
62 99 172
62 99 174
62 99 174
62 99 176
62 99 176
62 99 170
62 98 166
62 99 170
63 99 176
63 100 176
62 99 173
62 99 175
62 99 173
62 98 172
62 99 170
62 98 169
63 99 169
62 99 173
61 98 173
62 99 168
62 98 171
62 99 172
63 99 176
61 98 172
63 99 171
62 99 173
62 99 170
62 99 169
62 99 169
61 98 173
62 99 169
63 99 171
62 98 170
63 99 175
62 99 168
62 99 169
62 99 173
62 98 164
62 99 171
63 99 167
62 99 174
61 97 166
62 98 170
62 98 170
62 99 172
63 100 175
63 99 167
61 97 163
62 98 165
61 98 167
62 98 168
63 99 163
62 99 169
62 98 163
62 98 163
62 98 170
62 99 170
62 98 162
62 98 170
62 98 168
62 98 170
62 98 158
62 99 168
61 97 161
62 98 166
61 97 164
61 97 159
62 97 160
61 97 161
61 97 163
62 98 167
61 97 157
62 98 167
60 95 156
62 97 158
62 97 165
61 97 159
60 95 158
60 94 151
61 96 152
60 95 151
59 93 153
60 95 158
59 93 139
56 85 124
42 47 27
48 54 32
61 66 37
51 58 35
62 64 25
56 63 40
67 72 42
70 74 38
97 97 52
72 78 46
82 85 49
67 72 33
94 97 53
93 95 54
84 87 43
90 92 49
101 102 49
98 101 57
104 105 58
115 113 60
104 105 54
116 115 58
120 120 62
125 123 64
119 119 58
124 123 70
126 124 66
123 122 64
124 123 62
129 127 62
139 136 79
133 131 65
123 122 62
132 130 64
129 127 70
137 134 70
140 137 70
146 142 77
133 131 70
145 142 74
147 143 74
147 143 74
151 145 71
150 145 78
154 149 78
143 140 81
145 141 73
158 153 74
145 142 66
160 154 82
153 147 78
151 147 76
159 153 82
164 157 83
155 149 77
152 148 72
152 147 75
164 158 79
163 158 83
164 158 76
160 154 73
160 153 73
165 159 80
165 159 85
167 160 80
159 153 79
159 153 72
168 162 87
171 163 88
169 163 85
161 155 77
157 153 72
168 161 79
165 158 79
165 159 78
165 159 75
164 157 79
157 151 71
164 158 74
159 153 77
163 157 80
153 148 70
164 157 77
161 154 71
162 155 76
167 159 79
157 150 69
159 153 74
163 157 84
166 158 79
160 154 71
160 154 76
161 154 78
165 157 79
163 156 73
158 151 77
161 154 74
147 141 63
158 152 70
159 153 73
156 150 71
152 145 66
152 146 65
151 146 68
158 150 64
150 146 60
155 149 70
148 143 64
149 144 63
152 146 68
151 143 69
143 138 57
147 142 62
143 137 60
146 140 62
143 137 56
141 134 58
147 141 66
132 127 51
143 137 54
138 132 48
131 126 48
132 126 54
116 112 34
132 127 52
123 121 47
168 187 0
169 188 0
172 193 0
171 191 0
171 190 0
171 189 0
170 192 0
172 192 0
172 195 0
172 193 0
168 191 0
171 193 0
172 196 0
171 194 0
172 196 0
171 194 0
172 195 0
172 195 0
166 190 0
174 197 0
168 192 0
173 197 0
172 196 0
172 195 0
171 194 0
171 194 0
169 193 0
172 196 0
172 196 0
170 194 0
173 196 0
171 194 0
172 196 0
171 194 0
174 198 0
171 195 0
171 194 0
170 194 0
170 194 0
172 196 0
171 195 0
173 197 0
172 195 0
167 191 0
170 193 0
169 192 0
167 190 0
171 195 0
173 197 0
169 192 0
170 193 0
170 193 0
172 196 0
171 194 0
172 195 0
169 193 0
172 196 0
170 194 0
168 193 0
166 190 0
172 195 0
168 192 0
169 192 0
168 192 0
166 189 0
167 190 0
168 191 0
170 194 0
167 191 0
168 192 0
171 194 0
167 190 0
169 191 0
168 191 0
172 195 0
167 191 0
171 194 0
169 192 0
165 189 0
169 192 0
168 192 0
170 193 0
166 189 0
167 191 0
172 195 0
167 191 0
171 194 0
169 193 0
166 190 0
167 191 0
170 194 0
169 192 0
168 192 0
170 193 0
166 189 0
165 188 0
169 192 0
168 190 0
124 150 110
62 98 163
62 98 157
61 97 155
61 96 154
61 98 160
62 98 158
62 99 167
62 98 168
61 98 165
62 98 167
61 98 170
61 97 163
61 98 170
62 98 164
61 97 169
62 99 168
62 99 175
63 99 175
61 98 164
61 97 168
62 98 176
61 98 170
61 98 169
62 98 175
62 99 174
61 98 170
62 98 166
62 98 171
62 99 170
61 98 170
62 99 176
62 98 171
62 98 173
61 98 172
62 99 175
61 98 171
62 99 173
62 99 172
62 98 172
62 99 175
61 98 170
62 99 175
62 98 170
62 98 175
62 98 175
62 98 173
62 99 174
62 99 177
62 99 177
62 98 174
62 99 177
62 99 174
62 98 172
62 99 174
62 99 173
61 98 175
62 99 174
63 99 175
61 98 177
62 99 179
62 99 175
62 99 173
62 99 171
62 98 173
62 99 174
62 99 176
63 100 178
62 99 175
63 99 176
62 99 178
62 99 175
62 99 175
62 99 171
62 99 172
62 99 175
61 98 174
62 99 173
62 99 173
62 99 177
61 98 172
61 98 168
62 99 173
61 98 165
62 99 175
63 99 176
62 99 175
62 99 170
61 98 174
63 99 171
62 99 172
62 99 175
62 98 175
62 98 170
62 99 177
61 98 169
62 98 171
63 99 174
62 99 173
63 100 176
62 99 175
62 99 171
62 99 172
62 99 173
62 98 169
63 99 174
62 98 172
61 98 173
61 98 171
62 98 173
62 98 172
62 99 174
62 98 170
62 99 169
62 98 170
63 99 171
62 99 174
62 99 171
62 99 172
61 98 167
62 99 175
62 98 168
62 98 165
62 98 170
63 99 176
62 99 176
62 99 171
63 99 171
62 98 169
63 99 170
63 99 172
62 99 165
63 99 170
63 99 173
62 98 163
62 99 168
62 98 164
62 99 173
62 99 170
62 98 164
63 99 170
62 98 164
63 99 165
61 98 164
62 98 163
62 98 165
62 98 164
62 98 159
61 97 156
62 98 166
62 98 165
62 98 170
61 98 166
62 98 164
61 97 164
61 97 166
62 98 161
62 98 163
62 98 168
61 97 164
61 98 163
62 97 164
61 96 160
62 97 162
61 97 155
62 98 168
60 94 147
61 96 152
62 98 165
60 94 153
61 96 158
60 96 160
60 95 155
59 92 144
59 93 150
59 92 142
57 64 45
52 57 22
56 59 22
62 66 33
54 59 35
66 70 33
66 70 35
69 73 36
72 75 41
71 74 42
75 78 42
70 76 43
83 85 40
81 85 47
83 86 47
108 107 60
106 106 53
98 101 49
101 102 52
101 103 58
117 116 66
103 104 54
109 109 57
127 125 65
116 116 58
113 114 60
118 119 64
124 123 61
121 119 61
126 125 62
121 120 58
138 135 68
131 129 67
135 133 67
140 136 66
142 138 69
138 135 72
135 133 63
145 141 70
144 140 70
145 141 74
140 136 71
153 148 78
151 146 80
156 151 78
153 149 78
153 149 71
157 151 78
159 154 80
159 155 75
155 150 77
155 149 76
156 151 73
152 148 67
161 154 78
154 149 70
158 153 72
155 150 72
162 156 84
154 151 77
162 156 79
165 158 80
164 157 81
163 157 76
171 163 82
157 151 70
159 153 79
166 159 79
161 154 75
163 156 79
162 156 74
160 154 77
165 158 75
161 155 75
161 155 71
161 155 75
160 154 75
165 158 79
162 155 74
158 152 72
164 158 76
166 159 82
167 160 81
152 148 66
163 156 75
159 154 72
161 155 71
150 144 71
162 155 76
167 160 79
163 157 71
157 151 65
159 152 73
157 151 68
156 150 67
151 145 69
151 145 62
160 154 72
153 147 66
156 150 72
151 146 64
146 141 61
157 150 71
155 150 66
156 149 66
148 141 60
152 146 63
157 151 69
155 149 64
147 141 64
151 144 66
150 145 60
147 141 67
147 140 67
140 134 52
146 140 67
140 135 56
132 128 44
131 126 52
142 136 56
133 127 53
130 123 56
130 126 48
129 122 49
127 121 47
144 154 25
171 191 0
171 191 0
172 192 0
170 191 0
167 187 0
168 191 0
170 191 0
170 191 0
170 193 0
170 190 0
171 193 0
170 191 0
171 194 0
170 194 0
173 196 0
174 197 0
173 196 0
172 196 0
170 194 0
173 195 0
172 195 0
172 195 0
173 196 0
173 197 0
173 196 0
171 195 0
168 191 0
173 195 0
173 196 0
167 191 0
170 193 0
170 194 0
173 195 0
171 194 0
172 196 0
169 192 0
170 193 0
169 193 0
169 192 0
169 193 0
171 193 0
170 194 0
171 194 0
171 195 0
170 193 0
171 193 0
170 193 0
168 191 0
171 195 0
173 195 0
168 192 0
172 196 0
170 194 0
171 195 0
171 195 0
172 195 0
173 196 0
174 197 0
169 192 0
170 193 0
169 192 0
167 190 0
170 193 0
169 194 0
171 194 0
167 190 0
170 194 0
170 193 0
166 189 0
169 192 0
166 189 0
167 191 0
169 191 0
173 196 0
166 190 0
170 194 0
172 196 0
166 189 0
171 194 0
172 195 0
169 191 0
170 194 0
167 191 0
170 193 0
168 191 0
168 190 0
170 194 0
170 193 0
165 187 0
169 193 0
166 189 0
171 194 0
169 192 0
169 192 0
169 193 0
169 192 0
167 191 0
169 193 0
103 130 124
62 98 153
61 97 152
61 98 159
63 99 171
60 96 161
62 98 163
62 98 168
61 97 165
62 98 170
62 98 168
61 97 169
63 99 165
62 98 165
61 98 168
62 98 167
62 98 167
61 97 158
62 98 165
63 99 175
61 97 168
62 99 171
61 97 165
61 98 168
62 98 171
63 100 177
62 99 173
62 99 175
61 98 171
61 98 172
62 99 175
62 98 172
62 99 172
61 98 173
61 98 170
60 97 172
61 98 176
62 98 175
62 98 169
62 99 178
62 98 171
62 99 176
61 98 174
62 99 174
62 99 175
62 99 176
62 98 172
61 98 172
61 98 172
61 98 172
62 98 174
61 98 174
62 99 177
62 99 178
62 98 173
61 98 169
63 100 178
62 98 173
63 99 175
63 99 175
62 99 176
63 99 174
62 99 173
62 99 173
62 99 173
62 99 172
63 99 173
62 99 179
62 99 177
62 99 173
61 98 171
62 99 175
62 99 171
62 98 172
62 99 173
62 98 172
62 99 178
63 100 181
62 98 171
62 99 178
62 99 169
62 98 171
62 99 175
62 99 173
62 99 175
62 98 170
62 99 175
61 98 170
62 99 173
63 99 175
62 98 171
62 99 173
62 98 172
62 98 168
62 99 176
62 98 170
62 99 173
62 98 169
62 99 174
62 99 173
62 99 167
62 98 172
62 99 168
62 99 171
62 99 175
62 99 172
62 99 174
61 98 166
62 99 170
62 99 174
62 98 164
62 99 172
62 98 168
63 99 173
62 99 171
62 99 172
62 99 176
62 99 173
62 98 169
61 98 169
61 98 168
62 98 170
62 99 172
62 99 173
63 99 173
62 98 171
63 99 170
62 99 168
61 98 169
63 100 176
62 98 169
62 98 165
62 98 165
62 98 164
62 98 165
62 98 167
62 98 167
63 99 168
62 99 169
62 98 166
62 98 164
62 98 166
63 99 173
61 98 165
62 98 166
63 99 171
62 98 170
62 98 170
62 98 164
62 98 168
62 98 167
63 100 169
62 99 167
63 99 167
62 98 162
61 97 160
61 97 163
62 98 167
61 97 156
62 98 162
61 96 155
62 97 160
61 96 155
61 96 147
61 97 159
61 97 160
60 95 156
61 96 159
61 97 156
62 98 160
60 95 150
60 95 156
60 95 153
60 93 148
59 93 144
59 92 148
54 68 74
42 48 26
55 60 27
46 52 32
55 60 27
71 74 36
68 70 41
66 71 37
66 71 44
74 79 47
81 84 47
86 88 47
80 84 45
88 89 50
97 98 52
90 93 48
94 96 53
96 99 55
115 116 54
100 101 57
101 101 51
108 109 57
111 110 51
118 117 56
116 116 53
126 122 62
126 123 62
124 122 63
119 118 62
113 113 62
115 115 59
133 130 72
119 119 61
139 135 73
143 140 74
138 135 72
132 130 65
141 137 69
145 141 74
136 134 67
145 141 75
135 133 66
140 136 74
155 150 77
146 143 67
145 141 68
141 137 71
144 140 65
153 149 77
151 145 73
151 146 74
149 144 70
155 150 78
158 153 74
154 149 70
156 152 79
159 153 72
157 152 76
159 153 79
164 157 80
160 155 78
156 151 77
160 154 79
163 157 81
159 153 73
163 158 79
160 154 79
160 155 66
166 160 75
158 153 75
171 163 86
158 153 65
162 156 77
162 156 71
166 159 78
164 158 74
157 152 73
163 156 75
158 153 70
160 153 73
161 155 76
165 158 82
168 161 85
157 151 68
156 151 71
153 148 63
158 151 76
159 153 72
159 153 72
159 153 71
159 153 64
157 150 71
157 150 75
150 145 66
156 151 67
155 149 70
149 144 66
155 149 61
152 145 70
161 155 72
146 141 59
150 145 59
154 148 63
161 154 71
147 142 60
146 140 59
150 144 60
153 146 64
146 141 61
148 142 63
147 140 60
143 138 61
147 142 56
150 144 61
143 138 60
145 140 61
139 133 54
136 130 54
136 130 49
134 128 51
136 130 49
124 119 48
132 127 48
124 118 48
118 114 39
163 182 11
169 189 0
170 190 0
168 188 0
171 193 0
170 190 0
171 192 0
170 189 0
169 190 0
168 190 0
169 191 0
170 189 0
171 191 0
171 195 0
173 197 0
172 196 0
170 194 0
171 194 0
166 189 0
173 197 0
172 196 0
172 196 0
172 195 0
174 197 0
171 194 0
173 196 0
172 196 0
171 194 0
172 196 0
169 192 0
169 193 0
170 193 0
172 195 0
169 193 0
171 194 0
171 195 0
169 192 0
171 195 0
170 194 0
170 193 0
171 194 0
169 192 0
172 195 0
168 191 0
172 195 0
170 194 0
171 194 0
171 195 0
172 195 0
173 197 0
172 195 0
168 192 0
171 194 0
170 194 0
173 196 0
167 190 0
170 193 0
171 195 0
171 194 0
170 194 0
169 192 0
167 192 0
168 191 0
170 193 0
166 189 0
171 193 0
171 194 0
169 192 0
170 193 0
171 194 0
170 194 0
169 191 0
172 196 0
171 195 0
173 196 0
170 194 0
170 194 0
172 196 0
170 193 0
168 193 0
166 190 0
167 189 0
170 194 0
172 194 0
169 194 0
169 193 0
172 195 0
167 191 0
168 193 0
168 191 0
170 193 0
168 191 0
166 191 0
166 189 0
170 192 0
167 190 0
168 191 0
168 191 0
169 191 0
72 105 151
61 97 158
61 97 149
62 99 164
61 97 158
62 98 163
61 97 164
62 98 161
62 98 162
62 99 167
61 98 164
62 98 168
61 98 164
62 98 170
61 98 164
60 96 162
62 98 171
62 99 168
62 98 168
61 97 167
61 97 168
61 97 166
62 98 170
61 98 172
61 98 170
61 98 171
62 99 167
62 98 170
61 97 168
62 98 176
61 98 171
62 98 173
61 97 172
62 98 172
62 99 173
62 98 170
61 98 171
61 98 169
61 98 170
62 99 171
61 98 166
61 98 171
62 98 170
61 98 171
63 100 178
61 97 173
62 98 174
62 99 172
61 98 171
63 99 175
60 97 169
61 98 169
62 99 175
61 98 171
62 99 174
62 99 175
62 99 174
62 98 172
62 99 174
60 97 168
62 98 171
62 99 170
62 99 173
62 98 174
61 98 176
61 98 175
61 98 172
61 98 175
61 98 175
63 99 177
62 98 168
62 99 176
62 98 173
62 99 176
62 99 175
62 99 175
61 98 171
62 99 172
63 99 177
62 98 169
61 98 170
62 98 175
62 99 172
62 98 172
61 98 171
62 98 171
61 98 169
62 99 174
62 99 174
61 98 171
62 98 174
62 99 176
63 99 172
62 99 175
62 99 172
61 98 164
62 99 170
62 99 171
61 98 165
62 99 175
62 99 173
61 98 167
63 99 172
62 98 164
61 98 165
62 99 173
62 99 173
62 99 175
63 100 174
61 98 167
62 98 168
62 99 176
61 98 167
62 98 171
62 99 170
63 99 171
62 99 171
62 99 172
62 98 169
62 98 166
62 99 171
62 99 174
63 99 165
61 98 166
62 99 167
62 99 170
62 99 173
61 98 168
62 99 170
63 99 172
62 99 168
63 99 170
63 99 171
62 98 170
62 99 163
63 99 170
62 99 171
62 98 173
61 97 162
62 98 165
62 98 168
61 98 162
62 99 169
62 98 168
63 99 170
62 98 161
63 99 171
61 98 165
62 99 169
62 98 166
62 98 164
62 98 164
63 99 169
62 98 164
62 98 168
62 99 169
60 95 150
61 98 163
62 98 164
62 98 162
61 97 163
62 98 167
62 98 162
62 98 167
61 96 161
61 96 159
61 97 159
61 96 159
62 97 153
61 95 148
60 95 150
59 92 144
60 94 149
59 93 146
60 95 154
58 90 142
51 69 82
54 58 28
53 58 28
55 62 31
67 69 34
63 67 30
68 72 31
69 72 35
76 79 38
69 74 29
82 85 31
85 87 47
84 88 46
86 87 49
91 91 51
94 95 45
94 95 48
100 101 45
109 109 47
101 104 56
96 97 49
122 121 57
116 116 58
112 112 60
115 115 59
110 110 61
124 121 56
118 118 59
131 128 68
126 123 64
124 124 59
137 134 70
134 131 63
124 123 67
128 126 55
144 140 72
132 129 65
141 138 68
145 141 72
139 136 64
141 137 71
145 141 67
143 139 69
146 141 71
147 143 75
153 149 73
145 142 70
143 138 70
141 137 63
153 149 74
154 148 66
152 146 71
164 158 78
156 150 75
160 154 76
160 154 75
157 151 70
153 148 67
155 149 69
163 156 77
159 153 71
160 154 75
148 145 66
158 153 67
162 155 76
156 151 63
155 150 68
156 150 72
163 156 75
164 157 76
164 158 75
164 157 75
162 156 74
165 159 80
161 155 76
165 159 79
158 152 71
161 156 68
161 154 69
154 149 65
161 154 71
157 151 71
161 155 71
153 148 67
168 160 80
157 151 70
163 155 78
162 156 74
161 155 71
157 150 67
150 145 64
162 155 76
153 147 68
163 157 77
157 151 68
151 145 68
153 148 67
157 151 72
161 153 76
152 146 62
153 147 66
150 143 67
150 144 70
154 149 60
150 144 64
155 148 66
142 136 57
144 139 56
143 137 62
140 135 54
142 136 61
137 132 54
141 135 56
134 129 52
141 136 52
147 141 58
141 134 57
132 126 49
138 132 57
138 132 53
133 128 49
129 125 42
130 125 45
117 112 41
134 140 28
169 188 0
169 187 0
170 191 0
172 193 0
169 188 0
169 191 0
169 188 0
171 191 0
170 192 0
169 189 0
170 193 0
170 191 0
167 188 0
174 196 0
168 191 0
172 195 0
172 196 0
171 194 0
172 195 0
169 192 0
169 193 0
172 196 0
172 195 0
171 194 0
172 196 0
172 195 0
171 195 0
173 196 0
172 195 0
169 193 0
174 197 0
170 193 0
172 195 0
168 191 0
173 196 0
172 195 0
169 192 0
172 195 0
168 191 0
170 193 0
170 194 0
172 196 0
170 193 0
171 194 0
171 194 0
171 194 0
173 196 0
170 193 0
171 194 0
173 197 0
169 194 0
171 195 0
169 191 0
173 197 0
173 195 0
170 193 0
171 195 0
170 193 0
167 190 0
168 191 0
169 192 0
165 189 0
171 195 0
168 191 0
170 193 0
170 193 0
170 193 0
165 189 0
170 193 0
171 195 0
165 188 0
169 192 0
166 189 0
169 191 0
166 189 0
166 189 0
173 196 0
167 190 0
165 189 0
169 192 0
164 188 0
169 192 0
168 190 0
165 189 0
170 194 0
166 188 0
168 190 0
170 195 0
168 191 0
168 192 0
167 190 0
170 193 0
169 192 0
170 194 0
171 194 0
169 193 0
171 195 0
168 192 0
155 178 62
61 97 158
61 98 162
61 97 158
61 98 167
61 98 164
62 98 165
61 96 159
62 98 160
61 97 160
61 97 165
61 98 166
61 98 169
61 97 161
62 98 166
62 98 173
61 98 166
61 97 166
62 98 169
63 99 171
61 97 172
61 97 170
62 99 171
60 97 166
62 98 171
60 96 170
62 99 170
62 98 170
62 98 175
63 99 172
61 98 172
62 98 171
63 99 172
62 99 176
61 97 170
62 98 172
62 99 173
62 99 171
62 98 172
62 99 175
62 99 173
62 99 175
61 98 174
61 98 173
62 99 175
61 98 174
62 99 175
62 98 175
63 99 178
62 98 176
61 98 173
61 98 172
62 99 174
62 98 168
62 99 178
62 98 169
62 98 174
62 98 175
62 98 173
61 97 166
62 98 170
62 98 171
62 98 172
62 98 170
62 99 175
62 99 176
62 98 172
62 98 168
61 98 167
61 98 172
62 98 172
62 99 175
62 99 174
62 99 170
62 99 176
62 99 173
63 100 176
62 99 170
62 98 171
62 98 171
62 99 171
62 98 165
61 98 171
62 99 175
62 99 173
62 98 169
62 99 171
63 99 171
63 99 175
62 98 172
61 98 160
62 99 176
62 99 171
62 99 171
63 99 172
62 99 173
62 99 173
62 99 174
63 99 172
62 99 176
62 98 170
62 99 173
62 99 170
63 99 172
63 100 176
62 99 172
62 99 176
62 98 169
62 99 175
62 98 168
62 99 171
62 99 172
61 98 169
63 99 171
62 99 171
62 99 171
62 99 168
62 99 172
61 98 166
62 99 173
62 98 170
62 98 171
61 97 164
62 98 168
61 98 164
62 99 169
62 98 168
62 99 173
62 99 173
62 99 167
62 98 167
62 98 166
62 98 165
62 98 166
62 99 169
62 98 163
62 98 168
61 97 164
62 99 168
63 100 172
62 98 164
63 99 168
62 98 167
62 98 164
62 98 167
62 99 172
61 98 164
62 98 164
61 97 162
61 98 169
60 97 162
61 98 164
61 97 160
62 98 163
61 97 164
63 99 166
62 98 165
62 98 164
61 96 159
62 98 161
62 98 163
60 95 152
61 96 152
61 96 151
62 98 162
62 97 162
60 95 151
62 97 158
60 96 159
61 97 165
58 92 155
61 96 153
60 95 154
61 96 156
61 95 148
59 92 145
58 92 147
57 81 113
55 60 34
67 71 27
61 65 29
70 73 28
59 64 32
63 66 30
69 73 38
67 71 39
65 70 36
85 86 42
88 90 47
79 81 40
87 89 47
78 82 42
83 86 40
92 92 43
110 110 54
102 103 50
109 110 48
105 105 57
114 113 52
115 114 55
124 122 65
118 118 66
112 112 54
113 113 58
118 116 58
111 111 53
119 118 60
128 125 62
131 129 62
133 130 63
133 130 63
131 128 64
137 134 60
129 127 65
135 133 64
143 140 69
134 131 70
141 138 69
132 129 69
140 137 63
146 141 75
149 145 70
159 154 71
148 143 67
154 149 73
148 143 70
149 145 71
153 147 67
149 145 71
157 151 70
168 162 84
160 154 75
153 148 69
151 147 65
158 153 75
159 153 80
160 154 81
157 151 73
156 150 71
158 152 73
168 161 78
162 155 73
161 155 79
164 158 81
165 158 76
160 154 75
164 158 81
165 159 77
167 160 79
166 159 79
163 157 70
162 157 73
163 156 73
160 154 70
158 151 67
160 154 69
156 151 65
154 148 61
160 153 70
158 152 67
158 152 73
158 151 74
162 155 78
159 153 76
165 157 78
159 153 70
159 153 70
159 152 66
147 142 65
159 152 71
153 147 67
159 152 72
157 150 76
155 148 69
159 152 75
157 151 68
154 148 64
155 149 70
151 145 62
149 143 70
152 146 71
136 133 54
151 146 63
144 139 54
150 144 60
145 139 63
147 140 59
149 143 67
143 137 57
135 130 56
148 142 54
133 128 48
137 132 58
128 123 45
130 125 42
141 135 60
122 117 41
132 128 41
126 120 44
122 118 44
119 114 44
160 178 11
170 191 0
169 189 0
170 191 0
167 188 0
169 190 0
170 190 0
171 192 0
170 192 0
168 188 0
169 191 0
170 192 0
169 190 0
172 194 0
170 193 0
170 194 0
173 196 0
172 195 0
170 193 0
171 194 0
168 192 0
171 195 0
171 195 0
173 196 0
169 193 0
170 193 0
168 192 0
171 195 0
171 195 0
172 195 0
174 197 0
172 195 0
167 190 0
172 196 0
171 194 0
167 190 0
168 191 0
169 192 0
170 193 0
173 196 0
173 197 0
171 194 0
172 196 0
172 196 0
168 192 0
173 196 0
170 193 0
169 192 0
174 197 0
171 194 0
172 195 0
169 193 0
172 195 0
170 193 0
171 194 0
171 195 0
171 194 0
172 195 0
168 192 0
167 190 0
171 194 0
169 193 0
168 192 0
169 192 0
170 194 0
172 196 0
166 189 0
170 193 0
167 191 0
169 192 0
168 192 0
169 193 0
169 191 0
169 193 0
168 191 0
168 192 0
168 193 0
171 194 0
169 191 0
170 193 0
169 192 0
171 194 0
166 190 0
169 192 0
169 192 0
172 196 0
167 190 0
170 194 0
171 194 0
169 192 0
166 188 0
169 193 0
168 192 0
170 193 0
165 189 0
169 192 0
167 191 0
165 189 0
166 189 0
142 165 90
62 98 157
62 97 155
61 97 157
61 98 163
61 97 160
61 96 155
62 97 165
61 97 156
61 97 160
62 98 164
61 98 164
62 98 167
62 98 165
61 98 171
61 98 162
62 98 170
60 97 164
61 97 158
61 97 163
61 97 167
62 99 172
62 98 172
61 98 172
62 99 173
62 99 170
61 97 169
61 98 169
62 99 174
63 99 174
61 98 169
62 98 170
62 98 173
62 98 170
63 99 174
62 98 171
62 98 171
61 98 167
61 98 172
62 98 173
61 98 172
62 98 172
61 98 170
63 99 174
61 98 173
62 99 171
61 98 172
62 99 175
62 99 174
62 99 174
62 99 177
62 99 174
62 99 175
61 98 173
62 99 173
62 99 171
62 98 174
62 98 173
63 100 176
61 98 173
62 99 173
62 98 174
62 99 176
61 98 169
61 98 174
62 98 175
62 99 175
62 98 171
63 100 177
63 100 178
63 99 172
61 98 172
62 98 173
62 99 175
62 99 175
62 99 170
62 98 171
61 98 173
62 99 175
62 98 169
61 98 168
61 98 173
61 98 170
62 98 166
62 99 171
62 99 175
62 99 172
61 98 170
62 99 172
62 99 175
63 99 173
61 98 165
62 99 173
62 99 170
63 99 176
62 99 173
62 99 173
63 99 171
63 99 173
62 99 172
62 98 168
62 98 167
63 99 174
61 98 166
62 98 172
62 99 176
62 99 173
62 99 167
62 99 168
62 99 174
62 99 172
63 99 169
63 99 176
62 98 174
62 98 170
62 98 168
62 99 171
63 99 172
61 97 165
62 98 169
62 99 172
62 98 169
62 98 171
63 99 174
62 99 170
62 98 163
63 99 166
62 98 168
62 99 170
62 99 166
62 99 172
61 98 165
63 99 173
62 99 169
62 98 168
61 98 167
61 98 166
62 99 167
61 97 164
63 99 169
62 99 171
62 98 165
61 97 160
62 98 165
62 99 168
61 97 155
62 98 171
62 98 162
63 99 171
62 98 168
63 99 168
62 98 163
62 98 164
62 98 163
62 97 161
63 99 169
62 98 168
63 99 166
61 98 167
62 97 158
61 97 154
62 98 161
62 97 163
62 97 160
62 98 163
62 98 168
62 98 167
61 96 160
61 96 156
61 96 154
61 96 157
62 98 166
61 96 152
61 95 149
60 94 149
59 92 141
60 94 145
58 88 136
63 66 31
65 67 30
61 67 31
70 71 30
70 71 31
67 69 28
68 71 35
70 75 33
78 81 39
84 87 30
75 80 42
86 88 41
101 101 54
91 93 39
93 95 46
105 105 52
95 97 47
102 102 50
91 93 42
105 106 55
105 106 54
108 109 54
110 110 63
123 121 61
114 113 61
114 114 54
122 121 63
128 125 58
133 129 67
132 130 66
131 128 65
129 126 60
132 129 67
144 140 65
127 126 70
136 133 61
138 135 63
146 142 70
127 126 58
141 137 61
143 139 60
138 135 67
152 147 78
146 141 71
149 145 65
145 142 68
147 143 72
151 146 65
151 147 68
157 152 77
151 146 72
156 150 72
151 146 66
157 152 70
153 148 69
155 149 75
158 151 82
166 158 81
154 150 65
157 151 75
161 156 75
154 148 73
160 154 74
159 154 75
161 155 74
156 150 72
161 155 81
162 155 77
165 158 78
162 155 72
152 148 65
160 154 72
155 150 67
155 150 68
162 155 75
159 153 70
160 152 69
160 154 72
168 161 80
155 150 64
159 152 72
158 152 69
153 148 61
161 154 70
152 147 60
152 146 64
146 141 58
156 151 66
153 148 57
157 152 69
162 155 70
155 148 70
149 144 62
157 150 70
156 151 66
143 139 61
154 148 65
152 147 62
156 150 60
152 146 63
154 148 65
144 138 61
147 140 64
148 143 62
147 141 59
144 139 52
149 143 61
144 138 59
144 137 53
143 137 61
144 137 61
139 135 57
134 129 52
129 123 45
143 136 56
137 131 48
137 132 52
129 125 45
130 126 45
127 123 42
128 123 53
133 127 52
135 141 36
166 185 0
170 190 0
168 189 0
171 191 0
171 191 0
165 185 0
171 193 0
170 190 0
169 187 0
171 192 0
172 192 0
169 190 0
171 192 0
170 191 0
170 194 0
175 198 0
172 196 0
171 195 0
171 194 0
171 195 0
173 197 0
169 193 0
172 195 0
168 192 0
173 197 0
169 193 0
173 197 0
168 191 0
170 194 0
171 194 0
170 194 0
170 192 0
172 195 0
169 193 0
172 195 0
172 195 0
168 191 0
170 193 0
170 194 0
172 196 0
169 193 0
171 194 0
172 194 0
170 193 0
171 194 0
168 191 0
168 190 0
171 195 0
171 194 0
169 193 0
173 195 0
170 193 0
173 196 0
170 194 0
172 196 0
171 195 0
170 194 0
168 192 0
168 191 0
170 193 0
172 196 0
171 194 0
171 194 0
170 194 0
170 193 0
171 195 0
169 193 0
168 191 0
168 191 0
167 191 0
169 193 0
172 195 0
169 191 0
170 192 0
170 193 0
167 191 0
169 193 0
168 192 0
166 190 0
170 192 0
165 188 0
169 191 0
165 188 0
164 187 0
169 193 0
169 193 0
169 192 0
170 193 0
171 194 0
165 188 0
169 194 0
165 188 0
165 188 0
168 191 0
168 190 0
168 191 0
170 193 0
166 190 0
167 191 0
129 154 113
61 96 147
62 97 159
61 97 159
61 97 159
62 97 154
62 98 165
61 97 157
61 97 165
61 98 164
61 98 165
63 99 171
61 97 159
61 97 163
61 97 162
62 98 171
61 97 164
61 97 166
62 98 168
61 98 171
61 98 169
62 99 170
61 98 166
62 98 170
61 97 160
61 98 169
61 98 169
61 97 166
61 98 172
61 97 171
61 98 173
62 99 178
62 98 173
62 99 174
61 98 170
61 98 175
62 99 175
62 99 174
61 97 171
61 97 172
62 98 172
63 99 176
61 98 176
61 97 172
61 98 172
62 99 172
62 98 172
61 98 171
62 98 171
61 98 170
63 99 173
62 99 175
62 98 171
62 99 176
62 99 173
62 98 175
61 98 172
61 97 164
62 99 178
62 99 172
62 99 178
62 98 174
62 99 172
62 99 171
63 99 175
61 98 167
62 99 176
61 98 174
61 98 170
62 99 176
62 99 176
62 99 175
61 98 169
63 99 174
62 99 175
63 99 177
62 98 173
62 99 174
63 99 172
62 98 168
62 99 175
62 98 172
61 98 168
63 99 174
62 99 171
62 98 174
62 98 171
63 99 173
62 99 179
62 98 168
62 99 174
62 99 169
62 99 169
62 98 170
62 98 173
62 98 171
62 99 170
61 98 171
62 99 173
62 98 171
62 99 171
61 98 167
62 99 171
62 98 168
63 99 177
61 98 167
62 99 173
63 99 171
62 99 173
62 99 168
62 99 173
62 99 171
61 97 164
62 98 174
62 99 172
62 99 171
63 99 171
62 99 172
62 99 173
62 99 167
62 99 172
62 99 171
62 99 170
62 99 167
62 99 170
61 98 166
62 98 161
62 98 168
62 98 168
62 99 167
61 98 165
62 99 167
61 97 159
60 96 158
61 98 162
63 99 168
63 99 170
62 98 163
61 98 166
62 98 167
62 98 168
62 98 168
62 98 164
62 99 170
62 98 159
62 98 161
62 99 167
62 97 160
61 97 157
62 98 167
62 98 167
62 98 161
61 98 162
61 97 164
62 98 165
62 98 164
61 97 157
62 98 168
62 98 165
61 97 156
61 97 164
63 98 164
61 97 164
61 97 159
62 98 164
62 98 167
61 96 155
61 97 161
61 96 150
61 96 157
61 95 156
61 95 157
60 95 147
61 95 149
60 95 149
58 92 149
61 94 149
59 90 139
54 60 49
58 61 20
56 59 19
70 73 26
69 71 26
62 66 29
85 88 41
66 70 35
74 76 34
80 83 40
83 86 42
92 92 36
90 91 35
90 92 46
82 85 42
88 91 35
97 98 43
95 98 51
106 106 51
105 106 52
103 104 51
102 102 46
115 114 58
112 112 61
111 111 53
110 110 54
116 116 51
126 124 64
115 114 56
121 119 57
121 120 58
137 134 65
128 126 60
137 133 67
133 130 60
136 133 66
135 132 62
138 136 61
137 135 61
135 133 58
138 135 68
139 136 66
139 135 67
150 145 78
132 130 58
145 140 68
144 141 66
155 150 71
147 143 67
153 149 78
148 144 69
150 145 68
157 151 76
147 143 64
153 148 70
160 154 73
153 148 74
156 151 77
155 150 69
153 147 68
161 155 69
161 155 70
157 151 63
159 153 66
149 144 64
157 151 69
158 152 63
154 150 66
154 148 72
163 157 70
160 154 71
164 158 74
164 156 72
163 157 74
159 153 75
157 150 70
163 157 74
159 154 66
166 160 75
156 151 64
154 148 70
160 154 71
145 140 62
156 150 73
153 147 67
155 149 71
160 154 69
150 144 63
157 151 68
154 148 70
153 148 62
153 147 62
149 143 57
154 149 57
153 147 68
151 145 58
148 141 63
156 150 61
149 144 60
151 145 62
150 145 59
149 144 64
142 136 51
148 142 63
151 146 62
156 149 63
146 141 51
137 133 42
136 130 58
145 140 58
150 144 64
136 131 48
135 130 48
136 130 52
140 135 59
141 135 61
130 125 45
130 125 48
123 117 42
126 121 49
122 117 44
122 120 44
164 183 11
169 189 0
169 187 0
167 185 0
163 182 0
170 190 0
168 188 0
168 187 0
173 194 0
171 192 0
172 192 0
170 191 0
168 190 0
172 192 0
169 192 0
171 195 0
170 193 0
170 194 0
171 193 0
169 193 0
174 196 0
171 195 0
172 195 0
169 192 0
172 195 0
172 196 0
171 195 0
171 193 0
170 194 0
174 197 0
168 191 0
173 196 0
173 196 0
172 195 0
169 193 0
169 193 0
170 195 0
169 192 0
174 196 0
173 196 0
169 192 0
168 191 0
171 194 0
172 196 0
170 193 0
169 193 0
168 192 0
173 195 0
169 193 0
172 195 0
167 191 0
171 195 0
171 195 0
170 194 0
170 194 0
166 189 0
171 194 0
168 192 0
171 194 0
167 191 0
171 195 0
170 194 0
167 190 0
167 190 0
171 194 0
167 190 0
168 192 0
171 194 0
170 194 0
170 193 0
172 195 0
170 193 0
169 193 0
170 194 0
173 197 0
173 196 0
171 195 0
171 194 0
170 192 0
171 194 0
170 193 0
171 194 0
167 190 0
168 190 0
170 193 0
167 190 0
167 189 0
170 194 0
171 194 0
166 188 0
171 194 0
170 193 0
169 193 0
172 195 0
169 192 0
167 190 0
169 192 0
167 190 0
170 194 0
166 190 0
106 133 124
62 98 156
62 98 161
61 97 156
61 97 157
61 97 159
60 96 155
60 96 149
62 98 162
61 97 159
62 98 163
61 97 160
62 98 162
61 98 162
60 96 165
62 98 166
61 97 165
62 98 166
61 97 166
62 98 169
60 96 161
62 98 172
63 99 172
61 97 170
62 98 171
62 98 171
62 98 172
61 98 171
61 98 169
61 96 164
62 98 171
61 97 167
61 98 173
62 99 171
62 99 175
60 97 169
62 98 175
62 99 174
61 97 167
60 97 172
61 98 171
61 97 170
61 98 169
61 98 169
62 99 173
61 98 169
62 98 171
62 99 175
62 98 170
61 98 175
62 98 174
61 98 175
62 98 172
61 98 173
61 97 168
62 99 176
62 99 175
62 98 171
62 99 175
61 97 170
61 98 170
62 98 173
61 98 174
62 99 173
61 98 169
62 98 177
61 98 171
61 98 173
62 99 175
62 99 178
62 98 172
61 98 171
62 99 173
61 97 168
62 99 171
61 98 169
62 99 175
63 99 178
63 99 175
61 98 171
63 99 174
62 99 176
61 98 167
62 99 176
62 98 168
62 99 170
62 99 176
62 99 176
62 99 173
62 99 176
63 99 174
62 99 175
62 99 175
62 99 171
62 99 171
63 99 174
61 98 168
62 99 174
62 98 164
62 99 175
62 99 172
61 98 166
62 98 168
62 99 178
63 99 169
61 98 172
62 99 175
63 99 171
63 99 172
63 100 173
62 98 168
61 98 169
62 98 162
62 99 170
61 98 166
62 98 169
62 98 167
62 98 168
62 99 171
63 99 170
63 100 172
63 99 173
62 98 164
63 99 173
62 98 164
62 98 167
63 99 173
62 98 165
63 99 169
62 98 168
62 99 169
62 98 166
62 98 168
61 98 167
62 98 168
62 98 168
62 99 171
61 98 164
62 98 167
61 98 162
61 97 163
62 98 164
62 98 165
62 99 171
62 98 168
61 97 161
61 97 162
63 99 173
62 98 163
61 97 161
62 98 166
62 98 162
61 97 160
62 98 161
62 98 165
61 97 163
62 98 168
62 98 162
61 97 158
62 97 156
60 96 154
62 98 164
62 98 164
61 97 156
62 98 158
61 97 160
61 97 158
61 96 156
62 98 162
60 95 151
59 94 153
61 96 160
61 95 152
60 94 147
60 94 146
58 92 147
58 92 147
57 89 138
55 63 60
62 64 25
62 67 25
59 63 30
76 78 27
65 69 27
80 82 35
68 72 35
84 86 33
74 77 38
84 86 42
81 84 37
82 85 30
87 89 38
94 95 38
79 82 38
94 95 46
91 95 48
98 100 49
110 110 55
110 108 48
114 113 54
118 115 54
119 118 51
106 106 48
122 121 56
111 110 48
114 114 57
115 113 57
126 124 62
132 129 62
125 122 61
133 130 61
134 131 65
126 123 58
120 120 56
137 135 63
132 130 58
137 133 66
140 136 64
139 135 67
153 148 72
150 146 68
143 139 69
152 146 75
152 146 75
146 142 58
150 145 70
153 148 76
153 148 64
153 147 69
148 143 62
151 146 67
160 154 78
149 145 64
156 151 71
154 149 69
154 148 75
149 145 65
156 151 65
157 151 66
147 143 71
153 149 67
159 153 73
157 151 69
163 156 76
159 154 71
154 148 66
160 154 68
156 150 71
164 158 75
159 153 74
153 147 63
157 152 68
155 149 62
160 154 69
166 159 76
158 151 76
157 150 68
157 151 71
163 156 76
162 156 74
160 154 66
160 154 74
155 148 67
167 160 77
157 150 67
157 150 71
156 150 63
150 145 57
152 146 61
150 144 58
148 142 61
150 144 63
153 147 59
151 146 59
147 142 52
149 143 59
153 147 68
147 141 60
150 143 65
148 142 62
150 144 59
155 149 58
152 144 62
154 148 66
151 145 64
147 142 53
145 140 56
147 141 64
144 137 58
131 125 47
138 133 52
135 130 49
139 134 51
136 129 58
124 119 39
129 125 52
125 120 45
117 113 34
118 112 39
136 141 28
169 188 0
171 190 0
171 190 0
172 190 0
168 188 0
172 193 0
168 187 0
171 191 0
170 192 0
170 189 0
170 190 0
168 189 0
169 190 0
167 188 0
172 192 0
170 194 0
172 196 0
168 191 0
171 194 0
173 195 0
172 195 0
173 196 0
172 196 0
171 194 0
171 195 0
171 194 0
174 197 0
171 195 0
172 195 0
169 192 0
172 196 0
169 193 0
171 195 0
172 196 0
170 194 0
172 194 0
168 192 0
170 194 0
169 193 0
169 194 0
172 196 0
172 195 0
172 194 0
167 191 0
166 189 0
169 193 0
171 195 0
169 192 0
171 195 0
169 192 0
172 195 0
169 192 0
170 193 0
169 194 0
170 194 0
170 194 0
169 193 0
170 194 0
167 191 0
172 195 0
167 190 0
169 192 0
168 191 0
168 192 0
171 194 0
171 195 0
168 192 0
168 192 0
170 193 0
171 194 0
169 192 0
171 194 0
166 189 0
170 193 0
171 194 0
168 191 0
171 195 0
168 191 0
170 193 0
170 194 0
169 192 0
172 194 0
164 187 0
169 192 0
169 193 0
174 196 0
169 192 0
172 195 0
167 190 0
166 188 0
171 194 0
169 193 0
168 192 0
167 191 0
166 190 0
174 197 0
170 193 0
170 193 0
168 192 0
169 192 0
81 112 154
61 97 158
61 96 152
61 97 155
62 98 159
62 98 164
62 98 164
61 97 159
61 97 159
61 97 166
61 97 164
61 97 160
61 97 157
62 98 166
61 97 163
61 98 170
61 98 165
61 98 164
62 98 163
61 97 164
61 98 170
62 98 172
61 97 167
62 98 168
61 98 170
61 97 169
61 98 168
61 97 169
62 99 172
61 98 171
61 97 170
62 98 172
62 98 175
61 98 173
62 99 175
62 99 173
62 98 171
62 98 169
62 99 172
60 97 170
61 97 171
61 98 173
61 98 174
61 98 176
61 98 174
61 98 169
62 99 176
62 98 173
62 99 172
61 97 169
62 98 174
61 98 172
61 97 169
62 98 172
63 99 175
62 98 173
62 98 172
62 99 173
61 98 173
62 98 173
61 98 173
62 99 171
62 99 173
62 98 168
62 99 173
61 98 171
62 99 169
62 99 174
62 99 170
62 99 171
62 98 176
62 98 171
62 98 169
61 97 163
62 98 167
64 100 174
62 99 169
62 99 174
61 98 169
61 98 173
62 99 172
62 98 170
62 99 173
62 98 169
62 98 171
61 98 169
62 99 171
62 99 170
63 99 170
62 99 172
62 98 169
62 98 172
62 98 171
62 99 174
61 98 171
62 98 162
62 98 171
62 99 174
63 100 174
62 98 163
63 99 175
62 99 175
62 99 172
62 98 168
62 99 171
62 98 169
62 99 172
62 99 172
62 99 173
63 99 172
61 98 168
62 98 166
61 98 167
62 99 170
62 99 170
62 99 170
61 98 169
62 98 162
62 98 164
61 98 165
63 99 170
62 99 169
62 99 173
62 99 170
63 99 167
63 99 175
61 98 169
62 98 166
62 98 161
62 98 169
62 99 169
62 99 166
62 99 172
62 98 161
62 99 169
62 99 171
62 98 168
62 99 165
62 98 169
63 99 171
62 99 170
62 98 163
62 98 167
62 98 164
62 98 166
62 97 159
62 99 166
62 98 165
61 98 165
61 98 168
62 97 155
62 98 163
61 97 161
62 99 168
61 97 164
63 99 168
62 98 162
61 97 163
62 98 166
61 98 167
61 97 158
62 98 167
62 98 164
60 96 151
61 97 159
62 97 162
62 98 164
61 97 159
61 96 152
61 96 157
61 97 156
61 96 156
60 95 156
60 95 147
61 95 154
60 93 145
60 95 159
59 92 140
63 80 98
65 66 14
63 67 33
66 67 26
57 60 29
67 71 35
72 75 27
63 69 32
73 77 31
83 85 39
84 84 36
91 92 39
80 82 33
83 85 33
90 91 44
106 106 50
96 97 54
94 96 41
104 104 52
102 102 45
100 103 45
101 102 53
112 109 51
113 111 45
109 109 51
118 118 59
111 110 53
127 125 65
118 118 55
130 127 62
123 122 53
135 133 68
132 129 62
137 134 59
136 133 64
131 129 59
135 133 66
129 126 63
133 130 65
133 129 59
137 135 64
150 145 71
136 132 62
144 140 66
141 137 66
136 133 63
148 144 67
147 142 68
156 150 72
148 145 63
151 146 75
145 141 63
157 151 72
155 150 70
147 142 61
155 150 73
158 152 75
157 150 69
154 149 70
157 152 66
151 146 57
153 148 61
149 143 67
159 154 71
159 153 67
150 145 63
149 144 56
158 152 72
159 152 69
149 144 66
153 148 67
158 152 66
159 154 73
159 153 72
160 155 69
165 158 69
161 153 75
158 153 71
161 155 75
160 154 68
158 151 71
157 151 70
157 151 61
158 151 69
152 145 64
155 149 72
155 149 66
157 152 70
155 149 65
149 144 60
160 153 71
152 146 67
150 145 64
155 149 72
151 144 62
151 145 62
152 146 64
147 142 58
152 146 60
152 145 61
145 139 59
144 138 52
137 132 53
152 146 61
147 142 53
143 138 53
138 132 53
132 127 44
143 138 56
142 136 56
136 132 42
147 141 60
136 131 47
133 126 52
129 123 51
121 115 39
135 130 44
128 123 48
121 116 42
125 120 42
123 120 39
163 179 11
169 191 0
169 189 0
169 189 0
171 191 0
166 185 0
169 191 0
170 191 0
167 186 0
170 190 0
170 191 0
170 190 0
168 189 0
168 188 0
169 191 0
168 190 0
172 195 0
170 193 0
171 194 0
172 196 0
172 195 0
171 194 0
171 193 0
172 196 0
171 195 0
168 191 0
171 195 0
171 196 0
167 190 0
168 193 0
173 196 0
173 196 0
171 194 0
169 193 0
171 195 0
169 193 0
169 193 0
172 195 0
171 194 0
172 195 0
169 193 0
170 193 0
173 197 0
171 194 0
168 192 0
170 194 0
173 196 0
168 191 0
170 193 0
168 191 0
173 196 0
171 194 0
169 194 0
171 195 0
173 197 0
169 192 0
171 194 0
170 193 0
165 189 0
173 195 0
170 193 0
168 192 0
170 192 0
172 195 0
168 191 0
168 192 0
169 193 0
165 189 0
170 194 0
165 188 0
166 191 0
167 191 0
169 192 0
167 191 0
165 187 0
170 192 0
170 194 0
171 195 0
171 194 0
169 192 0
167 190 0
166 190 0
166 189 0
168 191 0
168 192 0
171 194 0
167 190 0
167 190 0
169 192 0
170 192 0
163 186 0
170 192 0
169 191 0
164 187 0
167 190 0
169 193 0
168 191 0
170 193 0
171 194 0
170 193 0
166 189 0
65 99 150
60 95 149
61 97 158
61 97 150
63 99 166
61 98 164
61 96 156
61 97 159
60 96 158
61 97 166
61 96 155
61 97 160
62 98 165
61 98 166
61 97 167
61 97 168
61 97 165
62 98 163
62 98 164
61 97 166
62 98 169
62 98 168
61 98 166
61 97 169
62 98 172
61 97 164
62 99 173
61 97 167
62 98 171
61 98 173
61 98 168
62 99 172
61 98 173
62 98 168
62 99 174
61 98 170
62 99 175
60 96 167
61 98 174
62 99 174
62 98 170
60 96 168
62 99 174
61 97 170
62 99 171
61 98 174
62 99 173
61 97 169
61 98 172
61 97 172
62 99 177
62 98 170
60 96 171
62 98 171
61 97 168
62 98 172
62 99 173
62 99 172
62 99 176
63 99 174
61 97 168
62 98 174
62 98 170
62 98 172
62 99 175
62 99 175
62 98 172
63 99 177
62 98 169
61 98 171
61 98 172
62 99 175
62 99 171
62 98 169
63 99 174
62 99 173
62 99 175
62 98 171
61 98 173
62 99 174
63 99 175
62 98 173
62 98 169
62 99 171
62 99 172
63 99 174
62 99 170
62 98 168
61 98 170
62 99 172
62 99 172
62 98 170
62 98 170
62 99 175
62 99 172
62 99 173
62 98 172
62 99 169
62 98 169
62 99 168
62 99 174
61 98 169
63 99 169
62 99 171
62 98 169
63 99 169
61 98 169
61 97 165
61 98 169
62 98 164
61 98 166
63 99 170
62 99 172
62 98 162
61 98 166
63 99 172
62 98 166
63 99 170
62 98 166
62 99 169
62 99 171
62 98 163
63 99 163
62 99 173
62 98 166
63 99 167
62 98 166
62 98 165
62 99 170
63 99 171
62 98 166
62 98 164
62 98 164
63 99 168
62 99 169
62 99 166
62 99 169
62 98 163
62 98 164
61 97 157
63 99 167
62 99 167
63 99 170
61 98 161
62 99 168
62 98 165
63 99 170
63 99 171
61 98 162
62 98 162
62 98 164
62 98 165
62 98 161
63 99 161
61 98 162
62 98 168
62 98 162
61 98 160
61 97 156
62 98 165
61 97 161
61 97 158
60 96 158
61 97 158
62 98 163
61 97 161
62 98 158
61 95 152
60 95 153
62 97 162
60 93 141
62 97 158
62 97 162
59 93 143
61 96 151
58 91 138
61 95 155
60 93 147
59 77 89
65 67 23
67 68 20
57 60 24
70 75 28
72 75 29
76 79 31
92 94 32
71 74 25
90 91 36
85 87 32
92 92 38
79 82 40
94 93 37
83 84 31
89 91 48
102 102 42
95 97 48
103 103 44
114 112 53
99 100 50
107 107 52
114 113 58
114 113 57
111 110 55
114 114 51
118 116 56
130 128 63
115 114 52
124 122 55
121 120 62
128 126 55
129 127 57
133 131 59
141 137 65
134 131 69
133 130 61
136 133 63
139 135 59
142 138 60
147 143 71
141 136 64
144 139 66
149 143 70
147 142 65
148 143 68
152 146 70
149 145 60
154 148 67
153 148 70
154 149 72
146 141 68
152 146 65
149 143 69
160 154 70
153 148 65
157 151 69
155 149 66
155 148 73
155 149 65
157 150 68
161 155 71
157 151 71
166 159 80
157 152 66
152 146 60
159 152 70
158 151 67
156 150 68
157 152 70
156 150 73
158 152 67
157 151 71
154 148 69
157 150 71
160 154 67
162 156 75
160 153 67
156 151 65
156 150 65
155 150 64
159 152 69
155 150 64
164 158 77
167 159 77
154 148 59
153 148 64
150 145 61
155 148 66
156 149 61
145 140 53
156 149 63
153 146 71
150 146 56
152 147 62
150 144 59
149 142 59
152 145 63
144 139 51
141 137 53
150 145 56
150 144 61
147 140 54
144 139 56
144 139 54
151 143 62
148 142 61
151 144 58
127 122 44
140 136 51
138 131 52
133 127 49
133 127 52
135 129 54
131 125 54
131 126 48
122 119 44
115 110 36
127 121 49
119 114 48
148 156 32
168 188 0
173 192 0
167 185 0
169 187 0
169 189 0
173 194 0
168 187 0
169 188 0
166 185 0
167 188 0
169 189 0
169 189 0
169 189 0
169 190 0
168 189 0
172 193 0
172 195 0
169 193 0
171 194 0
171 195 0
173 196 0
172 195 0
167 191 0
170 193 0
170 193 0
171 194 0
170 194 0
172 196 0
173 196 0
167 190 0
173 195 0
168 191 0
170 193 0
170 194 0
171 194 0
171 195 0
168 192 0
172 195 0
171 195 0
173 196 0
171 194 0
175 198 0
171 194 0
171 193 0
169 194 0
172 196 0
172 194 0
172 196 0
173 196 0
169 193 0
173 196 0
169 193 0
169 193 0
168 191 0
167 191 0
166 189 0
167 191 0
171 193 0
170 193 0
168 191 0
173 196 0
169 192 0
169 193 0
170 194 0
170 193 0
170 193 0
166 190 0
169 192 0
171 194 0
172 195 0
170 193 0
164 186 0
170 192 0
168 192 0
168 192 0
172 195 0
167 189 0
170 193 0
168 192 0
166 189 0
164 188 0
169 193 0
170 193 0
169 192 0
167 190 0
170 192 0
167 190 0
169 193 0
168 192 0
163 186 0
171 194 0
166 190 0
172 194 0
170 193 0
167 191 0
169 193 0
168 190 0
170 193 0
168 191 0
169 192 0
158 181 51
61 97 149
62 97 159
60 96 154
62 97 159
61 96 160
62 98 160
61 97 162
60 96 155
62 98 165
61 97 151
61 96 155
60 95 158
61 97 157
62 98 162
62 98 171
61 98 171
61 97 161
61 97 163
61 97 168
62 98 165
62 98 173
61 97 164
61 98 169
62 98 163
61 97 165
61 97 167
60 97 167
62 99 173
61 98 167
61 97 164
60 97 170
63 99 172
61 98 170
61 97 165
61 98 173
61 97 170
61 97 171
62 98 172
61 98 171
61 97 168
61 98 170
62 98 167
62 98 173
63 99 172
61 98 174
62 98 168
61 98 170
62 98 171
60 96 170
61 97 169
63 99 176
62 98 170
62 99 175
62 98 170
62 98 172
61 98 172
62 99 174
62 99 174
61 98 173
62 99 175
63 99 172
62 99 171
62 99 173
63 100 178
62 99 170
62 99 170
62 98 171
63 99 172
62 98 173
62 99 173
61 97 170
63 99 172
62 99 171
62 99 172
62 99 170
61 98 169
62 99 171
62 99 175
62 98 171
62 98 168
62 98 170
61 98 174
61 98 171
62 99 175
61 98 171
62 98 167
62 98 172
63 99 175
62 98 171
62 99 169
62 99 171
62 99 172
62 99 169
62 99 168
62 99 176
63 99 167
62 99 173
62 99 173
62 99 167
62 99 171
62 99 171
61 98 167
62 99 170
62 99 167
62 98 172
62 98 169
62 99 176
62 98 169
62 98 167
61 98 166
62 98 168
62 99 171
63 99 173
61 97 165
61 98 171
62 99 170
62 99 171
61 98 165
62 98 168
63 99 166
63 99 171
62 98 166
62 98 167
61 98 168
62 98 167
62 99 172
61 97 162
62 98 166
62 98 166
62 98 168
62 99 172
61 98 167
62 99 170
62 99 171
62 99 170
62 98 162
62 99 166
62 98 164
62 98 161
62 97 158
62 98 161
62 98 166
61 98 163
62 98 164
62 98 163
63 99 172
63 99 171
63 99 167
62 98 167
63 99 163
62 98 161
62 98 167
62 99 168
61 97 155
62 98 164
62 98 162
62 99 167
62 98 164
61 98 163
61 96 161
62 97 155
61 97 158
61 96 151
62 97 158
61 97 160
62 98 164
61 96 155
62 98 164
60 95 149
62 97 156
60 96 148
61 96 153
60 95 149
60 95 147
61 96 157
61 94 146
59 92 143
59 92 141
65 87 116
62 66 25
77 79 24
66 71 27
59 60 18
68 71 26
70 73 35
82 82 33
78 79 30
86 88 33
83 84 37
86 87 36
94 95 44
78 81 37
90 91 45
85 86 23
92 93 42
98 97 47
110 108 48
100 100 41
111 109 52
101 101 43
112 111 52
122 119 54
103 104 46
114 114 54
132 129 53
125 122 56
119 119 50
127 125 55
129 127 50
130 128 60
134 132 58
142 137 66
133 130 59
128 125 51
133 130 58
139 135 69
142 137 68
128 127 59
140 137 65
142 138 63
136 133 57
141 137 53
143 140 63
138 134 60
145 140 64
146 142 66
148 143 68
132 130 54
148 143 62
149 143 72
152 148 66
155 149 68
145 141 64
140 136 54
151 146 66
147 143 55
152 148 62
160 154 69
151 146 61
149 144 62
152 146 63
155 150 68
154 148 70
163 155 73
151 146 69
160 154 68
161 154 66
157 151 67
157 150 70
164 158 70
159 153 64
155 150 63
156 152 60
155 148 65
161 154 72
160 154 68
154 148 70
154 148 68
155 149 62
159 152 70
154 147 67
154 148 59
159 153 64
152 146 61
156 150 68
152 146 61
154 147 59
154 147 66
159 152 66
160 154 61
151 145 62
148 143 49
160 153 74
151 146 61
148 143 60
144 139 60
153 147 67
149 143 57
148 143 58
155 148 64
142 136 58
148 143 53
139 133 54
140 136 57
141 134 57
137 132 48
146 141 53
141 135 54
132 127 49
136 131 54
140 134 56
137 132 49
123 117 47
129 124 41
129 124 41
133 128 41
132 125 47
124 123 37
167 185 11
171 191 0
169 188 0
170 191 0
165 185 0
168 187 0
166 186 0
165 184 0
168 186 0
164 182 0
166 184 0
168 187 0
171 190 0
171 189 0
166 186 0
167 187 0
165 184 0
171 194 0
172 196 0
173 196 0
174 196 0
170 194 0
172 196 0
170 193 0
172 195 0
171 195 0
174 197 0
168 192 0
169 193 0
173 196 0
172 196 0
173 196 0
174 196 0
167 190 0
170 193 0
171 194 0
173 195 0
173 197 0
171 194 0
169 192 0
170 193 0
170 194 0
172 194 0
172 196 0
170 194 0
170 193 0
172 195 0
170 194 0
172 195 0
172 196 0
170 193 0
171 194 0
172 195 0
166 189 0
167 190 0
171 194 0
168 191 0
167 190 0
167 190 0
168 192 0
174 197 0
171 194 0
165 189 0
170 194 0
171 194 0
168 192 0
171 194 0
168 192 0
170 192 0
171 193 0
173 197 0
165 189 0
167 191 0
164 188 0
172 194 0
168 191 0
165 189 0
167 190 0
167 190 0
171 194 0
168 191 0
170 193 0
169 191 0
169 193 0
166 190 0
164 187 0
169 192 0
165 188 0
169 192 0
167 191 0
169 193 0
167 190 0
166 189 0
165 188 0
164 187 0
166 189 0
166 189 0
171 194 0
166 190 0
172 195 0
164 188 0
147 171 72
61 96 150
61 97 156
61 97 158
61 97 160
61 98 159
60 95 147
62 98 167
62 98 159
62 97 157
62 98 167
61 97 162
61 97 166
62 98 163
61 96 162
60 96 164
60 96 164
61 98 168
61 97 162
61 97 168
62 98 166
62 99 174
61 98 174
61 97 169
60 96 160
60 95 162
60 96 163
61 97 165
62 98 170
61 98 169
61 97 165
62 98 172
61 97 168
62 99 172
61 97 168
61 97 166
61 98 168
62 98 173
62 98 170
61 97 169
61 98 171
62 98 174
62 99 177
62 99 172
61 97 173
61 97 162
62 98 171
61 98 170
61 98 170
62 98 172
62 98 168
60 97 166
61 97 171
62 98 176
62 99 174
61 97 171
62 99 170
63 99 176
62 99 173
61 98 168
62 98 172
62 99 174
62 99 175
62 98 171
61 98 170
62 98 170
61 98 173
62 99 171
62 99 174
61 98 167
62 99 169
62 98 167
62 99 172
62 98 172
62 99 175
61 98 166
62 99 174
61 98 171
62 99 174
62 99 171
62 98 171
62 99 177
62 99 179
61 98 169
61 98 169
62 99 174
61 98 169
62 99 173
62 98 170
62 98 171
61 98 169
62 98 171
62 99 172
62 98 168
62 99 174
62 99 171
62 98 166
63 100 174
62 98 165
62 99 173
62 99 172
62 99 171
62 98 170
62 99 171
63 99 174
62 99 166
62 99 174
61 98 165
63 99 173
62 98 166
62 98 169
61 98 171
62 98 172
63 99 171
61 97 163
62 98 167
62 99 172
62 99 168
62 99 173
62 98 165
63 99 171
62 98 171
62 98 168
62 99 170
62 99 175
62 98 168
61 98 166
62 99 167
62 99 167
63 99 170
62 99 167
63 99 167
61 97 161
62 98 161
62 98 162
63 99 174
62 98 165
63 99 171
62 98 164
62 98 160
62 98 163
62 98 163
62 98 169
62 99 170
62 98 166
61 98 162
62 99 166
62 98 163
62 98 165
61 97 162
62 98 163
62 98 164
62 98 162
61 96 151
61 97 157
62 98 162
61 98 164
61 96 151
62 98 161
61 97 160
62 98 161
62 98 160
62 97 161
61 97 151
62 97 160
61 96 151
60 95 147
61 96 151
60 96 152
61 96 151
61 96 158
61 96 156
60 96 151
61 96 156
60 95 148
61 95 148
61 95 151
58 91 142
59 93 147
54 82 119
60 62 20
66 70 26
61 63 24
79 80 21
79 81 27
79 80 31
80 81 29
80 81 35
80 82 33
77 78 26
82 83 35
88 90 39
87 89 33
90 92 43
96 97 39
99 98 42
93 94 37
99 101 52
105 104 48
115 114 55
114 112 51
116 115 51
119 117 55
108 107 46
108 108 46
125 123 56
119 117 49
117 115 45
118 117 49
121 119 52
128 124 61
124 123 54
127 125 52
140 135 64
128 126 55
143 139 63
124 121 50
136 132 57
141 137 57
144 139 65
140 137 59
146 142 56
145 141 58
146 142 60
148 143 60
155 150 75
138 135 57
144 139 55
150 145 72
144 140 60
144 139 62
146 142 63
152 147 70
157 152 71
152 146 65
154 149 77
146 142 65
150 145 65
153 147 61
159 153 65
141 137 58
149 144 63
150 145 68
152 146 62
150 145 61
154 148 64
153 149 63
157 151 65
159 152 61
157 150 68
152 147 62
157 151 66
163 156 67
154 147 60
157 152 67
146 140 57
148 142 58
162 155 72
161 154 68
157 151 69
157 151 62
148 143 60
149 144 58
156 150 61
151 144 60
141 137 53
145 140 59
155 148 60
148 141 56
150 144 60
150 144 60
148 143 56
153 147 63
145 140 49
149 143 61
146 139 54
145 139 58
140 135 56
153 146 66
155 148 61
148 142 61
137 131 49
137 132 48
137 133 49
132 127 47
143 137 59
143 138 47
138 132 41
136 131 47
130 125 47
135 130 47
137 131 47
123 119 41
127 122 39
135 128 45
127 122 45
126 121 37
123 117 47
155 168 19
170 189 0
164 184 0
166 184 0
165 182 0
167 186 0
164 184 0
169 190 0
169 189 0
168 187 0
168 187 0
171 190 0
171 190 0
166 186 0
169 189 0
169 190 0
170 191 0
169 188 0
172 196 0
171 195 0
170 193 0
168 192 0
170 193 0
170 193 0
170 193 0
170 195 0
170 194 0
173 197 0
171 194 0
169 193 0
173 196 0
172 196 0
170 194 0
172 195 0
173 196 0
172 196 0
169 193 0
169 193 0
171 194 0
169 193 0
167 191 0
171 194 0
172 196 0
172 196 0
169 192 0
172 195 0
172 194 0
169 193 0
170 193 0
169 193 0
172 195 0
172 195 0
171 194 0
167 190 0
171 195 0
172 196 0
172 195 0
169 192 0
167 190 0
171 194 0
170 194 0
170 193 0
170 193 0
172 195 0
168 190 0
172 195 0
166 190 0
171 193 0
168 191 0
172 195 0
170 194 0
169 192 0
168 192 0
168 191 0
168 192 0
169 193 0
171 194 0
165 189 0
168 192 0
167 191 0
169 192 0
169 192 0
168 191 0
168 191 0
170 192 0
170 194 0
167 189 0
173 195 0
168 191 0
168 192 0
169 192 0
166 188 0
167 190 0
168 191 0
169 193 0
169 194 0
170 194 0
164 187 0
166 189 0
167 189 0
169 191 0
166 189 0
146 170 62
61 96 150
61 96 151
62 98 160
61 97 159
61 96 149
61 96 153
60 96 151
61 97 153
61 97 167
61 97 162
62 98 166
60 95 158
61 97 157
61 96 161
60 97 169
61 97 165
62 98 164
62 98 169
61 97 164
61 97 163
61 97 166
62 98 166
61 97 164
61 97 165
60 96 161
61 97 170
62 98 171
62 98 169
61 98 167
62 99 176
62 98 172
61 98 171
61 97 171
62 98 171
61 97 167
61 98 167
62 99 176
61 97 167
61 97 167
61 97 172
61 97 168
61 97 167
61 98 176
62 98 166
62 98 167
62 99 173
61 97 170
62 98 170
61 98 173
61 97 169
62 99 175
62 98 169
61 97 173
62 98 172
62 99 175
61 98 172
60 97 170
61 98 168
62 98 169
62 99 171
62 98 172
62 99 169
61 98 167
62 98 169
63 99 172
61 97 164
63 100 179
62 98 168
61 98 170
62 98 170
61 98 164
63 99 175
62 99 171
61 97 165
62 98 166
63 99 171
63 99 171
62 98 170
62 99 170
63 99 173
62 98 172
62 99 168
62 99 173
62 99 171
62 98 166
62 99 172
62 98 169
61 98 168
62 98 172
62 98 171
61 98 167
62 98 165
61 98 168
62 98 172
62 99 174
62 99 173
62 98 168
62 99 170
61 97 166
62 98 164
61 98 168
63 99 170
62 99 174
62 98 162
62 99 172
61 98 171
63 99 174
63 100 178
63 99 169
62 98 166
62 98 170
63 99 170
62 99 174
61 98 168
63 99 168
63 99 170
62 98 166
63 99 169
63 99 174
62 98 162
62 98 164
62 98 167
62 98 167
62 98 165
63 99 171
62 99 173
62 99 170
62 98 166
62 98 166
62 98 168
62 98 168
62 98 165
62 98 165
61 97 158
62 98 167
62 98 168
62 98 165
62 98 165
62 99 165
62 98 166
62 98 167
62 98 166
62 99 167
62 98 158
61 97 156
61 97 161
62 98 163
62 98 163
62 98 165
63 99 166
62 98 166
63 99 165
62 98 166
61 97 158
61 97 155
62 98 160
62 98 159
61 97 160
62 98 159
62 98 161
62 98 164
61 97 159
62 98 163
60 95 149
60 96 150
61 97 161
63 99 165
62 98 166
61 96 154
61 96 151
61 96 151
60 95 156
61 95 153
60 95 151
60 95 151
59 92 140
60 94 148
60 93 141
57 88 133
60 62 19
65 66 19
78 80 24
70 73 27
78 79 25
69 72 23
89 91 31
85 86 28
72 75 24
92 90 31
78 81 34
101 100 36
88 90 33
96 97 38
98 98 39
86 88 36
97 98 35
97 97 42
97 98 46
101 101 42
103 104 49
96 98 46
114 113 48
118 116 54
111 111 41
118 116 42
125 123 53
117 115 55
121 119 56
122 121 50
119 118 56
118 116 52
118 116 54
128 125 50
134 131 60
137 134 68
134 130 63
129 126 57
132 129 58
136 133 60
145 141 66
142 138 55
145 140 62
138 134 58
134 131 53
137 132 60
141 137 59
148 143 67
145 142 58
151 146 64
156 151 69
147 143 62
141 137 56
147 142 56
151 146 54
154 149 69
145 140 50
150 145 61
153 147 68
150 146 65
160 153 72
151 146 61
155 150 66
148 143 58
151 147 61
157 151 68
152 146 59
159 152 68
149 144 53
158 151 68
151 146 58
153 148 63
158 152 66
160 154 70
152 146 63
157 151 65
158 151 66
156 150 66
152 146 62
150 144 56
156 150 63
155 149 66
151 144 69
150 144 60
154 148 61
148 142 56
161 153 72
150 144 54
151 146 58
154 147 64
148 143 57
147 143 56
150 144 61
144 138 59
145 140 57
148 143 57
139 134 44
142 136 51
139 134 53
139 134 52
130 126 49
138 133 49
135 130 45
137 132 49
137 132 48
135 130 47
145 139 58
142 136 45
136 129 52
127 122 45
140 135 51
120 116 48
133 127 48
124 120 41
133 128 48
125 119 37
120 115 36
123 128 30
169 185 0
169 187 0
168 186 0
168 187 0
163 183 0
168 188 0
169 186 0
169 188 0
168 189 0
172 192 0
169 189 0
168 188 0
170 191 0
168 186 0
166 186 0
167 188 0
168 188 0
169 191 0
171 195 0
173 196 0
174 197 0
172 195 0
171 194 0
169 193 0
172 195 0
170 194 0
173 196 0
172 194 0
172 196 0
171 194 0
171 194 0
173 197 0
169 192 0
170 194 0
171 195 0
170 193 0
170 193 0
173 196 0
166 190 0
174 197 0
170 194 0
170 193 0
172 196 0
172 196 0
172 195 0
170 193 0
172 196 0
171 194 0
169 192 0
169 192 0
172 194 0
170 192 0
169 192 0
168 191 0
171 194 0
168 193 0
169 193 0
169 193 0
171 195 0
169 192 0
167 191 0
169 192 0
171 194 0
170 194 0
172 195 0
168 192 0
169 192 0
168 192 0
166 188 0
168 192 0
168 190 0
171 195 0
169 191 0
167 190 0
165 188 0
165 188 0
168 192 0
169 192 0
169 193 0
171 195 0
171 194 0
171 194 0
171 195 0
171 194 0
169 192 0
168 191 0
171 194 0
165 189 0
164 186 0
165 188 0
168 190 0
169 192 0
167 190 0
169 193 0
163 186 0
170 193 0
170 193 0
167 191 0
167 190 0
167 190 0
165 189 0
166 188 0
134 159 103
60 96 153
60 95 149
61 97 154
62 98 164
60 96 157
61 97 157
61 96 154
61 96 154
61 98 165
60 96 155
62 98 166
61 97 163
60 96 161
62 98 166
61 98 173
62 98 164
61 98 164
62 98 164
61 97 167
61 97 166
61 97 169
61 97 167
61 97 165
61 97 163
60 97 163
61 97 166
62 98 170
61 98 166
59 95 167
61 98 167
60 97 167
62 98 171
60 95 167
62 98 169
61 97 169
62 98 167
61 98 173
62 99 177
61 97 170
62 98 171
61 97 170
61 98 163
61 98 169
61 97 169
62 99 173
61 98 173
62 98 170
62 99 173
62 98 169
61 98 174
61 98 169
62 98 177
62 98 170
61 98 168
61 97 167
61 98 168
62 99 175
61 98 163
61 97 168
61 98 164
62 98 169
62 98 169
62 98 175
62 99 172
61 97 170
61 98 165
61 98 168
62 98 170
62 99 174
62 98 170
62 99 167
62 99 172
62 99 176
62 98 168
62 98 168
61 97 167
61 98 170
61 98 167
62 98 169
62 99 171
62 99 172
62 98 172
62 99 172
62 99 173
61 98 167
62 99 173
63 99 176
63 99 173
61 98 168
62 98 169
62 99 174
62 99 171
61 98 167
62 99 175
62 98 170
62 99 171
62 99 172
62 99 175
62 98 162
61 97 165
61 98 171
62 99 170
62 98 167
62 98 164
61 98 167
62 99 169
62 99 171
62 99 167
62 98 167
62 99 171
63 99 164
62 98 171
62 99 168
62 99 171
62 99 173
63 99 172
62 98 170
61 98 162
62 99 172
62 99 169
62 99 164
62 99 172
63 99 173
62 98 166
62 98 168
62 98 164
62 98 164
61 97 161
62 98 163
62 98 162
62 98 163
62 98 160
62 99 167
62 98 165
62 98 168
62 98 162
61 97 167
61 98 162
62 98 163
63 99 167
62 98 157
62 98 163
62 98 167
61 98 161
63 99 166
62 98 163
63 99 170
61 97 157
63 99 168
61 97 154
62 98 167
62 98 163
61 97 152
62 98 165
62 98 160
62 98 162
63 99 164
62 98 164
62 98 167
61 97 160
62 98 161
61 96 162
62 98 161
62 97 156
62 97 158
62 98 161
62 98 159
60 94 142
60 95 151
61 96 150
61 96 155
61 96 155
62 97 156
60 94 152
60 94 147
60 94 150
59 93 147
59 93 142
57 89 133
65 67 23
65 66 13
69 72 17
77 77 17
71 74 25
69 73 26
89 89 28
76 77 22
95 95 31
91 89 30
98 96 38
101 100 35
94 94 36
87 89 30
87 89 37
102 102 42
100 98 31
98 98 41
102 102 41
115 112 49
113 111 48
105 105 43
121 120 49
105 105 44
119 118 52
119 116 41
117 115 51
114 114 51
126 123 54
122 121 46
132 130 59
121 120 54
127 125 56
136 132 57
129 127 56
139 135 62
134 130 62
122 121 51
133 130 60
123 121 48
148 143 61
138 133 57
138 135 65
136 133 51
142 138 62
147 142 68
144 140 60
144 139 60
149 144 60
144 140 50
142 138 58
148 143 58
149 143 63
151 147 51
144 140 56
156 149 67
153 148 58
152 146 64
145 140 52
153 147 68
154 148 61
149 143 61
149 144 58
154 148 63
152 146 61
154 149 60
156 150 67
149 144 61
156 150 62
148 143 54
153 148 63
155 149 65
150 144 61
157 151 66
152 146 51
153 148 62
155 150 59
155 149 64
160 153 70
147 141 56
155 149 57
151 146 61
153 147 62
149 143 56
152 146 62
146 141 60
155 149 61
148 142 54
148 142 57
155 148 64
145 140 52
147 142 58
150 144 58
146 141 54
149 143 60
154 147 61
147 142 56
145 139 58
142 137 52
142 136 51
142 136 53
139 133 49
136 131 48
148 142 57
145 140 52
142 137 47
143 137 57
137 133 42
138 133 45
135 131 42
139 133 53
127 122 47
127 123 39
126 122 39
129 124 39
122 117 39
111 108 30
164 180 0
166 185 0
168 186 0
169 190 0
169 187 0
170 189 0
169 187 0
167 187 0
171 191 0
166 184 0
168 187 0
169 189 0
162 180 0
171 192 0
166 185 0
167 187 0
169 188 0
165 183 0
167 188 0
171 195 0
168 192 0
169 193 0
172 195 0
172 195 0
167 190 0
172 195 0
171 195 0
172 196 0
170 194 0
170 193 0
172 195 0
169 192 0
171 194 0
171 194 0
168 191 0
172 195 0
171 195 0
171 195 0
168 192 0
170 193 0
169 193 0
170 194 0
170 193 0
171 194 0
172 196 0
168 191 0
170 194 0
169 193 0
169 193 0
170 194 0
171 195 0
174 197 0
169 193 0
171 194 0
170 194 0
170 193 0
171 194 0
171 194 0
167 190 0
171 194 0
170 193 0
168 191 0
172 195 0
171 194 0
171 194 0
168 191 0
169 192 0
168 192 0
167 190 0
168 192 0
170 193 0
168 191 0
168 192 0
168 192 0
165 189 0
169 192 0
172 195 0
168 191 0
170 194 0
167 191 0
165 189 0
168 191 0
169 191 0
166 189 0
171 194 0
163 187 0
171 194 0
168 190 0
170 194 0
166 189 0
164 188 0
167 191 0
168 192 0
170 193 0
167 190 0
169 192 0
166 189 0
163 185 0
166 190 0
163 185 0
168 191 0
170 192 0
166 189 0
125 151 102
62 98 157
61 97 154
60 96 144
61 97 157
62 98 157
61 97 154
61 97 163
61 97 156
60 96 161
62 98 159
62 98 162
60 95 157
61 97 161
60 97 160
61 98 161
61 97 161
60 96 163
62 98 169
60 96 160
61 97 159
62 98 174
61 97 170
59 94 159
61 97 164
61 98 172
62 98 172
61 97 166
60 95 156
60 96 169
60 96 167
61 97 166
61 97 168
61 98 171
61 97 165
61 98 172
61 98 173
61 98 168
61 98 172
62 98 171
61 97 169
61 98 174
61 97 171
61 98 166
61 97 168
62 99 175
61 97 170
62 98 171
62 99 173
62 98 175
62 98 173
60 97 167
62 98 171
62 99 172
61 98 171
62 98 170
61 98 174
61 98 167
61 98 165
62 99 177
62 99 176
62 99 173
62 99 169
61 98 169
62 98 165
62 99 177
62 99 172
62 98 166
63 99 173
62 99 177
62 98 171
61 97 163
61 98 168
61 97 169
63 99 172
62 98 171
63 99 171
62 98 166
61 98 170
62 99 176
62 99 175
61 97 166
61 97 161
62 99 173
63 99 175
62 98 167
62 99 171
62 99 171
62 99 174
61 98 166
62 98 168
62 98 163
62 99 167
62 98 167
61 97 165
61 98 162
62 98 169
63 99 175
61 97 166
62 98 171
61 97 167
62 98 168
62 99 168
62 99 169
61 98 169
62 98 164
62 98 171
62 98 166
62 99 170
63 99 169
63 99 174
62 98 167
62 99 169
62 99 169
62 98 164
62 98 167
62 98 167
61 97 164
62 99 169
62 99 174
61 98 164
63 99 172
62 99 170
62 98 160
62 98 164
62 98 166
62 98 157
62 98 164
61 98 165
62 98 167
61 97 159
62 97 156
62 99 166
62 98 162
63 99 170
62 98 167
63 99 171
62 99 175
62 98 163
61 97 163
62 98 164
62 98 160
62 98 167
63 99 164
62 98 163
62 98 168
62 99 166
61 96 158
62 98 163
62 98 162
62 98 161
61 97 159
62 98 160
61 97 154
62 97 160
62 97 152
62 98 163
61 97 156
62 98 164
62 98 160
61 97 158
62 98 157
61 97 155
61 97 156
61 97 154
62 98 158
61 96 153
62 97 152
60 95 155
61 97 158
60 96 151
61 96 152
61 96 156
60 95 149
60 94 145
62 97 156
61 94 146
60 94 149
57 90 141
56 88 129
73 75 31
69 70 25
65 68 22
85 85 11
79 80 23
88 86 27
83 85 31
86 87 30
89 88 28
79 81 22
85 85 25
77 79 32
85 87 33
92 91 33
105 104 42
96 96 38
108 108 44
103 103 37
108 106 42
109 108 40
104 103 45
112 112 30
115 114 52
118 116 46
117 116 48
123 121 55
118 115 49
115 113 53
119 117 46
121 119 53
128 125 51
122 118 43
126 124 53
131 128 61
134 131 56
131 128 53
125 122 53
131 128 60
138 133 59
140 136 55
138 135 56
142 138 62
137 134 52
144 139 61
136 132 55
148 142 64
144 139 54
147 143 58
145 140 58
138 135 49
146 141 64
146 142 63
147 143 61
144 140 53
148 143 57
155 149 66
152 147 66
145 141 58
152 147 59
146 141 59
154 148 63
154 147 64
149 143 54
154 149 65
157 150 66
150 145 62
158 152 65
158 152 62
153 148 56
153 147 62
154 148 65
150 145 59
153 148 54
153 146 60
161 154 71
157 151 64
153 147 62
156 150 61
153 148 56
147 143 51
153 146 62
151 143 64
148 143 59
148 143 48
155 148 65
143 138 52
153 148 62
151 145 53
142 138 53
148 142 56
144 140 49
144 138 57
142 137 53
150 146 57
142 136 54
147 142 54
142 138 47
139 134 47
143 137 60
141 135 59
142 137 48
136 131 49
142 136 54
139 133 41
140 135 48
145 140 51
135 129 49
135 129 49
136 131 53
130 125 44
126 122 48
132 126 54
135 130 48
126 121 42
125 120 45
121 116 37
153 165 16
170 190 0
164 183 0
168 189 0
167 186 0
168 187 0
171 191 0
171 190 0
168 188 0
171 192 0
172 192 0
167 185 0
168 188 0
166 185 0
167 187 0
167 185 0
169 189 0
172 192 0
168 189 0
170 191 0
168 192 0
170 194 0
173 197 0
172 196 0
170 193 0
170 193 0
172 196 0
171 194 0
173 196 0
166 190 0
170 193 0
170 194 0
170 192 0
170 194 0
170 194 0
170 192 0
170 193 0
170 192 0
168 192 0
172 195 0
168 192 0
172 195 0
172 196 0
170 193 0
166 191 0
172 196 0
170 194 0
171 195 0
171 194 0
169 192 0
168 192 0
171 195 0
170 194 0
170 193 0
168 191 0
172 196 0
169 192 0
170 192 0
173 195 0
170 194 0
172 195 0
170 194 0
169 192 0
169 193 0
172 194 0
172 196 0
166 189 0
167 191 0
167 190 0
168 192 0
168 192 0
169 193 0
167 191 0
170 194 0
170 193 0
168 191 0
168 191 0
167 190 0
169 192 0
169 192 0
167 191 0
169 191 0
168 191 0
169 193 0
166 189 0
168 191 0
170 193 0
166 190 0
169 192 0
166 188 0
166 190 0
164 187 0
169 193 0
168 192 0
169 192 0
166 189 0
170 193 0
166 188 0
164 187 0
166 189 0
167 190 0
166 189 0
167 190 0
166 190 0
124 149 108
61 96 145
60 96 147
60 96 150
60 96 156
61 96 150
61 97 159
61 97 159
62 98 162
61 97 156
61 97 160
60 96 162
61 97 161
61 97 160
61 97 162
62 98 171
62 98 164
60 96 161
60 96 155
62 98 163
61 97 159
59 95 156
61 97 165
60 96 163
61 97 160
60 96 160
61 97 162
61 97 168
62 98 168
62 98 170
61 98 168
62 98 170
62 99 168
61 98 172
61 97 164
61 97 167
61 97 168
61 97 164
61 98 171
61 97 166
61 97 167
61 98 171
62 98 173
60 97 169
61 98 168
62 98 171
62 98 170
60 96 166
61 97 166
61 97 172
62 98 172
62 98 167
62 99 173
61 98 171
62 99 175
62 99 175
62 98 170
62 98 169
61 98 171
61 98 169
61 98 169
62 98 174
63 99 170
61 98 172
62 99 174
63 99 176
62 98 170
62 98 170
62 99 170
61 98 163
62 98 168
61 98 170
62 99 174
62 99 171
63 99 176
62 99 170
61 97 165
62 99 171
63 99 173
62 98 170
62 99 174
62 98 167
62 99 171
63 100 177
62 98 171
62 99 172
61 98 168
62 98 171
61 98 172
62 98 169
63 99 168
62 98 168
62 98 169
63 99 172
62 98 170
62 99 166
62 99 169
61 98 163
61 97 166
62 98 165
62 99 169
62 98 164
62 98 163
62 98 168
63 99 167
63 99 168
62 99 171
62 99 177
62 98 170
62 99 169
62 98 167
63 99 171
63 99 170
62 99 168
61 98 165
62 98 168
62 99 171
62 99 171
62 98 164
61 98 164
61 98 166
63 99 168
62 98 162
62 98 169
61 98 167
62 98 165
62 98 165
63 99 168
62 98 167
62 99 165
62 99 167
63 99 167
63 99 171
61 97 162
62 99 165
62 98 164
62 98 163
62 98 167
61 98 166
62 98 164
63 99 166
61 97 162
61 97 161
62 98 162
61 97 161
63 99 167
61 97 157
62 98 168
62 98 164
63 99 165
62 98 163
63 99 166
61 97 157
62 98 162
61 97 157
61 97 156
63 99 166
62 98 159
62 98 163
61 96 155
63 98 164
63 99 170
61 96 153
61 96 149
62 97 160
60 95 154
61 96 158
61 97 157
61 96 153
62 98 156
61 96 150
61 96 154
61 96 155
60 95 153
59 93 141
58 91 138
60 95 153
60 94 137
60 94 140
59 92 139
77 79 44
66 68 17
72 74 19
81 81 17
76 78 18
70 72 26
89 88 20
86 87 29
89 90 30
84 84 29
88 89 32
98 97 32
96 97 34
89 90 28
89 90 34
98 97 41
86 88 29
97 98 38
107 106 40
98 97 35
82 85 26
112 110 39
116 115 46
108 107 47
111 111 39
119 119 52
113 112 37
120 118 41
123 121 51
121 119 55
111 110 43
128 124 49
118 117 55
128 126 44
130 127 44
129 127 48
129 127 48
140 136 55
136 133 58
127 124 56
148 142 66
141 138 55
145 140 57
142 138 55
137 135 55
148 144 58
145 141 55
150 145 65
154 149 61
138 134 51
152 146 69
145 140 56
151 146 58
147 141 60
139 135 54
150 145 67
144 138 56
153 147 64
154 148 61
150 145 56
155 150 62
154 148 66
146 141 59
140 135 49
152 146 64
149 144 61
151 145 58
155 149 64
150 144 60
154 149 59
145 140 58
154 147 61
146 139 62
149 144 54
149 144 50
151 146 54
151 145 53
151 144 58
144 139 53
152 146 60
155 149 57
149 143 58
154 147 60
146 141 54
147 142 54
142 137 49
149 143 61
143 139 44
152 145 60
150 144 58
147 142 51
151 144 60
137 132 51
148 142 66
146 140 54
144 138 54
147 141 61
142 137 52
146 141 54
137 132 47
145 138 57
138 134 45
137 131 48
139 134 45
135 130 37
138 133 44
131 127 37
130 125 47
136 132 42
134 128 52
132 126 42
132 127 39
124 120 45
129 123 47
122 116 41
132 136 28
168 186 0
168 187 0
167 186 0
162 180 0
161 181 0
168 186 0
164 182 0
167 187 0
167 188 0
167 186 0
163 181 0
165 185 0
169 189 0
170 190 0
164 184 0
166 186 0
168 185 0
170 189 0
168 188 0
167 187 0
170 193 0
171 195 0
170 193 0
170 194 0
169 192 0
173 196 0
170 194 0
170 193 0
173 196 0
168 192 0
171 194 0
169 192 0
171 195 0
173 195 0
167 191 0
171 194 0
168 191 0
169 192 0
170 194 0
171 194 0
171 193 0
168 191 0
171 194 0
168 192 0
170 193 0
170 194 0
169 193 0
171 194 0
171 194 0
171 194 0
170 194 0
167 192 0
167 191 0
166 189 0
170 194 0
166 189 0
168 191 0
169 193 0
171 194 0
169 192 0
167 191 0
167 190 0
170 193 0
166 190 0
170 193 0
172 195 0
169 193 0
166 190 0
164 187 0
168 191 0
166 189 0
169 192 0
168 191 0
170 194 0
169 192 0
169 193 0
170 193 0
168 192 0
170 193 0
169 192 0
165 188 0
169 192 0
165 187 0
165 189 0
169 192 0
168 192 0
167 190 0
169 192 0
164 186 0
168 191 0
163 186 0
166 190 0
168 192 0
164 186 0
170 193 0
167 190 0
169 193 0
159 183 0
163 186 0
161 184 0
171 194 0
168 191 0
167 190 0
166 190 0
122 148 120
61 97 152
61 96 150
61 96 151
61 97 158
61 96 153
60 96 145
60 95 153
61 96 150
61 97 158
61 97 161
61 98 167
61 96 154
61 97 160
61 97 161
61 98 165
60 96 161
61 98 169
61 96 160
62 98 167
61 97 164
62 98 164
61 97 169
61 97 168
61 97 170
61 98 168
61 97 170
61 98 168
60 96 164
61 98 170
61 97 162
60 96 168
61 98 172
60 96 164
62 98 166
60 96 165
60 97 170
60 96 163
61 98 170
61 98 171
62 98 173
61 98 169
61 98 172
62 98 168
61 97 171
61 97 168
61 97 166
60 97 168
61 98 167
62 99 176
61 98 165
62 98 168
62 99 171
61 98 168
62 98 169
60 96 166
61 98 168
61 98 169
61 98 172
62 98 171
61 98 168
62 98 173
61 98 168
61 98 170
62 99 175
62 98 163
62 98 165
61 98 166
62 98 168
61 98 164
61 97 171
62 99 170
62 98 174
61 97 167
61 98 172
61 98 167
62 99 174
62 98 169
62 99 168
62 99 175
62 99 170
62 98 169
61 98 170
63 99 168
62 99 173
62 98 164
63 99 175
62 99 172
62 98 171
62 99 171
62 98 162
62 98 168
62 98 173
62 98 169
62 99 170
63 99 169
62 99 170
62 98 173
62 98 170
62 98 166
62 98 170
61 98 167
62 98 166
63 99 172
62 99 175
61 98 165
62 98 166
61 97 168
62 98 165
61 98 171
62 99 169
61 98 165
63 99 170
63 99 165
62 99 176
62 99 166
62 98 166
62 98 165
62 99 168
63 99 171
61 98 164
62 98 170
63 99 168
62 98 166
62 98 166
63 99 166
62 99 168
61 97 158
62 98 166
61 97 156
61 98 163
62 98 166
62 98 159
61 97 163
62 99 165
62 98 161
62 98 162
62 98 164
62 98 164
61 97 164
61 97 158
61 97 158
63 99 165
61 97 165
62 98 164
63 99 171
61 97 160
61 97 159
63 99 169
61 97 158
62 98 162
62 99 168
62 98 161
63 99 168
61 97 154
61 98 166
61 97 157
62 98 164
62 98 161
61 97 155
62 98 165
61 96 150
61 97 157
62 97 158
62 98 160
61 96 154
61 97 157
61 97 158
62 98 160
61 96 149
61 96 144
61 96 149
59 93 143
60 95 150
60 95 148
61 95 156
61 95 152
60 93 143
60 94 145
58 90 136
72 76 54
80 80 14
67 70 19
76 78 16
71 73 19
92 90 12
76 77 21
73 72 20
80 81 19
90 89 25
93 93 31
86 86 27
91 91 29
91 91 24
89 91 25
91 92 33
81 84 32
104 103 39
106 105 39
106 104 35
104 103 36
113 112 39
104 101 48
122 119 43
113 111 36
110 108 43
104 105 40
121 119 52
121 118 49
116 114 38
119 118 51
117 117 41
138 135 57
124 122 48
118 116 45
119 117 52
135 133 50
137 133 50
143 138 58
127 124 48
137 132 57
135 132 54
130 126 42
134 131 51
141 137 48
147 142 53
140 135 56
143 137 62
144 140 51
141 137 50
147 142 62
145 140 62
149 145 61
142 137 58
154 149 58
148 143 51
148 143 57
146 142 55
153 147 59
149 144 53
154 147 66
149 144 60
151 145 61
147 141 58
155 149 64
153 147 58
149 143 60
153 148 56
145 142 50
152 146 56
156 150 56
150 144 58
152 146 56
143 138 49
151 145 57
152 146 63
147 142 56
152 146 63
157 151 70
147 141 52
143 139 47
150 145 56
149 143 58
153 146 60
147 141 59
152 146 54
148 141 58
150 144 59
143 137 56
147 143 53
144 138 56
145 139 61
146 141 53
145 139 63
147 140 53
142 137 54
141 136 47
147 142 51
139 133 44
141 134 54
136 131 49
137 131 48
137 132 39
137 132 41
140 134 51
126 122 39
141 134 54
137 131 44
131 126 41
126 120 42
136 130 56
125 120 44
118 114 37
134 129 47
123 119 36
161 179 0
164 182 0
166 185 0
163 182 0
168 187 0
167 186 0
165 184 0
168 187 0
166 184 0
170 190 0
166 184 0
167 187 0
169 187 0
171 193 0
168 187 0
172 191 0
169 187 0
167 185 0
166 187 0
169 189 0
169 188 0
173 196 0
170 194 0
170 194 0
171 194 0
170 193 0
170 193 0
170 194 0
165 190 0
172 195 0
167 190 0
169 193 0
172 195 0
174 196 0
170 193 0
168 192 0
171 195 0
171 194 0
167 191 0
170 193 0
170 194 0
173 196 0
173 196 0
169 192 0
166 190 0
168 192 0
170 193 0
167 190 0
169 192 0
171 194 0
171 194 0
171 194 0
171 194 0
170 193 0
170 193 0
171 195 0
172 195 0
170 193 0
168 192 0
172 194 0
169 192 0
168 191 0
170 193 0
171 195 0
167 192 0
166 190 0
171 194 0
169 193 0
172 195 0
165 188 0
168 190 0
169 192 0
170 194 0
169 192 0
168 191 0
170 193 0
168 190 0
167 190 0
172 195 0
170 193 0
168 191 0
169 192 0
170 193 0
169 192 0
168 191 0
161 184 0
168 192 0
169 193 0
170 193 0
169 191 0
166 189 0
173 196 0
168 190 0
172 195 0
169 192 0
169 193 0
161 185 0
172 195 0
164 187 0
163 186 0
166 189 0
165 189 0
170 193 0
167 190 0
169 192 0
113 139 118
60 95 146
62 98 158
62 98 164
61 97 161
61 97 155
61 97 159
62 98 160
61 97 156
61 97 158
61 97 163
61 96 154
61 98 166
60 96 161
60 96 158
60 96 159
60 96 161
60 96 161
61 97 164
62 98 166
62 99 172
61 98 167
60 95 156
61 97 166
61 97 165
61 96 164
61 97 165
61 97 169
61 98 166
62 98 168
61 97 166
61 97 167
62 98 173
61 98 168
61 97 168
62 98 172
62 98 169
61 97 168
61 98 170
62 98 171
61 98 166
61 98 173
61 98 166
61 97 168
61 97 169
61 98 172
61 98 169
61 97 165
60 97 162
61 97 169
62 98 169
61 97 168
62 98 166
61 97 167
61 97 171
61 98 171
62 99 174
62 98 174
61 98 166
61 97 166
61 98 171
60 95 162
62 99 172
62 98 171
63 99 174
61 98 167
62 98 171
62 98 167
61 98 173
61 97 169
62 98 173
62 99 172
62 98 169
62 98 169
62 98 167
62 99 172
61 97 165
62 98 171
62 99 172
62 99 172
62 99 174
62 99 173
62 98 169
62 99 169
62 98 172
62 99 170
62 99 169
62 99 169
61 97 160
61 98 169
61 98 166
62 98 168
62 98 165
61 98 166
62 99 170
62 99 168
61 97 164
62 98 167
62 98 164
62 99 168
63 99 171
62 98 168
62 99 169
62 98 169
63 99 171
62 99 169
62 98 170
63 99 167
61 98 168
61 97 163
63 99 175
62 99 165
62 99 167
62 98 162
61 97 158
62 98 169
62 98 158
62 98 168
62 98 165
63 99 168
62 98 163
62 98 167
62 98 164
62 98 161
61 98 164
62 98 164
62 99 164
62 98 166
63 99 168
63 99 168
62 98 162
62 98 166
62 97 158
61 97 159
62 98 166
62 98 163
61 97 158
62 98 166
62 98 163
62 98 160
61 98 166
63 99 172
63 99 170
61 97 163
63 99 169
61 97 163
63 99 165
61 97 159
61 97 157
62 98 163
61 97 153
62 98 159
63 98 159
61 97 158
62 98 159
62 98 165
63 98 160
61 96 155
61 97 159
61 97 148
61 97 150
61 97 159
61 97 156
61 97 157
61 97 156
62 98 159
62 97 158
61 97 155
62 98 166
61 96 150
60 95 152
61 95 149
60 94 156
60 94 151
61 96 152
60 93 142
61 96 154
59 92 126
57 89 129
56 88 125
76 82 61
85 85 17
79 80 17
79 78 7
89 89 20
77 79 28
77 78 22
73 74 20
91 91 33
84 85 29
81 82 25
85 86 27
84 86 25
91 90 30
96 94 16
88 89 29
89 91 37
109 107 39
102 102 31
94 95 36
97 98 36
104 103 35
105 106 38
111 109 42
110 108 41
114 112 44
117 115 44
121 118 46
115 112 44
127 124 48
120 119 48
123 119 46
125 122 49
130 127 54
128 125 56
125 122 42
128 125 55
138 135 54
132 130 46
130 127 45
129 125 54
129 125 56
138 133 57
141 138 57
142 138 54
144 138 60
141 137 49
138 134 50
142 139 53
146 142 57
145 140 56
144 140 56
144 138 57
146 140 61
148 143 59
147 142 54
147 142 52
142 138 51
154 148 67
148 144 54
151 145 60
143 139 47
143 139 49
155 149 64
147 141 51
149 143 56
146 141 58
154 149 56
151 145 61
155 149 62
151 145 61
149 144 56
149 144 59
143 137 49
147 143 56
142 138 53
150 144 59
146 141 60
148 142 51
149 142 57
143 139 53
151 145 58
149 143 61
136 131 47
157 151 63
150 144 53
145 140 56
146 140 48
151 146 57
144 140 49
148 142 58
144 138 48
132 126 44
151 145 52
149 143 48
144 139 48
142 136 59
141 134 51
141 136 52
141 135 42
144 139 44
141 136 47
145 140 45
138 133 45
146 140 54
135 129 45
139 133 42
124 119 44
125 120 34
117 112 34
133 127 41
117 111 36
119 114 36
126 121 36
153 164 19
169 187 0
164 179 0
167 187 0
163 181 0
170 188 0
162 179 0
171 189 0
168 187 0
166 185 0
169 188 0
169 186 0
167 184 0
166 185 0
170 190 0
169 190 0
165 185 0
170 191 0
170 189 0
169 191 0
168 188 0
170 190 0
171 194 0
170 193 0
173 196 0
172 195 0
167 191 0
171 195 0
172 196 0
173 196 0
170 194 0
169 193 0
171 195 0
169 193 0
174 197 0
171 194 0
170 193 0
171 195 0
170 193 0
169 192 0
171 194 0
170 194 0
171 195 0
168 191 0
169 193 0
167 190 0
167 191 0
170 193 0
171 194 0
173 196 0
170 193 0
170 193 0
171 194 0
171 194 0
167 191 0
168 191 0
172 195 0
170 193 0
173 196 25
171 194 62
174 197 57
172 195 67
175 198 57
177 198 80
179 199 92
173 196 57
175 197 72
174 196 62
172 194 51
170 194 25
170 193 0
174 197 0
168 191 0
170 194 0
170 194 0
166 190 0
170 194 0
168 191 0
174 197 0
166 189 0
168 191 0
165 188 0
171 194 0
169 193 0
170 193 0
170 193 0
165 188 0
162 186 0
166 190 0
169 192 0
163 187 0
161 183 0
170 192 0
162 185 0
163 187 0
168 192 0
169 192 0
162 185 0
165 188 0
165 188 0
160 184 0
166 190 0
165 188 0
164 187 0
165 188 0
166 189 0
105 132 124
61 96 149
62 98 162
61 96 154
61 96 148
61 97 157
60 95 153
61 97 158
61 96 154
60 95 156
61 97 158
61 97 165
60 95 157
61 97 162
60 95 159
60 96 160
61 97 161
60 96 159
61 96 165
61 97 159
60 96 160
61 98 170
61 98 165
60 96 153
60 96 163
61 98 166
60 96 166
60 96 160
61 97 163
61 97 166
61 97 168
61 97 167
60 96 165
61 97 163
61 98 169
61 98 177
62 98 174
60 96 170
60 96 161
61 97 168
61 97 172
60 96 165
61 98 173
62 99 168
61 97 168
60 97 167
61 98 170
61 98 170
61 97 167
62 98 163
60 96 165
62 99 171
61 98 170
62 99 176
62 98 172
62 99 175
62 98 167
62 98 171
61 98 173
61 97 165
61 98 169
62 98 167
61 98 168
62 98 174
62 99 174
62 99 173
62 99 172
61 98 172
61 97 166
62 98 167
61 98 167
63 99 177
62 98 164
61 98 172
62 98 171
61 97 163
62 98 167
62 98 170
62 98 168
61 98 171
61 98 167
62 98 169
61 98 170
62 99 168
61 97 166
62 99 170
61 98 167
62 99 166
61 98 165
62 99 172
62 98 171
62 98 171
62 98 169
61 97 161
62 98 164
62 98 165
62 99 172
61 97 164
61 97 163
61 98 166
61 97 165
62 98 163
61 98 167
61 97 167
63 99 171
62 98 172
63 99 162
61 98 166
63 99 169
62 98 163
62 98 167
62 98 168
62 99 169
63 99 173
62 98 166
63 99 168
61 97 159
62 98 165
61 98 168
62 99 167
62 98 165
63 99 170
62 98 166
62 99 172
62 98 164
62 98 165
61 98 164
61 97 164
62 98 164
61 98 165
63 99 169
61 98 159
62 98 167
63 99 166
63 99 169
62 98 163
62 99 171
61 97 155
62 99 169
62 98 160
63 99 167
62 98 161
62 98 163
62 98 160
63 99 163
63 99 161
62 98 158
62 97 159
62 98 162
63 99 166
62 98 156
62 98 163
62 98 167
63 99 167
63 99 165
61 97 156
61 97 158
61 97 154
62 98 161
62 98 157
62 98 159
61 97 152
62 97 160
62 98 159
63 98 161
61 97 152
61 97 155
61 96 153
61 97 156
61 97 154
61 96 148
61 96 156
60 94 145
57 91 135
60 94 148
60 94 148
59 93 139
60 94 151
60 94 143
58 91 134
71 80 79
80 81 21
86 85 20
69 69 16
83 82 16
65 67 17
77 78 15
81 83 23
87 86 23
76 76 23
84 82 20
85 87 34
90 91 16
94 93 27
94 93 28
92 92 32
97 97 20
83 85 36
110 109 38
99 100 30
103 101 37
99 97 34
108 107 37
106 105 38
113 111 43
122 119 51
124 120 46
125 121 41
120 117 42
127 125 49
122 120 47
128 125 48
122 121 47
123 119 53
134 130 53
125 122 45
125 123 51
124 120 47
139 136 48
133 129 53
134 131 50
134 130 48
143 139 57
133 129 55
135 132 50
140 136 56
140 136 52
129 126 49
144 138 65
140 134 52
144 139 53
136 132 46
143 139 47
139 135 53
146 141 58
149 145 51
140 136 54
149 143 58
141 138 43
145 141 53
146 141 56
149 144 58
151 146 59
149 144 62
142 139 45
151 146 57
148 145 54
153 146 58
141 136 51
153 147 57
144 137 58
140 136 49
149 144 54
146 142 45
143 139 45
151 146 49
145 140 56
149 144 57
150 144 57
149 141 66
148 143 53
143 137 52
151 146 47
148 143 52
150 144 63
140 135 44
149 143 62
140 135 47
140 136 49
149 143 52
148 143 51
143 137 54
137 131 48
148 142 52
145 139 51
145 139 53
133 129 44
137 131 49
135 131 44
136 131 49
138 133 45
137 131 45
144 139 54
128 122 37
127 123 37
132 127 44
136 130 42
121 116 44
129 123 39
129 124 39
129 124 36
118 114 34
117 112 34
146 152 34
165 181 0
164 183 0
165 183 0
167 187 0
168 185 0
167 185 0
170 189 0
168 186 0
164 183 0
168 185 0
165 184 0
166 184 0
170 192 0
168 186 0
166 184 0
166 184 0
167 187 0
170 189 0
168 187 0
168 189 0
169 190 0
167 187 0
171 195 0
173 197 0
171 195 0
169 194 0
168 192 0
169 192 0
172 196 0
173 196 0
171 195 0
170 193 0
164 187 0
172 195 0
172 195 0
172 195 0
170 193 0
169 192 0
169 192 0
172 195 0
171 194 0
169 193 0
169 193 0
170 194 0
168 191 0
175 197 0
173 196 0
173 196 0
170 193 36
175 197 80
177 199 88
180 201 105
189 209 133
192 211 155
190 209 140
196 213 161
191 210 157
193 211 163
193 212 159
192 210 163
197 215 179
191 209 161
190 209 155
198 216 182
193 211 159
199 217 181
191 210 159
195 213 171
195 213 167
192 211 157
196 213 177
194 211 167
182 201 128
186 206 130
185 204 130
188 207 137
181 202 108
177 198 88
173 196 57
174 197 51
167 190 0
171 195 0
172 195 0
169 192 0
166 189 0
169 193 0
170 193 0
170 193 0
171 195 0
169 193 0
167 191 0
170 193 0
165 188 0
169 190 0
164 187 0
166 189 0
169 192 0
164 186 0
167 191 0
167 190 0
166 189 0
162 185 0
165 188 0
167 191 0
168 190 0
165 189 0
90 118 133
60 95 145
60 95 150
61 97 153
61 96 147
61 97 157
62 97 154
60 96 153
61 97 160
60 96 157
61 97 160
61 96 161
61 97 164
60 95 158
60 95 154
61 97 162
60 95 156
62 98 163
61 96 161
60 96 162
60 95 159
61 98 167
61 97 163
60 96 162
62 98 171
60 96 160
61 98 169
62 98 170
61 98 165
60 96 165
61 97 168
60 96 168
60 96 162
61 98 172
61 97 165
60 96 165
61 97 165
61 97 170
60 97 169
60 96 168
60 96 161
61 98 170
61 97 171
62 98 172
59 95 161
62 99 175
61 97 166
61 97 163
61 97 169
61 98 175
62 98 174
61 97 167
62 99 174
61 97 167
62 98 170
61 98 174
61 97 167
61 98 167
61 98 169
61 97 172
62 99 170
62 98 172
61 97 168
63 99 170
61 97 163
62 99 172
62 98 168
62 98 170
61 97 166
60 96 165
61 97 168
62 98 170
60 96 161
62 98 165
62 98 168
61 97 166
61 98 171
62 99 170
62 98 166
61 98 167
61 97 160
62 98 168
62 99 171
62 98 170
61 97 163
61 98 169
62 98 167
63 99 173
62 98 169
62 98 168
63 99 169
61 98 172
62 99 169
61 98 166
62 98 168
62 98 163
61 98 168
62 98 170
61 98 166
62 98 164
60 96 162
62 99 170
62 98 162
61 97 158
62 99 174
62 98 165
62 99 171
61 97 163
61 98 164
62 98 162
62 98 166
62 98 162
62 98 161
61 97 163
61 98 167
62 98 168
63 99 165
62 98 165
62 99 167
61 98 168
62 98 164
62 98 161
60 97 154
62 98 162
63 99 171
62 99 172
63 99 169
62 98 164
62 98 165
63 99 168
62 98 165
62 98 162
62 98 163
62 98 166
62 98 167
62 98 167
62 99 167
62 98 165
61 97 159
62 98 155
62 98 166
62 98 168
62 99 162
62 98 163
62 98 162
62 98 162
63 99 168
62 98 163
61 97 158
61 97 158
62 98 164
62 98 163
61 97 158
61 97 157
61 96 147
62 98 162
62 99 163
62 98 161
62 98 154
62 97 161
61 97 160
62 98 157
61 96 155
61 96 153
61 96 155
60 95 149
61 96 152
61 96 154
60 95 149
60 95 151
61 96 152
61 97 152
62 97 160
60 94 146
59 93 138
61 95 147
60 95 154
60 93 145
58 91 139
59 92 140
65 77 72
60 62 12
70 72 26
78 77 13
79 79 17
87 87 21
84 83 17
66 67 13
82 81 20
86 87 29
87 87 33
93 93 22
85 86 30
91 91 35
86 85 15
87 86 22
92 91 33
94 96 32
106 104 37
95 95 29
102 102 27
112 110 46
101 100 37
109 107 44
113 112 35
112 111 37
109 108 40
118 116 36
127 123 46
118 116 50
111 111 43
127 124 49
112 111 31
120 116 43
126 122 48
117 114 40
131 129 40
129 127 54
131 127 45
131 128 48
131 128 50
127 125 44
129 126 45
140 135 54
135 130 51
138 135 47
148 144 53
138 134 50
146 140 64
142 137 52
136 131 51
152 147 57
142 137 51
144 140 50
142 137 58
138 133 42
147 143 53
145 140 54
148 142 53
147 141 58
147 143 51
146 140 57
152 147 54
155 149 61
155 149 59
144 140 48
143 138 54
148 142 54
148 142 61
151 146 52
149 144 57
144 138 59
155 148 61
148 143 51
152 145 48
152 146 61
148 142 57
142 137 48
145 140 52
147 142 51
143 137 53
147 143 56
150 145 52
148 142 51
148 142 52
149 143 49
148 142 52
142 137 47
145 139 47
143 138 39
147 141 49
137 131 51
144 139 47
136 131 47
137 132 44
135 131 37
134 129 37
141 136 44
135 130 47
140 133 45
138 132 51
136 132 48
137 131 51
135 130 44
134 129 42
139 133 48
132 125 39
126 121 32
130 126 30
130 124 37
116 112 32
110 103 36
136 140 34
167 185 0
169 187 0
172 191 0
165 183 0
167 185 0
163 180 0
164 184 0
172 193 0
165 181 0
166 184 0
168 187 0
165 184 0
168 186 0
164 182 0
169 186 0
165 184 0
166 187 0
167 185 0
165 184 0
166 185 0
166 185 0
171 190 0
168 188 0
169 192 0
174 196 0
169 193 0
170 194 0
174 197 0
169 193 0
170 193 0
170 193 0
172 195 0
170 194 0
173 196 0
169 193 0
171 194 0
167 191 0
169 192 0
169 192 0
173 196 0
170 194 0
170 193 0
169 193 0
172 196 51
181 202 95
180 201 111
186 206 135
193 211 157
190 208 163
198 215 182
199 217 175
193 212 161
196 213 169
193 211 173
193 212 165
191 210 151
194 213 157
193 213 163
191 210 157
195 212 169
189 208 159
195 213 167
194 213 171
191 211 161
193 212 167
186 205 140
187 206 151
190 209 155
192 211 159
189 208 157
191 209 165
196 215 171
187 207 144
195 214 175
193 211 165
190 209 163
192 211 153
188 207 155
192 211 161
191 209 163
190 208 151
196 214 171
187 207 140
189 208 142
179 200 102
175 198 72
173 196 25
171 195 0
172 194 0
164 187 0
172 194 0
169 193 0
167 190 0
172 195 0
169 193 0
164 187 0
171 194 0
163 186 0
160 183 0
170 193 0
169 191 0
162 185 0
166 190 0
162 185 0
165 190 0
167 191 0
168 191 0
83 114 141
61 96 142
61 96 150
61 97 157
61 97 156
61 97 148
62 97 160
62 98 165
61 97 157
60 95 153
61 97 157
59 95 151
60 96 160
60 95 161
61 96 159
62 98 167
59 95 148
60 96 156
60 96 160
59 95 155
62 98 168
61 97 168
61 97 161
61 97 163
61 97 171
61 97 165
61 97 168
61 97 165
60 97 161
61 98 169
60 95 161
61 97 168
60 96 166
60 97 168
60 96 164
61 97 171
61 97 169
60 96 166
61 97 167
61 98 168
62 98 173
62 99 174
61 97 167
61 96 163
61 97 166
61 97 166
60 97 171
61 97 166
61 97 169
62 98 173
62 98 171
60 97 169
61 97 169
61 98 172
62 98 173
61 98 169
61 98 175
61 97 170
62 98 171
62 98 172
63 99 176
61 98 171
61 98 170
61 98 171
61 98 169
62 98 166
62 99 170
61 98 169
61 98 172
62 97 167
61 97 164
62 98 170
62 98 174
62 98 166
61 97 168
62 99 172
62 98 169
61 97 163
63 99 173
61 98 168
62 98 167
62 98 172
62 98 169
62 98 165
62 98 168
62 98 165
62 98 165
63 99 168
62 98 165
62 98 170
62 98 165
62 98 168
63 99 171
63 99 164
62 98 163
62 99 172
61 98 167
61 98 162
62 98 166
63 99 167
62 98 166
62 98 166
63 99 168
62 98 164
62 98 168
62 98 163
62 98 162
63 99 171
62 99 171
62 98 164
62 99 169
62 98 163
62 98 167
61 97 157
61 98 163
62 98 164
62 99 167
62 98 165
62 99 165
61 96 154
62 99 167
62 98 166
62 98 164
62 98 169
62 98 164
62 99 166
62 99 169
62 98 163
62 98 162
62 98 168
61 97 157
63 99 166
63 99 170
62 98 159
62 98 159
62 98 162
61 97 157
62 98 163
62 98 164
63 99 162
62 98 163
62 98 164
62 98 159
63 99 168
60 96 153
62 98 165
62 98 157
62 98 161
61 97 159
61 97 154
62 98 162
61 97 159
63 99 168
62 98 161
62 97 155
61 97 154
61 96 156
62 99 164
61 97 152
60 95 153
61 96 151
62 98 161
62 97 155
61 97 155
61 97 153
60 95 149
62 97 153
63 98 158
62 98 156
59 95 144
62 97 157
61 97 152
61 97 155
60 95 152
61 95 142
60 94 143
58 91 133
58 92 140
59 92 139
60 93 137
68 82 85
91 89 18
78 78 14
72 73 17
83 83 19
79 79 17
85 84 23
70 72 23
83 84 15
80 81 25
84 85 21
84 84 29
89 88 28
79 79 26
102 103 33
94 95 28
94 92 34
99 100 23
99 98 35
94 94 29
104 104 31
112 111 43
97 97 33
104 105 40
111 110 43
114 113 35
116 115 36
117 113 35
116 113 42
117 114 41
122 120 49
130 128 49
113 111 40
129 126 40
126 123 44
121 119 46
127 125 53
126 123 39
120 117 38
132 128 34
138 134 51
131 128 48
130 126 51
139 135 53
137 133 50
144 137 59
142 137 57
135 132 47
142 139 49
144 139 50
137 134 39
148 143 59
145 139 53
144 138 54
138 134 46
137 133 51
138 133 45
138 135 44
146 139 54
147 143 45
147 142 51
144 139 52
148 142 55
141 136 56
151 145 58
149 144 53
135 131 49
148 142 55
149 145 48
145 139 54
148 142 56
148 143 51
146 141 53
149 145 47
146 142 49
146 141 51
144 138 52
149 144 61
144 139 45
143 138 49
143 138 47
141 136 48
146 140 51
137 131 45
143 138 49
144 137 54
141 136 51
138 133 42
145 139 51
143 138 53
136 132 44
140 135 56
140 135 44
145 140 52
131 126 37
137 132 37
134 129 48
142 136 53
141 136 36
141 137 44
131 126 42
132 127 47
131 126 49
127 121 36
125 121 32
124 118 39
137 132 51
120 115 36
126 121 32
133 127 39
123 117 34
131 131 39
165 182 11
169 186 0
162 179 0
167 186 0
162 177 0
167 185 0
169 187 0
163 181 0
163 180 0
171 190 0
168 186 0
166 184 0
169 186 0
166 183 0
169 188 0
165 183 0
168 189 0
167 185 0
167 186 0
170 189 0
169 185 0
171 192 0
165 184 0
169 189 0
168 193 0
170 194 0
168 192 0
171 195 0
173 196 0
170 192 0
171 195 0
172 195 0
167 190 0
173 196 0
169 192 0
171 194 0
171 194 0
173 196 0
173 196 0
172 195 25
175 197 80
181 201 99
181 202 117
194 212 163
196 215 165
199 216 181
188 207 147
200 218 179
195 213 167
193 211 169
192 211 159
191 210 159
188 208 142
193 212 169
190 209 153
191 210 153
193 212 165
189 208 155
191 210 157
193 212 161
192 211 161
186 206 144
191 211 151
190 210 165
193 212 169
187 207 142
188 209 151
190 209 163
189 208 157
186 206 133
184 205 130
191 211 155
188 208 149
195 213 177
193 212 159
195 214 173
192 211 155
192 211 151
187 206 142
195 214 167
195 214 179
191 210 163
193 212 159
191 209 163
191 211 155
189 209 151
197 215 179
190 208 151
189 207 157
195 213 155
174 196 76
172 194 67
169 192 0
165 189 0
166 189 0
168 191 0
168 191 0
169 192 0
169 191 0
165 188 0
167 189 0
164 187 0
162 186 0
165 188 0
166 189 0
166 189 0
162 185 0
165 188 0
96 125 138
59 94 139
61 97 156
61 96 153
60 96 151
61 96 147
61 97 149
60 96 154
61 96 153
61 97 158
59 95 154
61 97 163
60 96 154
60 95 164
61 97 160
61 97 163
61 97 156
60 96 161
60 96 158
61 97 167
61 97 170
60 95 164
61 97 161
60 96 164
61 97 168
61 97 167
60 96 166
60 97 169
60 97 167
60 96 158
61 97 167
60 97 165
60 96 165
61 98 167
61 96 163
60 96 162
61 97 169
61 97 162
61 96 164
62 99 172
61 97 165
61 97 172
61 97 164
61 97 171
61 97 169
60 96 165
61 97 167
60 96 164
61 97 171
61 97 168
62 99 171
62 99 173
62 98 170
60 97 167
60 96 167
62 99 173
62 99 171
62 99 169
61 97 169
62 98 166
62 98 168
61 97 168
62 98 166
60 96 165
62 98 171
62 98 169
61 98 170
62 98 168
62 98 169
62 98 167
62 98 169
62 99 168
62 98 167
62 98 169
60 96 167
62 98 166
61 97 169
62 98 170
62 98 171
62 98 173
62 99 170
62 99 169
61 97 164
61 97 160
61 98 163
62 99 170
62 98 170
62 98 167
63 99 170
62 98 164
62 98 166
62 98 164
62 99 170
62 99 171
62 99 171
62 99 166
61 98 167
62 99 169
62 98 170
63 99 167
62 98 170
62 98 166
62 98 165
62 98 166
62 99 170
62 99 168
62 99 168
61 98 165
62 98 169
62 98 164
61 97 161
62 98 165
62 98 164
61 97 163
62 98 163
61 97 163
61 98 164
62 99 171
62 98 163
61 98 164
63 99 168
62 98 160
62 98 165
62 98 163
62 98 159
62 98 166
61 98 161
62 98 159
62 98 162
61 97 159
61 97 158
62 98 167
62 98 167
62 98 163
63 99 168
61 97 157
61 97 157
62 99 166
61 97 160
61 97 154
62 98 162
62 98 161
62 98 162
63 99 165
61 97 154
61 97 160
63 99 161
62 98 157
62 99 168
62 97 156
62 98 162
62 98 160
62 98 159
61 97 158
63 99 164
61 96 155
61 97 157
63 99 162
61 97 159
62 97 155
63 99 164
61 97 150
61 97 159
61 96 151
61 97 155
60 96 144
61 96 154
61 96 158
62 98 160
61 96 147
60 95 145
61 96 150
60 95 150
60 95 149
60 95 151
58 92 140
61 95 151
59 93 143
59 92 140
58 91 132
69 76 68
86 85 16
79 79 14
69 67 12
69 71 15
85 85 20
92 91 8
97 94 13
94 95 29
94 93 22
83 83 27
85 86 19
84 84 23
110 107 31
83 84 23
97 96 29
95 94 25
108 105 31
102 99 33
100 99 20
104 103 37
99 98 32
101 100 24
116 112 46
109 108 27
126 122 53
107 107 35
115 113 39
116 114 41
112 110 39
110 108 33
121 118 42
122 120 44
120 118 41
126 122 39
118 117 38
127 123 46
124 121 41
129 125 40
126 123 48
124 121 47
134 129 46
141 137 45
130 128 51
136 131 53
131 127 46
140 135 50
141 137 45
133 130 42
137 134 45
140 136 50
141 136 45
145 140 55
140 135 49
145 140 53
138 133 49
132 128 52
137 132 45
139 135 50
141 136 53
135 129 47
142 138 52
139 134 47
145 139 52
139 134 44
146 141 52
149 143 54
150 143 61
141 137 44
148 142 49
149 143 56
147 141 49
144 139 49
143 136 53
138 134 39
142 137 32
147 141 47
138 134 44
135 129 34
142 138 45
146 141 45
137 132 49
147 141 51
141 135 48
153 147 56
141 136 44
139 134 51
146 140 54
139 133 45
144 138 48
139 132 48
139 135 42
134 128 42
140 135 42
135 128 49
137 132 39
128 122 34
136 131 42
130 125 44
135 129 41
136 131 39
128 124 25
135 129 34
117 112 34
126 122 37
134 129 48
123 118 30
118 114 11
128 124 34
107 103 32
122 119 32
157 169 16
158 173 0
161 178 0
162 180 0
161 178 0
168 187 0
168 185 0
168 187 0
161 176 0
167 188 0
168 188 0
169 188 0
167 186 0
167 184 0
160 179 0
172 191 0
165 184 0
167 186 0
170 188 0
162 181 0
162 179 0
167 186 0
169 190 0
171 191 0
170 188 0
173 196 0
172 196 0
169 192 0
169 192 0
173 196 0
174 197 0
170 193 0
168 192 0
173 196 0
173 196 0
170 194 0
173 196 0
176 198 67
178 199 99
191 210 147
192 211 159
195 213 163
193 212 159
196 214 173
193 212 167
189 208 147
193 212 161
195 214 167
192 212 163
195 214 165
188 208 144
190 210 147
187 208 133
194 213 165
189 208 153
192 212 165
185 206 128
193 212 165
191 210 153
188 209 157
196 215 175
189 210 155
191 211 155
194 213 171
180 201 137
188 209 149
192 212 165
188 209 142
192 211 161
188 209 147
187 208 140
188 208 151
193 213 165
186 207 142
188 208 147
193 212 161
190 210 151
192 211 159
188 207 142
192 211 157
190 209 159
190 209 157
190 209 161
194 213 167
189 208 161
193 213 159
192 211 167
188 208 137
193 213 157
192 210 171
192 212 157
190 209 157
194 212 165
192 211 151
185 205 133
171 193 80
174 197 25
172 196 0
169 192 0
165 188 0
166 189 0
166 191 0
170 194 0
155 179 36
143 166 80
142 166 86
154 177 44
164 186 0
165 187 0
98 126 121
61 96 150
62 98 161
60 95 147
60 95 146
60 96 159
61 97 155
60 95 148
60 96 151
61 97 159
60 96 153
60 96 159
62 98 161
60 95 159
61 97 161
60 96 160
61 97 162
60 96 157
61 97 163
60 96 163
60 96 163
59 94 149
60 96 156
60 96 167
61 98 166
59 95 160
59 95 160
61 97 167
60 96 161
60 96 162
60 96 166
61 97 166
61 97 164
61 97 167
60 96 164
62 98 169
60 95 159
61 97 168
61 98 170
61 97 162
61 97 166
61 97 171
61 98 166
61 97 170
62 98 172
61 98 168
62 99 171
61 98 174
62 98 174
62 98 173
61 97 167
61 97 168
62 98 170
61 97 160
60 96 161
61 97 166
61 97 169
61 98 172
62 98 171
61 98 169
61 97 168
61 97 163
61 97 165
62 99 173
62 99 173
61 97 166
62 99 172
62 99 172
62 98 172
62 98 171
61 98 168
62 98 173
62 98 162
61 98 168
62 99 173
62 98 169
62 98 170
62 99 174
61 98 167
62 98 167
61 97 165
61 97 161
61 98 165
62 99 174
62 98 164
61 97 158
63 100 175
62 98 167
63 99 174
62 98 170
61 98 163
62 98 170
63 99 169
61 98 166
63 99 171
62 98 163
62 99 166
61 96 161
62 99 174
62 98 170
62 98 164
62 98 168
62 98 169
62 98 162
62 98 171
62 98 164
62 98 164
62 98 165
62 98 163
62 99 171
62 98 161
62 99 168
62 98 164
61 97 161
62 99 170
62 98 159
61 98 169
62 98 163
62 99 168
62 98 169
62 99 166
62 98 164
62 98 161
62 98 167
62 98 162
62 99 163
62 99 165
62 98 157
62 98 163
61 97 160
62 98 162
61 97 157
63 99 167
62 98 164
62 98 160
62 98 163
62 98 154
62 98 165
62 98 161
62 97 160
62 99 166
62 99 167
62 98 165
61 98 162
62 98 162
63 99 164
61 97 158
62 97 158
60 96 150
61 98 159
62 98 157
61 98 163
61 98 159
62 97 154
62 98 159
62 98 162
62 98 159
61 96 149
62 97 158
61 97 150
62 97 161
61 97 154
61 97 156
62 97 154
61 96 143
62 97 154
61 97 151
60 95 146
60 95 154
61 97 156
59 93 144
62 96 149
61 96 150
60 95 142
62 96 154
59 92 134
60 93 140
61 95 148
58 90 133
59 92 141
83 90 76
88 87 16
71 71 12
81 80 11
85 84 15
80 79 15
83 83 25
75 76 14
85 85 8
80 79 19
78 79 24
87 87 22
79 82 16
91 92 24
90 89 16
105 104 21
89 90 25
94 94 23
103 102 29
110 108 39
100 100 36
109 108 29
107 105 27
105 104 26
102 102 34
107 107 31
105 105 36
122 118 41
123 122 44
122 120 42
126 123 37
116 115 36
119 117 42
128 125 42
122 120 41
136 131 46
123 121 37
124 122 45
129 125 45
132 129 42
135 131 46
128 124 48
128 124 42
124 122 42
136 132 40
135 129 52
135 131 50
135 130 54
140 134 48
138 135 45
144 140 49
135 130 44
138 132 52
144 139 49
146 140 42
149 144 49
146 140 56
132 129 43
142 138 49
142 136 45
137 132 42
139 133 49
144 140 45
151 145 57
145 140 51
138 133 49
145 140 47
146 141 52
141 135 49
148 141 53
143 138 51
137 133 36
149 144 47
144 138 44
147 142 51
141 136 44
152 146 56
139 134 54
150 143 58
138 134 47
141 137 41
149 144 45
142 137 44
134 130 45
137 131 45
131 125 39
140 134 47
142 137 42
140 134 36
149 144 54
139 133 45
131 126 41
133 127 37
137 132 37
129 125 37
135 131 44
129 124 41
141 135 37
134 129 41
136 132 42
138 132 45
126 122 30
125 120 32
129 125 45
127 124 28
132 127 42
125 120 39
129 123 39
115 110 34
125 121 28
145 156 19
166 182 0
162 177 0
166 183 0
164 179 0
163 177 0
166 182 0
168 187 0
162 180 0
168 186 0
167 186 0
167 186 0
166 185 0
168 184 0
169 186 0
166 184 0
169 189 0
168 187 0
169 188 0
168 188 0
168 186 0
168 187 0
164 183 0
168 187 0
167 185 0
169 188 0
172 195 0
172 195 0
166 191 0
169 193 0
171 194 0
173 196 0
172 196 0
170 194 0
175 198 36
176 198 72
184 204 125
194 212 163
194 211 169
197 214 181
194 212 167
193 212 157
192 212 161
194 212 169
196 214 171
194 213 167
190 210 161
190 209 147
192 211 155
188 209 142
192 211 157
185 206 135
192 212 155
189 208 153
190 210 155
187 208 140
185 206 140
185 206 137
187 208 140
189 210 151
189 210 144
188 209 144
189 209 147
187 208 144
192 213 165
187 208 142
185 207 137
186 207 142
184 206 122
188 209 144
191 211 157
189 210 155
188 208 159
188 208 140
186 207 151
188 209 137
187 208 137
189 210 157
188 209 149
187 208 149
189 210 149
187 208 149
188 209 144
188 208 149
189 210 151
187 208 142
192 212 159
191 211 153
190 210 153
189 209 155
192 212 155
191 211 153
192 212 159
186 206 144
190 209 157
200 217 182
193 211 163
193 211 169
192 211 157
176 197 114
177 199 76
167 189 0
171 194 0
165 188 0
166 190 40
115 142 118
114 141 124
98 125 134
115 141 118
143 166 88
98 125 128
59 93 134
60 95 140
60 95 147
61 96 156
59 95 151
59 93 143
60 96 154
61 97 158
60 95 154
61 97 162
61 97 162
60 95 155
61 97 165
58 93 154
60 96 158
61 96 159
60 96 160
59 94 155
60 96 163
60 95 165
61 98 167
58 94 154
61 97 162
60 95 158
60 96 164
60 96 164
61 97 165
60 95 159
61 97 168
60 96 163
61 97 161
60 95 162
61 97 168
61 97 169
60 96 164
60 96 163
61 97 170
61 98 167
61 97 167
61 97 165
60 96 167
60 96 160
62 98 169
61 98 174
61 98 169
61 98 170
62 98 171
62 98 170
61 97 168
61 97 163
61 97 168
62 98 168
61 97 171
61 97 165
61 97 168
61 97 166
61 97 166
61 98 169
62 99 171
61 97 167
61 98 170
62 98 168
61 98 164
61 97 163
62 99 170
61 97 163
62 98 166
61 98 167
61 97 163
62 97 166
61 97 168
61 97 168
61 97 163
61 97 161
61 98 163
61 98 168
62 98 165
62 98 165
62 98 167
62 98 167
60 97 162
62 98 163
62 98 166
61 97 169
61 98 164
61 98 161
61 98 166
61 97 161
62 98 170
62 98 168
62 98 165
62 99 169
62 98 165
63 99 171
63 99 175
62 99 172
62 97 159
61 97 166
61 97 162
61 97 162
61 98 162
62 98 168
62 99 170
61 98 164
62 99 167
63 99 166
61 97 162
63 99 170
62 98 167
61 97 164
61 97 158
61 97 158
61 98 166
62 98 163
62 98 163
62 98 167
62 98 164
61 97 160
62 98 167
63 99 166
62 98 161
61 97 158
63 99 170
61 97 160
61 97 159
62 98 161
61 98 163
63 99 165
63 99 167
63 99 173
62 98 164
63 99 165
62 98 162
62 98 159
62 98 167
62 98 162
63 99 166
61 98 161
62 98 162
62 98 162
62 97 153
62 98 162
62 98 164
61 97 158
62 98 162
61 96 149
63 99 162
62 98 158
62 98 161
63 99 164
61 97 155
61 97 155
62 98 157
61 97 155
62 98 159
62 97 153
61 97 159
61 97 157
61 97 159
61 97 156
62 97 161
61 97 153
61 97 154
63 98 160
62 97 156
62 97 152
62 97 153
61 96 148
61 96 154
62 97 154
61 95 146
61 96 152
59 93 135
59 93 144
60 94 140
60 94 146
61 95 140
59 92 139
58 90 129
74 83 77
74 74 12
90 90 12
79 78 14
90 89 3
81 81 18
85 84 8
87 85 13
71 73 13
91 91 18
88 86 21
89 89 15
87 87 22
94 94 18
99 97 21
86 88 20
100 99 24
96 96 27
96 96 22
98 98 20
107 106 25
100 100 33
110 107 34
118 116 34
113 111 36
107 103 29
112 110 33
120 116 40
119 117 44
133 130 37
116 113 37
122 119 39
116 113 33
128 125 32
120 118 43
121 119 39
127 123 47
127 125 37
122 119 37
131 129 41
129 125 45
131 127 38
129 126 45
135 132 33
127 124 49
134 130 44
137 133 45
135 131 46
129 126 41
130 126 37
137 132 47
140 135 53
144 138 50
144 139 44
135 129 45
135 131 44
137 131 50
148 142 53
134 130 47
147 141 57
142 136 49
143 138 45
146 140 53
144 138 45
152 146 49
140 135 50
142 137 39
144 139 45
136 132 41
139 134 44
143 138 47
145 139 53
144 138 48
150 145 48
135 132 39
143 138 45
146 140 51
141 136 51
141 135 49
141 136 49
128 124 36
141 137 51
143 138 44
137 132 39
135 129 48
137 131 41
141 136 42
140 134 39
139 136 36
138 133 44
144 139 47
136 132 45
135 130 41
143 137 45
137 131 41
135 130 47
135 130 45
125 120 28
134 128 32
134 129 37
133 127 44
130 125 39
116 113 36
130 124 42
121 115 41
117 113 19
126 121 42
127 121 34
116 112 34
150 160 25
165 181 0
165 179 0
167 183 0
163 179 0
158 174 0
169 186 0
163 180 0
168 186 0
166 184 0
166 184 0
168 186 0
168 187 0
168 187 0
168 186 0
162 181 0
164 184 0
166 185 0
165 182 0
163 182 0
168 188 0
163 182 0
167 186 0
170 189 0
166 185 0
168 186 0
166 184 0
173 196 0
171 194 0
167 191 0
173 196 0
167 191 0
173 196 36
183 204 108
191 210 149
198 216 175
201 218 189
191 209 163
191 210 153
190 209 153
196 214 175
199 216 177
190 209 155
190 209 157
190 210 149
186 207 140
189 209 147
190 210 157
186 207 133
191 211 161
191 211 155
187 208 144
188 208 144
188 208 153
192 212 161
191 212 159
191 212 165
193 213 169
189 209 147
191 212 161
186 207 140
187 209 147
184 206 133
191 211 161
188 209 149
189 210 153
190 210 153
188 209 147
184 206 133
188 209 140
187 208 142
188 209 142
184 205 135
188 210 155
187 208 142
192 213 163
190 211 153
186 208 144
187 208 140
188 209 144
187 207 144
187 208 144
185 206 135
186 207 130
191 211 157
187 208 137
190 211 153
189 209 140
190 210 157
186 206 151
190 210 147
185 206 137
187 207 137
190 210 157
190 210 153
189 208 161
191 210 157
195 214 163
191 210 153
192 210 165
189 209 144
191 210 155
193 212 157
182 202 108
173 195 25
169 192 0
154 178 76
129 155 107
118 144 122
122 147 114
107 134 128
103 130 129
93 121 143
72 105 143
61 97 151
60 95 143
60 95 143
61 96 152
62 97 150
60 96 155
60 96 156
60 96 157
59 94 151
62 98 156
61 96 163
61 96 160
59 94 153
60 97 159
60 95 157
61 97 162
59 95 161
60 96 169
61 96 159
61 97 158
60 96 161
61 97 160
60 96 162
59 95 157
61 96 163
60 96 168
61 97 164
60 96 162
61 97 168
58 93 160
60 96 167
60 96 162
60 96 160
60 96 164
61 97 168
61 97 166
61 97 168
61 97 169
62 98 168
60 97 166
60 96 167
60 97 167
61 96 167
62 99 172
61 97 165
62 98 174
60 96 160
60 97 165
61 97 165
60 97 169
62 98 175
62 98 170
60 97 168
61 98 168
61 97 170
62 98 169
62 98 171
61 97 168
60 96 159
62 98 167
61 97 166
62 99 171
62 98 164
62 99 171
61 98 164
62 98 171
61 98 171
61 98 163
62 98 167
62 98 170
61 97 164
62 98 164
61 97 171
62 98 169
61 98 169
62 98 164
60 96 158
62 99 168
62 99 171
61 97 163
62 98 161
62 98 162
63 99 170
61 97 167
62 99 168
62 98 167
61 97 162
61 98 164
61 97 160
61 98 163
62 98 166
62 99 167
62 99 170
62 98 173
62 99 169
61 98 165
61 98 160
62 98 169
62 99 164
62 99 169
63 99 170
63 99 170
61 97 160
61 98 165
62 98 166
61 97 158
62 98 165
61 97 162
63 99 166
62 98 165
62 99 170
62 98 164
61 98 167
62 98 163
63 99 168
61 97 162
62 98 164
62 98 163
62 98 161
62 98 159
61 98 162
62 98 161
62 98 165
62 98 162
62 99 170
62 98 160
61 97 156
62 98 154
61 96 149
62 98 163
62 98 165
62 98 165
62 98 167
61 97 159
62 98 165
61 97 154
61 97 159
61 97 157
62 98 157
61 97 159
63 98 162
62 98 158
62 98 158
61 97 154
62 97 157
62 98 159
61 97 160
62 98 158
62 98 160
63 99 166
61 97 155
62 98 158
62 98 164
61 97 161
62 97 154
60 95 146
61 97 153
63 98 162
62 98 162
61 96 153
62 98 161
61 96 145
62 97 152
61 97 154
61 96 152
60 95 147
61 96 147
62 97 152
62 97 160
61 96 148
60 95 147
61 96 146
58 92 138
60 94 143
57 89 128
57 89 127
60 94 142
64 74 71
76 77 14
83 81 12
75 76 12
69 68 11
74 74 12
83 82 18
90 89 12
86 85 20
91 91 23
91 89 14
82 83 14
80 81 20
91 89 19
96 95 30
91 90 24
89 89 28
88 88 26
105 103 23
98 98 29
96 95 23
104 103 26
120 117 31
107 105 25
100 101 32
110 110 32
107 103 34
108 107 33
117 115 24
114 110 25
123 120 40
116 115 35
128 126 42
121 117 40
121 118 38
117 113 34
134 129 43
131 128 43
125 122 43
108 106 28
125 122 42
128 125 41
127 123 42
130 126 37
130 124 43
140 137 37
130 125 46
130 126 40
143 137 51
137 133 46
135 131 38
142 138 53
131 128 31
135 131 42
140 136 43
139 134 42
146 141 51
136 132 39
140 136 45
142 138 46
133 130 44
140 135 51
141 137 45
148 143 51
145 139 48
146 141 49
146 141 45
148 142 57
148 143 47
143 137 45
143 136 51
147 143 44
145 140 44
134 130 36
143 138 48
139 135 42
151 145 53
143 137 52
146 140 47
143 139 48
135 130 41
138 133 44
148 143 47
141 136 41
142 137 47
148 141 51
133 128 36
147 140 48
136 131 45
147 142 41
143 137 49
134 128 44
137 132 28
134 128 36
131 125 41
129 125 34
129 125 28
125 122 25
128 124 28
130 125 42
128 122 30
126 122 39
133 128 41
117 112 28
118 112 30
132 128 41
127 121 37
111 105 25
137 143 25
166 183 0
164 181 0
161 174 0
164 180 0
166 185 0
160 177 0
165 182 0
163 178 0
172 190 0
166 184 0
164 180 0
168 185 0
162 180 0
166 182 0
164 181 0
171 189 0
166 184 0
169 187 0
165 182 0
168 186 0
165 184 0
165 184 0
166 184 0
167 188 0
166 185 0
164 183 0
165 183 0
174 197 0
173 196 0
168 192 0
177 200 84
186 206 142
193 211 163
200 217 179
200 218 186
191 210 157
192 211 159
194 214 163
191 211 149
192 210 163
194 213 167
190 210 153
189 209 151
190 210 155
187 208 144
192 212 159
188 209 142
190 210 149
187 207 137
190 211 157
187 208 144
188 209 147
190 211 161
182 204 122
186 207 137
188 209 149
187 208 142
188 209 144
189 210 149
185 207 149
184 205 117
188 209 147
183 206 125
191 212 161
187 208 149
188 210 151
187 209 142
186 208 147
184 206 130
189 210 153
186 207 144
185 206 149
185 206 133
188 209 151
184 206 135
179 202 125
187 208 135
185 206 135
188 209 157
184 206 125
188 210 149
188 209 142
187 208 137
185 206 135
186 207 140
188 209 147
187 208 153
186 207 140
187 208 144
187 208 142
188 209 147
191 211 157
194 213 167
188 209 147
191 211 153
186 207 140
187 207 142
193 212 163
188 207 159
186 205 144
187 206 149
192 211 157
195 213 175
190 208 167
189 208 161
184 203 137
171 193 84
146 170 82
128 154 115
128 153 115
120 147 120
121 146 120
111 138 128
106 133 129
94 122 140
72 103 142
65 99 143
60 95 153
62 97 163
61 96 155
61 96 158
61 96 159
60 96 158
60 96 157
59 95 147
61 97 159
59 94 156
59 95 159
60 96 157
61 96 157
60 96 161
59 95 154
60 95 161
60 95 158
59 95 154
60 95 160
61 97 165
61 98 167
59 95 156
61 97 160
60 97 166
60 96 162
61 97 166
60 96 166
60 96 166
61 97 165
61 96 164
61 97 167
59 95 164
61 97 168
60 96 167
61 97 168
62 98 165
60 96 166
60 96 166
61 97 166
60 97 167
61 98 169
60 96 165
60 96 168
60 97 167
59 95 162
61 98 172
60 96 163
61 98 166
60 97 168
61 97 169
61 97 170
61 97 163
61 97 163
61 97 167
60 97 169
61 98 172
61 97 170
61 98 168
62 99 168
61 97 160
61 97 167
61 98 166
63 99 168
62 98 170
62 98 171
61 98 165
61 98 164
62 98 168
62 98 161
62 98 169
62 98 168
62 98 166
62 98 169
63 99 170
61 97 166
62 98 165
62 98 169
61 97 160
61 98 165
61 97 164
61 97 167
61 98 167
61 98 163
62 98 170
62 98 166
62 99 167
61 98 162
61 97 162
61 97 162
62 98 166
62 98 164
61 97 160
62 99 169
62 98 164
62 98 166
62 98 161
62 99 170
62 98 165
62 98 163
62 98 169
62 98 163
62 98 169
61 97 155
62 98 163
62 98 165
61 97 160
62 98 166
62 98 167
61 98 160
61 98 163
62 97 161
62 98 167
62 98 163
62 98 165
62 98 161
61 97 158
62 98 164
61 97 157
62 98 162
62 98 159
61 97 159
62 98 164
62 98 161
62 98 170
61 97 158
63 99 165
61 97 163
62 98 167
62 98 162
62 98 163
62 98 159
62 98 163
62 98 158
62 98 158
61 96 150
60 95 144
62 98 160
62 98 164
62 98 160
63 99 167
61 97 154
63 98 157
61 98 164
61 97 162
61 97 157
62 98 159
62 98 159
61 97 156
61 97 161
62 98 159
63 98 158
61 97 152
61 97 151
62 98 158
62 98 162
61 97 154
61 97 151
61 97 156
61 97 155
61 96 147
61 97 151
62 97 153
61 96 152
62 98 162
61 96 150
60 93 142
61 96 151
60 94 147
60 95 144
59 93 135
59 93 135
61 95 144
59 92 136
58 92 135
68 76 63
78 78 19
80 79 8
84 81 16
86 83 14
90 89 14
76 76 14
94 92 23
87 88 14
89 87 16
87 85 15
91 91 14
84 84 22
90 90 14
88 89 23
97 94 25
91 89 19
104 102 25
99 98 25
102 98 24
102 100 33
99 99 32
105 102 20
103 102 28
94 93 24
111 109 26
106 104 31
103 101 31
114 112 40
106 104 30
126 122 40
122 118 23
124 120 39
135 130 44
124 121 33
126 122 40
123 120 46
129 126 43
121 117 37
135 130 44
127 124 40
124 121 38
129 126 43
134 129 48
136 132 38
137 134 37
130 126 35
125 123 41
136 131 42
146 142 50
147 141 52
132 129 37
134 130 47
145 139 47
138 132 42
133 128 44
141 137 43
139 135 41
143 138 44
144 139 49
134 130 42
148 142 51
141 136 50
152 145 59
138 133 37
138 134 37
141 135 47
141 136 44
150 145 48
135 131 45
141 137 41
145 140 44
144 138 57
139 134 41
149 143 53
141 137 39
136 131 41
138 131 44
139 134 42
137 133 39
138 134 41
143 137 47
141 135 42
134 128 42
133 127 37
132 127 39
139 134 45
139 132 44
135 129 51
132 126 44
136 132 39
131 126 36
136 132 39
135 130 42
131 127 34
128 123 39
131 126 32
135 132 28
130 126 39
129 124 37
121 117 28
124 118 34
124 119 34
119 115 34
125 119 39
124 117 37
110 105 30
138 144 30
166 184 0
159 173 0
167 183 0
168 185 0
168 184 0
163 179 0
163 180 0
166 182 0
164 180 0
168 187 0
166 182 0
164 180 0
169 187 0
165 182 0
166 183 0
168 188 0
165 183 0
165 183 0
171 190 0
164 181 0
166 184 0
166 186 0
163 181 0
167 186 0
164 183 0
169 189 0
170 190 0
170 188 0
175 198 67
187 207 125
192 211 155
194 212 169
193 212 161
190 209 155
189 209 153
193 212 159
193 213 161
191 210 153
194 213 165
190 210 151
189 209 147
192 211 165
189 210 140
191 211 151
189 210 147
187 209 147
189 209 157
190 211 157
188 210 151
184 206 130
187 208 137
182 204 125
186 207 133
182 204 125
182 204 125
185 206 130
184 206 135
188 209 147
185 207 137
190 211 155
189 210 151
196 216 181
197 217 186
192 212 161
196 214 177
201 219 193
201 220 206
202 220 199
201 220 199
209 225 215
204 222 211
204 222 204
207 224 212
201 219 198
205 222 211
196 215 184
200 219 196
191 211 157
188 209 157
188 209 140
189 210 149
186 208 137
190 211 155
187 209 147
187 209 144
187 208 142
187 209 144
189 210 153
189 210 155
186 206 133
185 207 130
190 210 159
183 205 133
192 212 155
186 206 149
184 205 142
190 210 151
186 206 142
189 209 151
190 211 151
186 207 137
190 209 149
192 211 165
193 212 161
195 213 165
193 211 161
188 207 151
187 205 151
191 210 155
166 186 151
124 149 122
115 141 129
124 150 118
124 149 113
115 142 124
117 143 118
95 124 147
92 121 139
75 106 143
65 99 151
59 94 143
60 95 154
60 96 155
61 97 159
60 95 148
61 97 159
61 96 158
61 96 157
60 95 159
60 96 160
61 97 157
60 95 156
59 95 157
59 94 160
60 95 160
59 94 152
60 95 163
61 97 163
60 96 155
60 95 161
61 97 161
60 96 166
61 97 164
59 94 160
60 97 168
61 97 170
61 98 170
60 96 164
61 98 172
60 95 168
60 96 166
60 96 167
61 97 164
60 96 164
61 97 164
61 98 170
60 97 164
61 97 168
60 96 162
61 97 171
60 96 168
61 98 168
63 99 170
61 98 169
62 98 166
62 98 170
60 96 160
60 95 164
61 97 170
60 96 167
61 98 164
60 95 160
61 97 164
61 97 164
62 99 172
61 97 165
62 98 167
62 98 168
60 96 160
62 98 169
61 98 166
62 97 168
62 98 169
62 98 168
63 99 172
60 95 153
61 97 164
62 99 166
61 98 167
61 97 164
62 99 172
62 98 168
61 97 165
61 98 164
62 99 168
62 98 161
62 99 169
63 99 171
62 98 166
61 97 163
62 98 165
62 97 161
63 99 168
61 98 166
62 98 170
61 97 161
62 98 168
62 98 165
62 98 165
61 97 159
63 99 168
62 98 166
62 98 166
62 98 164
62 99 170
61 98 158
61 97 163
62 98 167
62 98 167
62 99 166
62 98 167
63 99 171
61 97 161
63 99 166
62 98 164
62 99 170
62 98 162
62 98 160
62 98 168
62 99 165
63 99 169
62 98 161
61 98 159
62 98 162
61 98 163
61 97 159
61 97 161
62 98 160
62 98 161
63 98 163
61 98 159
62 97 159
62 98 163
62 98 163
62 98 156
61 97 155
61 98 161
62 98 166
62 98 163
61 98 160
62 97 159
62 98 157
62 98 163
62 98 159
61 97 162
62 98 162
62 98 161
61 97 155
63 99 167
61 97 156
61 97 155
62 98 159
62 97 156
61 97 153
62 97 148
61 96 154
62 98 157
61 96 154
62 98 159
61 96 158
61 97 153
62 97 156
62 97 159
61 97 152
61 97 148
62 97 158
62 97 151
60 96 152
61 97 153
60 95 152
61 96 148
60 95 145
60 95 140
60 94 146
61 95 146
61 95 149
60 94 141
61 97 149
60 94 138
59 92 141
60 93 143
58 90 117
76 81 61
74 74 5
90 88 3
85 84 11
84 82 8
86 84 14
80 79 9
75 75 11
88 87 18
84 84 14
88 88 14
98 96 18
96 94 16
93 91 26
91 90 22
103 100 19
100 98 23
100 98 20
89 89 24
101 99 31
107 105 27
107 105 25
110 109 38
110 107 23
107 106 23
114 110 29
117 112 34
116 112 31
109 107 22
108 104 33
121 117 30
116 113 30
117 114 39
107 105 23
125 121 34
115 114 35
123 120 37
118 114 28
122 119 33
111 110 28
124 120 36
124 121 34
124 120 37
134 129 38
130 125 39
138 134 36
124 120 40
137 133 44
135 129 39
133 128 44
134 130 43
132 128 44
130 125 32
144 140 47
144 139 43
137 133 45
137 133 48
140 136 42
126 121 40
145 139 44
140 135 50
134 131 34
145 140 51
142 137 48
140 135 47
147 141 49
148 141 52
140 135 51
144 139 44
142 136 47
141 136 39
135 131 34
144 140 41
144 139 49
147 142 51
140 134 41
137 132 36
136 131 36
132 129 30
130 124 45
138 132 42
135 130 41
138 134 30
143 137 39
138 133 41
131 126 36
132 127 36
142 136 48
135 131 36
136 131 39
134 128 41
136 131 36
138 132 42
130 124 42
132 127 37
135 130 41
120 115 25
130 123 41
132 126 42
119 115 30
130 126 36
125 120 22
126 121 36
124 118 25
112 108 25
108 104 25
141 147 28
158 173 0
163 177 0
164 178 0
161 176 0
163 180 0
160 178 0
159 176 0
162 178 0
165 182 0
164 182 0
159 175 0
165 178 0
166 185 0
166 182 0
164 181 0
166 186 0
160 179 0
168 186 0
168 185 0
166 185 0
168 186 0
165 182 0
163 182 0
168 187 0
165 185 0
169 189 0
168 185 0
165 183 0
168 188 0
197 215 175
196 215 171
189 209 149
194 214 161
191 211 159
187 208 140
188 207 149
188 209 142
189 209 153
188 209 147
191 211 151
187 209 137
189 210 153
191 211 159
184 206 125
188 209 155
186 208 137
189 210 155
185 207 142
183 205 125
188 209 140
184 206 128
189 210 149
186 208 137
188 208 155
191 212 157
202 221 203
205 222 211
207 224 212
210 227 224
218 233 246
218 233 248
217 232 245
216 232 241
217 232 246
219 234 253
219 233 250
215 231 245
216 232 250
215 231 244
217 233 249
218 233 249
214 230 244
216 232 245
215 231 242
220 235 253
217 232 245
216 232 248
216 232 244
214 230 241
215 230 237
218 233 248
215 231 240
214 230 237
207 224 212
206 223 214
198 217 188
195 214 181
187 208 144
186 208 142
188 209 144
188 209 144
187 208 149
185 206 130
189 209 144
186 207 140
186 207 133
188 209 147
186 207 137
191 211 159
189 209 147
186 207 125
193 212 161
188 208 147
184 205 125
187 207 155
188 207 144
180 199 157
171 191 164
173 191 199
162 179 199
141 161 182
134 154 181
76 108 161
79 109 140
84 114 152
110 136 133
112 138 130
124 150 111
112 138 125
114 140 126
97 125 136
77 108 143
67 100 154
60 95 150
59 94 147
61 97 159
61 96 161
60 96 162
59 95 156
61 97 159
60 96 155
60 95 154
60 96 160
60 97 163
60 96 159
61 97 169
60 95 162
61 97 167
61 97 165
59 94 157
59 95 168
58 93 158
60 96 170
60 97 164
60 97 168
60 96 163
60 95 162
59 93 156
61 97 167
60 96 159
61 97 158
60 96 164
60 96 161
61 97 165
60 96 167
61 97 170
60 97 167
62 98 167
59 94 157
61 98 166
61 96 163
62 98 168
60 96 167
62 98 169
62 98 168
62 98 171
61 97 169
60 96 165
61 97 168
62 98 170
60 97 169
61 97 169
60 96 165
62 98 167
61 98 169
62 98 172
62 98 169
61 97 162
62 98 169
61 98 172
62 98 170
62 98 160
63 99 166
62 98 166
61 97 171
61 96 157
60 96 160
62 98 161
62 98 164
62 98 169
61 97 164
61 98 170
61 98 165
62 98 167
62 98 172
63 99 172
61 97 164
62 98 163
63 99 172
62 98 163
60 97 163
62 98 162
61 97 165
62 99 166
62 98 166
62 99 166
62 98 166
62 98 164
61 98 167
62 98 163
61 97 162
62 98 164
61 98 160
62 98 163
61 96 158
62 99 167
63 99 164
62 98 160
61 96 155
61 98 166
62 98 170
62 98 165
62 98 164
62 98 161
62 98 165
62 98 162
62 98 162
62 98 166
62 98 163
62 98 162
61 97 158
62 98 160
62 98 161
62 98 163
61 97 164
62 98 161
62 98 165
61 97 158
63 99 162
63 99 163
62 99 166
61 98 159
61 97 157
62 98 163
60 96 149
62 98 160
63 99 167
61 97 156
62 98 166
62 98 165
62 97 163
61 96 154
61 98 161
62 97 154
63 99 164
63 99 164
61 97 154
63 98 158
62 98 157
62 98 157
61 97 152
61 97 154
61 97 152
61 97 153
61 97 151
62 97 156
62 98 156
62 98 163
62 98 159
61 97 149
61 97 156
61 97 150
61 97 163
62 98 158
62 97 156
62 98 156
61 96 152
62 97 156
59 94 140
59 94 146
62 97 155
61 96 155
61 97 151
61 96 154
62 97 153
61 96 152
61 96 145
61 96 150
62 97 155
60 94 140
59 92 132
57 90 129
58 90 129
63 73 62
77 75 8
84 82 12
78 77 8
82 79 4
95 94 14
90 87 12
87 84 11
86 86 20
97 95 16
96 94 8
95 94 8
84 84 20
89 87 18
97 96 8
88 89 18
104 101 20
87 86 14
96 95 21
99 97 33
102 100 18
95 93 16
106 104 16
109 107 19
106 105 28
111 108 41
103 103 28
115 112 33
123 121 31
123 120 35
111 108 28
99 98 21
121 118 38
127 125 37
125 122 39
119 117 36
118 116 36
124 121 36
122 119 40
121 116 35
127 123 37
132 128 35
132 128 40
123 119 36
134 130 43
131 128 36
126 122 43
122 120 38
128 124 40
126 123 33
141 136 44
135 130 40
140 135 46
145 140 42
136 132 37
139 134 42
141 135 44
132 127 43
128 123 41
144 138 41
135 130 38
145 138 52
130 125 42
146 139 48
134 130 39
138 134 34
143 138 37
144 139 44
145 139 39
137 133 34
137 132 41
146 141 48
143 137 47
135 130 37
139 135 34
141 136 48
136 132 42
137 133 37
136 131 39
143 137 51
132 129 37
143 137 39
134 128 32
140 135 45
130 127 30
131 127 30
136 130 42
129 124 32
137 133 45
137 131 39
130 124 41
125 119 25
126 123 36
121 116 36
133 127 36
130 125 36
128 123 36
124 119 39
110 106 30
131 126 32
121 115 30
120 117 32
115 110 36
116 111 16
113 106 30
139 145 19
162 175 0
159 172 0
163 178 0
158 173 0
164 178 0
163 179 0
163 174 0
161 178 0
164 181 0
166 184 0
166 185 0
165 181 0
165 184 0
161 180 0
162 176 0
167 184 0
167 184 0
164 182 0
163 180 0
169 189 0
162 180 0
161 178 0
164 181 0
168 186 0
165 182 0
165 181 0
171 190 0
167 188 0
169 188 0
167 186 0
189 209 142
195 214 163
188 209 135
194 213 167
190 210 149
190 210 147
190 210 142
188 209 140
190 211 153
187 208 142
187 208 149
188 210 147
185 206 125
189 210 159
186 208 144
186 208 142
184 206 133
189 210 147
185 207 130
189 210 153
194 214 169
202 220 198
204 223 211
212 228 231
216 232 242
215 231 244
216 232 244
216 231 245
217 233 249
216 232 245
217 233 249
215 231 245
214 230 242
217 232 246
213 230 242
215 231 246
215 232 248
215 231 246
215 231 245
213 229 238
216 232 248
216 232 248
215 231 246
215 231 246
215 231 248
214 230 244
214 230 245
218 233 250
214 230 245
214 231 246
216 232 246
216 232 245
216 231 245
217 232 248
214 230 242
217 232 246
215 231 245
216 232 249
218 233 248
215 230 241
209 226 224
201 219 193
195 215 177
186 207 147
184 205 130
186 207 135
187 208 147
188 209 140
184 206 130
189 210 149
187 208 140
187 208 147
185 206 133
188 209 144
187 208 157
188 209 144
189 209 157
150 170 194
136 157 189
132 154 181
144 164 192
144 163 192
136 156 185
134 155 186
84 114 164
66 99 151
69 103 157
67 102 158
72 104 149
87 116 144
103 128 125
108 134 126
107 134 126
104 132 139
79 110 150
60 96 155
60 96 155
60 95 160
61 97 161
59 95 154
57 91 148
60 95 163
58 93 157
60 96 163
60 96 161
59 94 151
60 96 161
59 94 161
59 95 163
60 96 158
59 95 166
59 94 156
59 94 160
59 95 162
60 96 166
59 95 163
60 95 158
60 96 164
61 97 166
60 96 163
59 95 161
60 96 164
61 97 171
60 96 163
61 97 162
60 97 165
61 97 166
62 98 169
60 96 165
60 96 165
60 97 163
62 98 168
60 96 164
60 96 164
60 97 166
61 98 170
61 97 165
61 97 168
60 96 165
61 97 163
62 99 173
60 96 162
61 97 162
62 98 167
61 97 162
61 97 168
62 98 173
62 99 173
61 96 160
62 98 169
61 98 168
62 98 167
61 97 165
61 96 165
61 97 161
62 98 164
60 96 158
61 98 172
62 98 165
62 98 167
61 97 159
62 98 163
61 97 162
62 98 167
61 98 163
63 99 163
61 97 160
61 98 165
62 99 172
61 98 168
61 98 167
61 97 161
62 98 168
62 98 167
63 99 168
61 97 165
63 99 170
61 97 161
62 98 160
62 98 166
62 98 164
62 99 170
62 98 163
61 97 162
62 98 165
62 98 167
62 98 163
62 98 164
62 99 165
61 98 166
62 99 166
62 98 169
61 97 156
62 98 165
61 98 162
61 97 152
61 97 162
63 98 162
62 98 164
61 97 159
62 98 168
62 98 163
62 98 163
63 99 165
62 98 162
62 98 158
61 97 159
63 99 169
62 99 166
61 97 154
62 98 163
62 99 169
61 97 160
62 98 160
61 97 155
62 98 164
62 97 155
61 97 158
61 97 153
62 98 162
62 98 158
62 98 161
62 98 158
61 97 159
63 99 165
63 99 164
62 98 156
61 97 158
61 97 155
61 97 152
62 98 159
61 97 157
62 98 157
62 98 160
62 98 159
61 96 151
61 97 157
62 98 159
62 98 162
61 97 154
61 97 161
62 98 159
61 97 154
62 97 157
62 98 164
62 98 159
62 97 150
61 97 155
60 96 153
61 96 155
62 97 158
61 96 146
59 93 143
61 96 147
60 94 141
60 94 142
60 95 140
60 95 139
60 95 154
60 94 146
60 95 144
60 94 140
59 93 131
58 90 137
85 83 37
73 73 18
80 77 8
87 86 10
89 84 0
87 86 14
88 87 12
84 83 3
85 82 12
81 80 16
81 78 16
73 73 0
91 91 11
85 84 17
91 89 14
93 90 11
100 99 10
97 95 16
94 93 21
99 99 11
99 97 18
108 107 28
102 102 16
102 101 18
110 108 21
108 107 18
101 100 18
108 106 16
109 107 27
109 106 25
118 115 30
111 111 26
121 118 34
109 108 20
106 105 20
116 112 32
123 120 31
119 116 30
122 120 37
123 119 32
129 126 37
122 120 30
132 127 42
123 119 42
122 120 29
129 124 37
117 114 29
137 133 41
133 129 37
139 134 44
141 137 34
133 128 34
137 133 43
135 131 35
135 130 42
137 133 42
136 131 42
137 132 43
139 134 42
141 137 47
148 143 49
137 133 44
142 136 49
137 133 37
136 132 37
136 131 30
125 121 30
135 131 39
143 138 45
142 137 36
130 124 36
140 135 42
140 135 42
141 135 39
128 124 30
134 128 42
133 128 36
141 136 41
135 129 41
135 131 37
132 127 37
132 128 34
133 128 30
126 121 32
138 132 39
138 133 39
138 133 37
135 130 45
132 126 32
133 128 39
128 123 36
131 125 32
135 129 37
124 119 36
135 130 30
124 119 34
133 126 32
130 126 36
124 119 32
121 117 28
115 111 22
128 122 39
115 111 25
114 108 30
132 138 19
163 178 0
158 172 0
165 181 0
154 170 0
166 180 0
167 184 0
164 181 0
158 174 0
168 184 0
165 181 0
164 182 0
163 176 0
163 180 0
167 183 0
164 180 0
164 179 0
162 180 0
165 182 0
164 181 0
170 189 0
162 178 0
159 176 0
167 184 0
165 184 0
165 183 0
159 177 0
168 187 0
171 191 0
168 187 0
167 185 0
168 188 0
188 209 147
190 210 155
189 210 153
192 212 155
190 210 147
187 208 157
187 208 144
188 209 151
187 208 135
189 210 149
187 209 151
187 209 137
186 207 140
189 210 153
187 209 147
188 209 149
196 215 169
205 223 209
213 229 238
217 232 246
218 233 248
217 232 244
218 233 246
216 232 246
213 229 238
217 232 248
214 230 245
215 231 246
215 232 248
215 231 242
213 229 240
213 230 240
214 230 244
213 230 242
214 230 242
213 230 246
214 231 250
212 229 244
212 229 244
211 228 240
214 230 245
213 230 241
213 230 245
215 232 252
211 229 241
214 231 249
214 231 246
211 228 238
212 229 248
214 231 246
212 229 246
214 231 246
215 231 249
214 230 241
216 232 248
212 229 240
214 230 242
213 230 241
216 232 248
215 231 246
215 231 244
212 228 240
216 231 248
217 232 245
211 227 223
206 223 207
194 214 173
185 207 135
185 208 140
187 208 142
190 210 153
184 205 128
186 208 137
186 206 135
190 211 151
188 208 147
171 191 171
143 164 190
131 153 181
143 164 186
154 173 200
142 162 194
144 164 197
144 164 194
134 155 193
70 103 154
67 102 161
77 109 155
71 103 148
67 102 161
65 100 156
72 105 155
75 106 144
98 126 136
111 138 134
96 125 143
74 106 149
62 96 156
60 96 156
59 95 157
59 95 159
60 96 157
60 95 155
59 93 155
60 96 160
58 93 154
60 96 162
61 97 166
58 94 160
60 95 161
58 93 161
60 96 162
60 96 165
60 96 167
61 97 165
60 95 159
60 95 167
60 96 166
59 95 160
60 96 166
60 95 164
61 96 166
60 97 165
60 96 166
60 96 168
61 97 166
60 96 168
60 95 166
61 97 168
61 97 169
61 97 165
61 97 163
60 95 165
61 97 165
61 98 167
61 98 170
61 97 168
61 96 157
60 96 159
61 97 167
60 96 163
62 98 165
61 97 166
61 97 163
60 97 168
61 97 167
62 98 170
61 97 172
61 97 169
62 98 171
62 98 170
60 96 162
60 96 158
60 96 154
61 97 168
61 97 162
61 97 164
62 98 164
62 98 166
61 97 162
62 98 167
62 98 166
62 98 167
61 97 166
61 97 162
62 98 170
63 99 168
62 98 168
62 99 171
61 98 163
62 98 167
62 99 169
62 98 170
62 98 165
62 98 167
63 99 166
62 98 168
61 97 164
61 97 160
62 99 171
62 98 163
60 96 157
62 98 166
62 98 164
62 98 162
61 98 168
61 98 162
61 97 162
61 97 160
62 98 163
62 98 162
61 97 156
63 99 169
61 97 158
62 98 160
62 98 165
62 98 158
62 98 165
62 98 164
62 98 161
61 97 154
61 97 160
61 97 161
62 98 165
62 98 161
63 99 166
62 98 159
62 98 155
62 99 165
62 98 165
61 97 156
62 99 168
61 97 155
62 98 158
61 97 157
62 98 162
62 98 162
62 98 161
61 97 152
62 98 162
62 98 156
61 97 155
61 97 158
62 98 160
61 97 160
62 98 160
61 97 159
61 97 150
61 97 153
62 98 158
61 97 151
61 97 153
62 98 155
61 96 153
62 98 161
60 96 151
61 97 153
61 96 156
61 97 153
62 97 153
61 96 150
62 97 154
61 96 152
61 96 153
60 95 148
61 96 150
61 96 150
62 97 161
62 97 155
62 97 152
61 96 150
62 98 158
61 96 152
60 95 148
61 96 151
61 96 153
60 95 145
60 94 138
60 95 139
60 95 144
59 93 135
58 90 139
58 91 127
58 91 125
88 84 36
85 83 21
91 89 14
86 85 8
87 84 0
91 88 14
79 77 8
88 87 11
94 90 3
87 86 3
82 81 11
82 81 12
94 92 6
93 91 21
83 82 8
90 89 14
102 98 14
96 95 16
86 86 18
94 92 24
96 96 16
96 95 16
99 98 23
95 94 26
107 104 21
115 113 33
110 107 34
101 100 21
115 113 24
109 109 26
104 103 21
118 116 24
115 113 19
111 109 28
112 109 25
121 117 24
125 122 37
103 100 27
110 108 19
111 110 24
128 124 30
129 125 35
124 120 38
119 117 16
123 120 35
122 118 35
128 124 31
127 123 37
124 120 37
133 130 30
131 126 39
129 124 39
134 130 36
125 121 40
126 123 32
137 133 36
133 127 44
136 131 36
131 127 37
140 135 34
136 130 36
138 134 37
134 128 44
138 131 37
139 134 42
133 128 30
140 136 37
136 132 39
139 134 39
138 133 32
136 131 42
137 131 39
137 133 34
142 136 47
138 133 39
130 125 22
135 130 36
136 130 32
132 126 32
132 128 34
136 130 37
132 127 42
132 127 39
135 130 37
134 129 36
132 127 36
137 132 37
127 122 32
136 131 39
118 114 28
120 115 32
127 122 32
134 128 41
125 120 30
124 118 30
128 122 37
133 127 44
122 117 19
121 116 32
115 110 22
112 108 25
115 111 22
121 115 41
139 144 19
162 176 0
164 180 0
156 169 0
160 176 0
158 172 0
160 174 0
164 177 0
164 178 0
169 186 0
160 175 0
162 178 0
158 175 0
165 182 0
165 182 0
161 178 0
162 178 0
163 181 0
165 182 0
165 182 0
161 176 0
164 181 0
168 187 0
168 187 0
170 189 0
163 181 0
164 182 0
165 180 0
168 187 0
167 188 0
169 188 0
167 185 0
165 185 0
189 210 149
193 212 157
189 210 151
189 210 147
189 209 149
183 205 130
186 207 135
187 208 137
188 209 144
186 208 137
186 208 137
183 205 137
193 213 163
203 222 207
208 224 218
217 232 245
216 232 248
216 231 246
218 233 252
216 232 246
216 231 242
216 232 245
214 231 245
213 230 244
214 231 249
215 232 249
213 230 245
216 232 250
213 230 242
212 230 245
212 229 242
210 228 237
211 228 240
214 231 249
213 230 248
214 231 249
212 229 245
209 227 241
209 227 237
212 230 248
209 227 241
211 228 241
215 231 249
213 230 245
213 231 249
213 230 246
212 229 246
211 228 242
213 230 245
213 230 244
214 230 245
212 229 240
212 229 245
213 230 245
213 230 242
214 231 248
213 230 242
215 231 246
214 230 244
215 231 248
216 232 249
217 233 252
215 231 244
219 234 250
216 231 242
218 233 248
218 233 249
215 231 241
207 224 218
198 217 184
185 207 128
187 208 147
189 210 153
190 211 157
188 209 147
188 209 144
159 181 157
132 155 189
145 166 198
123 146 180
140 161 190
140 161 191
145 166 192
160 179 203
143 163 195
134 155 182
90 119 169
78 109 159
72 105 158
70 103 156
71 104 157
71 105 162
73 106 156
69 102 149
64 98 148
84 113 142
95 123 137
88 117 140
71 103 145
62 97 154
60 96 161
60 95 151
58 93 156
60 96 166
60 96 160
58 93 159
60 95 156
60 96 162
60 97 162
60 96 161
60 96 162
59 94 159
60 95 161
60 96 161
61 97 167
59 95 157
60 95 161
59 94 160
61 97 167
59 95 161
60 96 163
59 95 161
60 96 164
59 94 159
60 96 163
61 96 166
60 96 161
60 96 164
60 97 164
60 97 165
60 96 159
60 96 162
61 97 167
60 96 160
61 97 162
60 96 166
61 97 166
60 96 161
60 96 159
61 97 163
61 97 162
61 97 163
62 98 170
60 97 162
62 98 168
60 95 162
61 98 170
60 96 166
62 98 167
62 98 169
61 98 168
62 98 169
61 97 167
60 97 170
61 97 166
61 97 166
61 97 167
61 97 163
61 97 158
62 98 166
61 97 158
60 96 164
61 97 166
61 97 165
61 97 162
62 98 166
63 99 166
62 98 169
61 97 164
62 98 169
62 98 160
61 98 163
61 97 161
61 98 164
61 97 159
62 98 162
62 98 164
62 99 170
62 99 164
61 98 163
62 98 165
62 98 164
61 97 159
62 98 164
62 98 161
61 97 164
62 98 161
62 98 166
61 98 159
61 97 156
61 97 159
62 98 163
61 97 161
62 98 163
62 98 167
62 98 171
62 98 166
62 98 162
62 98 163
63 99 166
63 99 168
61 98 162
62 98 163
63 98 160
62 98 164
62 98 161
61 97 156
62 98 166
62 98 164
62 98 159
62 98 162
62 98 163
62 98 159
61 97 158
62 97 155
61 97 156
62 98 163
61 97 157
61 97 154
61 97 153
62 98 160
61 97 155
61 98 162
62 98 153
62 97 157
63 99 158
63 99 164
62 98 157
62 98 157
62 98 160
62 98 155
62 98 166
61 96 148
62 98 159
62 97 152
60 95 139
61 96 144
62 98 159
62 97 153
61 97 157
61 97 155
62 98 152
62 97 152
61 96 147
62 97 155
61 96 150
61 97 153
59 94 136
61 96 145
61 95 146
61 97 152
61 96 149
61 97 153
61 97 151
60 96 141
61 95 138
61 95 146
60 94 143
60 95 147
60 95 144
60 93 140
59 91 134
58 92 129
66 92 124
91 86 0
83 80 11
82 79 0
77 76 8
86 84 11
82 80 21
79 77 11
80 79 18
84 82 11
83 82 9
91 88 8
91 88 12
94 91 14
86 84 12
88 86 8
97 97 12
102 102 8
114 112 21
101 99 18
97 95 18
103 100 18
102 101 12
106 104 27
107 104 24
98 96 21
104 102 16
116 113 24
86 86 29
106 103 26
103 102 22
114 112 22
102 100 18
112 109 28
122 119 35
114 111 28
110 108 21
119 116 26
110 107 34
121 118 30
126 121 32
127 121 39
123 119 30
125 121 35
123 119 32
126 121 37
115 113 33
125 122 26
124 121 28
132 128 34
141 136 40
122 117 29
130 127 29
130 127 29
141 135 45
132 127 37
127 123 30
136 132 34
134 130 22
126 122 34
138 133 22
124 118 30
140 135 39
133 128 34
136 130 41
141 136 34
131 127 32
134 129 22
139 134 37
140 136 36
132 128 34
131 127 37
131 127 34
138 133 39
138 134 36
133 129 32
135 131 32
131 127 36
136 130 39
130 124 37
134 128 41
138 132 36
126 121 25
128 122 30
131 127 30
126 122 30
131 127 36
134 130 41
134 127 32
135 129 41
124 119 39
134 129 39
128 124 32
116 111 25
124 120 32
124 121 25
121 115 30
110 103 30
126 120 37
116 110 30
118 113 30
114 109 25
113 108 22
147 154 22
159 173 0
161 174 0
162 177 0
159 172 0
158 173 0
165 180 0
164 180 0
160 175 0
165 180 0
160 174 0
166 179 0
166 182 0
165 182 0
166 184 0
163 180 0
163 178 0
163 180 0
166 184 0
165 185 0
166 184 0
166 184 0
162 180 0
163 180 0
166 182 0
165 180 0
167 187 0
164 182 0
165 184 0
168 186 0
168 186 0
167 187 0
167 186 0
167 185 0
184 206 125
190 210 153
185 206 128
189 210 151
186 208 142
184 206 128
186 208 135
186 208 142
188 210 149
186 208 147
201 219 199
214 230 236
216 232 245
217 232 245
216 232 244
217 232 248
214 230 242
215 231 244
212 229 240
212 229 241
212 228 241
211 229 244
211 229 238
212 229 245
213 230 244
214 231 249
210 227 241
213 230 246
213 231 249
211 229 245
210 227 234
212 230 248
208 227 236
213 230 250
209 228 242
211 229 242
210 228 240
209 227 238
212 230 248
212 230 252
212 230 252
211 229 244
211 229 245
209 227 242
213 230 249
211 229 244
210 228 246
211 228 244
211 229 245
212 230 248
213 230 249
210 228 244
210 227 240
214 230 249
211 229 242
210 228 240
212 229 242
211 229 245
211 229 242
212 229 244
213 230 244
212 229 242
213 230 241
214 230 242
215 231 242
215 231 242
214 230 241
214 229 240
218 233 248
214 230 244
217 232 244
206 223 212
202 221 204
186 207 128
185 207 130
186 206 122
175 196 156
137 160 194
132 154 188
138 160 199
142 164 188
141 162 188
134 156 193
149 170 201
136 157 194
141 162 185
136 157 183
99 125 169
70 104 155
77 109 155
67 100 153
65 100 164
76 108 156
64 99 168
69 103 157
70 104 157
72 104 151
82 113 150
97 125 146
91 120 143
77 106 138
59 94 159
59 95 153
60 96 160
60 95 160
60 95 155
58 93 154
59 94 150
59 94 161
59 94 157
61 97 168
59 95 160
59 95 152
59 94 161
58 93 153
59 95 161
59 95 158
59 94 159
59 95 161
57 92 153
59 95 159
59 94 164
60 95 161
60 96 163
61 96 163
58 93 161
62 98 171
60 95 163
59 96 157
60 96 168
61 97 166
60 96 166
61 97 164
60 95 160
59 95 167
60 96 163
60 95 156
61 97 164
61 97 162
61 98 171
61 97 166
61 97 165
60 96 157
60 97 162
61 97 164
61 97 167
61 97 165
62 98 170
61 97 163
61 97 167
61 97 161
61 98 164
62 98 166
61 98 170
60 96 163
61 97 164
60 96 161
61 98 166
61 98 165
60 96 163
61 97 157
62 98 168
63 99 169
62 98 164
62 98 167
61 97 159
62 98 166
62 98 167
62 98 159
62 98 167
62 98 164
62 98 163
62 98 164
63 100 173
62 98 165
63 99 165
62 98 158
61 98 161
61 98 158
62 98 164
61 98 164
62 98 166
62 98 167
61 97 159
62 98 166
63 99 168
61 98 165
61 97 160
62 98 160
63 99 169
61 97 159
63 99 166
61 97 153
63 99 168
62 98 160
61 97 164
61 96 150
61 97 153
61 97 156
61 97 157
62 98 164
61 97 166
62 98 164
61 97 154
62 98 160
61 97 157
61 97 160
62 98 159
63 99 166
61 97 159
62 98 164
61 97 152
62 98 161
62 98 163
61 96 153
62 98 160
61 97 154
61 98 159
61 97 157
61 97 152
62 98 160
62 98 162
62 98 160
62 98 161
62 98 159
62 98 156
61 97 152
61 97 152
61 97 151
62 98 162
62 99 162
61 97 158
61 97 155
62 97 156
61 97 153
62 98 156
61 97 157
61 97 158
62 98 156
62 98 158
61 97 156
62 98 159
61 97 154
61 97 155
61 96 148
62 98 161
62 98 157
62 97 155
60 96 150
60 95 141
61 97 153
61 96 147
61 96 150
60 94 135
61 96 148
61 96 149
59 94 139
61 95 145
60 94 139
60 94 144
59 93 136
59 92 129
59 92 137
62 87 117
84 79 16
85 83 8
87 84 0
87 85 14
91 88 18
82 77 0
81 80 3
81 79 14
79 76 8
87 86 11
86 84 5
86 83 8
89 87 12
96 94 11
87 86 11
94 91 11
87 85 14
99 96 14
106 102 23
93 90 16
104 101 0
96 92 11
97 94 9
112 108 20
104 101 27
110 107 22
111 107 19
110 108 24
109 107 12
110 109 30
102 99 14
109 106 21
122 119 25
119 115 23
117 115 22
113 109 23
122 120 30
122 118 28
119 116 31
118 113 26
111 107 25
115 111 30
110 108 24
130 126 32
129 125 31
126 122 25
122 118 32
128 124 34
132 128 31
126 121 34
135 131 37
119 116 28
137 132 31
133 129 37
127 123 31
130 126 22
124 119 39
130 126 32
129 126 32
131 125 39
133 129 34
127 124 31
140 134 37
135 132 33
143 138 37
128 124 28
140 134 36
134 130 36
133 129 28
131 126 30
129 123 32
139 134 37
134 128 41
143 137 48
142 137 41
137 132 37
127 123 30
126 122 19
129 125 30
132 128 30
130 125 30
127 120 32
128 123 28
129 124 39
131 126 44
122 118 22
132 127 39
123 119 30
129 124 32
127 122 32
133 128 34
137 131 44
117 113 28
118 114 30
121 117 28
118 111 34
122 116 36
128 121 36
107 104 19
115 109 36
117 112 25
146 155 19
161 173 0
161 176 0
162 178 0
160 175 0
157 169 0
165 181 0
159 172 0
161 175 0
165 181 0
162 176 0
163 180 0
165 180 0
165 179 0
165 180 0
166 184 0
168 186 0
162 182 0
163 180 0
166 181 0
166 183 0
165 182 0
166 184 0
163 182 0
168 186 0
164 183 0
163 179 0
166 182 0
168 184 0
165 183 0
162 180 0
164 182 0
164 182 0
165 184 0
168 188 0
187 209 142
183 205 108
187 209 144
185 207 133
188 209 147
183 205 128
187 209 140
198 217 188
211 227 228
218 233 252
220 234 252
215 231 242
215 231 245
214 230 242
215 231 244
216 232 250
217 233 252
217 233 252
213 230 248
213 230 245
215 232 250
212 229 248
213 230 245
212 229 246
210 228 238
211 229 246
211 229 242
212 229 248
209 227 238
209 228 248
210 228 244
210 229 246
208 227 238
209 228 245
210 228 244
208 227 242
211 229 249
210 228 244
211 229 248
208 227 240
207 226 238
209 228 248
209 227 242
209 227 245
209 227 241
210 228 246
210 228 245
209 227 244
210 228 242
211 228 242
210 228 245
212 229 245
211 229 245
211 229 246
210 228 241
212 230 250
211 229 246
210 228 241
212 229 246
211 228 241
211 229 240
214 231 248
214 230 245
214 231 248
210 227 238
216 232 248
213 229 240
212 228 238
215 231 246
217 232 246
216 232 245
218 233 248
215 230 240
217 232 242
206 223 211
195 214 171
184 206 130
142 164 188
137 160 194
131 154 197
142 164 193
117 142 182
129 151 181
137 159 194
155 175 204
154 174 203
143 164 199
135 156 197
87 117 172
76 109 165
76 108 156
73 106 164
67 101 158
67 102 167
76 109 156
69 102 158
73 105 156
69 102 155
69 103 159
81 112 156
80 110 147
90 118 143
65 99 153
59 94 154
60 95 161
60 96 161
59 94 156
59 94 154
59 94 157
60 96 159
59 94 154
59 95 151
59 94 155
60 96 162
59 94 155
61 97 167
60 96 158
60 96 166
59 95 165
60 96 164
60 95 158
60 96 157
60 96 165
60 95 157
60 96 163
59 95 160
60 96 164
61 96 164
61 97 163
59 95 164
60 96 164
61 97 164
60 96 164
60 96 163
61 97 159
60 96 162
60 95 159
58 93 153
61 97 161
61 97 165
60 96 162
61 97 166
62 98 170
59 95 162
61 98 169
61 97 164
61 97 160
61 97 159
60 96 161
60 96 163
61 97 162
61 97 166
62 98 166
61 97 164
59 95 156
61 98 164
61 97 162
61 97 162
62 98 167
62 98 169
61 97 161
63 99 165
62 98 171
62 98 168
62 97 157
62 98 165
61 98 159
61 97 159
62 98 167
63 99 170
62 98 166
62 98 166
62 98 161
60 96 159
62 98 161
62 98 165
62 99 167
61 98 161
62 98 165
61 97 157
63 99 166
61 97 162
62 99 167
62 98 164
60 96 153
61 97 159
62 98 167
61 97 158
62 98 164
62 98 164
62 98 163
62 98 158
61 98 161
62 98 165
61 97 160
61 97 155
62 98 163
62 99 170
61 97 160
62 97 155
61 98 165
63 99 168
62 99 167
62 98 162
62 97 153
61 97 160
62 98 161
63 99 165
62 98 163
61 97 153
62 98 164
61 97 164
62 97 160
62 98 156
61 97 156
61 97 157
62 98 161
61 97 158
61 98 160
62 98 162
62 98 160
62 98 158
62 97 155
61 97 158
61 96 150
60 96 144
63 99 165
62 97 155
62 98 161
62 97 150
62 97 161
61 97 159
62 97 153
62 98 157
61 97 155
61 97 151
61 97 155
61 96 151
63 98 162
63 99 159
62 97 158
62 98 159
61 97 153
61 97 149
62 97 157
61 96 145
62 97 151
59 93 138
60 94 138
62 97 154
62 97 153
61 96 139
61 96 151
61 96 159
60 95 144
60 94 143
61 97 152
61 96 149
59 94 145
60 94 140
59 92 134
59 92 132
58 91 131
75 92 103
83 80 0
90 87 19
77 74 11
98 93 18
91 87 8
74 72 0
80 78 8
97 94 12
89 86 16
81 77 3
87 86 8
87 86 8
87 84 8
84 81 8
86 85 11
94 91 0
88 86 12
91 89 14
92 89 11
91 89 11
102 99 21
106 102 19
97 96 8
99 96 18
100 98 16
97 94 21
111 110 22
109 107 20
106 104 18
122 119 35
113 110 25
111 108 25
110 107 25
107 103 21
113 110 14
113 110 14
109 106 18
114 111 26
117 113 25
110 107 31
125 121 35
131 125 30
127 123 29
128 124 35
126 123 33
129 125 31
124 121 34
128 122 34
124 120 32
130 126 32
113 110 24
127 122 19
134 130 32
116 114 25
128 124 19
120 116 26
135 129 43
128 124 28
132 127 30
126 122 16
125 122 19
130 126 28
134 128 37
134 129 39
138 133 37
132 129 28
129 125 34
133 129 36
129 124 39
135 131 39
142 136 45
135 131 28
138 133 34
134 131 28
126 122 25
131 127 34
127 122 32
129 123 28
128 123 22
132 129 28
128 123 34
130 126 34
129 125 22
130 124 39
131 126 34
125 121 30
135 130 36
115 109 32
128 122 37
128 122 34
123 118 25
121 117 28
107 103 22
120 115 25
122 117 32
116 109 25
125 119 30
118 114 16
116 110 25
122 120 25
156 168 0
158 171 0
159 171 0
163 177 0
160 173 0
161 174 0
161 176 0
162 176 0
159 173 0
161 174 0
160 176 0
164 178 0
164 181 0
162 177 0
161 177 0
161 175 0
166 185 0
167 183 0
168 184 0
168 185 0
164 180 0
167 184 0
159 176 0
167 183 0
165 181 0
163 180 0
162 179 0
163 178 0
167 185 0
167 184 0
164 182 0
169 189 0
164 183 0
166 186 0
168 185 0
165 181 0
190 211 155
189 210 151
186 207 135
188 209 144
195 215 173
210 226 224
220 234 250
218 233 250
217 233 250
213 229 241
214 231 245
213 230 242
214 231 246
214 231 246
212 229 242
215 232 252
214 231 246
212 230 248
214 231 253
213 230 248
210 227 244
210 228 244
210 228 245
210 228 246
210 229 249
211 228 246
210 228 244
210 229 248
209 228 244
211 229 250
210 229 249
207 227 241
205 225 238
210 228 246
205 224 240
208 227 244
208 227 245
208 228 246
207 226 241
208 227 245
207 226 240
207 226 244
208 227 241
208 227 246
209 228 248
209 227 242
209 228 248
209 228 248
209 228 245
208 227 241
209 227 241
209 228 246
209 228 244
206 225 236
208 227 240
212 230 250
210 229 246
209 227 238
211 229 246
213 231 250
208 227 240
212 230 248
210 228 244
209 227 240
213 230 244
212 229 242
213 230 241
209 227 231
212 229 238
213 229 244
215 231 248
216 232 248
216 231 246
214 230 238
212 227 236
216 231 245
213 229 233
182 201 202
134 157 193
139 161 189
121 145 187
134 156 189
121 144 192
139 160 199
143 164 203
141 162 194
143 164 197
140 161 186
132 154 183
97 125 165
77 109 160
72 106 162
68 102 165
73 106 159
76 109 160
71 104 158
61 97 162
71 104 151
67 100 153
67 100 155
62 97 154
70 104 159
96 124 132
88 118 136
59 93 158
57 91 150
59 93 153
60 96 158
60 96 167
60 95 158
59 94 160
59 95 158
58 92 157
58 94 158
59 95 160
59 94 158
59 95 163
60 96 160
58 93 156
61 97 170
60 95 157
60 96 164
60 96 164
60 96 164
61 96 162
59 95 164
61 97 163
60 95 156
61 98 168
59 95 155
59 95 162
61 97 158
60 96 163
61 97 163
60 96 163
62 98 171
60 97 166
61 97 162
61 97 166
60 96 157
61 96 162
61 97 166
60 96 164
60 97 164
61 98 168
61 97 166
60 96 162
62 98 166
60 96 160
61 97 161
61 97 161
61 97 159
61 96 164
61 97 159
61 97 163
61 97 157
61 97 158
61 97 165
61 97 166
62 98 166
60 96 155
61 97 161
61 97 162
62 98 162
61 97 162
61 97 160
61 97 162
62 98 165
61 97 160
63 99 165
62 98 161
61 97 157
62 98 158
62 98 168
61 98 164
62 98 165
61 97 159
62 97 162
62 98 168
62 98 161
61 98 161
62 98 165
61 97 157
62 97 159
62 98 164
62 98 161
61 97 158
60 95 147
62 98 163
62 98 159
62 99 169
62 98 167
62 98 168
62 98 163
62 98 158
62 97 157
62 98 168
61 97 157
63 99 163
62 98 159
61 97 158
62 98 161
62 98 161
63 99 168
62 98 160
62 98 163
61 96 156
62 98 166
61 96 151
62 98 162
62 98 159
62 98 163
62 98 154
61 97 159
63 99 167
62 98 167
62 98 155
61 97 158
62 98 160
61 97 155
61 97 153
62 98 161
61 98 158
62 98 160
62 98 159
61 97 158
61 97 159
62 98 158
62 98 162
62 98 156
62 97 157
61 97 150
62 98 154
62 97 156
61 97 148
61 96 151
61 97 156
62 97 151
62 98 158
61 97 153
60 95 138
62 97 148
61 97 157
61 97 149
60 95 145
60 94 135
61 96 149
61 96 151
60 95 149
62 97 155
61 96 162
61 95 142
60 95 152
60 95 143
62 97 154
60 95 143
62 97 151
61 95 147
61 96 151
60 95 140
61 95 146
59 93 139
59 91 134
76 89 92
90 86 0
80 76 0
78 76 8
90 86 11
89 85 16
92 89 3
99 93 16
95 93 11
84 80 8
83 80 8
87 84 8
101 96 14
85 82 0
83 80 14
98 96 11
95 90 9
99 95 8
107 104 12
105 100 14
95 92 8
90 88 18
98 97 19
104 103 11
94 93 1
85 84 11
103 102 14
109 107 16
100 98 18
110 109 11
107 104 18
105 102 16
110 107 21
110 106 24
110 108 21
108 105 22
124 121 26
110 107 22
129 124 22
117 113 32
112 110 26
121 118 21
122 116 25
123 119 30
117 113 25
120 117 24
116 113 24
126 123 21
123 119 28
126 121 28
124 118 37
134 129 39
123 120 21
129 124 30
127 122 32
125 122 29
130 126 25
123 120 34
123 119 29
118 115 28
129 124 32
133 129 37
123 119 28
136 131 37
130 126 34
123 120 22
132 127 34
124 120 28
122 119 22
136 130 34
134 129 30
130 124 34
127 122 34
124 119 36
127 123 28
128 125 16
127 119 25
124 120 22
128 123 25
133 128 36
123 119 34
136 131 34
124 120 28
133 127 36
128 123 32
137 131 36
123 117 30
133 128 28
127 122 36
125 122 25
114 110 25
115 111 22
122 117 25
113 109 19
114 108 30
120 114 28
125 117 36
116 112 28
109 104 25
122 126 19
153 165 0
158 170 0
156 167 0
153 162 0
156 171 0
161 175 0
159 170 0
165 179 0
158 174 0
156 170 0
157 169 0
161 176 0
158 172 0
164 178 0
161 173 0
163 181 0
160 174 0
166 181 0
164 181 0
164 181 0
163 179 0
161 177 0
168 185 0
167 183 0
164 182 0
165 182 0
172 190 0
167 187 0
168 184 0
168 188 0
164 181 0
167 186 0
170 187 0
171 189 0
165 182 0
166 185 0
167 186 0
189 210 159
192 212 163
204 222 206
214 229 236
217 233 248
216 232 244
215 231 241
217 233 250
216 232 248
214 230 245
215 231 246
216 232 252
215 231 249
212 230 244
213 230 244
213 230 245
211 228 242
211 228 245
209 227 241
209 228 245
211 229 246
210 228 245
209 228 244
206 225 233
208 227 242
210 229 248
209 228 244
209 228 245
209 228 246
206 225 237
209 228 249
209 228 248
208 227 241
208 228 249
208 227 246
208 228 250
208 227 248
207 227 246
208 228 249
207 227 244
207 227 245
206 226 241
209 228 246
208 228 250
208 227 248
207 226 242
207 227 241
209 228 249
208 227 246
208 228 248
208 227 242
208 227 246
207 226 238
209 228 244
209 228 245
209 228 245
206 225 234
207 226 236
208 227 244
210 229 245
211 229 246
209 228 245
211 229 246
212 230 246
214 231 253
212 229 242
208 226 236
212 229 248
212 229 245
214 231 245
216 232 250
213 229 240
217 233 252
216 232 245
215 231 245
217 233 249
218 233 248
213 229 243
146 167 202
110 136 185
122 147 189
113 138 185
125 148 191
130 153 193
139 161 192
129 152 193
140 161 200
134 156 195
146 166 197
138 159 200
98 124 171
73 105 162
70 104 161
69 104 166
68 102 163
78 110 159
68 101 157
71 104 147
75 107 149
66 100 160
69 103 158
67 100 151
75 107 151
80 111 148
88 116 142
63 96 149
58 93 157
59 94 159
59 94 160
59 94 155
61 97 169
57 92 150
59 95 161
59 94 156
59 94 157
60 96 162
59 94 157
59 94 157
60 95 162
60 96 160
60 96 163
60 96 164
57 92 154
60 95 164
59 95 160
61 97 169
60 95 159
59 94 161
59 95 164
59 95 163
60 96 166
59 95 164
59 95 159
60 96 164
60 96 158
60 97 161
60 96 162
60 95 155
60 96 164
62 98 167
60 96 160
60 96 155
61 97 164
60 96 161
61 97 163
61 97 165
61 97 160
60 96 162
60 96 163
61 97 167
61 97 163
62 98 167
61 97 161
60 96 160
62 98 167
61 97 165
62 98 159
61 97 162
61 97 168
60 96 159
61 97 164
62 98 160
62 98 162
61 97 163
62 97 162
61 97 161
61 97 159
61 97 161
61 97 164
62 98 164
62 98 156
62 98 166
62 97 158
62 98 171
62 99 165
61 97 160
60 96 154
62 98 162
62 98 169
61 97 152
61 97 158
61 97 162
62 98 159
62 98 167
62 98 163
62 98 166
62 98 168
61 97 158
61 98 162
62 98 167
62 98 162
63 99 168
62 98 158
61 98 161
62 97 161
62 98 165
62 98 156
61 97 158
61 97 158
62 98 163
62 98 161
62 98 164
62 98 157
61 97 161
62 98 162
62 98 158
62 98 156
62 97 157
62 98 160
62 98 161
61 97 155
62 98 161
62 98 163
61 96 145
63 99 163
62 98 160
62 98 160
61 97 161
62 98 156
62 98 161
62 98 155
62 97 155
63 99 162
61 97 157
63 98 161
61 97 156
62 98 155
61 97 153
61 97 155
62 98 154
62 97 154
62 97 158
63 98 159
61 96 156
63 98 159
61 97 147
61 97 151
62 97 147
61 97 152
62 97 154
62 97 151
61 96 143
62 98 157
60 95 147
62 98 156
60 95 137
61 97 151
61 96 140
62 97 151
60 95 144
60 95 143
61 96 143
61 96 149
59 94 140
60 95 143
61 96 147
60 94 143
61 95 144
59 94 141
60 94 143
58 91 125
59 93 145
58 91 128
70 82 79
96 90 19
86 80 21
92 88 11
88 83 11
105 99 0
73 70 14
98 92 11
100 93 14
91 88 11
90 87 8
86 83 3
84 81 11
95 92 0
102 100 8
88 86 0
87 86 8
102 100 16
96 93 11
96 93 8
89 87 12
95 91 11
87 86 11
102 97 9
99 97 21
101 99 11
110 106 16
106 105 19
111 108 14
105 102 11
111 107 19
113 109 22
110 107 8
114 112 18
117 113 16
114 111 16
115 111 14
115 111 20
105 103 18
111 109 22
114 111 18
120 117 11
119 116 16
115 110 22
130 126 30
124 120 36
129 123 36
124 119 25
122 119 21
125 120 25
116 113 21
126 121 26
126 122 25
121 118 26
132 128 32
139 135 34
121 118 22
122 118 30
131 126 28
134 129 30
129 123 22
127 124 25
127 122 32
127 123 25
121 116 16
124 120 32
137 131 44
134 130 36
130 124 37
129 124 28
129 124 28
127 121 36
137 131 32
135 130 36
128 125 28
131 126 30
124 120 30
119 114 22
121 116 30
131 126 25
128 123 32
125 119 25
126 121 28
132 126 30
125 120 25
128 121 25
127 123 22
128 122 32
120 115 28
122 117 28
128 123 30
130 124 34
111 108 30
111 106 25
107 102 16
117 110 25
114 108 25
116 111 19
135 141 16
157 168 0
155 167 0
161 173 0
161 173 0
160 171 0
155 167 0
158 170 0
160 175 0
160 176 0
158 169 0
158 171 0
159 172 0
161 175 0
163 177 0
160 176 0
162 178 0
163 178 0
165 180 0
161 176 0
162 178 0
165 179 0
161 174 0
166 184 0
165 181 0
165 181 0
167 182 0
168 185 0
160 178 0
168 185 0
166 184 0
165 184 0
165 182 0
166 185 0
166 183 0
164 184 0
163 180 0
169 188 0
163 179 0
208 225 220
215 231 241
217 232 246
215 231 244
215 231 242
215 231 245
216 232 249
215 231 245
212 229 241
214 231 246
214 231 248
211 229 241
210 228 244
211 229 248
210 228 244
211 229 244
210 228 245
207 226 238
209 227 242
209 228 245
206 226 240
209 228 245
207 227 244
209 228 248
207 226 241
207 227 244
205 225 237
208 227 245
207 227 244
209 228 250
208 228 249
208 228 250
210 229 254
210 229 254
209 229 252
209 229 255
210 229 254
208 227 253
209 229 255
210 229 255
210 229 255
209 228 254
209 229 255
210 229 254
210 229 254
210 229 254
209 228 253
209 229 254
209 228 254
209 229 252
210 229 252
208 228 252
208 227 245
208 227 248
207 227 245
208 228 246
209 229 250
205 225 237
209 228 246
207 227 246
208 227 242
209 227 241
210 229 245
210 228 245
209 228 242
211 229 248
211 228 246
211 229 242
211 229 245
214 231 250
213 231 249
208 226 237
213 230 245
213 230 242
214 230 241
214 231 248
211 227 248
215 231 251
202 218 243
120 144 193
113 139 194
131 154 201
115 140 182
131 154 201
137 159 198
117 141 188
134 156 197
129 151 195
132 154 201
136 158 196
143 164 198
103 129 167
82 113 154
71 104 163
74 107 165
81 112 157
71 105 167
80 111 160
67 101 154
67 102 163
73 106 158
67 101 160
70 102 153
59 94 159
74 106 156
69 102 147
75 106 145
59 94 156
59 94 148
58 93 157
59 94 155
59 95 163
58 93 162
57 91 146
59 94 160
59 94 162
59 95 164
60 96 165
58 93 156
59 95 166
60 95 155
61 97 168
60 96 163
60 95 162
57 92 157
58 94 162
59 95 164
59 95 162
59 95 161
60 95 155
61 97 169
59 95 155
59 95 163
60 95 159
61 96 166
59 95 160
60 96 165
61 97 166
60 96 167
61 97 163
59 95 163
59 95 162
60 95 157
60 96 164
60 96 162
61 97 167
62 98 166
60 96 161
59 95 159
60 96 159
61 98 164
60 96 160
61 96 159
62 98 167
61 97 164
62 99 173
60 96 159
61 97 162
61 98 170
61 97 164
61 97 158
62 98 167
62 99 168
62 98 161
62 98 165
61 98 163
62 98 167
61 97 162
61 98 163
61 97 160
61 97 162
62 98 161
62 98 164
62 98 166
61 96 154
61 97 159
60 95 157
61 96 154
62 98 164
63 99 167
62 99 168
62 98 161
62 98 161
62 97 160
61 97 155
61 97 160
61 97 162
62 98 166
62 98 161
62 98 160
62 98 160
61 97 153
61 97 158
61 97 161
62 98 162
62 98 163
62 98 162
62 98 160
62 98 164
61 97 156
62 98 159
61 97 156
62 98 162
62 98 159
62 98 163
63 99 160
62 98 163
62 98 161
62 97 156
61 97 157
61 97 156
61 97 155
61 98 160
61 97 149
63 99 167
61 96 150
62 98 165
62 98 161
62 98 164
61 97 160
61 97 151
61 97 157
62 98 161
61 97 149
62 98 158
62 98 156
62 98 157
62 98 157
62 98 159
61 96 151
62 98 156
61 97 154
61 96 148
62 97 159
62 98 158
62 98 158
61 96 150
61 97 157
61 96 152
62 97 154
62 97 154
62 97 151
61 97 147
62 97 155
60 95 142
61 96 147
60 95 144
61 97 152
60 95 135
59 94 136
61 96 145
61 96 150
60 96 150
61 96 144
61 96 148
61 95 146
58 92 134
60 94 141
59 93 139
58 91 127
59 93 129
58 92 125
58 91 121
105 115 60
95 91 19
90 85 22
88 83 11
72 68 11
86 81 11
93 88 21
84 80 0
88 84 0
87 85 16
97 91 8
80 76 3
88 85 0
86 83 8
103 99 0
92 89 0
73 72 8
102 98 0
100 98 8
91 87 11
95 92 3
95 90 5
100 97 8
95 94 0
104 101 11
94 89 11
103 101 16
96 94 8
108 105 14
114 112 3
110 105 0
110 107 16
112 109 16
107 104 19
116 111 16
117 114 28
111 110 18
123 119 28
111 109 14
109 108 25
121 117 22
118 115 14
125 121 19
108 104 24
109 106 18
124 120 16
125 121 26
125 120 30
122 118 32
119 115 14
119 115 11
131 126 22
128 122 22
128 123 25
123 119 11
123 119 22
125 121 19
124 119 28
131 128 22
126 121 25
127 122 25
124 120 19
118 113 11
130 126 25
120 116 28
130 124 19
122 117 30
137 132 32
125 121 25
121 115 28
131 125 34
140 134 37
132 127 28
136 132 36
132 128 28
129 126 19
123 118 30
124 120 25
128 122 28
123 117 30
124 120 25
122 118 11
126 120 28
123 119 25
124 118 34
116 111 25
118 112 19
124 120 25
114 111 22
123 119 22
119 112 32
117 111 32
116 111 28
109 104 16
124 117 32
118 113 34
120 116 16
149 156 11
158 170 0
162 173 0
155 165 0
149 159 0
159 170 0
159 170 0
157 168 0
152 164 0
162 174 0
159 173 0
157 169 0
155 166 0
158 172 0
164 181 0
165 182 0
160 174 0
162 173 0
163 179 0
159 172 0
163 180 0
160 174 0
163 179 0
164 180 0
168 186 0
168 185 0
166 182 0
164 183 0
162 179 0
162 179 0
167 187 0
161 179 0
166 184 0
162 180 0
167 186 0
167 184 0
165 183 0
164 185 0
169 189 0
168 186 0
217 232 246
218 233 250
216 232 249
214 231 246
214 231 248
214 230 248
212 229 240
212 229 241
214 231 246
213 230 246
211 229 242
210 229 248
209 228 246
210 228 246
210 228 245
211 229 250
209 228 246
209 228 245
208 227 241
207 227 244
208 227 245
207 227 245
207 226 241
208 227 249
209 228 252
209 228 252
208 228 254
210 230 255
210 229 254
209 229 253
209 229 254
209 228 253
210 229 255
208 227 252
208 228 255
208 228 254
208 228 254
208 228 253
210 229 255
209 229 254
208 228 254
210 229 255
208 228 254
209 229 255
208 228 255
207 228 254
208 228 253
208 228 254
208 228 255
209 229 255
210 229 255
208 228 253
207 227 253
210 229 254
209 229 255
210 229 254
210 229 254
209 228 253
209 228 249
208 228 249
209 228 252
207 226 240
209 228 248
209 228 246
210 228 248
209 228 248
210 229 248
207 226 237
210 228 244
211 229 248
210 228 244
213 231 252
212 230 245
213 230 245
208 224 246
208 225 247
211 228 250
211 227 250
210 226 250
165 185 220
128 151 199
126 150 200
120 145 197
127 150 196
122 145 195
118 142 193
130 152 196
116 140 193
141 162 202
127 149 195
122 145 189
139 160 201
90 118 172
65 100 169
64 100 166
76 108 160
70 104 164
70 104 161
70 103 164
77 109 158
69 102 160
71 103 153
68 102 158
65 98 148
63 97 150
68 99 147
71 103 157
84 114 140
63 97 150
59 94 161
58 93 161
58 93 158
58 93 148
59 94 157
58 93 155
60 95 161
58 93 155
59 94 157
59 95 166
58 93 161
60 96 160
60 96 160
60 96 158
58 93 162
60 96 161
59 94 153
59 94 155
60 96 158
59 94 163
60 96 155
60 96 166
60 96 166
61 97 166
61 97 162
60 96 163
61 97 165
61 97 169
59 94 158
60 96 165
60 96 161
60 96 164
59 95 164
60 96 156
61 96 158
61 97 162
61 97 160
61 97 165
62 98 167
61 97 161
61 97 161
61 97 162
61 97 157
61 97 157
61 97 165
63 98 163
62 99 175
60 96 159
60 96 161
62 98 168
62 99 166
62 98 163
61 97 159
61 97 160
61 97 162
62 98 165
61 97 158
60 96 151
61 96 156
60 96 150
61 98 165
61 97 158
62 98 164
62 98 160
61 97 157
62 98 164
61 97 154
60 96 158
60 96 154
62 98 159
62 98 166
62 98 164
61 97 161
62 98 158
62 98 166
62 98 165
62 98 163
62 98 157
60 96 154
62 98 162
62 98 160
63 99 162
62 98 157
63 99 169
60 96 157
62 98 158
63 99 167
62 98 160
61 97 157
61 98 161
61 97 152
62 98 158
61 97 158
62 98 161
61 97 155
62 98 165
61 97 160
61 97 158
61 97 158
62 97 156
62 98 156
62 97 158
62 98 164
61 97 156
61 97 154
63 99 162
62 97 154
62 98 161
62 97 160
61 97 158
61 97 153
63 98 160
62 98 155
62 98 156
62 98 159
62 98 153
61 97 152
61 96 145
61 96 151
62 97 154
62 98 158
60 96 153
61 96 151
62 97 152
61 97 153
62 98 156
62 98 154
61 97 154
62 97 153
61 96 152
62 97 152
61 97 151
60 96 147
61 97 148
61 97 153
62 97 149
61 97 149
60 95 144
61 97 149
61 96 152
61 96 152
61 96 147
61 96 148
60 95 140
60 95 142
61 96 151
58 91 129
59 93 139
61 95 143
59 93 141
59 92 131
58 92 138
60 94 136
59 92 132
107 112 40
125 127 0
103 105 0
84 79 0
82 78 16
89 83 0
80 77 16
91 85 16
81 78 14
88 84 11
94 89 12
89 86 8
78 76 8
81 78 0
93 90 0
90 85 3
95 91 8
91 89 9
98 94 11
96 93 8
101 100 14
91 89 8
100 97 8
101 97 8
102 100 8
104 101 8
99 96 8
105 102 14
102 99 11
105 103 3
105 102 0
108 105 8
96 92 0
112 109 18
114 110 12
112 108 18
113 109 16
112 108 16
100 98 14
108 104 22
121 119 16
120 115 22
118 113 16
112 109 11
103 100 18
117 112 19
121 116 11
115 111 11
115 110 11
116 112 18
121 117 19
122 117 22
122 117 25
125 121 22
116 112 16
123 121 24
123 119 25
117 114 16
132 126 28
125 121 22
123 119 36
130 124 25
129 124 32
124 119 22
123 118 16
118 112 19
127 122 22
129 124 22
123 118 22
128 124 22
124 120 25
124 120 25
128 124 30
114 110 28
130 123 30
119 114 22
132 127 30
121 117 22
124 119 22
122 117 16
126 122 30
122 116 16
123 118 22
126 119 25
128 122 28
124 117 28
116 110 22
110 104 16
104 100 16
124 120 34
116 109 25
113 107 22
115 110 19
119 113 19
103 98 30
131 132 11
152 162 0
148 159 0
159 169 0
159 171 0
157 169 0
157 168 0
160 170 0
155 168 0
155 165 0
159 170 0
157 169 0
156 168 0
159 172 0
161 175 0
159 174 0
162 175 0
165 179 0
161 176 0
164 179 0
158 174 0
158 172 0
166 182 0
157 171 0
157 170 0
162 178 0
160 176 0
162 179 0
157 174 0
161 176 0
166 183 0
164 181 0
162 178 0
166 183 0
162 179 0
167 185 0
164 183 0
168 185 0
163 182 0
163 181 0
165 184 0
169 189 0
214 231 244
214 231 249
212 230 244
214 231 246
212 230 245
213 230 244
212 229 245
210 228 241
210 228 244
212 230 248
213 231 254
207 226 234
210 228 245
208 227 244
208 227 241
207 227 244
208 227 245
206 226 245
206 226 242
209 229 253
209 228 252
210 229 253
210 229 253
209 229 255
209 228 253
208 228 253
208 228 254
209 229 255
208 228 255
208 228 254
208 228 254
207 228 254
208 228 254
207 228 255
208 228 254
205 226 253
207 228 255
205 226 253
206 227 254
206 227 255
208 228 255
207 228 255
208 228 254
207 228 254
208 228 254
207 227 254
206 227 252
207 227 253
208 228 254
208 228 255
208 228 255
207 227 254
209 229 255
208 228 255
208 228 252
209 228 252
209 229 255
209 228 254
209 229 254
210 229 255
211 230 254
209 228 252
211 230 255
210 228 249
208 228 246
207 226 238
209 227 245
208 227 245
209 228 245
209 228 245
210 229 246
211 229 245
211 229 246
212 229 249
207 225 246
208 226 248
210 227 250
212 228 252
207 223 246
207 223 246
142 164 207
115 141 194
129 153 201
128 152 199
133 156 203
138 160 207
119 144 188
126 149 198
121 145 199
134 157 203
130 153 201
122 145 194
132 153 193
115 139 192
65 100 168
62 97 160
73 105 157
81 114 160
68 101 152
67 102 171
64 99 159
68 102 161
74 106 155
76 108 158
70 102 151
64 99 157
69 102 150
67 100 154
69 102 152
71 102 151
59 95 162
58 94 157
59 94 161
60 95 159
60 96 164
59 95 159
59 94 160
60 96 158
59 94 159
59 94 161
59 94 157
58 94 158
59 94 149
58 93 154
59 94 158
59 95 165
60 96 160
60 95 158
59 95 160
58 94 161
60 95 153
60 96 161
58 94 163
60 96 156
61 96 164
60 95 162
58 93 157
60 95 164
60 95 160
60 96 162
60 96 164
60 96 160
61 97 164
62 98 165
60 96 161
60 96 163
60 95 157
61 97 160
62 98 164
60 95 158
61 97 165
60 95 160
61 96 160
61 97 162
61 96 155
60 95 153
61 98 166
61 96 158
61 97 161
61 96 156
60 96 160
62 98 167
61 97 163
62 98 163
61 97 160
61 97 157
62 98 168
61 97 161
61 97 162
61 97 162
62 97 158
61 97 161
62 98 168
61 98 165
62 98 161
61 97 155
61 97 154
62 97 155
62 98 160
61 97 157
61 98 163
61 96 153
62 98 159
61 97 155
62 98 159
62 98 164
61 97 157
62 98 157
62 98 162
61 97 154
62 98 160
61 98 159
62 99 165
61 97 152
62 98 161
62 98 163
61 97 159
62 97 156
61 97 156
62 97 157
63 98 162
62 98 160
62 98 160
62 98 160
63 99 159
61 97 153
61 97 154
61 97 154
62 97 156
61 97 155
62 98 160
62 98 161
61 97 160
61 97 155
63 99 160
61 97 159
61 97 155
63 99 162
62 98 159
62 98 159
62 97 150
61 97 152
62 97 159
61 96 157
62 98 156
62 97 152
61 97 150
60 96 151
63 99 163
60 96 149
61 97 153
62 97 154
61 97 145
62 97 155
62 97 155
61 97 150
61 96 148
61 96 151
62 98 155
60 96 147
61 95 148
60 96 149
61 96 147
62 97 152
61 96 147
61 96 150
61 97 147
61 97 150
61 96 152
61 95 143
61 97 150
59 94 137
60 95 142
61 95 152
62 97 149
60 94 141
60 95 145
60 94 145
59 93 129
60 93 131
59 90 125
60 93 131
59 90 128
123 131 0
113 114 0
116 119 0
111 114 0
93 92 19
81 77 16
97 94 19
87 80 0
90 87 0
85 81 11
84 79 11
99 93 8
78 75 11
85 83 8
96 92 11
97 94 3
89 84 8
92 91 0
89 86 8
104 101 11
88 86 8
97 94 8
89 88 2
93 91 0
98 95 0
95 90 0
97 95 11
111 107 0
100 96 0
108 105 8
109 104 0
102 99 11
106 105 19
104 102 0
99 96 16
113 108 14
109 104 18
109 107 0
108 105 14
117 115 11
117 111 8
115 111 16
107 105 14
121 118 18
115 110 25
115 110 19
123 119 19
122 118 14
119 115 25
123 119 16
119 114 26
119 115 0
124 120 19
121 118 19
122 117 16
119 115 16
108 102 11
116 111 25
125 121 16
127 123 19
118 116 25
122 117 19
114 111 16
124 119 19
121 116 19
115 110 16
123 118 22
121 116 16
124 120 19
122 117 19
130 126 25
125 122 19
131 126 25
128 124 28
118 113 22
130 124 25
114 109 16
126 120 25
115 111 19
123 118 25
123 117 19
127 122 19
125 119 25
123 117 25
111 107 16
113 108 30
120 116 16
119 114 22
121 115 32
113 108 25
113 107 19
119 112 30
112 107 28
114 108 34
135 140 11
150 159 0
156 166 0
157 170 0
150 160 0
157 168 0
162 171 0
161 175 0
158 171 0
157 168 0
164 179 0
159 169 0
161 174 0
151 165 0
155 167 0
159 172 0
159 174 0
161 177 0
162 176 0
160 176 0
158 171 0
163 178 0
164 179 0
163 178 0
161 175 0
164 180 0
169 187 0
162 178 0
165 181 0
166 183 0
165 181 0
161 176 0
166 184 0
160 176 0
164 183 0
162 179 0
166 184 0
164 181 0
168 188 0
166 186 0
161 179 0
167 187 0
161 178 0
217 233 250
214 231 244
211 228 238
211 228 237
213 230 246
211 229 248
210 228 245
209 228 245
212 230 250
212 230 254
207 226 238
207 227 242
207 226 238
204 224 237
205 225 240
208 228 250
208 228 253
209 228 252
210 229 254
209 229 255
209 229 255
208 228 252
207 228 254
207 228 254
207 227 254
207 228 254
208 228 255
208 228 254
207 228 255
206 226 253
207 228 254
207 228 255
206 227 253
206 226 250
206 226 249
201 222 233
198 220 230
199 221 231
199 221 230
196 216 214
198 218 218
199 220 231
199 220 223
199 219 215
197 218 217
198 220 226
201 222 234
202 223 234
199 220 227
202 223 234
203 224 245
205 225 245
204 224 237
205 226 244
206 227 252
209 229 255
208 228 255
207 228 255
209 229 255
208 228 255
209 229 255
209 229 255
209 229 254
210 229 253
210 229 253
209 229 252
209 228 250
209 228 248
209 228 245
210 229 250
209 228 245
208 227 241
209 227 242
213 231 252
199 218 239
209 226 251
211 228 252
206 223 246
211 228 252
209 225 250
199 216 242
116 142 194
118 143 195
122 147 197
129 153 201
108 135 187
136 159 206
132 155 205
127 151 195
131 154 203
138 160 208
146 166 209
137 158 200
147 167 205
117 141 192
63 99 170
60 96 167
61 97 168
63 98 167
69 103 165
71 103 143
69 102 160
69 102 158
73 106 158
69 102 151
64 97 156
65 99 153
69 103 159
67 101 156
64 97 145
76 107 148
61 95 149
58 93 153
58 94 156
59 94 156
58 93 159
58 93 155
57 92 149
59 94 157
59 94 162
60 96 162
59 93 156
58 93 148
57 92 160
60 95 159
59 94 154
59 94 157
58 93 158
60 95 159
60 95 158
58 93 153
60 95 156
60 96 160
61 97 160
60 95 159
59 95 157
58 94 158
61 98 165
60 96 157
61 96 162
61 96 162
61 98 165
61 97 162
60 96 159
60 96 162
60 96 164
60 95 159
60 96 158
62 97 165
61 97 167
60 96 159
61 98 168
62 98 165
61 97 166
61 97 161
61 97 161
62 98 164
61 97 157
62 98 159
62 99 170
62 98 166
62 98 162
61 98 167
61 97 162
60 96 159
62 98 161
61 97 169
61 97 160
61 98 164
61 97 166
62 98 164
62 98 162
62 98 164
61 97 157
63 99 166
62 98 164
61 96 156
61 97 158
62 98 161
61 97 157
62 98 166
62 97 161
61 97 163
61 97 159
62 97 157
62 98 160
63 99 168
61 97 155
62 98 163
61 97 153
60 96 145
62 98 157
61 98 158
61 98 162
62 98 162
62 98 160
62 98 160
62 98 160
62 98 166
61 97 154
61 97 157
62 98 159
62 97 155
61 97 160
61 97 153
62 98 154
62 98 157
61 97 151
62 97 156
61 97 153
62 98 160
62 97 155
62 98 158
61 97 156
62 98 158
61 97 151
61 96 148
62 97 153
62 98 160
62 97 155
61 97 155
61 97 156
61 97 154
61 97 148
61 96 150
61 97 151
61 97 158
60 95 144
62 97 151
61 97 152
61 96 148
62 98 160
62 97 151
61 97 152
61 97 160
62 98 161
61 97 151
61 96 151
60 96 145
62 97 151
62 97 153
61 96 148
60 96 149
62 97 149
61 96 153
61 97 152
61 96 149
60 95 138
59 93 130
61 96 149
59 93 137
61 96 148
60 94 129
60 94 137
60 95 139
59 92 137
59 93 135
61 96 151
59 93 139
60 93 138
60 95 141
57 91 118
68 92 107
115 118 0
120 123 0
130 136 0
111 116 0
118 120 0
112 113 11
82 77 0
92 87 11
83 79 0
74 70 11
85 80 16
81 77 3
83 79 16
95 90 0
99 94 0
86 83 0
92 89 0
98 93 0
98 93 0
92 89 0
88 83 0
81 80 0
105 101 0
96 94 8
106 101 0
100 95 0
106 103 0
97 93 8
89 86 8
96 93 8
91 89 11
112 107 11
106 104 11
108 104 11
109 106 0
109 104 11
115 113 14
100 96 14
103 101 8
110 106 11
98 96 0
123 119 11
106 102 11
114 109 18
107 103 16
108 104 0
117 112 16
120 116 18
117 112 22
128 123 25
113 111 0
130 124 16
130 123 21
125 121 19
116 111 11
117 112 22
121 117 11
117 113 22
129 123 19
118 114 25
114 109 16
122 117 22
119 114 0
124 122 19
133 128 16
126 122 32
120 116 16
125 119 22
124 120 16
116 113 28
119 115 16
121 114 19
128 124 22
129 123 25
123 118 30
131 125 19
123 119 22
123 119 28
120 117 16
121 115 25
117 113 16
122 116 25
115 109 32
116 111 16
127 122 30
126 120 28
120 115 28
113 106 11
113 107 16
113 107 28
107 103 16
108 101 16
129 130 11
155 164 0
154 161 0
149 159 0
159 168 0
161 175 0
152 162 0
156 169 0
151 161 0
151 161 0
154 164 0
157 169 0
154 167 0
159 172 0
161 173 0
163 177 0
158 170 0
156 170 0
159 172 0
160 174 0
162 176 0
157 168 0
161 177 0
158 171 0
161 175 0
163 180 0
166 183 0
161 177 0
165 181 0
161 177 0
159 173 0
165 180 0
167 183 0
166 185 0
169 185 0
165 182 0
167 186 0
166 182 0
163 179 0
168 188 0
165 185 0
164 181 0
166 185 0
166 185 0
167 184 0
213 230 248
211 228 245
212 230 246
210 228 238
211 229 248
210 228 244
210 228 242
209 228 246
207 226 240
210 229 250
208 227 244
207 226 242
206 226 241
207 227 245
209 228 248
209 229 255
208 228 255
209 228 253
208 228 255
208 228 255
208 228 253
207 227 253
208 228 254
207 228 254
206 227 253
206 227 254
204 225 252
201 222 244
200 221 236
204 224 237
198 219 223
198 219 220
195 216 203
199 220 212
197 218 214
190 211 191
190 212 191
193 214 201
194 214 198
193 215 201
196 216 196
188 210 191
195 217 207
194 216 207
194 215 194
189 210 184
192 213 196
195 216 203
193 213 193
198 218 215
193 214 201
193 215 204
195 216 206
195 216 203
196 216 199
197 218 218
194 215 204
201 222 230
201 221 228
204 224 242
206 226 248
208 228 254
209 229 254
209 229 253
209 229 254
209 228 252
211 230 255
210 229 253
210 229 254
210 229 253
208 227 241
208 227 244
207 226 240
207 226 246
205 223 250
205 223 248
207 224 248
207 224 249
208 225 249
209 226 250
207 224 248
200 217 243
112 138 194
130 154 203
117 142 195
121 145 196
129 153 198
139 161 205
128 151 200
126 149 197
136 159 203
127 150 196
122 145 197
134 156 199
115 139 189
115 139 188
63 99 165
61 98 168
65 101 168
64 99 167
63 99 166
70 103 160
66 100 164
77 109 160
68 102 160
79 110 149
70 103 162
67 100 158
70 103 156
72 104 153
65 98 154
73 105 158
70 102 149
57 92 157
59 94 158
59 94 156
60 95 156
57 92 150
58 92 150
59 95 155
60 95 156
58 93 154
60 95 158
58 93 159
60 96 162
59 94 163
59 94 158
59 94 163
58 93 155
58 94 158
61 97 161
60 95 163
60 95 161
59 94 161
60 95 161
60 95 160
60 95 159
59 94 158
60 95 159
60 96 159
61 97 165
61 97 162
61 96 160
59 95 161
60 95 156
60 96 154
61 97 164
61 97 164
61 97 160
61 97 163
60 96 156
61 96 155
62 98 161
61 97 161
61 97 164
60 96 158
61 98 166
60 95 156
60 96 156
61 97 165
62 97 158
62 98 166
61 96 154
60 96 155
62 97 153
60 96 152
62 98 160
61 97 159
61 97 158
60 96 154
61 97 156
62 98 161
61 96 155
62 98 165
62 97 160
62 98 164
62 98 162
61 97 155
61 97 162
60 96 156
61 96 153
62 98 158
61 97 158
61 97 157
62 98 160
62 98 165
61 97 152
62 98 161
62 98 159
61 97 159
61 97 158
63 98 159
61 97 160
62 98 164
61 98 160
62 98 155
62 98 159
61 97 160
61 96 149
61 98 162
62 98 159
62 98 163
62 98 161
62 97 152
61 97 153
61 97 151
62 98 161
61 96 151
62 98 164
62 98 156
62 98 160
62 98 160
61 97 157
62 98 158
62 98 159
61 97 155
61 97 155
61 97 157
61 96 150
61 96 150
62 98 157
61 97 151
61 97 156
61 97 151
61 97 151
61 97 157
61 97 152
62 98 156
61 97 148
61 96 149
62 97 152
61 96 145
61 97 153
62 98 160
62 97 157
61 97 151
61 97 148
61 96 144
61 96 145
61 96 151
60 95 149
61 96 154
61 96 152
62 97 151
62 97 150
61 96 151
61 97 151
61 96 145
61 95 149
60 96 147
60 94 138
61 95 144
61 95 144
60 95 140
61 96 148
60 94 141
61 95 149
60 95 145
59 93 144
59 93 129
59 92 134
59 92 137
84 101 92
115 120 0
119 126 0
113 116 0
113 119 0
127 131 0
118 121 0
99 99 0
100 102 0
86 83 16
77 73 11
78 73 16
81 74 16
91 85 18
81 77 0
79 75 0
90 84 11
83 78 19
91 85 0
89 85 8
95 92 14
102 96 0
95 90 3
104 100 0
97 93 0
89 87 8
102 98 8
110 107 0
102 97 0
99 95 0
111 107 0
107 104 0
106 100 8
96 93 8
98 95 0
103 99 11
98 96 16
118 114 0
101 98 11
98 95 11
113 110 11
106 104 3
108 104 0
113 111 8
117 114 11
119 114 0
118 113 22
120 118 16
113 110 0
120 116 14
115 110 19
118 113 23
117 114 8
115 112 19
114 110 22
111 108 25
115 109 19
110 108 11
115 111 16
117 113 22
121 116 11
126 120 25
121 117 16
121 116 19
122 117 28
116 114 16
122 117 19
121 117 19
121 118 16
116 111 19
125 120 22
121 117 25
110 105 16
115 111 11
116 110 25
117 113 22
120 115 22
124 118 25
115 112 16
111 106 19
121 116 30
126 120 22
121 116 19
108 103 19
117 110 16
115 109 28
119 114 30
112 107 19
103 99 19
108 99 11
107 101 22
124 120 22
139 144 11
153 164 0
155 161 0
149 158 0
145 154 0
155 164 0
155 167 0
156 168 0
155 165 0
153 163 0
156 168 0
160 171 0
159 168 0
156 168 0
159 170 0
165 180 0
160 175 0
160 172 0
164 179 0
160 174 0
164 180 0
164 178 0
154 166 0
162 177 0
164 181 0
165 182 0
165 181 0
162 177 0
166 183 0
165 180 0
156 170 0
162 181 0
165 179 0
162 178 0
168 186 0
160 177 0
165 181 0
164 181 0
164 183 0
162 178 0
165 182 0
168 186 0
162 180 0
166 185 0
167 186 0
169 188 0
212 230 249
213 230 248
208 227 238
209 228 245
208 227 237
209 228 245
210 228 248
206 226 241
207 227 245
206 226 241
208 228 249
208 228 250
210 229 255
209 229 255
209 229 254
208 228 254
208 228 255
209 229 255
208 228 254
207 228 255
206 227 254
206 227 252
204 225 246
202 223 238
197 218 215
194 215 209
192 213 203
194 215 199
193 213 199
197 217 211
191 213 196
195 216 203
192 212 181
194 215 209
197 218 209
196 218 214
194 214 193
194 215 201
192 213 193
194 214 204
194 215 207
194 214 206
194 214 201
193 213 194
197 217 199
199 219 214
195 216 203
194 215 203
201 221 218
197 216 211
194 215 209
195 215 207
194 215 203
194 214 193
191 212 189
196 217 207
194 214 206
191 212 198
194 215 196
189 211 188
193 214 194
195 215 211
195 215 199
202 222 233
207 226 241
206 226 246
209 229 254
208 228 254
210 229 255
210 229 255
211 230 255
208 228 250
210 229 250
205 224 245
207 225 252
206 225 251
205 223 250
201 220 246
208 225 250
201 219 241
205 222 246
205 222 246
178 197 231
120 145 199
114 140 196
119 144 198
114 139 194
118 143 198
120 144 197
125 149 200
127 150 201
147 168 207
117 141 190
134 156 200
112 137 190
126 148 198
120 143 188
64 99 170
60 97 167
63 99 165
60 97 169
61 97 166
64 98 159
70 102 157
73 105 164
73 106 159
66 100 164
70 103 156
63 97 156
73 105 156
73 105 157
66 99 156
70 101 147
65 98 149
58 94 159
59 93 156
58 93 153
60 96 160
59 94 157
58 93 152
60 95 155
58 93 158
59 94 160
60 96 165
59 94 155
59 95 167
61 97 167
60 95 156
58 94 160
60 95 164
60 95 165
59 95 160
58 93 151
60 96 160
60 95 157
59 94 158
60 96 161
61 97 161
60 96 163
61 96 168
59 94 156
60 95 158
60 95 158
61 97 160
60 96 158
62 98 164
59 95 153
60 96 166
61 97 162
62 98 167
61 97 158
61 97 161
61 98 164
60 96 159
60 96 156
60 96 158
62 98 168
61 97 164
60 96 163
62 98 162
61 96 153
60 95 154
61 97 157
61 97 159
61 97 162
61 97 160
62 98 163
62 97 160
62 97 160
62 98 163
62 98 165
61 97 156
61 97 156
62 98 161
61 97 159
61 98 159
62 98 160
61 97 162
62 98 163
61 97 158
61 97 157
62 98 161
62 98 162
61 97 158
62 97 155
61 97 154
61 96 151
61 96 152
61 97 154
61 97 156
62 98 160
62 98 157
61 97 156
61 97 155
61 97 155
62 98 161
61 97 153
62 98 157
61 97 156
62 98 153
62 98 161
63 99 159
62 98 161
61 97 149
62 98 158
61 97 159
63 98 154
62 97 153
63 99 163
63 98 161
61 97 157
61 97 151
62 98 159
61 97 156
61 97 156
61 97 154
61 96 154
61 97 156
62 98 158
60 96 149
61 97 153
60 96 149
62 98 161
61 97 156
62 98 158
61 96 154
61 97 156
61 96 148
62 98 157
61 97 152
61 96 143
61 96 149
61 96 152
60 96 145
62 97 153
61 97 151
61 96 144
60 96 147
61 97 147
62 98 154
62 97 152
61 97 154
62 97 153
59 94 133
61 96 145
63 99 162
61 96 142
62 97 152
59 94 139
61 96 141
61 96 147
62 97 143
60 94 145
61 95 146
61 95 144
62 96 148
60 94 143
60 94 144
59 93 137
58 92 132
59 93 136
57 89 117
93 103 68
116 120 0
112 117 0
122 125 0
106 110 0
121 124 0
105 106 0
122 124 0
110 110 0
110 110 0
89 83 19
90 85 16
78 72 0
91 85 0
84 80 0
92 86 11
96 91 0
89 86 0
91 87 0
100 95 0
86 82 0
97 92 11
87 83 0
90 87 0
89 87 0
110 104 0
93 88 0
94 90 8
89 85 11
95 90 0
95 91 0
101 97 0
103 97 8
108 104 0
90 86 8
103 100 21
106 102 0
106 102 0
104 101 12
113 109 0
113 109 14
115 109 11
113 108 0
108 104 11
113 110 0
115 110 16
111 107 0
104 100 0
110 108 0
110 106 11
121 117 16
120 117 16
119 113 0
106 101 16
120 116 14
117 113 19
112 109 0
115 110 16
121 117 0
120 114 19
120 114 11
117 114 11
115 110 16
127 121 19
108 102 19
115 110 11
123 117 19
125 120 11
116 111 11
111 107 22
112 108 25
119 115 19
118 114 11
115 110 19
127 121 30
116 110 16
118 114 11
121 115 11
124 119 19
129 122 19
118 113 30
114 109 11
114 110 16
121 114 22
111 105 11
114 110 25
107 100 16
113 108 19
107 102 16
108 106 16
138 141 16
157 165 0
145 152 0
159 169 0
156 163 0
153 161 0
155 165 0
154 164 0
157 168 0
156 167 0
158 173 0
156 165 0
155 166 0
157 168 0
160 173 0
159 171 0
166 181 0
155 170 0
160 173 0
155 170 0
157 170 0
162 176 0
153 168 0
160 173 0
162 175 0
165 181 0
159 174 0
160 174 0
160 177 0
165 182 0
166 182 0
158 174 0
162 180 0
162 176 0
158 171 0
166 182 0
164 182 0
164 182 0
166 182 0
171 189 0
165 182 0
164 181 0
163 181 0
165 183 0
163 180 0
162 178 0
165 182 0
169 187 0
211 229 244
210 229 246
210 229 249
208 227 238
207 226 242
209 228 250
207 226 241
207 227 248
208 227 248
209 229 253
210 229 255
208 228 254
208 228 255
208 228 254
208 228 253
209 228 255
206 227 254
205 226 250
204 225 246
201 222 231
198 219 220
192 212 198
190 212 199
190 212 188
192 214 196
192 214 198
191 213 189
197 216 203
200 221 226
197 218 221
196 217 209
190 210 194
196 216 207
196 217 211
199 219 218
194 215 206
196 216 212
197 217 212
198 218 207
198 218 217
201 220 221
198 217 209
198 219 207
190 210 198
192 211 203
199 218 211
192 212 194
195 215 209
197 218 215
198 217 215
201 221 221
196 216 206
197 216 212
195 214 206
202 220 217
193 213 204
199 218 203
195 216 203
190 210 198
194 214 203
193 213 196
202 221 223
192 213 198
196 217 203
188 210 184
197 218 211
192 213 204
202 222 228
205 224 236
208 228 252
209 229 255
210 229 254
209 229 254
209 228 251
201 221 247
205 225 249
205 224 248
201 219 246
196 215 243
211 228 254
209 227 252
212 229 254
208 225 250
154 175 219
109 136 195
109 135 194
119 144 197
117 142 196
116 142 192
121 146 195
132 155 205
137 159 200
134 157 203
136 158 201
130 153 200
125 148 194
127 149 196
103 129 185
67 102 174
62 98 163
59 95 171
62 98 171
62 98 164
59 95 163
67 102 172
74 106 159
69 101 160
71 104 160
71 103 153
64 99 161
73 105 163
62 96 156
66 99 151
64 98 160
72 103 144
64 96 151
57 92 151
57 92 146
59 95 165
58 93 151
59 94 151
59 95 163
59 94 161
56 91 153
58 93 155
60 96 166
59 95 162
60 96 162
58 93 155
59 94 159
60 95 163
59 95 167
61 97 161
60 96 161
60 96 165
59 95 157
59 94 158
60 96 162
61 97 159
61 96 161
59 95 160
63 99 173
60 96 157
59 94 149
59 94 161
59 95 157
61 97 159
61 97 163
61 97 162
60 96 162
60 95 156
60 95 159
61 97 165
60 96 164
61 96 161
62 97 160
61 97 162
61 97 166
61 98 164
61 97 158
61 96 159
61 97 161
60 96 150
62 98 162
60 96 162
62 98 159
61 97 161
61 97 161
61 97 157
62 98 163
61 97 160
62 98 160
62 98 166
59 95 154
61 97 158
61 96 157
61 97 153
62 98 164
61 96 152
62 98 159
61 97 161
61 97 153
61 96 154
60 96 147
61 97 152
61 97 158
62 98 159
62 97 154
61 96 148
62 98 160
60 96 145
60 96 151
61 97 157
61 97 156
62 98 159
62 97 157
61 97 156
62 98 156
62 98 163
62 98 156
61 97 156
62 98 160
62 97 160
63 99 166
61 97 158
61 96 149
62 98 155
61 97 154
60 95 148
61 97 153
62 98 160
61 97 149
62 97 151
62 98 158
61 97 153
62 98 162
61 97 150
62 98 161
62 97 153
62 98 152
61 97 149
62 97 151
61 97 161
61 96 152
62 97 152
62 97 150
61 96 143
61 96 145
61 97 157
61 96 150
62 97 145
61 97 151
61 97 158
61 96 152
62 97 152
63 99 164
61 97 152
60 95 145
61 96 150
61 97 151
62 98 153
62 97 148
61 96 143
62 97 151
61 96 141
61 96 148
62 97 149
61 96 147
61 97 147
61 97 147
60 93 134
59 93 134
61 95 143
60 94 134
60 94 145
61 95 146
58 92 132
62 97 150
59 93 133
58 91 125
57 89 128
58 91 126
98 105 36
100 104 0
110 111 0
118 120 0
112 116 0
110 117 0
112 115 0
124 127 0
105 108 0
117 121 0
98 96 0
101 103 0
91 85 11
81 76 16
72 69 16
89 83 11
94 89 0
84 79 11
91 86 8
80 76 11
88 84 0
95 90 8
92 86 0
94 88 0
92 89 0
95 91 0
94 89 0
93 90 0
97 93 0
99 96 0
98 95 0
98 93 8
99 93 8
102 98 8
97 92 0
98 94 8
114 109 0
113 108 3
111 107 11
100 97 0
111 108 14
107 102 11
111 105 0
105 101 0
104 100 0
102 99 0
118 114 11
112 107 16
113 109 11
105 100 11
106 103 0
114 110 0
112 108 0
103 98 0
110 107 11
118 113 11
114 111 16
122 117 0
117 113 11
117 112 16
119 114 16
115 109 16
116 111 11
121 117 19
119 115 19
126 120 16
119 114 11
112 107 19
108 103 16
116 111 16
121 116 16
120 114 11
114 110 16
109 105 16
116 109 16
104 99 0
109 104 16
118 114 16
113 107 22
109 104 25
121 114 19
115 110 30
106 100 16
116 109 19
115 110 0
110 105 19
103 94 0
108 105 0
132 134 11
146 154 0
149 157 0
143 148 0
146 154 0
152 162 0
154 164 0
150 160 0
156 168 0
161 173 0
155 166 0
151 161 0
158 169 0
157 170 0
157 166 0
154 165 0
154 165 0
158 169 0
158 170 0
162 177 0
155 170 0
157 171 0
159 174 0
157 170 0
157 172 0
162 178 0
165 179 0
157 170 0
162 176 0
161 175 0
159 174 0
161 175 0
157 172 0
162 177 0
165 181 0
165 182 0
165 183 0
166 182 0
162 179 0
164 179 0
163 179 0
162 178 0
163 181 0
164 181 0
164 179 0
169 188 0
168 186 0
162 179 0
169 186 0
166 185 0
208 227 242
208 227 245
207 226 244
209 228 245
209 228 252
209 228 250
207 227 252
209 229 254
208 228 255
207 228 254
208 228 254
209 229 254
208 228 253
208 228 255
204 225 250
201 222 234
198 219 227
196 215 204
190 212 199
197 218 212
186 207 182
190 212 194
196 216 204
193 213 194
197 217 211
194 215 211
188 210 189
193 213 194
200 219 215
201 219 206
199 218 212
194 213 199
196 216 204
199 217 211
196 216 206
201 220 218
198 218 211
193 213 193
194 215 201
189 210 181
187 208 182
189 211 182
188 209 189
187 208 171
187 209 182
189 210 165
187 208 171
189 211 186
186 207 167
180 203 157
189 210 181
194 215 206
194 214 199
192 212 189
192 213 189
194 214 199
198 217 203
195 215 217
203 222 221
196 215 201
196 216 206
197 217 203
197 215 201
197 217 204
191 211 193
201 220 220
200 220 204
194 214 207
192 212 186
193 214 201
197 218 211
205 225 237
206 225 244
210 229 254
206 225 252
205 224 252
200 220 248
205 224 251
200 220 248
205 224 251
206 225 250
208 226 252
205 223 249
203 221 244
141 163 212
123 148 200
110 137 197
115 141 194
120 145 200
117 142 198
129 153 205
112 137 191
127 150 197
121 145 198
124 147 198
119 144 198
129 152 197
127 150 197
110 135 188
61 98 171
60 96 163
61 97 172
62 98 166
63 98 160
64 99 168
60 96 165
66 100 158
65 98 161
75 108 165
63 97 153
71 103 149
70 103 163
64 97 155
69 101 146
66 98 147
70 102 151
61 95 151
57 92 156
58 93 154
58 93 156
57 91 156
57 92 148
58 92 150
59 94 156
58 93 156
59 94 148
59 94 157
58 93 154
59 95 157
60 96 166
61 97 163
58 93 160
59 95 156
59 95 162
60 95 160
60 96 158
60 95 166
60 95 158
59 94 158
59 95 159
60 96 160
61 97 160
60 96 163
61 97 162
60 95 161
61 97 160
59 95 159
61 97 166
60 96 164
59 95 154
59 95 157
61 97 162
61 96 159
60 96 152
61 97 162
61 97 162
60 96 157
61 97 163
61 97 159
60 96 157
62 98 163
60 96 159
61 97 157
62 98 161
61 96 154
62 98 159
63 99 168
61 97 160
61 97 163
61 97 160
62 98 165
61 97 155
61 97 160
61 97 156
61 97 155
62 98 163
62 98 163
61 97 152
61 97 161
61 97 158
61 97 160
61 96 153
61 97 156
62 97 155
63 99 166
60 96 154
61 97 151
61 96 151
62 98 156
61 96 147
61 97 156
62 98 152
61 97 148
62 98 160
61 96 150
61 97 156
61 97 149
61 97 151
62 98 167
61 96 155
61 96 150
61 97 157
61 97 151
62 97 151
60 96 150
62 98 157
61 97 155
61 97 155
62 98 155
62 98 159
62 98 159
61 97 157
61 96 153
62 98 159
61 96 145
61 97 155
61 97 151
61 96 145
61 96 152
62 97 152
61 96 147
61 96 143
61 96 150
61 96 151
61 96 154
61 97 150
62 98 156
61 97 152
62 97 154
61 96 153
61 97 153
61 97 154
62 98 157
62 98 162
62 98 151
62 97 149
60 96 150
60 95 147
62 97 153
62 97 157
60 96 150
61 96 145
62 97 153
61 96 145
62 97 153
61 95 143
60 95 149
60 95 135
60 95 142
62 97 160
60 95 144
59 94 134
60 95 139
60 95 142
61 95 145
59 93 132
61 96 146
58 92 134
60 95 142
59 92 137
58 92 132
64 94 124
104 109 18
115 124 0
108 113 0
95 99 0
111 116 0
109 110 0
104 107 0
107 110 0
117 120 0
111 110 0
112 116 0
98 98 0
105 105 0
98 98 0
74 72 0
86 79 11
76 71 11
95 89 11
86 82 0
88 81 0
98 92 0
83 79 0
90 86 11
95 90 0
87 81 0
95 92 12
91 86 0
98 94 0
92 87 0
99 96 8
103 98 0
106 102 0
108 103 0
101 96 0
104 101 0
105 99 0
101 96 0
99 95 0
97 92 0
106 100 0
102 97 0
103 97 0
113 108 0
107 102 0
106 101 0
106 103 8
105 101 0
114 110 0
117 112 11
106 102 0
122 116 19
117 113 0
94 91 0
110 104 11
106 101 11
114 109 0
120 114 16
115 109 11
110 104 16
123 118 11
110 106 11
118 113 0
122 117 0
107 102 0
123 117 11
118 112 11
123 117 16
111 105 0
119 113 0
111 105 0
113 110 16
111 104 11
110 106 19
107 103 16
117 110 16
111 106 19
116 111 11
116 108 22
114 107 25
115 108 22
103 99 0
99 92 11
118 111 19
100 94 11
104 97 22
105 101 11
124 124 0
136 140 11
151 156 0
144 152 0
149 158 0
147 153 0
145 149 0
152 161 0
150 157 0
149 157 0
152 161 0
154 164 0
147 156 0
153 162 0
159 170 0
149 157 0
155 166 0
158 170 0
159 172 0
162 174 0
161 172 0
156 168 0
161 175 0
160 173 0
155 167 0
158 172 0
164 179 0
156 169 0
160 175 0
161 175 0
164 177 0
161 177 0
162 176 0
162 177 0
164 179 0
161 178 0
163 181 0
164 179 0
159 175 0
167 186 0
165 180 0
166 183 0
167 184 0
166 183 0
164 178 0
166 182 0
164 181 0
164 179 0
167 186 0
166 185 0
166 183 0
163 180 0
208 227 242
206 226 240
207 227 242
209 228 250
208 228 253
210 229 254
209 229 253
210 229 255
207 227 252
209 228 255
207 227 254
206 227 254
202 223 242
195 217 211
197 217 204
190 212 189
193 214 194
190 211 181
190 211 189
196 216 201
192 214 206
202 221 214
198 218 214
197 217 204
198 218 212
196 217 214
198 218 217
198 217 204
199 219 221
198 217 209
192 212 186
188 210 188
185 206 181
179 203 171
178 201 149
182 206 153
174 199 151
178 202 137
178 203 149
175 200 155
179 203 153
177 201 144
181 206 167
180 204 151
177 200 140
178 203 155
176 201 149
177 202 153
177 202 142
177 200 137
180 205 165
178 202 142
179 202 140
182 206 149
177 201 149
181 205 155
180 203 149
179 202 147
184 207 165
182 204 165
184 205 167
190 210 169
194 213 189
193 213 196
201 219 211
198 217 215
198 217 215
198 218 211
198 217 203
200 219 215
193 214 203
194 214 194
188 208 197
189 209 214
200 220 242
194 214 240
204 223 251
200 220 248
200 219 248
199 218 248
207 225 251
208 226 252
208 226 252
206 224 247
196 214 242
144 167 213
125 150 205
119 144 201
105 132 193
132 155 205
112 138 193
104 130 188
135 159 207
118 143 192
122 146 196
129 152 200
130 153 200
151 171 210
130 152 199
120 143 190
63 99 169
63 99 166
64 99 167
63 99 167
62 98 168
61 97 166
62 97 168
62 98 170
73 105 156
65 99 163
70 102 155
66 100 159
70 103 155
74 106 154
64 98 165
65 98 155
64 97 147
62 96 148
59 94 153
56 90 149
57 91 148
56 90 141
58 94 157
59 94 158
59 93 157
57 92 150
60 95 154
58 93 153
59 94 155
58 92 151
60 95 157
60 97 167
60 96 163
59 94 159
58 94 154
57 92 155
60 95 154
59 95 162
60 95 159
60 96 162
59 95 153
60 95 159
59 95 159
61 96 154
60 96 155
60 96 164
60 96 159
59 95 150
59 95 157
61 96 159
59 94 159
62 98 163
58 93 156
62 97 163
59 95 152
60 96 160
62 97 165
60 96 157
59 94 147
61 97 161
60 96 155
61 97 160
60 96 159
61 96 154
61 97 157
60 96 155
60 96 152
61 97 157
60 96 155
60 96 160
62 98 159
61 97 151
62 98 162
62 98 159
61 97 160
61 97 154
62 98 161
60 96 157
61 97 159
63 99 169
61 97 157
62 98 162
62 98 155
62 98 165
61 97 156
62 97 157
61 97 154
61 97 152
62 97 157
61 97 157
61 97 159
61 96 156
62 97 155
62 98 158
62 98 158
61 97 154
60 96 152
61 97 153
62 98 158
61 96 148
61 97 152
61 97 159
62 98 161
61 97 151
61 96 150
60 96 153
61 97 153
62 98 161
61 96 151
61 96 148
61 96 143
61 97 149
61 97 155
62 98 155
60 96 144
62 98 156
62 98 162
61 97 154
62 98 155
61 97 148
62 98 157
61 97 154
61 97 149
62 97 154
62 97 156
61 96 148
61 97 144
60 96 143
62 97 152
62 97 152
60 96 145
61 96 151
60 95 135
60 95 143
60 96 152
60 96 145
61 96 145
62 97 152
60 95 145
60 95 143
60 95 143
61 96 143
61 96 150
63 98 156
62 97 147
61 95 144
60 95 135
62 97 152
60 95 142
61 96 154
61 95 141
60 95 141
60 95 141
60 95 145
61 95 140
59 93 139
58 91 123
60 95 142
60 94 144
57 90 117
58 91 121
77 97 103
107 113 0
122 128 0
118 121 0
98 101 0
115 120 0
109 114 0
106 109 0
87 90 0
103 105 0
109 112 0
108 111 0
100 100 0
110 111 0
99 97 0
95 92 0
116 116 16
89 85 0
94 87 11
82 78 0
88 83 11
84 80 11
94 87 11
91 86 0
77 71 0
88 84 0
91 85 3
88 84 0
81 77 0
95 89 0
89 84 0
95 90 0
104 99 0
106 100 0
99 96 0
101 96 0
97 92 0
101 96 0
101 95 8
118 113 0
109 104 0
114 109 0
102 97 0
109 104 0
107 103 0
107 102 0
110 106 0
109 105 0
121 117 0
117 112 14
114 108 11
115 109 11
109 104 0
113 107 16
117 112 11
123 117 11
114 110 11
112 106 0
113 108 19
123 117 11
109 105 11
108 102 11
121 116 11
116 111 19
116 110 11
111 105 11
110 104 16
105 102 11
114 109 11
110 105 0
113 106 16
112 105 0
109 103 16
115 108 16
114 107 16
106 102 11
102 95 11
108 103 11
109 104 16
113 106 16
112 102 16
107 101 16
99 94 19
100 95 11
108 106 11
123 123 11
141 143 0
151 157 0
143 146 0
148 153 0
146 154 0
146 152 0
158 166 0
150 159 0
152 160 0
146 154 0
152 161 0
152 162 0
156 167 0
149 157 0
153 164 0
156 166 0
152 160 0
150 160 0
158 172 0
150 159 0
162 175 0
160 172 0
157 168 0
159 173 0
159 172 0
158 172 0
163 176 0
158 172 0
165 180 0
159 171 0
161 174 0
163 177 0
160 175 0
163 178 0
164 179 0
164 182 0
163 177 0
166 182 0
160 177 0
161 174 0
162 178 0
161 177 0
168 184 0
162 178 0
166 184 0
163 178 0
161 179 0
166 183 0
163 180 0
167 186 0
168 187 0
167 187 0
168 185 0
208 227 248
208 227 248
209 229 253
208 228 255
209 229 255
209 229 255
208 228 253
207 228 255
208 228 255
201 221 236
200 221 226
197 218 209
196 216 206
193 214 199
191 211 203
193 214 201
190 211 189
196 217 204
196 217 207
196 216 217
196 216 212
201 221 223
195 216 214
197 217 212
193 213 191
189 211 188
186 209 186
182 205 159
182 206 137
178 203 140
178 202 144
175 199 153
179 203 155
179 203 169
178 203 155
179 204 149
180 203 142
177 202 151
174 198 108
180 205 163
180 204 159
179 203 155
179 202 133
179 203 144
174 198 147
177 201 153
179 204 153
180 203 144
180 204 165
180 205 167
178 203 163
180 204 157
179 204 153
179 202 140
178 202 140
180 205 157
178 201 147
180 204 155
179 203 149
175 199 142
180 204 149
178 200 122
183 207 175
179 202 149
182 206 159
186 207 169
187 208 179
189 210 188
194 214 201
195 214 198
200 219 207
196 215 201
193 213 205
175 195 184
175 196 195
182 202 213
173 194 214
184 205 231
200 220 248
209 228 254
201 220 248
201 220 248
209 227 252
203 222 248
208 226 252
197 215 242
128 152 206
129 154 205
122 147 199
114 140 194
119 145 201
111 137 198
121 146 196
107 133 186
123 147 199
129 153 200
126 150 194
132 154 200
128 151 199
127 150 197
122 146 195
60 96 167
63 99 169
61 97 171
63 98 169
63 98 163
65 100 167
61 97 170
64 99 166
61 95 157
73 106 158
77 107 147
71 103 156
69 101 149
71 103 158
70 102 148
63 96 144
73 105 154
60 94 158
57 91 147
59 94 156
57 92 154
60 95 158
59 94 157
59 94 158
58 93 157
58 92 156
60 96 158
59 94 151
60 95 161
59 94 155
58 92 154
60 95 159
58 92 153
60 96 164
58 93 153
60 96 155
60 95 157
60 96 162
61 96 160
59 94 158
60 95 159
60 96 158
60 96 162
61 97 156
59 95 160
59 95 151
60 96 154
61 96 161
61 97 159
60 97 158
61 96 156
61 96 160
60 96 158
61 97 159
61 97 164
62 98 161
61 96 159
62 97 161
60 96 157
61 96 158
62 98 161
61 97 163
61 97 164
62 97 159
61 97 160
61 97 158
61 97 162
60 96 156
61 97 157
61 97 158
59 95 154
62 97 160
62 97 161
61 97 159
62 98 157
61 97 159
60 95 147
61 97 159
62 98 154
62 98 156
61 97 158
62 98 161
61 97 159
61 96 150
61 97 153
61 97 156
61 97 159
61 97 159
62 98 157
62 98 155
62 97 155
62 98 161
61 97 157
62 98 162
62 98 157
61 97 156
61 97 150
62 97 157
61 97 156
62 97 157
61 98 159
62 98 162
62 98 158
62 98 158
61 96 156
61 96 151
61 97 151
61 97 156
61 96 157
62 97 152
61 97 154
62 98 162
61 96 152
61 96 150
61 96 148
61 96 147
61 96 152
61 97 150
62 97 153
61 97 148
62 98 158
61 96 151
62 98 156
61 97 149
61 96 144
61 97 155
61 97 149
62 97 156
61 97 153
61 96 150
61 96 150
60 95 148
61 96 150
61 96 150
62 97 148
62 97 153
61 96 147
60 94 143
61 96 145
61 96 143
61 96 148
62 98 158
62 97 152
60 95 143
60 95 134
60 95 133
60 95 143
61 96 142
60 95 141
60 95 147
59 94 135
59 93 135
59 94 137
59 93 129
59 93 135
58 92 128
59 92 134
59 92 131
58 91 128
58 91 123
96 112 86
124 131 0
116 122 0
110 117 0
113 117 0
117 121 0
109 115 0
110 114 0
116 120 0
102 103 0
107 108 0
110 112 0
105 105 0
109 108 0
105 109 0
103 103 0
103 104 0
97 99 0
90 89 0
82 77 0
82 76 11
74 70 0
89 85 0
100 95 0
81 76 11
88 83 0
86 81 0
98 92 11
86 82 0
92 87 0
94 88 0
93 88 0
95 88 0
103 97 0
93 89 0
92 88 0
103 97 8
92 89 0
111 106 0
101 96 0
95 90 0
105 100 0
105 100 0
111 104 0
104 97 0
105 100 0
97 93 0
112 106 0
93 92 0
100 95 0
99 96 0
117 110 0
113 108 0
117 112 11
105 101 11
105 101 0
109 105 11
109 102 0
112 107 11
101 96 11
114 108 11
104 99 0
108 103 19
112 107 11
106 100 11
116 110 11
107 102 0
108 104 0
116 111 16
111 104 11
111 106 0
107 101 11
107 102 11
116 110 11
109 102 11
112 105 11
106 100 16
115 108 25
112 106 11
111 104 19
103 96 11
111 103 19
128 125 16
131 133 11
143 148 0
147 151 0
136 141 0
150 158 0
144 153 0
147 154 0
149 155 0
154 163 0
143 152 0
150 157 0
151 156 0
148 157 0
151 158 0
147 156 0
157 168 0
151 160 0
145 154 0
157 168 0
157 166 0
159 172 0
153 162 0
161 172 0
159 169 0
155 165 0
155 168 0
159 173 0
163 178 0
164 178 0
155 168 0
161 176 0
159 172 0
160 174 0
155 167 0
160 173 0
165 181 0
163 177 0
163 177 0
166 184 0
161 177 0
164 181 0
168 186 0
165 182 0
161 176 0
162 179 0
162 180 0
163 180 0
167 185 0
162 179 0
163 180 0
168 187 0
167 186 0
164 181 0
162 180 0
161 178 0
167 185 0
210 229 254
207 227 249
209 229 254
209 229 255
206 227 252
207 228 254
205 226 252
203 223 241
192 212 201
193 214 188
195 216 204
192 213 196
189 210 193
197 218 204
191 212 199
195 215 209
200 219 215
198 217 214
194 215 204
195 215 207
195 214 212
184 205 165
179 202 171
176 199 140
179 204 153
177 201 147
177 202 157
179 203 167
181 205 157
178 203 161
178 202 135
176 201 153
180 204 153
178 203 165
177 201 133
178 201 151
179 203 140
175 199 140
177 201 151
176 200 153
176 200 149
176 200 140
180 204 142
180 204 155
176 200 137
180 205 161
178 203 155
179 203 153
177 201 147
177 201 144
180 203 142
174 198 137
176 201 144
181 205 157
179 204 149
181 205 155
184 208 171
177 202 144
182 206 161
179 204 165
178 202 153
180 204 161
179 203 133
179 203 149
179 201 122
178 201 135
183 206 167
178 202 153
182 206 147
187 209 173
186 207 167
184 205 184
173 195 183
155 178 178
159 182 180
155 179 180
159 182 189
170 192 205
172 193 203
181 202 219
199 219 248
204 223 251
200 219 245
196 215 244
203 222 249
207 225 251
188 207 239
124 149 203
118 144 201
120 145 200
113 139 197
106 133 190
112 138 194
114 139 196
121 146 200
135 158 206
123 146 194
125 149 196
107 133 191
141 163 207
130 153 202
112 137 189
67 102 168
62 98 170
62 98 169
62 98 167
61 96 163
61 96 161
59 95 158
60 96 165
62 97 162
64 98 159
69 103 157
72 105 155
70 102 152
62 95 151
61 95 150
72 103 145
66 99 153
63 96 152
58 93 155
58 93 149
58 94 158
58 92 152
58 93 160
56 91 153
59 94 158
59 95 153
59 94 164
59 95 159
60 96 162
59 95 154
61 96 161
58 94 153
59 96 156
58 92 149
59 95 152
58 93 163
60 95 158
58 93 157
58 94 159
60 95 161
61 97 161
59 94 158
61 96 155
61 97 159
60 95 156
59 95 152
61 97 163
60 96 157
62 97 163
60 96 160
60 96 159
60 95 155
60 96 159
62 98 163
61 96 157
60 96 151
60 95 150
62 98 157
61 97 161
61 97 158
62 98 165
61 96 156
61 97 156
61 97 160
59 94 148
60 96 153
61 97 157
61 97 156
61 97 164
62 98 162
60 96 158
62 98 162
61 96 154
60 96 144
62 97 158
60 96 149
61 96 153
62 97 153
61 96 154
62 98 161
61 97 159
62 97 155
63 98 157
62 98 157
61 97 158
61 97 158
62 98 160
61 96 154
61 97 156
61 97 149
62 97 153
62 98 159
61 97 153
62 98 161
61 96 148
61 97 157
62 98 156
61 97 152
61 97 152
61 97 153
63 99 167
60 96 149
62 97 156
62 97 154
60 96 150
61 97 153
61 97 152
61 96 152
63 98 159
61 96 144
62 98 155
62 98 154
62 98 152
62 98 156
62 98 158
62 98 155
60 95 144
61 96 156
61 96 150
62 98 154
62 97 154
60 95 142
60 96 140
62 97 153
61 96 144
61 96 148
61 96 155
61 96 149
61 97 150
61 97 148
61 96 149
62 97 152
61 97 148
61 96 141
60 96 141
61 96 150
62 97 153
62 97 150
62 98 151
61 97 154
60 95 138
61 96 145
61 96 146
62 97 149
61 95 142
61 96 144
60 95 141
60 95 140
60 94 132
60 94 143
58 92 127
61 96 147
61 95 149
59 93 132
59 92 135
59 93 134
59 93 129
59 92 126
58 91 124
114 124 57
117 124 0
114 119 0
122 129 0
113 116 0
113 120 0
111 116 0
113 117 0
102 102 0
107 108 0
103 105 0
99 103 0
107 109 0
94 92 0
108 108 0
108 105 0
105 107 0
96 95 0
107 105 0
107 107 0
93 91 0
94 93 0
83 76 0
82 75 0
89 85 0
83 77 11
84 81 0
82 78 11
92 85 0
81 76 0
89 82 0
103 97 0
90 83 0
96 88 0
97 91 0
99 95 0
98 94 0
105 101 0
97 91 0
105 99 0
97 92 0
108 102 0
103 97 0
98 94 0
101 94 0
111 106 0
91 86 0
108 103 0
106 101 0
105 100 0
108 103 0
106 100 0
107 102 0
117 109 11
111 105 0
105 101 0
113 107 11
101 96 0
110 105 0
117 112 11
112 107 0
105 98 0
122 116 16
100 97 0
113 108 0
95 89 0
113 106 16
112 108 0
108 101 11
112 107 16
115 108 0
100 95 11
110 105 0
107 102 22
115 109 16
111 104 11
101 95 11
106 99 11
104 97 16
101 95 16
124 121 16
142 144 11
137 140 0
143 148 0
145 150 0
148 156 0
146 154 0
145 151 0
145 150 0
147 154 0
146 154 0
148 153 0
157 166 0
158 170 0
140 146 0
150 158 0
151 158 0
157 165 0
157 167 0
153 164 0
153 166 0
160 172 0
155 166 0
149 159 0
153 162 0
154 165 0
154 163 0
158 171 0
157 170 0
155 168 0
159 173 0
157 170 0
155 168 0
158 172 0
163 178 0
160 175 0
160 172 0
163 179 0
167 184 0
161 174 0
158 174 0
161 174 0
160 175 0
164 182 0
165 181 0
169 186 0
164 181 0
169 186 0
164 182 0
164 182 0
167 184 0
163 180 0
164 182 0
166 184 0
164 182 0
166 184 0
167 186 0
167 187 0
168 187 0
210 229 255
209 229 255
208 228 254
207 228 253
205 225 244
199 220 218
196 217 204
189 210 198
194 215 214
194 215 198
199 218 215
200 220 214
196 216 204
194 214 203
195 214 199
196 215 204
194 215 198
189 210 189
190 212 184
179 203 151
177 201 144
181 204 142
175 199 147
181 205 159
179 204 151
179 203 163
174 199 155
178 202 153
178 202 144
177 201 153
177 201 147
177 201 137
177 202 157
178 202 142
180 204 153
180 205 171
182 207 161
178 203 155
179 203 159
177 201 140
179 204 163
180 205 159
179 204 157
179 204 165
178 202 130
179 204 149
176 201 130
182 207 181
181 205 147
179 204 149
178 203 157
177 202 137
181 205 155
180 204 151
180 204 147
176 200 151
181 205 163
181 205 159
178 201 142
180 204 151
179 203 157
176 200 140
181 205 155
182 205 153
177 200 133
181 206 161
177 201 140
179 203 144
179 203 159
176 200 137
175 197 133
160 183 169
153 177 176
143 167 169
155 180 186
151 176 187
150 174 164
150 174 189
153 177 198
149 172 189
153 175 197
168 189 213
201 220 247
201 220 248
202 221 248
208 227 253
204 222 248
177 197 232
104 131 194
106 133 195
113 140 198
122 147 201
132 156 204
121 146 200
120 145 199
111 137 196
115 140 197
124 148 197
129 152 198
121 145 196
118 142 195
128 150 199
99 126 182
60 96 166
63 98 168
61 97 170
62 98 165
63 98 163
60 97 167
59 95 162
60 95 151
59 94 161
58 93 158
70 103 154
72 105 159
66 98 146
62 96 155
68 101 158
69 101 143
62 95 152
61 93 141
58 92 150
58 93 154
59 94 152
55 89 144
58 93 150
57 91 147
58 92 146
59 94 158
59 94 159
59 94 157
58 92 145
58 93 150
59 94 153
59 95 158
59 95 158
60 95 157
58 92 154
58 93 149
59 94 153
61 96 157
61 97 160
59 95 155
60 96 156
58 93 152
61 97 160
60 96 166
60 96 161
59 95 155
61 97 164
60 95 153
59 95 149
61 97 154
60 95 154
61 97 161
60 95 155
61 97 164
61 97 156
60 95 157
61 96 158
60 95 156
61 96 159
59 94 155
60 96 155
62 98 163
61 97 161
61 97 158
61 97 153
60 96 159
61 97 154
60 96 157
60 96 153
60 96 154
61 97 156
61 97 158
61 96 150
62 97 156
62 97 159
61 96 151
61 96 148
61 96 151
62 98 160
62 97 155
62 99 165
62 98 157
61 96 151
62 98 158
62 98 159
62 97 158
63 99 163
61 96 151
61 97 159
60 95 144
62 99 165
61 97 154
62 98 162
63 99 164
61 97 153
62 97 152
62 98 160
62 98 151
62 98 153
62 98 160
60 95 148
61 97 152
62 97 157
60 96 142
61 96 153
62 97 148
61 96 149
61 97 152
62 98 157
60 96 142
62 97 156
61 96 144
62 98 156
62 97 161
62 97 153
61 97 153
61 96 151
60 96 144
61 96 137
61 97 156
61 97 151
62 98 155
61 97 149
61 96 151
61 96 154
61 96 140
62 97 150
61 97 144
62 98 158
61 97 152
62 98 158
62 98 153
61 96 144
60 95 142
61 95 141
61 96 145
62 98 152
60 94 135
62 98 157
62 97 153
60 95 138
60 95 136
61 96 140
60 94 136
60 95 145
60 95 136
60 94 135
61 96 147
60 94 139
62 96 144
59 93 128
59 92 131
58 91 125
61 96 140
58 92 130
60 95 140
56 88 118
68 95 117
116 121 18
117 121 0
111 119 0
121 125 0
118 123 0
114 119 0
100 101 0
117 123 0
118 123 0
116 117 0
106 111 0
102 104 0
101 104 0
109 111 0
102 105 0
108 111 0
114 114 0
108 110 0
98 97 0
100 99 0
100 98 0
108 105 0
113 111 0
82 81 0
78 70 0
77 69 0
85 80 0
79 74 0
76 72 0
80 75 0
82 74 0
85 79 0
84 77 0
95 89 0
93 86 0
101 94 0
96 89 0
87 82 0
92 88 0
97 90 0
104 100 0
100 93 0
103 97 0
97 91 0
102 97 0
97 91 0
92 87 0
106 101 0
97 93 0
111 104 0
110 105 0
103 97 0
112 107 0
107 101 11
105 98 0
120 113 11
115 110 11
104 98 0
109 103 16
105 102 0
112 105 11
111 107 11
96 91 0
99 93 0
99 93 11
106 102 0
99 93 0
104 98 11
102 96 0
109 104 0
100 94 0
105 99 11
107 101 11
101 91 11
98 91 0
99 89 19
94 90 0
101 98 0
126 128 0
147 155 0
136 140 0
136 140 0
150 156 0
137 143 0
147 150 0
145 152 0
150 156 0
141 145 0
150 157 0
149 157 0
148 156 0
145 152 0
145 151 0
155 165 0
153 159 0
149 156 0
150 161 0
157 166 0
154 163 0
153 163 0
155 167 0
157 171 0
158 170 0
158 171 0
158 171 0
155 167 0
155 166 0
158 170 0
158 172 0
154 167 0
156 167 0
164 179 0
158 170 0
159 171 0
162 176 0
164 178 0
159 173 0
160 175 0
161 177 0
161 175 0
162 179 0
162 179 0
158 171 0
161 176 0
159 174 0
163 179 0
159 174 0
160 177 0
164 181 0
162 177 0
164 179 0
168 185 0
164 182 0
165 182 0
163 182 0
165 186 0
166 184 0
163 178 0
164 181 0
207 228 254
208 228 253
204 225 244
198 219 221
197 217 206
196 217 212
192 213 196
190 210 188
193 213 199
196 217 215
194 215 198
198 217 198
197 216 209
197 217 214
195 216 199
188 211 177
178 202 133
180 204 159
175 199 153
179 204 147
178 202 149
180 205 165
175 200 161
178 203 151
181 205 151
173 198 135
177 202 142
178 203 142
178 202 153
176 200 135
176 201 157
180 205 167
179 203 159
174 198 133
176 200 142
176 200 140
170 195 133
177 201 153
179 204 171
177 201 159
179 203 159
180 205 161
177 201 159
175 199 140
176 201 159
179 203 151
176 201 144
183 208 173
178 202 149
177 200 137
174 198 122
179 203 159
181 205 149
176 200 117
178 203 157
180 205 149
176 201 135
180 204 144
180 203 149
175 199 137
178 202 159
181 205 169
180 203 144
177 201 144
179 202 161
179 203 135
179 203 144
180 204 147
183 206 144
180 203 151
167 191 177
145 170 170
150 174 180
147 172 162
156 180 184
157 180 185
144 168 180
148 172 176
148 171 172
144 168 190
156 178 176
139 162 175
147 170 195
161 183 209
192 212 240
205 224 250
204 223 250
202 220 247
165 185 225
127 152 207
100 129 194
121 146 200
119 144 201
124 148 201
126 150 202
129 153 201
120 144 197
126 150 196
122 146 199
122 146 194
130 153 196
121 145 192
127 150 199
112 137 190
63 98 166
64 100 171
66 101 170
63 99 172
60 94 155
61 97 166
60 97 167
65 99 164
63 97 160
59 94 157
67 101 158
64 97 156
59 94 154
63 97 159
68 99 152
65 97 148
64 97 150
59 93 148
57 91 150
57 92 153
57 91 150
59 94 144
59 94 155
58 92 148
58 92 157
59 94 157
58 93 157
59 94 159
60 96 156
59 95 153
59 94 160
59 94 157
59 94 149
60 95 157
58 92 148
59 94 156
60 95 155
61 97 162
58 92 150
60 95 158
60 95 160
60 95 155
60 95 160
60 96 160
58 93 148
60 95 156
60 96 155
61 96 154
60 96 159
60 95 157
61 97 161
59 95 150
60 96 155
60 95 151
61 97 155
61 97 160
59 94 154
62 98 159
60 95 150
62 98 156
61 97 160
60 96 148
60 95 148
62 97 157
60 96 149
61 97 157
60 95 152
61 97 158
62 98 160
62 98 163
62 98 168
62 98 158
62 98 160
61 96 151
60 96 148
62 98 165
61 97 153
62 97 160
60 96 153
61 97 155
61 97 149
61 97 154
61 97 159
61 96 155
61 97 149
62 98 163
61 96 152
61 97 156
60 96 156
60 95 148
60 96 152
62 98 158
61 97 154
61 97 157
62 98 160
61 97 155
61 96 150
60 96 150
60 96 152
62 97 154
61 97 154
61 97 151
61 97 152
63 98 160
59 94 145
62 97 155
61 97 152
62 97 152
61 96 151
62 97 158
60 95 142
61 97 150
60 95 144
61 97 155
61 96 155
62 97 147
61 96 148
63 98 161
62 98 157
62 98 155
61 96 148
62 98 161
61 96 142
61 96 149
61 96 143
61 97 153
61 96 145
62 97 155
61 96 147
61 96 150
61 97 154
61 96 145
61 97 147
61 97 151
61 96 149
61 97 145
61 97 143
62 97 149
61 96 141
62 97 145
61 95 140
61 95 143
60 94 135
59 92 133
61 96 146
61 96 141
62 97 148
59 94 135
60 94 134
60 95 135
60 94 131
60 94 135
59 93 140
59 94 132
58 90 132
58 90 121
80 98 93
101 106 0
102 107 0
111 115 0
118 124 0
110 115 0
99 104 0
112 115 0
120 126 0
113 115 0
112 114 0
111 114 0
99 101 0
111 113 0
105 112 0
114 114 0
106 106 0
104 107 0
113 112 0
101 101 0
105 105 0
102 103 0
92 91 0
106 108 0
104 103 0
90 86 0
94 95 0
87 84 0
86 82 0
93 86 0
75 70 0
88 80 0
81 76 0
78 72 0
87 81 0
85 78 0
87 81 0
89 83 3
92 87 0
83 76 0
95 89 0
100 93 0
104 98 0
97 91 0
92 86 0
101 95 11
99 94 0
103 97 0
103 96 0
95 88 0
108 99 0
107 102 0
104 97 0
100 96 0
99 94 11
113 105 0
104 97 0
98 93 0
106 100 0
97 91 0
100 95 11
113 107 11
117 111 0
99 93 11
99 92 0
98 92 11
110 104 16
100 93 11
99 94 0
101 96 0
107 101 11
101 93 16
95 88 0
94 88 11
102 96 16
116 113 11
128 128 0
139 138 0
142 144 0
139 144 0
137 141 0
140 142 0
135 140 0
141 145 0
147 151 0
144 153 0
149 155 0
137 142 0
152 161 0
144 149 0
143 150 0
149 155 0
152 159 0
150 158 0
151 158 0
152 160 0
151 159 0
153 163 0
149 159 0
156 166 0
152 158 0
161 172 0
150 159 0
161 174 0
160 170 0
160 170 0
152 163 0
159 171 0
156 170 0
157 168 0
157 171 0
159 172 0
157 173 0
157 170 0
158 172 0
164 177 0
158 172 0
165 180 0
162 177 0
165 181 0
165 179 0
166 180 0
163 179 0
160 176 0
163 177 0
159 174 0
163 179 0
156 171 0
166 181 0
159 174 0
164 180 0
164 178 0
164 181 0
167 183 0
163 181 0
163 181 0
165 184 0
164 183 0
167 185 0
165 183 0
204 225 244
200 220 220
194 214 199
195 215 198
201 221 226
196 217 214
195 215 204
193 214 199
196 217 217
199 220 224
198 219 209
188 209 179
180 203 159
177 201 140
177 201 159
178 202 157
181 206 153
178 202 144
180 203 144
180 204 153
181 205 182
179 203 144
179 204 151
176 200 151
175 200 122
178 202 135
177 201 137
178 202 151
180 206 173
178 203 151
179 203 151
179 204 140
174 199 140
176 200 144
178 204 151
175 199 137
179 203 155
179 204 151
178 203 159
180 205 173
179 204 157
176 200 137
177 201 151
176 200 153
175 200 153
175 199 144
175 199 155
174 199 153
181 205 163
180 205 157
179 203 165
178 202 165
174 197 137
177 201 144
177 202 161
178 203 159
177 201 135
179 204 161
178 203 147
181 205 151
180 204 159
179 204 155
173 196 125
181 205 153
177 200 128
172 196 144
183 207 163
179 203 159
182 205 163
180 204 173
165 189 173
146 171 185
148 173 187
152 176 197
151 176 189
158 182 180
149 173 184
149 172 180
152 175 167
141 165 183
143 167 173
149 173 192
155 179 199
134 158 174
148 172 191
165 187 213
191 211 238
207 225 252
202 221 249
159 180 223
112 139 197
118 144 202
114 140 196
122 147 200
118 143 197
110 136 194
127 151 203
128 152 201
125 149 201
124 147 200
124 147 195
121 145 197
128 151 201
122 145 194
109 134 188
62 98 169
63 97 164
64 99 168
62 99 174
63 99 173
62 98 164
60 96 165
64 98 155
60 96 163
61 97 167
71 102 154
68 101 150
73 104 152
65 97 142
69 100 150
68 100 149
69 102 156
60 95 156
59 94 155
58 93 154
58 93 155
58 94 151
58 92 145
58 92 148
59 94 161
56 91 154
60 96 160
59 94 153
58 93 151
58 92 147
59 94 156
58 93 155
59 94 153
60 95 157
60 95 159
58 93 152
59 94 156
59 94 153
59 95 154
58 94 147
61 97 164
59 95 161
61 96 162
59 94 148
60 96 154
60 95 147
60 96 157
60 96 156
60 96 159
60 96 160
62 98 160
62 98 165
60 96 155
61 97 161
60 96 154
60 95 158
61 97 155
61 97 158
62 97 158
61 97 161
60 95 144
60 96 152
62 98 164
60 96 154
60 96 157
60 96 151
61 97 153
61 97 154
60 95 153
61 97 156
61 97 157
60 95 155
61 97 152
61 96 153
62 97 160
61 96 151
61 97 160
61 97 157
61 97 159
61 96 148
61 96 150
61 97 151
62 98 158
60 96 145
61 97 158
61 97 152
62 98 161
62 97 152
62 98 158
61 97 151
62 98 156
61 97 148
62 97 155
62 98 161
61 96 151
61 97 151
61 97 152
61 97 148
62 97 152
61 97 152
61 97 154
62 97 159
62 97 151
61 97 150
61 96 154
61 97 159
61 96 148
61 96 148
61 97 155
61 96 152
60 95 143
61 97 153
60 96 145
61 97 151
63 98 160
61 96 149
63 98 155
61 97 150
60 95 141
62 97 159
61 96 147
60 95 139
61 96 150
62 98 151
61 96 152
61 96 142
61 97 151
62 97 151
61 96 144
61 97 151
62 97 149
61 97 147
60 94 137
61 96 148
60 95 139
61 96 147
61 96 142
59 94 137
60 95 142
62 97 145
61 96 144
62 97 154
60 94 139
60 96 143
61 96 145
61 95 141
60 95 134
60 94 143
59 91 130
62 96 147
60 95 138
59 92 126
58 92 120
57 90 117
57 88 113
105 115 62
101 107 0
117 124 0
114 122 0
107 115 0
106 111 0
119 125 0
108 114 0
102 106 0
111 117 0
121 126 0
107 111 0
101 104 0
105 108 0
107 108 0
98 101 0
107 110 0
105 105 0
100 103 0
101 104 0
100 103 0
115 116 0
106 104 0
102 102 0
106 104 0
104 103 0
88 88 0
92 89 0
96 97 0
110 109 0
102 101 0
89 84 0
102 96 0
81 74 0
88 79 0
84 77 0
89 82 0
94 87 0
91 87 0
91 85 0
92 86 0
84 77 0
101 96 0
99 92 0
101 97 0
90 84 0
106 100 0
87 80 0
94 87 0
92 85 0
99 95 0
101 94 0
95 88 0
94 89 0
89 85 0
106 100 0
99 93 0
108 103 11
105 98 11
91 87 0
103 98 11
101 94 0
85 80 0
100 93 0
105 99 16
90 84 11
96 90 11
98 94 0
103 94 11
96 89 0
108 102 16
101 98 11
124 123 16
132 130 0
136 140 0
134 136 0
135 139 0
131 131 0
134 133 0
140 143 0
140 145 0
142 146 0
144 148 0
139 144 0
139 143 0
140 146 0
146 150 0
135 136 0
147 153 0
143 146 0
150 157 0
152 160 0
146 152 0
155 162 0
152 158 0
152 162 0
156 167 0
151 159 0
141 148 0
161 170 0
155 167 0
158 171 0
159 171 0
154 164 0
160 171 0
161 174 0
155 166 0
155 167 0
159 170 0
151 163 0
150 160 0
162 174 0
158 172 0
153 167 0
158 169 0
155 167 0
159 173 0
158 171 0
163 177 0
160 174 0
158 171 0
156 168 0
160 176 0
166 182 0
161 178 0
164 180 0
168 184 0
163 176 0
161 178 0
165 182 0
165 182 0
163 182 0
165 181 0
162 179 0
160 176 0
167 185 0
159 174 0
165 182 0
167 184 0
167 187 0
189 211 189
192 213 198
191 212 191
191 210 189
197 217 211
199 218 209
200 220 211
197 217 217
192 214 193
184 206 173
182 205 147
180 204 151
180 204 163
177 201 147
177 202 149
178 203 142
179 204 149
178 202 140
180 203 130
178 203 155
176 201 153
176 200 155
176 201 137
177 201 155
180 205 167
174 198 147
180 205 147
175 199 142
178 202 159
178 203 137
176 201 144
177 202 135
177 202 149
179 204 155
179 203 153
177 202 144
177 201 151
177 202 147
176 200 142
178 203 157
179 204 149
175 198 128
176 201 157
181 206 157
179 204 149
173 197 149
181 206 167
176 202 147
180 205 171
177 202 163
176 201 149
178 203 149
179 203 130
178 202 157
179 203 149
177 202 147
176 199 155
176 200 133
179 204 159
181 205 161
175 199 151
176 200 155
184 208 173
180 204 147
173 198 128
179 204 161
179 203 157
178 202 159
175 199 157
182 206 167
156 180 176
144 169 182
144 169 187
155 179 181
154 179 173
149 173 177
153 177 185
157 180 176
135 160 160
155 178 181
149 174 180
159 183 187
142 166 186
141 165 181
141 164 180
149 173 183
145 168 192
172 192 214
197 216 244
202 221 248
138 161 211
111 138 199
116 142 197
129 153 205
120 145 198
115 141 199
121 145 194
133 157 206
130 153 204
118 142 195
133 156 204
112 137 191
116 141 196
117 141 188
133 155 195
99 126 185
61 97 169
63 99 169
64 100 166
65 101 168
63 99 166
62 98 165
63 98 160
60 96 163
61 97 162
59 95 160
63 97 150
63 97 161
76 108 158
72 104 152
74 105 147
65 98 152
67 101 157
62 96 148
57 91 155
59 94 158
57 91 139
58 93 157
59 94 158
57 91 149
58 92 147
58 92 153
59 94 155
57 91 148
60 95 155
59 94 149
58 93 153
59 94 150
58 92 156
60 95 151
59 95 162
60 95 160
59 95 157
59 94 158
58 93 157
59 95 155
59 95 157
58 93 143
58 94 149
59 94 160
61 97 168
58 93 150
59 93 149
60 95 155
60 96 151
60 96 149
60 96 152
61 96 151
61 97 159
62 98 160
61 97 162
60 96 163
62 98 166
60 95 148
61 97 157
60 95 159
61 96 154
60 96 155
61 97 155
61 97 153
61 97 162
61 97 153
60 96 151
60 96 152
62 97 151
62 98 161
61 97 152
62 97 159
61 96 157
61 96 154
60 95 153
60 95 145
61 97 163
60 96 148
61 97 154
61 97 154
61 97 151
61 97 152
61 97 160
61 97 158
63 99 163
62 98 162
61 96 150
61 96 157
61 96 148
61 97 154
61 97 149
61 97 152
62 97 151
62 97 156
60 96 144
61 97 147
61 97 152
62 97 158
62 98 160
61 97 148
60 96 142
61 97 145
61 96 145
61 97 151
61 96 144
61 97 154
59 94 139
61 97 153
62 98 154
62 98 154
61 96 148
61 97 151
62 98 155
61 96 152
61 96 152
61 97 148
61 96 151
61 96 148
61 96 141
62 98 161
61 97 155
62 98 157
62 97 150
60 96 148
60 95 143
61 97 152
61 96 148
60 95 131
60 95 136
61 96 149
60 95 139
62 97 149
62 97 147
60 96 145
63 98 153
61 96 141
60 95 135
62 98 154
61 95 144
62 97 148
60 95 139
61 96 143
59 94 136
61 96 136
60 94 142
59 94 132
59 93 129
60 94 137
60 94 136
60 95 138
60 94 132
58 91 129
57 90 125
63 93 121
123 132 18
126 134 0
113 115 0
118 124 0
125 131 0
116 125 0
108 111 0
100 104 0
104 108 0
108 110 0
117 120 0
115 121 0
112 117 0
109 109 0
96 99 0
108 112 0
101 102 0
104 105 0
102 104 0
101 104 0
106 111 0
110 110 0
105 106 0
108 106 0
107 108 0
109 107 0
98 97 0
109 113 0
106 102 0
101 99 0
99 98 0
90 88 0
89 88 0
90 87 0
95 90 0
85 81 0
90 85 0
81 73 0
80 73 0
81 74 0
94 86 0
88 80 0
90 83 0
87 80 0
92 85 0
91 85 0
86 81 0
94 88 0
83 78 0
98 90 0
96 89 0
94 86 11
97 90 0
98 93 0
99 91 11
97 91 0
94 86 0
100 93 0
98 92 0
88 81 0
90 84 0
97 90 0
89 85 16
95 87 0
95 87 0
88 81 0
104 99 0
112 108 0
121 118 0
132 131 0
129 125 0
123 125 0
124 125 0
123 121 0
129 127 0
132 134 0
128 128 0
139 141 0
139 143 0
136 138 0
141 145 0
139 140 0
137 141 0
141 148 0
140 143 0
143 148 0
152 161 0
146 153 0
143 151 0
150 158 0
140 147 0
153 161 0
147 153 0
146 153 0
143 153 0
153 162 0
149 157 0
151 161 0
155 165 0
156 168 0
158 170 0
157 167 0
152 160 0
154 166 0
160 170 0
156 170 0
155 169 0
158 170 0
156 167 0
157 169 0
159 171 0
157 167 0
152 164 0
156 171 0
165 180 0
156 171 0
159 173 0
161 177 0
162 176 0
164 178 0
162 178 0
161 176 0
163 178 0
165 179 0
161 176 0
162 178 0
161 175 0
162 176 0
168 185 0
167 184 0
161 179 0
167 184 0
166 182 0
166 182 0
162 179 0
165 183 0
157 174 0
160 177 0
166 184 0
165 181 0
187 208 193
196 215 201
194 214 204
197 216 212
200 219 220
198 218 204
190 211 184
178 202 157
180 204 149
179 203 144
178 203 157
177 201 153
181 206 155
176 200 137
181 206 163
173 197 137
179 204 161
175 200 144
178 202 147
178 203 153
178 202 137
179 203 149
179 204 165
177 201 149
178 202 151
176 201 157
176 201 153
172 196 135
174 199 140
176 201 159
178 202 159
179 204 159
174 198 144
175 199 137
178 204 161
175 200 130
177 202 153
175 199 133
172 197 122
179 204 163
177 202 153
175 201 161
176 201 153
173 198 142
176 200 137
177 201 147
176 201 130
174 199 153
178 203 153
172 196 130
180 205 155
179 203 159
176 201 151
178 202 163
176 200 137
177 203 161
180 205 157
177 201 135
179 204 157
180 204 157
180 205 153
175 199 157
173 197 128
176 201 149
179 203 155
178 201 157
175 199 140
179 204 171
176 200 140
182 205 165
162 186 167
142 167 183
155 179 194
138 164 178
147 171 180
150 174 166
144 167 170
145 169 169
158 182 192
150 174 169
152 177 185
143 167 180
155 180 172
144 167 162
155 179 186
142 166 188
148 171 188
142 166 190
134 158 182
171 191 215
199 218 245
149 171 216
119 145 203
123 148 205
117 143 199
120 146 202
119 144 199
119 144 200
126 150 201
122 146 197
120 145 197
132 154 200
129 152 198
125 148 194
116 140 195
126 149 194
111 135 187
61 97 168
61 98 172
61 98 168
63 99 166
63 99 161
61 97 167
61 97 164
59 95 168
61 97 167
58 93 157
60 95 155
74 106 151
71 102 147
69 101 160
76 107 156
65 95 137
68 99 146
61 93 151
57 92 151
58 93 150
59 94 162
60 95 162
57 92 154
60 96 160
59 94 156
57 92 158
59 94 153
60 95 152
57 91 142
58 92 151
60 96 158
59 95 154
59 94 158
59 94 153
60 95 160
59 95 162
59 94 158
58 94 154
60 96 158
59 95 153
60 96 157
59 95 154
59 94 153
59 94 147
59 94 154
59 94 151
61 96 155
61 97 157
60 95 152
60 95 154
61 97 162
60 95 151
60 95 150
60 96 154
61 97 158
60 96 159
62 97 158
59 95 151
61 96 155
61 97 157
62 97 165
61 97 158
63 99 159
61 96 151
61 97 156
61 96 158
61 97 154
63 99 166
60 95 147
61 97 156
60 96 147
61 97 157
60 95 143
61 97 157
62 98 160
62 97 156
62 97 160
60 96 149
61 97 158
60 95 141
61 96 145
62 98 156
60 95 151
62 97 159
61 96 149
61 96 151
63 99 164
61 96 153
61 96 150
61 97 152
62 98 158
61 97 150
62 98 159
60 96 147
61 97 155
62 98 158
62 97 155
62 98 158
62 98 155
61 96 150
61 97 149
60 95 141
61 96 151
59 94 135
61 96 151
62 97 154
61 96 151
61 97 157
61 96 150
61 97 148
61 97 143
61 96 144
60 96 142
62 97 154
62 97 155
62 98 156
62 97 147
60 95 143
61 96 151
62 97 150
62 97 145
62 98 153
61 96 144
61 96 140
61 96 141
61 96 136
60 95 138
61 97 149
62 96 150
60 95 139
60 95 137
60 95 143
61 96 144
60 95 141
60 95 142
60 94 143
61 95 140
60 95 142
61 96 144
61 96 148
59 93 130
60 95 141
60 94 137
60 95 137
60 94 135
60 94 135
60 94 140
58 91 125
59 92 128
59 93 133
57 90 116
58 91 126
90 110 97
118 128 0
118 126 0
116 123 0
106 111 0
106 114 0
120 128 0
109 115 0
117 122 0
108 114 0
102 107 0
122 125 0
116 122 0
112 117 0
113 115 0
107 110 0
104 112 0
103 105 0
104 104 0
104 104 0
105 106 0
103 102 0
119 122 0
103 105 0
100 105 0
98 101 0
114 117 0
95 94 0
97 98 0
110 108 0
100 100 0
101 99 0
95 93 0
98 94 0
108 107 0
99 99 0
91 88 0
98 96 0
104 103 0
107 103 0
105 99 0
92 91 0
98 95 0
85 81 0
92 88 0
101 98 0
95 89 0
88 81 11
82 72 0
91 84 0
89 80 0
91 83 0
99 89 0
84 76 0
84 79 0
100 92 0
85 78 0
92 85 0
101 95 0
97 92 0
104 98 0
97 93 0
98 95 0
112 109 0
106 100 0
118 115 0
121 122 0
128 130 0
135 137 0
135 136 0
121 121 0
138 141 0
128 129 0
135 135 0
127 124 0
125 125 0
134 136 0
141 143 0
133 136 0
147 151 0
140 141 0
153 160 0
145 154 0
146 150 0
139 147 0
142 145 0
149 157 0
152 160 0
147 153 0
149 159 0
149 154 0
144 153 0
149 158 0
146 154 0
156 167 0
155 164 0
157 168 0
160 171 0
156 166 0
148 156 0
149 162 0
150 161 0
157 170 0
153 162 0
157 169 0
152 163 0
155 167 0
157 168 0
155 165 0
156 168 0
153 165 0
162 176 0
159 172 0
163 177 0
156 169 0
158 171 0
157 171 0
161 176 0
159 171 0
161 177 0
162 176 0
162 178 0
161 177 0
159 173 0
167 182 0
161 179 0
166 182 0
165 180 0
160 176 0
162 179 0
162 179 0
163 177 0
158 173 0
162 177 0
162 178 0
166 182 0
164 182 0
163 181 0
168 187 0
163 182 0
165 184 0
200 220 209
194 215 207
198 218 212
194 214 203
188 210 177
178 201 153
180 203 142
182 206 169
179 204 163
178 201 157
177 201 144
176 199 142
178 203 153
176 201 147
175 199 142
176 200 147
177 202 161
178 203 153
178 203 149
176 201 137
177 201 144
180 205 171
180 205 165
176 200 147
175 200 155
176 201 155
175 200 140
178 202 147
178 203 155
173 198 163
177 202 153
176 202 157
180 205 165
176 201 155
176 201 144
174 200 163
176 201 142
176 202 153
177 202 142
176 202 161
178 203 147
176 201 153
177 203 157
178 202 137
177 201 135
173 198 151
175 200 151
172 198 159
178 202 137
174 199 144
178 204 173
179 203 159
178 203 163
178 202 147
180 205 167
180 204 167
177 202 142
180 204 153
174 199 163
174 199 144
177 202 151
176 200 137
177 200 140
179 204 169
180 205 159
178 203 159
179 203 155
177 201 137
178 202 142
177 200 140
167 191 173
139 164 175
148 173 192
152 177 195
138 163 181
152 177 176
151 175 186
141 166 185
145 170 185
138 162 166
151 176 184
155 179 183
142 166 173
147 170 182
144 168 175
153 176 169
146 169 180
133 156 167
146 169 193
142 165 186
151 174 199
186 206 233
135 159 211
119 145 201
123 148 202
111 138 197
119 144 198
115 141 195
122 147 200
115 140 193
123 146 197
108 134 193
125 149 198
127 151 196
121 145 193
127 149 197
120 143 183
104 130 185
65 101 168
61 97 168
60 96 164
63 98 167
63 98 165
62 97 156
62 97 160
61 98 165
59 95 166
62 97 161
63 97 157
59 94 157
70 102 153
62 96 144
63 98 164
61 95 145
62 95 141
56 90 148
58 93 153
56 90 146
57 91 143
59 94 156
59 94 153
60 95 155
59 94 154
58 92 150
58 93 153
58 93 149
58 94 163
57 92 147
59 94 155
59 94 155
60 95 160
60 96 157
59 94 154
58 93 148
59 94 154
61 97 155
60 95 150
59 94 145
59 94 149
60 96 159
60 95 151
60 95 160
59 94 155
60 96 154
61 97 158
61 97 163
60 95 151
62 98 162
61 96 156
61 97 160
61 97 155
61 97 156
60 96 154
61 96 157
60 96 154
61 96 155
61 96 151
61 97 156
62 98 158
61 97 154
62 98 162
60 96 149
62 98 159
60 96 151
61 97 156
61 96 150
61 97 155
62 98 155
61 97 159
60 96 157
61 96 152
60 95 149
61 97 152
61 97 154
62 97 155
62 98 161
60 96 152
63 99 159
61 97 148
61 96 145
60 96 151
61 96 152
60 95 143
62 98 161
62 98 158
60 96 152
62 98 157
61 96 148
62 98 159
61 97 156
62 97 151
61 97 153
62 98 162
60 96 153
60 95 144
60 96 151
61 96 153
60 96 148
61 96 152
60 95 143
62 97 156
61 97 149
62 98 153
61 96 148
60 95 142
61 97 155
61 96 145
62 97 156
61 97 153
61 97 151
61 97 147
61 96 152
62 97 149
62 98 155
61 96 147
61 96 142
62 97 149
61 96 143
61 97 150
61 96 143
61 97 151
62 97 148
61 96 143
62 97 150
61 96 152
61 96 148
60 95 137
62 97 156
60 96 142
60 95 139
60 95 145
61 96 140
60 95 142
60 94 135
60 95 130
61 95 139
60 94 137
61 96 143
61 94 135
61 96 140
58 93 134
58 90 121
59 94 129
60 95 143
59 93 140
59 93 132
60 94 133
58 91 128
57 90 124
102 115 45
119 128 0
123 130 0
109 115 0
121 128 0
122 130 0
121 127 0
107 111 0
118 123 0
100 105 0
118 123 0
108 113 0
117 122 0
110 112 0
118 123 0
102 108 0
99 99 0
110 113 0
110 112 0
114 115 0
100 99 0
112 113 0
101 102 0
114 116 0
114 117 0
106 107 0
86 84 0
106 106 0
103 102 0
115 113 0
110 110 0
111 112 0
111 112 0
95 95 0
97 95 0
86 86 0
106 104 0
108 106 0
107 106 0
107 105 0
115 116 0
109 106 0
111 107 0
106 108 0
114 115 0
113 111 0
91 88 0
103 100 0
109 111 0
106 104 0
111 110 0
109 108 0
105 103 0
111 111 0
117 114 0
110 110 0
120 117 0
110 108 0
114 109 0
111 108 0
117 115 0
117 113 0
120 119 0
119 117 0
125 125 0
130 130 0
128 127 0
126 124 0
122 122 0
134 137 0
117 118 0
133 133 0
128 126 0
140 142 0
140 146 0
134 135 0
141 144 0
129 130 0
139 140 0
137 143 0
131 132 0
138 139 0
142 145 0
138 140 0
145 149 0
143 149 0
150 156 0
150 157 0
138 141 0
147 153 0
150 158 0
148 157 0
145 153 0
147 153 0
151 158 0
147 154 0
158 167 0
149 158 0
152 160 0
154 164 0
154 161 0
148 158 0
152 162 0
150 158 0
157 167 0
155 164 0
157 168 0
155 166 0
160 170 0
158 170 0
160 171 0
161 174 0
154 167 0
160 173 0
154 169 0
157 170 0
162 178 0
164 179 0
161 175 0
158 173 0
156 168 0
160 174 0
166 184 0
159 174 0
162 179 0
159 176 0
163 179 0
158 174 0
164 179 0
166 183 0
168 184 0
165 181 0
163 181 0
160 177 0
165 183 0
158 174 0
162 180 0
165 183 0
163 179 0
167 185 0
160 179 0
198 216 211
188 209 184
185 208 169
180 204 157
179 204 171
176 201 165
181 205 153
180 203 142
175 199 133
182 207 163
178 202 130
180 204 133
178 203 151
178 202 149
180 204 157
175 199 140
173 198 153
180 205 155
176 200 137
176 200 142
176 200 142
174 199 135
176 201 147
179 204 169
179 204 159
177 202 151
175 200 135
177 202 147
176 201 155
180 204 157
177 203 169
175 199 144
176 201 142
176 201 149
175 200 144
179 203 155
178 203 151
175 200 151
178 204 165
174 200 153
178 204 173
176 201 133
178 203 149
175 200 144
176 200 161
176 201 151
177 201 151
177 202 149
178 202 155
181 206 173
178 202 147
176 201 147
181 205 163
177 203 147
175 200 137
173 197 137
171 196 140
175 200 151
177 201 140
176 201 161
179 203 159
176 201 155
179 204 153
177 202 161
176 200 155
180 204 163
181 205 171
180 205 171
179 202 144
176 200 128
171 196 164
148 173 178
141 166 189
150 174 175
149 173 188
142 167 185
139 163 175
146 170 181
145 169 176
141 166 185
152 176 189
142 166 180
163 187 191
153 177 169
153 176 188
144 167 181
143 167 180
149 173 177
136 160 175
144 167 186
154 176 194
140 162 182
150 173 195
120 146 202
115 141 199
126 151 203
112 138 199
117 142 200
122 147 197
125 150 200
120 144 194
125 149 199
128 152 202
121 145 199
128 151 201
129 152 198
127 150 194
115 139 191
85 115 181
63 99 172
60 96 161
61 96 166
61 97 169
62 98 165
64 99 168
59 95 156
60 96 163
61 97 165
59 94 153
62 94 149
68 100 154
79 109 152
68 101 150
67 100 146
63 95 150
63 97 147
59 93 148
55 88 140
57 92 147
57 92 151
57 92 145
57 91 146
60 95 157
57 92 141
57 91 151
57 91 148
58 92 156
58 93 153
56 90 143
59 94 153
58 92 150
58 94 154
58 93 149
58 92 144
59 94 149
59 94 152
61 96 157
61 96 157
59 95 147
59 94 148
60 95 154
59 95 151
59 94 155
60 95 155
60 95 159
61 96 153
61 96 149
60 95 149
60 96 160
59 94 150
60 95 149
59 95 149
61 97 161
61 96 157
60 96 155
61 96 151
60 95 147
60 96 153
61 97 158
60 95 157
62 98 153
61 96 150
60 95 147
62 98 154
61 96 152
60 95 148
61 96 157
62 97 155
61 97 147
61 96 148
60 96 151
60 95 152
61 97 157
62 98 160
60 95 148
61 96 149
62 97 151
61 97 151
61 96 147
62 98 156
60 95 145
61 97 156
61 96 145
61 97 152
61 96 147
61 96 147
61 96 153
61 97 152
61 97 147
60 96 148
62 97 149
60 96 155
62 97 157
62 98 159
62 97 155
61 96 151
61 96 143
61 97 148
61 96 147
62 97 151
61 97 149
61 96 147
61 97 150
60 96 149
62 97 153
62 98 153
60 95 144
61 97 149
60 96 145
61 96 147
61 96 149
62 97 149
62 97 148
62 97 151
60 95 140
61 96 152
61 96 148
61 96 137
61 97 149
60 95 143
60 95 143
62 97 150
61 96 145
61 96 145
60 95 136
60 95 140
60 95 133
60 95 145
61 96 143
59 93 128
62 97 140
60 95 142
60 95 142
60 95 145
60 95 132
62 97 149
60 94 137
60 94 133
60 95 141
61 96 144
61 95 140
59 93 129
58 92 124
59 93 126
58 92 132
59 92 125
59 92 135
61 95 138
58 89 114
122 132 25
113 121 0
111 119 0
116 124 0
116 124 0
124 132 0
106 111 0
111 116 0
114 121 0
109 116 0
113 121 0
125 134 0
106 113 0
109 113 0
116 121 0
113 116 0
116 122 0
115 121 0
109 114 0
108 110 0
115 117 0
110 112 0
102 102 0
110 110 0
99 102 0
114 117 0
108 112 0
108 111 0
103 103 0
108 108 0
107 106 0
95 95 0
105 103 0
103 101 0
101 101 0
98 95 0
104 106 0
103 105 0
98 96 0
95 91 0
104 102 0
104 102 0
100 97 0
99 98 0
101 99 0
98 93 0
105 105 0
97 93 0
119 117 0
118 115 0
107 104 0
105 102 0
113 116 0
116 117 0
121 117 0
109 106 0
108 107 0
117 115 0
111 109 0
122 120 0
110 107 0
116 111 0
134 136 0
128 129 0
130 129 0
133 135 0
123 122 0
124 125 0
138 138 0
127 125 0
137 142 0
134 138 0
141 144 0
135 139 0
134 135 0
132 131 0
133 136 0
145 148 0
139 142 0
145 149 0
137 145 0
128 131 0
131 135 0
145 153 0
149 151 0
146 153 0
143 149 0
142 148 0
145 153 0
149 158 0
148 156 0
146 154 0
143 148 0
146 155 0
152 160 0
151 157 0
152 162 0
154 166 0
151 163 0
150 158 0
154 164 0
157 167 0
152 167 0
153 161 0
156 168 0
147 157 0
156 167 0
151 162 0
156 168 0
158 170 0
159 173 0
161 175 0
157 171 0
162 175 0
158 169 0
161 175 0
160 174 0
159 171 0
163 176 0
161 174 0
162 177 0
163 178 0
162 177 0
161 177 0
166 183 0
161 177 0
161 175 0
164 180 0
164 183 0
158 173 0
159 175 0
162 178 0
161 178 0
164 179 0
167 186 0
164 181 0
165 181 0
164 178 0
164 181 0
165 182 0
168 186 0
180 203 147
180 204 137
178 202 144
176 200 140
180 203 151
180 204 155
181 206 157
180 204 163
177 201 144
176 200 151
177 201 117
179 204 149
182 206 159
176 200 142
180 204 151
178 202 147
177 203 147
174 198 147
177 202 147
174 199 140
177 202 153
173 199 157
181 206 165
170 195 142
175 200 147
176 201 147
178 203 153
178 204 149
176 201 149
180 205 157
173 199 153
174 199 153
176 200 144
180 205 159
177 201 130
172 197 142
176 200 142
178 203 159
177 203 173
175 200 144
176 202 159
179 205 159
177 202 157
175 200 149
171 195 130
175 201 151
178 204 167
172 197 137
179 204 151
180 205 163
173 198 128
175 200 137
177 201 167
176 201 142
177 201 142
178 203 155
174 199 142
180 204 142
177 202 144
180 205 167
175 199 153
177 201 144
182 206 165
177 202 159
179 204 153
176 200 144
175 199 147
178 202 159
173 197 137
179 202 149
175 199 145
144 170 193
156 181 194
140 166 185
140 164 183
144 169 173
141 165 185
157 181 198
154 179 197
141 165 169
151 175 175
146 170 181
154 178 167
144 168 175
150 174 177
152 175 181
150 174 173
150 173 186
158 181 196
137 160 185
145 168 193
140 164 187
137 160 184
136 160 185
135 159 204
119 145 203
124 149 201
123 148 203
115 141 199
112 138 197
119 144 199
134 158 208
106 132 191
120 145 196
117 142 195
124 148 196
119 143 192
130 152 197
122 145 197
88 117 180
62 98 175
61 97 167
61 97 167
63 99 169
60 95 156
59 95 155
59 94 160
62 97 158
62 97 161
60 95 155
63 97 150
73 105 151
77 106 140
70 101 149
71 101 143
67 100 149
63 97 149
59 93 153
58 93 159
57 91 143
56 90 150
56 89 129
58 93 153
57 91 149
56 90 148
55 88 144
57 91 150
58 92 144
58 93 154
56 90 140
58 93 150
59 94 149
59 94 151
60 95 152
60 95 157
58 93 141
60 96 151
60 95 157
59 95 150
59 94 149
58 93 157
59 94 152
61 97 157
60 95 150
58 93 149
61 97 161
60 95 148
60 96 159
58 93 152
60 95 155
61 96 155
60 95 148
60 95 148
61 97 153
60 95 148
59 95 151
61 96 152
61 97 152
60 96 155
60 95 150
61 97 161
59 95 143
60 95 139
60 96 147
60 95 154
60 95 143
61 96 153
61 96 147
60 96 152
61 96 148
61 96 148
61 97 159
61 96 152
61 96 156
61 96 148
61 96 153
61 96 152
60 96 151
61 97 158
60 96 148
61 97 154
61 96 150
62 97 157
61 96 151
61 97 153
62 97 150
62 97 155
61 97 151
62 98 156
62 98 152
61 96 145
61 96 147
61 97 154
62 97 154
60 96 145
61 97 150
61 97 148
62 97 152
62 98 157
61 96 148
62 98 160
60 96 145
61 97 152
60 95 136
61 96 145
61 96 141
62 97 152
62 97 156
61 96 150
60 95 139
61 96 139
61 97 152
60 96 145
61 96 139
60 96 148
62 97 149
61 96 140
60 95 143
61 96 151
61 96 147
61 96 140
61 96 147
61 96 149
60 94 136
59 93 134
60 95 134
61 95 134
62 97 145
60 95 137
61 96 144
62 97 148
60 95 143
61 96 149
60 95 140
60 95 135
61 96 146
59 93 128
61 96 140
59 94 133
61 95 140
59 93 129
59 94 124
60 94 136
59 93 128
58 92 124
58 91 124
58 92 132
58 91 131
90 107 87
112 123 0
123 130 0
121 127 0
120 129 0
113 120 0
114 122 0
124 132 0
105 113 0
113 119 0
108 115 0
121 125 0
115 123 0
111 117 0
124 130 0
104 106 0
111 117 0
108 112 0
113 118 0
103 107 0
113 119 0
113 114 0
100 105 0
116 120 0
119 122 0
109 112 0
107 107 0
114 118 0
115 116 0
108 109 0
97 95 0
101 101 0
106 107 0
117 115 0
106 106 0
100 100 0
102 99 0
101 101 0
107 103 0
106 105 0
112 111 0
108 109 0
107 107 0
105 105 0
108 106 0
101 100 0
105 102 0
106 105 0
113 112 0
110 110 0
106 99 0
117 119 0
105 99 0
115 116 0
114 111 0
114 114 0
108 106 0
110 109 0
118 120 0
129 130 0
125 128 0
127 128 0
124 122 0
127 124 0
119 120 0
127 127 0
120 120 0
125 123 0
129 131 0
123 122 0
132 133 0
135 139 0
132 135 0
127 128 0
135 141 0
129 130 0
143 148 0
147 153 0
139 146 0
142 145 0
142 148 0
140 145 0
128 134 0
151 157 0
148 154 0
140 144 0
152 160 0
143 148 0
146 153 0
150 157 0
142 145 0
149 155 0
144 152 0
154 164 0
139 145 0
147 156 0
151 160 0
155 167 0
155 167 0
155 165 0
148 155 0
157 167 0
156 165 0
161 174 0
153 163 0
150 161 0
158 171 0
156 168 0
155 166 0
160 173 0
158 170 0
157 170 0
157 169 0
161 175 0
161 177 0
161 175 0
154 171 0
158 171 0
166 182 0
165 180 0
168 182 0
164 179 0
160 174 0
163 176 0
160 175 0
160 175 0
167 185 0
162 177 0
163 179 0
162 179 0
165 180 0
162 179 0
165 182 0
163 178 0
171 189 0
165 183 0
163 180 0
162 180 0
159 174 0
169 186 0
166 183 0
162 180 0
179 203 159
180 204 149
178 202 147
176 200 142
176 200 137
180 204 153
178 202 142
177 201 153
175 200 161
179 203 147
181 205 173
174 198 149
180 205 159
178 203 151
176 201 155
177 201 147
180 205 151
173 198 137
175 200 155
175 199 144
174 199 142
179 205 167
174 200 144
177 203 153
175 199 144
178 202 133
180 205 169
176 202 151
176 201 153
176 200 137
178 202 149
175 200 137
174 200 153
179 204 167
178 203 151
172 197 147
179 205 155
177 202 153
178 204 161
174 199 155
174 200 142
176 201 142
179 203 159
175 200 142
177 202 153
175 200 149
175 200 167
174 199 142
172 196 144
178 203 171
175 200 155
177 202 147
178 203 159
175 201 153
172 197 137
174 198 144
179 204 155
176 201 133
179 204 157
178 203 155
180 205 157
176 200 135
178 203 153
177 201 157
175 200 149
176 202 161
175 200 147
176 201 144
182 207 181
178 202 151
180 203 142
155 179 157
143 167 170
148 173 185
151 176 188
137 162 170
143 168 186
144 168 171
147 171 178
135 160 175
147 171 181
151 175 180
148 172 176
139 163 173
156 179 192
145 169 183
152 176 188
150 173 175
144 168 172
155 178 185
141 165 175
146 169 178
145 169 171
150 172 185
136 160 167
124 149 190
126 150 196
118 144 201
123 148 200
112 138 194
117 143 199
128 152 202
115 140 194
125 149 199
111 137 189
126 150 201
127 150 196
114 138 188
124 147 193
106 131 182
75 107 170
61 97 167
61 97 163
61 97 168
60 96 160
65 100 162
59 94 150
64 98 157
60 96 165
59 94 163
59 94 154
61 96 160
68 101 147
75 106 154
65 97 149
64 97 141
67 99 142
69 99 134
56 90 146
57 91 143
58 93 158
58 93 151
58 94 150
59 94 154
57 92 144
57 92 151
59 94 154
58 92 152
58 93 157
59 94 150
59 94 153
60 96 155
59 93 145
58 92 148
59 94 153
59 95 151
60 95 162
60 95 151
61 96 157
60 95 153
60 95 154
59 94 151
59 95 155
60 95 152
60 95 148
61 97 158
60 96 151
60 95 152
61 96 145
61 97 162
60 95 150
60 96 151
60 95 151
61 97 158
61 97 158
60 96 149
61 96 156
61 97 159
60 95 153
59 94 149
61 97 151
61 96 150
61 96 153
59 94 139
61 97 157
60 95 146
61 96 149
60 96 154
61 97 151
61 97 150
61 96 154
62 98 155
61 97 159
60 95 141
60 96 147
60 95 147
61 96 150
60 96 145
62 97 156
60 95 144
60 96 153
60 95 143
61 96 148
61 96 151
60 95 144
61 96 143
60 95 139
61 96 148
60 96 147
62 97 156
62 97 156
61 97 153
61 96 145
61 96 148
62 98 156
61 97 152
61 97 153
60 95 140
61 96 145
60 95 144
60 95 135
61 96 151
61 96 148
61 96 149
61 97 151
61 97 156
61 97 150
61 97 154
61 97 144
61 96 142
61 97 150
60 95 143
61 97 151
60 95 137
61 97 145
61 96 141
60 95 140
61 96 143
60 96 140
61 96 144
60 95 147
61 97 147
62 97 145
62 97 150
62 97 152
60 95 143
61 96 143
59 93 125
60 94 132
61 96 144
61 95 141
60 95 139
61 96 142
62 98 153
58 92 129
59 93 129
59 94 128
60 95 142
59 93 120
60 94 133
61 95 136
60 95 138
60 94 137
59 93 128
58 92 128
58 92 124
57 90 123
57 89 120
110 122 51
124 131 0
114 122 0
119 126 0
126 134 0
106 111 0
117 124 0
111 116 0
119 126 0
116 124 0
113 118 0
105 111 0
120 126 0
102 107 0
120 126 0
120 127 0
99 106 0
120 126 0
110 113 0
110 111 0
111 117 0
119 123 0
121 127 0
112 115 0
118 121 0
116 122 0
119 122 0
108 112 0
115 117 0
118 122 0
112 113 0
108 111 0
111 115 0
114 115 0
111 111 0
118 121 0
104 103 0
110 110 0
112 112 0
112 112 0
107 106 0
114 115 0
112 115 0
122 124 0
111 111 0
107 107 0
107 104 0
112 111 0
111 111 0
112 111 0
116 114 0
111 110 0
118 119 0
117 113 0
116 115 0
124 127 0
120 121 0
111 107 0
125 125 0
116 115 0
126 125 0
131 134 0
114 114 0
118 119 0
115 114 0
133 135 0
127 129 0
127 128 0
137 139 0
132 134 0
130 134 0
124 127 0
133 135 0
135 142 0
135 138 0
145 149 0
140 145 0
141 145 0
145 151 0
143 146 0
135 138 0
146 149 0
142 145 0
145 151 0
146 152 0
148 157 0
154 160 0
147 153 0
143 149 0
146 155 0
154 163 0
142 148 0
150 159 0
143 150 0
152 160 0
151 159 0
148 160 0
147 155 0
155 163 0
149 157 0
163 174 0
151 162 0
157 168 0
161 173 0
158 171 0
159 174 0
154 165 0
157 170 0
156 168 0
147 155 0
162 175 0
161 176 0
162 175 0
158 172 0
159 173 0
157 171 0
154 167 0
164 178 0
161 175 0
161 176 0
157 172 0
158 173 0
163 179 0
162 177 0
160 175 0
167 186 0
161 177 0
163 181 0
163 177 0
160 178 0
166 184 0
165 180 0
165 183 0
163 181 0
168 182 0
163 179 0
166 186 0
167 186 0
167 184 0
168 186 0
164 178 0
159 177 0
180 204 163
179 203 167
177 202 142
180 204 151
179 203 142
181 204 149
176 201 149
176 200 142
174 198 147
176 201 153
178 202 159
177 202 142
181 205 177
178 203 167
180 204 163
176 200 151
176 200 147
173 198 144
175 200 155
180 205 171
178 203 165
176 201 125
178 204 155
176 202 140
175 201 151
174 200 151
176 201 157
170 195 130
177 203 151
176 202 155
173 198 140
172 198 153
175 201 151
175 200 155
178 203 157
178 204 165
173 199 155
174 199 130
177 203 169
172 197 155
175 200 135
178 203 157
178 204 173
177 201 149
178 202 140
175 200 149
177 203 157
175 201 153
177 202 157
173 199 159
176 200 137
175 201 165
176 200 153
177 202 159
176 201 161
181 205 157
179 203 159
178 204 179
176 201 144
177 202 149
178 202 153
177 201 153
176 201 133
180 205 157
175 200 151
176 201 149
177 201 151
175 199 133
180 204 159
177 201 140
177 201 157
170 193 169
150 175 183
144 168 175
158 183 181
140 166 182
140 165 186
148 173 185
144 169 185
147 171 177
152 176 190
145 169 179
151 175 186
153 177 188
153 176 192
142 166 185
143 166 186
149 173 186
143 167 172
144 167 173
140 164 178
148 170 181
154 177 194
146 169 190
139 163 184
141 163 179
132 156 172
111 137 196
113 139 194
122 147 201
115 141 197
114 139 194
110 136 190
119 144 197
124 148 200
112 137 192
121 145 195
127 150 196
129 152 196
109 134 192
107 132 181
72 105 166
66 101 171
60 97 169
63 98 167
62 98 161
60 96 163
59 95 164
64 99 163
60 96 163
60 95 153
60 94 155
64 98 155
62 95 151
71 103 149
72 102 145
63 97 151
77 106 138
63 94 140
58 91 148
55 89 143
57 90 139
59 94 156
54 87 137
58 93 150
57 91 152
57 91 144
59 95 157
58 92 153
59 95 160
59 95 157
58 93 153
59 94 150
60 95 153
58 94 151
60 95 145
58 93 143
59 95 151
60 95 151
59 94 148
59 94 151
58 92 148
59 94 140
61 97 162
60 96 150
59 94 157
59 94 150
60 95 151
61 97 153
60 95 155
60 95 154
61 97 160
60 95 162
60 96 144
61 96 155
59 94 150
61 96 153
61 97 160
60 95 151
59 94 149
60 95 148
61 97 153
59 95 151
60 95 141
62 97 153
61 97 163
62 97 151
61 96 148
60 96 149
61 97 152
60 95 149
61 96 149
61 96 148
61 96 148
61 97 156
60 95 150
60 95 141
62 98 157
59 95 141
61 96 149
61 96 151
61 97 149
62 97 154
62 98 153
62 97 152
61 97 151
61 96 149
61 97 150
62 97 149
61 96 150
60 95 140
62 98 151
62 97 154
59 94 145
62 98 158
62 97 158
60 96 145
61 96 148
60 96 142
61 96 149
62 97 157
61 96 149
63 98 149
62 97 155
60 95 149
62 97 147
61 96 149
61 96 144
61 96 148
60 96 148
61 97 150
61 96 144
61 96 149
61 96 147
61 96 151
61 97 148
61 97 148
61 96 147
61 96 137
61 97 151
61 96 144
60 95 142
61 96 142
61 96 147
60 95 137
60 94 143
61 97 149
62 97 149
62 97 145
59 93 142
61 95 142
61 96 141
60 95 138
61 96 145
60 95 131
61 96 142
59 93 137
60 95 133
59 93 131
59 93 133
59 93 123
59 93 124
60 94 140
61 95 137
56 89 117
57 90 113
56 89 111
63 91 104
109 118 0
117 126 0
110 119 0
122 132 0
113 121 0
116 123 0
113 122 0
113 118 0
112 118 0
118 127 0
114 121 0
121 128 0
110 116 0
112 119 0
110 117 0
119 123 0
123 132 0
124 131 0
110 115 0
111 114 0
116 122 0
108 114 0
113 117 0
119 125 0
117 121 0
103 107 0
105 107 0
98 100 0
108 111 0
99 99 0
115 118 0
102 103 0
105 107 0
114 115 0
110 109 0
100 103 0
105 108 0
113 112 0
117 119 0
113 115 0
113 116 0
115 115 0
110 111 0
110 108 0
121 123 0
119 121 0
115 115 0
111 111 0
116 116 0
108 108 0
121 121 0
116 118 0
124 128 0
125 128 0
120 120 0
123 122 0
116 118 0
126 126 0
124 125 0
120 122 0
123 124 0
129 129 0
128 130 0
118 118 0
116 117 0
123 126 0
128 127 0
124 126 0
133 133 0
139 142 0
132 134 0
134 138 0
127 129 0
136 136 0
138 141 0
145 149 0
144 152 0
131 135 0
141 144 0
134 136 0
141 149 0
141 145 0
148 156 0
143 149 0
144 150 0
143 149 0
151 158 0
146 151 0
148 155 0
144 151 0
144 151 0
149 156 0
154 164 0
149 155 0
145 155 0
146 153 0
151 161 0
150 158 0
153 162 0
144 151 0
156 167 0
145 153 0
152 164 0
155 164 0
154 167 0
156 167 0
155 166 0
158 172 0
155 166 0
158 170 0
150 162 0
155 168 0
164 178 0
160 174 0
156 169 0
159 175 0
160 173 0
161 174 0
159 174 0
164 178 0
161 176 0
158 173 0
160 175 0
159 173 0
158 174 0
160 174 0
163 180 0
164 180 0
158 176 0
163 176 0
160 173 0
162 180 0
164 183 0
165 184 0
165 184 0
169 186 0
164 181 0
165 183 0
162 180 0
166 184 0
163 180 0
164 184 0
181 205 153
180 204 157
178 202 133
176 200 151
177 201 147
175 199 128
174 198 120
176 200 165
175 199 142
179 203 151
178 203 133
177 203 165
177 202 159
180 204 149
178 202 149
174 199 147
174 199 135
176 200 144
178 204 155
176 201 151
179 204 165
175 201 153
176 202 163
177 201 140
176 202 161
175 200 142
177 203 161
177 203 153
176 203 175
178 205 175
176 201 130
173 197 135
176 201 144
174 199 142
176 201 151
176 201 157
175 201 155
175 201 157
177 203 157
174 199 140
176 201 167
180 205 167
177 203 151
179 205 159
179 204 165
177 202 163
180 206 165
177 202 161
177 203 161
176 202 163
176 201 153
177 202 165
178 204 161
172 197 144
174 198 144
175 200 157
177 202 159
174 199 155
180 205 159
180 205 157
177 202 153
175 200 165
177 202 149
178 203 153
175 200 157
178 203 179
175 200 149
178 202 155
180 205 167
181 206 155
175 199 147
175 198 133
140 165 159
139 165 179
135 160 170
148 173 184
148 173 183
142 167 174
146 171 185
143 167 171
145 169 179
138 163 184
140 164 170
145 169 183
144 168 183
133 158 178
152 175 185
135 160 169
150 172 179
146 169 181
148 171 179
156 179 186
157 180 190
139 163 172
147 169 187
136 159 165
139 163 180
137 161 184
135 159 203
118 143 198
128 153 206
118 143 199
129 153 201
121 146 198
103 130 191
122 146 197
119 143 197
132 155 203
114 139 194
120 143 192
116 140 192
109 134 188
64 99 172
60 96 165
65 100 164
61 96 167
61 97 164
64 99 165
62 98 165
64 99 160
62 96 157
60 95 163
59 95 156
66 99 147
69 102 155
61 93 137
62 95 152
66 98 147
66 98 152
64 97 151
56 90 148
56 89 152
59 95 149
57 91 148
57 92 150
57 91 147
57 91 145
57 92 144
58 93 150
56 90 136
59 93 153
60 95 152
58 92 150
58 93 148
59 94 155
59 95 159
59 95 149
59 95 153
59 94 149
59 94 157
58 92 141
60 96 157
60 95 153
60 96 155
60 95 158
62 98 157
61 96 145
61 96 155
60 95 149
61 96 153
62 98 157
60 95 147
59 94 144
61 96 156
61 97 163
61 97 154
60 96 156
60 95 153
60 96 153
61 96 153
60 95 153
61 97 145
61 96 147
61 96 147
59 95 145
62 97 157
60 95 151
62 97 156
59 94 143
59 94 147
61 97 158
61 96 149
62 97 153
61 96 150
60 96 150
62 98 153
61 97 147
62 97 155
60 94 143
61 97 156
62 98 157
60 95 145
60 96 151
61 96 149
61 96 147
61 96 149
61 96 150
62 97 155
62 97 150
60 95 150
61 97 154
61 97 150
61 96 151
61 97 155
60 96 147
60 95 144
61 96 143
61 96 149
61 96 148
60 95 144
61 96 142
60 95 136
61 96 144
61 96 145
62 97 147
60 96 144
60 95 143
61 97 154
61 96 142
62 97 148
60 95 142
62 97 147
62 97 153
61 96 145
61 96 147
61 96 147
61 96 142
61 96 137
60 95 148
60 96 145
61 96 145
60 95 148
61 96 143
60 95 139
60 95 142
60 94 140
61 96 136
61 96 145
61 97 149
61 95 140
59 93 125
59 93 136
60 95 139
61 95 140
60 94 130
61 95 141
60 94 135
60 95 135
60 94 139
60 94 138
60 94 125
59 92 126
59 93 132
61 95 145
60 93 127
57 89 122
57 89 120
104 118 57
109 116 0
112 121 0
117 127 0
121 131 0
112 120 0
140 149 0
115 120 0
111 121 0
105 113 0
106 111 0
121 130 0
116 123 0
103 108 0
113 121 0
113 117 0
106 110 0
124 130 0
117 122 0
110 115 0
115 119 0
112 119 0
116 120 0
122 127 0
121 126 0
119 124 0
119 122 0
112 114 0
107 111 0
122 129 0
109 112 0
119 122 0
111 115 0
115 119 0
103 103 0
118 122 0
119 121 0
109 112 0
113 113 0
123 125 0
125 130 0
113 112 0
109 112 0
111 111 0
116 115 0
119 120 0
118 118 0
110 111 0
126 130 0
111 110 0
118 118 0
120 123 0
115 115 0
126 127 0
123 129 0
115 115 0
114 114 0
131 134 0
129 129 0
124 128 0
120 122 0
125 127 0
134 135 0
121 125 0
128 129 0
132 136 0
131 134 0
131 134 0
135 137 0
139 142 0
128 133 0
140 143 0
131 135 0
133 136 0
137 140 0
134 138 0
134 140 0
129 132 0
134 138 0
134 139 0
139 142 0
140 145 0
153 160 0
148 152 0
144 149 0
144 151 0
147 154 0
149 156 0
147 154 0
146 153 0
143 147 0
152 163 0
150 158 0
149 158 0
150 160 0
156 166 0
150 161 0
152 161 0
148 158 0
151 158 0
152 163 0
158 171 0
147 158 0
150 162 0
157 167 0
152 162 0
155 167 0
160 174 0
160 174 0
157 169 0
157 170 0
155 164 0
159 174 0
161 175 0
155 167 0
158 172 0
159 174 0
161 178 0
158 171 0
163 178 0
159 176 0
160 174 0
156 169 0
162 179 0
160 172 0
165 182 0
162 179 0
166 182 0
161 176 0
164 180 0
155 170 0
160 176 0
163 181 0
164 181 0
161 176 0
161 179 0
164 183 0
166 185 0
163 180 0
158 176 0
163 183 0
166 183 0
167 184 0
183 208 175
180 204 161
179 203 173
176 200 151
175 199 149
179 203 142
174 198 135
177 201 144
175 198 135
175 199 140
172 196 130
180 206 169
176 202 153
177 203 161
177 202 144
175 200 137
175 200 140
176 201 151
171 196 135
175 200 149
176 201 144
178 204 163
173 198 153
180 206 175
177 202 157
175 201 159
175 201 140
177 203 165
175 201 147
175 201 144
177 203 157
176 201 163
178 202 149
180 206 163
176 201 171
175 200 157
176 203 163
176 202 163
179 204 161
172 197 140
178 203 175
174 200 163
178 202 169
176 201 159
176 202 171
175 200 142
178 204 171
178 204 171
177 202 157
178 202 159
177 201 144
174 199 165
175 201 167
176 201 149
178 203 167
174 198 151
178 203 149
176 201 155
175 199 137
173 198 137
176 201 142
177 202 149
176 200 149
178 201 155
178 202 151
175 201 149
183 207 167
177 202 159
173 197 128
176 199 144
170 195 135
177 202 166
163 187 157
145 170 187
138 164 178
141 166 181
152 177 188
137 162 165
147 172 183
145 170 181
143 167 170
136 160 166
148 173 189
150 174 189
152 176 187
152 176 194
143 167 181
155 178 197
156 179 192
144 167 165
150 173 184
141 164 172
143 167 183
151 174 186
146 169 177
136 159 185
141 164 180
128 153 176
118 143 180
129 153 189
108 135 194
127 151 204
116 141 195
127 151 201
126 150 202
115 140 188
130 153 200
129 151 194
121 144 194
119 142 187
127 150 196
135 156 197
103 129 187
64 99 167
63 99 169
61 97 165
59 95 158
59 94 158
62 97 162
60 96 163
61 97 166
62 97 160
59 95 165
61 95 151
63 97 148
76 106 146
69 101 144
69 100 144
65 97 147
63 97 157
57 91 146
57 91 148
56 89 147
57 91 142
57 91 143
58 93 148
60 95 159
57 91 146
58 93 147
58 93 148
59 94 145
59 95 157
58 92 150
59 94 144
59 95 149
59 94 150
60 95 147
60 95 160
61 96 157
61 96 154
60 95 151
58 93 144
61 97 153
60 95 158
59 94 145
60 95 149
60 95 147
60 95 150
61 97 161
60 95 147
61 96 155
61 96 154
60 96 154
61 96 157
61 97 151
60 96 153
61 96 154
60 96 152
60 95 155
60 95 148
61 96 154
60 96 150
61 97 153
60 95 148
60 95 149
61 96 157
61 97 152
61 96 148
60 95 142
60 95 147
60 96 147
60 95 151
61 97 154
62 97 155
61 97 150
61 97 157
60 95 141
62 98 157
61 96 153
61 96 144
61 96 150
62 98 151
60 96 143
61 96 147
60 95 145
61 97 149
60 96 151
60 96 148
62 97 144
60 95 137
61 96 145
62 97 157
61 96 147
61 97 156
60 95 147
61 96 149
62 98 159
61 96 141
60 95 145
62 97 150
60 96 143
61 96 143
62 98 154
62 98 154
62 97 145
62 97 151
62 98 153
61 96 147
59 94 136
60 95 142
60 94 133
61 96 145
61 96 148
61 96 144
61 96 144
61 96 139
60 95 137
61 96 144
61 96 147
61 96 141
60 96 149
60 95 142
60 94 134
61 96 148
60 95 144
62 97 148
59 94 135
60 94 139
60 95 143
59 93 136
60 95 131
59 94 130
59 94 130
59 94 136
58 92 129
59 94 135
60 95 137
60 94 127
59 93 133
58 91 124
58 92 128
57 89 117
59 93 128
58 91 124
56 89 111
58 91 123
64 92 104
112 122 19
112 120 0
126 136 0
119 130 0
116 127 0
113 117 0
119 128 0
114 122 0
119 124 0
113 121 0
108 114 0
112 119 0
118 123 0
111 121 0
107 114 0
113 124 0
124 131 0
112 118 0
119 126 0
109 117 0
116 125 0
120 126 0
124 132 0
112 119 0
104 108 0
118 124 0
111 114 0
119 125 0
113 119 0
120 126 0
117 119 0
107 113 0
111 113 0
123 128 0
109 112 0
117 118 0
119 121 0
107 109 0
119 122 0
117 121 0
112 112 0
118 118 0
115 118 0
116 119 0
121 126 0
116 118 0
115 117 0
111 113 0
119 116 0
112 115 0
124 126 0
117 119 0
121 126 0
123 126 0
110 109 0
130 133 0
125 129 0
116 117 0
122 123 0
121 123 0
123 121 0
117 118 0
128 131 0
128 131 0
135 137 0
131 134 0
136 139 0
127 132 0
129 130 0
130 130 0
133 137 0
138 142 0
128 131 0
137 140 0
139 144 0
133 139 0
142 149 0
141 146 0
147 153 0
145 152 0
142 146 0
140 146 0
143 151 0
145 151 0
139 142 0
145 152 0
147 154 0
146 153 0
155 163 0
152 159 0
146 152 0
153 160 0
143 149 0
148 155 0
147 156 0
150 159 0
150 160 0
155 165 0
149 158 0
152 165 0
153 163 0
161 175 0
158 169 0
160 170 0
155 165 0
156 166 0
157 169 0
157 170 0
157 170 0
158 172 0
156 169 0
158 171 0
155 169 0
158 172 0
162 177 0
165 179 0
157 173 0
164 179 0
162 176 0
158 174 0
166 182 0
157 172 0
165 180 0
161 176 0
162 177 0
163 179 0
160 174 0
159 175 0
160 178 0
160 174 0
163 180 0
161 179 0
160 177 0
165 184 0
165 182 0
166 180 0
164 183 0
168 185 0
165 184 0
160 177 0
164 180 0
164 182 0
161 177 0
179 204 147
179 204 153
176 201 155
175 199 122
173 197 125
176 201 147
176 200 140
178 203 144
171 196 137
178 203 151
179 204 144
176 201 163
179 204 161
177 202 151
176 202 149
177 202 144
180 206 161
177 203 173
177 202 169
176 201 144
177 203 169
178 202 147
178 204 159
173 199 157
179 205 181
175 200 149
180 205 159
170 194 128
176 202 157
175 200 144
177 203 155
177 202 165
177 203 169
175 200 165
177 202 153
182 207 177
178 203 159
173 198 159
178 203 155
175 200 140
176 201 153
175 199 149
180 204 155
175 201 144
177 203 167
176 202 177
175 199 142
174 200 157
177 203 173
180 206 175
176 201 142
175 199 153
176 202 153
174 199 159
176 201 155
178 202 147
175 199 147
178 203 157
177 201 157
181 205 167
173 198 144
177 201 165
177 202 147
177 201 163
176 201 149
176 201 155
179 204 163
182 207 167
178 203 149
181 205 153
179 204 161
179 203 159
169 193 151
137 163 167
141 167 179
145 170 179
149 174 178
151 176 186
138 163 165
133 158 180
142 167 176
150 174 180
142 167 186
146 171 192
149 173 185
150 174 184
148 172 184
149 172 185
144 168 181
149 173 188
141 164 183
153 176 179
145 168 172
145 167 180
149 172 183
141 164 172
143 166 182
132 155 174
147 169 181
124 148 175
131 155 184
122 147 196
110 137 196
129 153 205
116 141 195
128 152 203
136 158 206
121 145 199
117 142 195
121 145 194
113 137 190
117 141 195
122 146 195
101 127 184
60 97 165
62 97 165
60 96 161
62 97 163
62 97 158
64 99 158
62 98 164
64 97 152
61 96 149
61 96 152
64 98 157
64 97 144
61 95 143
70 101 150
64 97 146
61 93 135
69 99 136
62 95 139
57 91 151
58 92 141
55 89 145
59 93 151
56 90 139
59 93 153
58 93 150
58 93 138
58 92 148
58 92 148
57 91 147
57 91 143
60 95 160
58 92 147
59 94 150
60 94 150
59 94 144
58 93 138
61 96 156
58 93 144
60 95 151
59 95 153
61 96 144
60 96 154
59 93 147
59 94 141
60 95 148
61 97 154
61 97 155
60 95 139
60 95 153
61 97 155
62 98 155
61 97 154
61 96 151
61 96 157
61 97 153
60 95 147
60 96 148
60 95 146
59 94 142
61 97 151
61 96 151
61 97 153
60 96 151
61 97 154
61 96 145
61 96 152
62 97 154
60 96 146
60 95 143
61 97 149
59 94 147
61 97 152
61 97 154
61 96 145
61 97 151
60 95 141
61 97 156
62 98 153
60 95 146
60 95 147
61 96 153
61 96 147
60 95 139
60 96 145
60 95 141
62 97 154
61 97 150
60 95 145
61 96 144
62 98 155
61 96 145
60 95 143
61 97 148
61 96 148
61 96 148
59 94 139
61 96 148
61 97 149
61 96 152
60 95 139
61 96 143
60 95 142
60 94 135
59 94 139
60 95 141
61 97 150
60 95 139
60 95 136
62 97 152
60 96 139
61 96 142
61 96 143
62 97 150
60 95 142
59 94 136
61 96 143
60 95 144
62 97 150
61 96 143
61 97 143
59 94 137
61 95 134
61 96 144
59 94 137
59 94 133
59 94 140
60 95 137
60 94 140
59 93 128
60 96 144
58 92 124
60 94 136
58 92 124
59 93 127
59 92 121
59 93 135
59 93 128
59 92 117
60 94 135
57 90 120
59 92 124
57 90 116
84 106 82
124 134 0
121 130 0
124 135 0
116 123 0
120 129 0
119 128 0
114 123 0
120 130 0
121 130 0
121 130 0
107 115 0
112 117 0
113 120 0
103 110 0
110 117 0
121 130 0
125 134 0
123 130 0
117 122 0
119 124 0
118 124 0
121 127 0
108 113 0
112 117 0
121 127 0
119 125 0
115 123 0
117 123 0
121 130 0
117 122 0
112 114 0
123 129 0
122 128 0
126 128 0
117 122 0
115 120 0
115 119 0
107 106 0
108 112 0
122 127 0
115 119 0
126 127 0
107 109 0
112 115 0
115 118 0
125 129 0
117 121 0
128 133 0
117 120 0
117 118 0
113 113 0
125 124 0
125 129 0
133 134 0
124 127 0
122 126 0
121 124 0
119 120 0
128 129 0
124 125 0
121 124 0
128 129 0
133 135 0
138 140 0
129 132 0
135 140 0
132 136 0
145 151 0
128 130 0
142 143 0
133 136 0
141 145 0
133 136 0
138 143 0
132 136 0
140 144 0
137 142 0
137 142 0
139 146 0
138 142 0
136 140 0
143 148 0
141 145 0
150 157 0
151 156 0
140 144 0
149 157 0
140 146 0
144 152 0
141 148 0
152 161 0
145 152 0
150 159 0
153 162 0
148 157 0
149 156 0
151 160 0
149 160 0
150 162 0
152 163 0
155 167 0
151 158 0
153 164 0
159 171 0
150 158 0
148 159 0
159 170 0
158 172 0
149 160 0
156 171 0
159 173 0
158 170 0
157 172 0
160 173 0
161 173 0
159 174 0
164 179 0
156 170 0
163 179 0
159 173 0
159 174 0
159 171 0
161 177 0
161 175 0
162 178 0
162 177 0
164 182 0
162 179 0
153 167 0
160 176 0
161 176 0
164 182 0
158 175 0
162 180 0
162 180 0
162 178 0
164 182 0
163 180 0
164 180 0
161 179 0
161 178 0
167 184 0
163 182 0
177 201 149
179 202 149
176 201 144
180 205 157
179 204 161
175 200 157
175 199 142
175 200 149
177 202 135
178 204 167
179 203 147
175 200 163
175 200 153
178 203 147
175 199 144
179 205 161
176 202 151
177 203 159
177 202 135
176 201 153
175 201 137
176 201 163
173 199 161
176 201 153
177 202 149
177 202 157
177 203 171
174 199 155
181 206 163
177 203 171
177 203 173
179 205 171
178 203 161
179 204 159
179 205 175
178 204 175
179 203 151
175 200 153
176 203 165
180 206 175
178 203 161
177 203 163
176 202 175
179 204 165
176 201 159
176 202 153
175 200 163
176 201 163
177 201 151
175 200 153
171 196 144
177 201 159
177 203 159
177 201 149
178 203 167
181 205 169
180 205 175
176 201 157
177 202 169
177 202 163
179 204 161
171 195 142
176 201 163
176 201 159
178 203 144
177 202 161
177 203 173
176 201 163
180 204 163
179 203 165
177 202 151
179 203 157
180 204 161
153 179 182
141 166 163
143 168 181
135 161 182
153 178 194
137 162 165
144 169 175
155 179 187
152 177 194
145 169 167
145 170 183
149 172 169
147 171 189
144 168 172
151 175 186
146 169 184
148 171 179
141 165 185
144 167 185
144 167 178
154 177 192
140 163 168
152 174 177
133 156 174
150 173 186
134 156 177
134 158 167
132 156 184
124 149 174
133 156 198
118 144 195
123 147 201
116 142 198
123 147 196
122 146 201
110 136 194
112 137 187
124 147 193
123 146 189
128 151 196
121 144 190
92 120 181
61 97 164
64 99 167
65 100 163
60 95 159
60 96 164
63 97 155
60 96 158
60 95 161
64 97 151
58 93 157
59 94 163
60 94 145
63 96 143
70 102 147
74 104 141
60 94 147
57 89 134
58 93 149
57 91 141
56 89 146
55 89 140
56 90 146
59 94 151
56 90 141
57 91 145
58 92 145
56 90 141
59 94 143
58 93 149
59 94 147
58 93 148
59 93 152
58 93 149
60 95 154
57 91 146
59 93 144
61 96 150
58 93 141
59 94 144
60 96 156
58 93 143
60 95 146
58 93 145
59 94 148
59 95 147
61 96 149
60 95 140
59 95 148
61 96 151
59 94 154
61 97 150
60 95 152
60 94 145
60 95 144
61 96 152
59 94 141
60 96 147
61 96 149
59 94 131
60 95 145
62 97 156
60 96 147
61 96 153
60 95 151
60 96 145
61 96 149
60 96 144
61 96 153
61 96 145
62 98 157
62 98 154
61 96 148
62 97 152
60 96 148
60 95 140
60 95 136
61 96 145
60 95 143
60 96 145
59 94 141
61 97 150
61 96 148
62 98 157
60 95 139
60 95 134
62 98 155
60 95 140
62 97 151
60 95 139
60 94 139
62 97 149
60 95 149
60 95 136
62 97 149
62 97 152
61 96 144
63 98 157
60 95 137
60 95 144
60 95 133
60 95 144
61 96 142
60 95 148
61 96 149
61 97 148
63 98 154
61 96 141
61 96 144
60 95 135
60 95 136
60 95 139
61 96 144
60 95 135
61 96 144
61 96 142
60 95 140
61 96 141
61 96 149
61 96 142
60 95 137
63 97 150
60 95 134
61 96 143
60 94 135
59 93 131
60 95 143
59 94 140
58 92 127
59 93 134
58 92 126
60 95 142
58 92 121
60 95 135
59 93 128
59 94 133
61 95 139
58 92 129
59 93 130
59 93 131
58 91 124
62 94 130
112 122 18
126 137 0
115 125 0
114 123 0
113 121 0
123 133 0
110 120 0
108 119 0
117 125 0
116 125 0
123 130 0
113 123 0
121 131 0
113 122 0
113 121 0
118 122 0
117 124 0
116 123 0
112 120 0
115 123 0
117 127 0
119 126 0
119 126 0
121 127 0
124 131 0
128 136 0
105 110 0
109 115 0
118 122 0
120 125 0
117 120 0
117 122 0
115 120 0
116 121 0
117 118 0
114 119 0
115 120 0
122 126 0
123 126 0
105 108 0
111 114 0
118 121 0
114 117 0
123 126 0
120 122 0
117 119 0
127 130 0
121 125 0
128 130 0
122 124 0
121 124 0
125 131 0
122 126 0
124 125 0
117 119 0
130 133 0
130 133 0
126 131 0
132 134 0
123 126 0
127 130 0
135 141 0
139 142 0
134 138 0
123 128 0
123 129 0
127 130 0
143 148 0
143 148 0
123 126 0
137 141 0
146 152 0
129 134 0
142 148 0
137 142 0
139 146 0
140 144 0
152 161 0
135 140 0
142 151 0
139 144 0
144 150 0
146 154 0
144 154 0
138 145 0
146 154 0
144 151 0
153 161 0
155 162 0
140 146 0
146 153 0
150 160 0
143 150 0
148 157 0
156 165 0
149 159 0
145 151 0
155 165 0
153 163 0
151 161 0
150 159 0
159 172 0
152 163 0
154 165 0
154 164 0
157 173 0
161 171 0
156 167 0
160 173 0
160 169 0
156 172 0
158 171 0
156 169 0
160 175 0
153 163 0
165 180 0
158 171 0
157 169 0
159 172 0
163 178 0
161 176 0
164 179 0
160 175 0
161 176 0
164 180 0
160 176 0
165 181 0
158 171 0
159 176 0
163 177 0
167 186 0
158 175 0
169 187 0
170 188 0
165 184 0
164 179 0
160 176 0
165 181 0
169 188 0
161 178 0
161 179 0
165 183 0
164 183 0
165 183 0
179 203 163
177 203 169
175 199 149
174 199 153
180 203 149
178 203 144
178 203 149
176 201 151
176 201 133
175 200 144
178 203 153
177 202 159
178 203 149
174 198 142
178 204 163
177 202 142
175 200 144
178 204 169
177 203 167
176 201 169
175 200 159
177 202 157
174 200 161
180 205 167
178 203 157
175 200 153
179 204 171
180 205 182
178 203 169
174 200 161
179 205 171
177 202 155
173 198 140
179 204 181
179 204 167
176 202 175
177 203 167
176 201 157
172 197 144
176 202 155
179 204 157
173 199 163
177 204 163
176 202 153
176 201 137
171 197 137
174 198 144
177 204 175
179 204 175
178 203 173
173 198 157
177 202 159
176 201 165
179 205 177
175 201 177
174 200 147
176 201 159
179 204 175
178 203 173
181 206 177
182 207 177
183 207 181
176 200 161
175 200 165
176 200 135
180 205 155
176 201 165
179 205 167
174 198 147
174 197 144
173 197 147
175 199 153
174 197 155
171 196 161
143 169 184
144 169 173
147 172 189
134 160 180
150 175 186
142 167 177
140 164 171
144 168 169
148 173 171
143 168 181
148 171 170
146 170 174
145 169 181
148 172 183
147 171 180
145 168 187
141 165 192
143 167 171
146 170 164
154 177 185
149 173 187
146 169 181
156 179 186
144 167 184
136 159 167
144 166 197
139 163 181
128 151 160
137 160 172
121 145 193
121 146 199
107 133 188
120 144 196
111 136 189
114 139 188
119 142 194
117 141 195
116 140 189
125 147 191
132 154 198
126 148 193
79 110 169
60 96 157
60 95 158
59 94 159
62 97 156
63 98 162
65 98 159
61 96 150
57 92 150
63 98 158
61 95 155
58 93 143
65 97 143
59 93 143
66 98 143
71 102 137
63 95 143
64 95 130
57 92 143
58 93 146
57 92 149
55 89 141
57 92 145
58 92 139
56 90 140
57 91 140
57 92 147
58 92 134
58 93 143
60 95 149
59 95 156
58 93 144
58 93 144
58 93 149
58 92 143
59 94 143
59 94 150
60 94 141
57 92 150
60 95 143
58 93 145
59 94 146
62 98 155
60 96 149
59 94 136
59 93 144
60 95 147
59 95 153
61 96 152
60 95 141
61 96 144
61 97 154
59 94 144
60 95 150
61 97 155
60 95 145
60 96 149
60 96 151
61 96 151
60 95 145
62 97 151
60 96 147
59 94 144
62 98 159
61 96 150
61 97 154
61 96 150
60 95 154
60 95 140
60 94 134
61 96 155
60 95 143
61 97 150
62 97 154
62 98 154
60 96 143
61 97 152
60 96 145
61 96 147
59 94 139
61 96 140
60 96 141
61 96 148
61 97 150
61 97 147
62 97 158
61 96 136
61 96 143
61 96 150
61 96 145
62 97 148
61 96 143
61 97 151
60 95 139
61 95 143
59 94 127
60 95 144
60 95 144
62 98 157
60 95 147
60 95 137
63 98 154
61 97 151
61 97 145
61 96 147
61 96 141
60 94 135
60 96 151
60 95 133
59 94 136
60 95 141
61 96 144
61 96 147
59 94 136
61 96 144
61 96 147
59 93 131
60 94 134
59 93 131
59 93 131
60 94 131
59 94 129
61 95 150
61 96 144
60 94 143
60 94 137
60 95 136
59 93 125
59 92 124
59 93 131
61 96 136
59 94 134
59 93 125
59 93 137
60 94 132
59 93 129
59 93 126
58 91 120
59 93 128
57 89 120
81 102 98
123 135 0
124 133 0
122 132 0
117 125 0
131 142 0
112 122 0
106 113 0
118 129 0
105 114 0
117 123 0
114 123 0
109 117 0
109 118 0
124 134 0
124 133 0
120 127 0
108 114 0
121 130 0
118 127 0
105 111 0
119 125 0
118 125 0
109 114 0
119 126 0
109 116 0
109 117 0
123 131 0
123 131 0
120 128 0
120 126 0
118 123 0
115 121 0
121 124 0
119 124 0
121 128 0
119 122 0
119 124 0
112 117 0
121 128 0
119 122 0
124 128 0
120 127 0
114 116 0
119 122 0
125 130 0
119 121 0
119 124 0
119 123 0
120 122 0
122 125 0
124 127 0
134 138 0
119 121 0
124 131 0
123 129 0
126 129 0
126 128 0
127 131 0
128 133 0
128 132 0
134 141 0
137 141 0
137 141 0
132 135 0
141 147 0
138 140 0
131 134 0
127 131 0
128 133 0
138 144 0
136 141 0
132 139 0
137 144 0
128 132 0
140 146 0
143 149 0
139 145 0
137 142 0
132 136 0
146 153 0
136 142 0
148 156 0
144 150 0
145 154 0
150 157 0
143 150 0
147 155 0
156 165 0
151 159 0
151 158 0
150 159 0
154 166 0
154 165 0
149 159 0
152 162 0
147 156 0
143 150 0
144 154 0
155 168 0
150 162 0
152 163 0
155 167 0
157 169 0
154 162 0
156 169 0
157 169 0
156 169 0
153 164 0
157 171 0
157 171 0
155 168 0
155 166 0
155 168 0
151 164 0
154 167 0
156 168 0
160 172 0
159 171 0
153 166 0
158 173 0
157 171 0
160 173 0
161 178 0
161 176 0
157 172 0
160 175 0
162 179 0
164 181 0
163 178 0
160 175 0
163 180 0
160 176 0
160 179 0
167 184 0
167 185 0
162 176 0
164 181 0
161 175 0
161 178 0
158 176 0
164 182 0
167 183 0
167 184 0
165 185 0
176 202 151
177 202 153
178 203 161
173 197 144
177 202 155
180 205 153
177 203 167
177 202 142
178 203 175
177 201 137
170 196 155
176 200 135
174 200 159
178 203 165
177 202 161
177 203 157
177 203 177
180 206 171
178 204 165
177 201 157
173 198 163
178 203 155
176 201 157
173 198 147
180 205 171
178 203 177
176 202 165
180 205 163
173 199 165
174 200 153
178 203 155
178 204 179
175 201 159
177 203 179
175 201 157
175 200 140
177 203 159
174 199 161
175 202 161
174 200 161
175 200 167
176 201 159
174 200 151
172 198 161
175 200 161
175 200 149
175 201 161
178 203 144
173 199 163
177 202 159
180 205 173
179 204 159
173 199 157
177 203 161
172 197 149
177 202 147
177 202 165
174 200 165
176 201 153
179 204 161
177 203 163
176 201 157
175 199 163
175 199 159
178 203 155
171 196 135
180 205 167
177 201 153
177 202 169
182 206 179
175 199 167
178 202 149
173 197 157
174 198 144
152 176 172
143 169 174
147 171 183
141 166 173
141 164 170
152 177 187
149 175 193
147 172 186
145 170 186
143 168 174
138 163 179
148 172 184
152 175 185
162 185 199
148 172 173
147 171 172
146 169 179
156 178 185
150 173 180
159 182 190
146 169 179
135 158 170
149 172 185
151 173 181
145 167 179
143 166 194
150 172 179
136 159 175
133 156 174
141 164 180
129 153 190
119 144 199
125 149 201
128 151 198
106 132 187
118 142 192
134 157 203
128 150 195
117 141 192
135 157 200
113 137 187
124 146 192
87 116 174
64 99 166
63 98 163
63 98 154
62 97 160
65 99 151
62 97 161
60 95 161
58 93 151
58 92 152
60 93 148
62 96 159
62 95 143
60 93 149
63 96 151
69 99 145
63 98 148
65 98 146
57 91 143
58 92 137
57 91 143
55 88 131
58 93 143
59 93 145
60 95 146
59 94 147
58 93 153
59 95 147
58 93 145
58 93 141
59 93 148
58 93 152
59 94 150
58 93 145
58 93 145
60 95 148
60 96 153
58 92 137
59 94 148
60 95 144
59 95 149
60 94 146
60 95 141
60 95 154
60 95 147
59 95 144
61 96 151
60 95 149
60 96 155
60 95 139
61 96 156
61 96 151
59 94 144
61 96 142
61 96 152
60 95 145
59 94 140
61 96 144
60 96 153
61 96 153
60 95 139
61 96 146
60 95 143
59 95 143
62 97 154
60 95 150
59 94 143
62 97 147
60 95 145
62 98 155
60 95 141
61 96 151
61 97 150
62 97 149
62 97 150
62 97 150
59 94 128
61 96 149
61 96 149
61 97 153
60 96 144
62 97 152
61 96 140
62 97 153
61 96 147
61 96 140
61 97 155
60 95 145
60 96 145
61 95 150
60 95 144
60 95 130
61 96 141
61 96 144
60 95 141
61 96 152
60 95 140
61 96 145
61 96 140
60 94 135
61 96 145
61 96 144
61 96 140
61 96 148
60 95 142
60 95 142
60 95 141
61 95 133
60 95 135
62 97 143
61 96 142
61 96 143
61 96 143
60 95 141
60 95 145
60 94 136
62 97 150
61 96 139
59 94 130
59 94 140
60 95 136
59 93 129
60 94 126
60 95 137
61 95 142
59 93 126
60 94 141
60 95 142
59 93 131
58 91 125
61 95 140
59 93 126
58 91 122
59 93 123
58 92 122
58 91 129
56 89 118
59 93 128
57 89 120
117 129 31
114 124 0
125 133 0
117 128 0
116 125 0
113 121 0
112 123 0
127 137 0
124 134 0
130 141 0
120 131 0
122 132 0
117 125 0
118 127 0
116 124 0
121 128 0
119 129 0
123 132 0
118 126 0
124 131 0
125 134 0
106 112 0
122 129 0
120 127 0
112 120 0
125 132 0
120 127 0
121 129 0
119 124 0
108 115 0
125 134 0
120 126 0
130 136 0
117 124 0
121 125 0
114 122 0
112 113 0
129 132 0
125 131 0
120 124 0
114 119 0
117 121 0
121 125 0
123 128 0
124 128 0
126 129 0
120 122 0
129 136 0
124 130 0
132 138 0
124 128 0
115 117 0
129 134 0
122 123 0
129 135 0
130 135 0
130 133 0
127 131 0
137 144 0
122 129 0
124 127 0
134 142 0
139 142 0
138 142 0
131 136 0
137 142 0
138 143 0
134 142 0
128 130 0
136 141 0
138 142 0
143 147 0
138 144 0
134 141 0
146 151 0
140 144 0
134 139 0
138 146 0
136 141 0
137 145 0
142 150 0
143 149 0
148 154 0
148 154 0
140 145 0
149 157 0
144 153 0
148 158 0
144 152 0
145 156 0
151 159 0
152 161 0
146 153 0
151 164 0
144 154 0
150 159 0
152 161 0
150 159 0
147 156 0
153 165 0
155 167 0
157 166 0
150 161 0
154 164 0
156 168 0
153 163 0
154 166 0
156 170 0
158 172 0
150 161 0
157 169 0
156 168 0
154 165 0
156 169 0
160 174 0
158 173 0
161 176 0
161 175 0
158 171 0
162 178 0
157 173 0
153 166 0
163 180 0
158 171 0
159 177 0
165 179 0
160 175 0
162 178 0
162 179 0
164 179 0
164 181 0
165 181 0
161 178 0
162 180 0
162 179 0
164 181 0
165 182 0
162 180 0
165 183 0
166 183 0
166 186 0
165 184 0
167 186 0
165 182 0
169 189 0
177 201 135
176 201 163
177 201 142
179 203 137
178 203 157
181 206 167
178 204 159
177 201 151
178 203 153
178 202 140
178 203 155
177 202 161
176 202 144
176 201 149
175 200 142
173 199 161
174 199 169
178 203 159
178 203 171
178 204 182
179 205 181
178 205 173
175 200 161
175 200 161
174 200 171
174 200 167
175 201 169
176 202 161
176 201 144
173 199 165
178 204 163
175 200 151
177 202 147
175 202 175
177 203 165
175 201 165
174 199 165
175 201 157
170 195 144
175 201 173
176 202 159
175 200 149
177 203 167
173 199 161
174 200 149
175 200 155
172 197 155
173 199 157
178 203 169
176 202 181
175 200 153
175 200 163
175 201 155
176 201 165
174 200 151
172 197 151
177 203 175
176 201 153
175 201 155
175 199 157
180 205 171
175 200 159
174 199 163
176 200 161
177 202 169
178 202 169
177 202 159
173 197 151
174 198 149
175 199 144
173 197 147
178 202 157
178 202 175
180 204 171
174 198 177
148 173 181
143 167 168
140 165 179
150 175 185
149 174 181
146 171 187
146 171 183
146 171 178
131 156 161
141 165 174
138 162 171
141 166 189
153 176 177
144 168 170
148 171 185
149 172 185
148 171 185
152 175 181
140 164 176
145 168 185
149 172 179
143 166 182
145 168 173
154 176 196
151 173 187
149 170 187
139 162 179
132 156 176
138 161 175
134 156 173
134 157 186
129 153 205
108 134 189
123 146 196
113 138 186
117 142 194
124 147 188
118 141 189
118 142 194
143 164 201
127 148 194
102 127 178
64 97 156
59 94 160
66 101 164
60 95 161
60 95 156
59 94 154
62 96 160
63 97 148
60 93 148
58 93 149
57 92 150
63 97 157
72 102 130
63 97 148
71 103 145
67 99 143
67 97 139
61 94 136
56 90 147
57 91 141
57 91 141
55 89 135
58 92 137
58 91 142
58 92 151
59 94 156
57 92 151
59 93 151
57 91 135
57 91 136
59 94 147
59 93 147
56 90 145
59 94 147
60 94 142
57 91 147
60 95 151
59 93 139
60 95 144
60 94 146
58 93 144
60 95 152
59 94 146
59 94 149
58 93 147
59 94 148
60 95 148
60 96 149
60 95 141
59 95 149
59 94 143
59 94 141
60 95 148
61 97 151
60 96 144
61 96 147
60 95 143
59 94 137
61 96 150
61 97 147
61 97 159
60 95 147
62 98 153
60 95 145
61 97 152
61 96 144
60 95 144
60 95 145
61 96 148
61 97 150
59 94 136
60 95 148
59 94 145
61 97 153
61 96 148
61 96 147
60 95 141
61 96 144
61 97 152
59 94 126
60 95 139
61 96 150
61 96 142
59 94 131
60 95 134
61 96 147
58 92 134
61 96 145
60 95 139
62 97 149
61 96 143
61 96 150
60 96 150
60 96 147
62 98 151
59 94 131
60 95 139
61 96 142
61 96 145
59 94 136
60 94 136
60 96 140
60 95 137
61 96 149
59 94 137
60 94 136
60 96 148
60 95 144
61 96 141
60 95 137
60 94 136
60 94 131
61 96 144
59 94 135
60 94 136
60 95 131
61 95 141
59 94 129
60 95 130
60 95 134
60 95 135
59 93 131
60 94 135
60 95 133
60 95 140
59 93 128
59 94 130
60 94 137
60 94 130
58 92 129
59 93 133
58 91 124
59 93 121
59 93 128
58 92 120
57 90 120
57 89 116
82 104 96
114 124 0
125 137 0
128 138 0
122 133 0
124 133 0
117 129 0
105 113 0
111 120 0
111 121 0
117 126 0
126 136 0
118 126 0
113 121 0
112 119 0
128 138 0
116 125 0
121 127 0
108 115 0
118 126 0
125 136 0
122 130 0
111 117 0
113 120 0
118 126 0
114 120 0
129 138 0
115 121 0
127 138 0
124 133 0
114 120 0
124 131 0
119 125 0
126 130 0
123 130 0
124 132 0
119 125 0
128 138 0
125 132 0
127 133 0
117 123 0
121 124 0
119 124 0
112 117 0
129 134 0
120 125 0
124 131 0
122 127 0
123 127 0
125 132 0
125 127 0
111 114 0
125 129 0
127 133 0
120 126 0
132 138 0
123 126 0
126 129 0
127 133 0
120 126 0
130 135 0
133 136 0
129 134 0
133 139 0
135 141 0
138 146 0
133 139 0
135 141 0
136 142 0
138 141 0
128 130 0
139 144 0
133 138 0
139 145 0
144 150 0
145 151 0
130 136 0
146 151 0
142 149 0
138 144 0
137 143 0
143 151 0
139 148 0
150 160 0
149 158 0
147 156 0
142 149 0
150 157 0
142 152 0
149 157 0
155 165 0
145 154 0
149 160 0
146 155 0
149 159 0
146 154 0
154 164 0
155 167 0
146 158 0
159 171 0
158 170 0
155 166 0
151 162 0
149 159 0
151 160 0
152 164 0
156 169 0
156 168 0
159 170 0
159 172 0
162 175 0
157 173 0
151 165 0
158 170 0
154 166 0
156 168 0
157 171 0
156 169 0
159 172 0
156 172 0
159 176 0
163 177 0
163 179 0
154 167 0
163 179 0
165 182 0
161 179 0
158 173 0
160 177 0
158 173 0
162 180 0
159 174 0
161 178 0
166 181 0
161 179 0
161 178 0
164 182 0
168 186 0
166 184 0
161 181 0
166 185 0
165 182 0
165 181 0
164 180 0
158 178 0
168 184 0
179 204 153
179 204 161
176 200 147
174 199 153
174 199 144
176 200 144
176 200 144
175 200 159
173 198 153
179 205 159
177 201 159
176 200 144
179 204 165
176 201 151
172 198 153
179 204 163
175 200 159
174 199 149
177 201 157
179 205 177
176 201 163
176 203 169
176 201 159
170 196 161
177 202 153
174 199 155
173 199 161
174 200 161
177 204 173
175 200 165
176 202 169
173 198 149
177 202 167
174 200 153
175 201 161
177 202 151
175 200 144
179 204 165
173 199 163
173 200 165
176 202 157
171 197 153
176 202 161
175 202 175
176 202 179
176 201 147
175 201 149
173 199 159
176 202 161
176 201 159
180 206 173
174 199 155
177 202 157
175 199 133
176 201 167
177 203 173
171 196 153
178 203 163
175 202 173
174 200 173
176 201 159
176 202 163
173 199 165
174 198 151
175 199 167
177 201 147
169 194 149
177 202 173
179 203 173
176 202 172
181 204 161
176 202 177
170 194 149
173 198 161
181 206 179
153 177 174
154 179 186
149 174 188
138 163 183
143 168 180
151 175 187
144 168 181
143 168 182
149 173 192
141 165 175
146 170 175
139 164 182
147 171 181
143 167 169
161 184 189
147 171 173
149 173 188
151 174 191
143 166 178
146 169 175
148 170 174
145 168 176
149 171 181
155 178 191
144 167 175
145 167 171
141 163 170
145 167 173
134 156 179
134 157 174
129 153 175
132 155 182
118 143 197
105 131 186
131 154 198
135 158 203
132 155 200
126 149 197
124 147 197
122 146 194
122 145 193
126 148 194
85 109 156
61 97 161
60 96 153
60 96 162
65 99 159
64 98 160
59 94 152
62 97 158
59 94 149
61 96 154
57 92 150
61 95 152
59 94 148
73 104 144
67 99 147
65 98 144
66 99 150
68 99 135
57 91 137
55 89 140
56 89 136
58 92 146
56 90 139
56 91 147
57 90 134
57 91 137
59 94 142
58 92 146
59 94 150
59 94 145
57 90 140
57 91 140
59 94 149
58 92 146
59 93 150
59 95 149
59 94 144
58 93 148
59 94 144
59 94 143
60 95 147
59 94 136
59 94 148
58 92 140
60 95 145
60 95 148
61 96 147
61 97 152
59 95 140
59 94 139
59 93 139
60 95 145
60 95 150
60 95 154
59 94 147
60 96 152
61 96 149
59 94 135
59 94 136
61 96 144
60 94 141
61 96 145
61 96 150
61 97 150
60 95 137
61 97 152
60 95 145
61 96 153
60 95 141
60 95 143
62 97 151
61 96 148
60 95 144
59 94 134
61 96 145
61 96 140
60 95 144
61 96 147
61 96 148
60 95 140
60 95 140
60 95 142
61 96 150
62 97 143
61 96 143
61 96 145
62 98 152
60 94 139
60 96 147
60 94 135
61 96 149
61 96 142
61 95 140
59 93 134
61 96 140
60 95 140
60 95 131
60 94 134
60 95 142
61 96 145
59 94 139
60 95 141
62 97 150
60 95 136
60 95 137
61 96 144
60 95 144
59 94 128
61 96 145
60 95 136
60 95 135
61 96 137
61 96 140
60 95 134
60 95 148
61 95 142
60 95 139
61 96 141
59 94 131
61 96 149
60 94 137
59 93 130
59 93 129
60 94 131
59 94 131
59 93 129
59 94 125
59 92 125
57 90 118
59 93 129
59 93 129
61 95 136
59 93 125
59 93 124
56 89 117
59 92 125
61 91 117
112 126 44
122 131 0
123 134 0
123 133 0
125 133 0
128 140 0
128 140 0
125 134 0
129 143 0
127 136 0
121 127 0
128 137 0
120 128 0
119 128 0
117 126 0
114 122 0
124 134 0
118 126 0
126 134 0
116 124 0
125 132 0
116 125 0
113 123 0
121 130 0
116 122 0
125 134 0
129 137 0
120 127 0
119 128 0
117 126 0
121 130 0
127 133 0
115 125 0
120 125 0
124 130 0
120 126 0
110 117 0
134 141 0
128 137 0
118 126 0
118 121 0
133 140 0
132 140 0
120 126 0
118 125 0
120 122 0
124 129 0
135 142 0
131 137 0
125 133 0
128 137 0
131 137 0
128 132 0
121 126 0
134 140 0
123 131 0
129 136 0
128 133 0
139 143 0
128 133 0
122 127 0
136 142 0
136 142 0
133 136 0
135 139 0
129 136 0
136 141 0
138 145 0
135 140 0
136 144 0
135 142 0
137 144 0
143 150 0
139 142 0
143 151 0
139 144 0
136 142 0
137 144 0
147 154 0
141 148 0
137 144 0
142 150 0
145 151 0
152 162 0
148 159 0
141 151 0
145 153 0
148 157 0
143 153 0
150 160 0
153 161 0
147 157 0
139 146 0
151 162 0
148 160 0
149 156 0
152 162 0
153 165 0
149 160 0
153 165 0
151 164 0
147 159 0
158 172 0
150 161 0
157 168 0
153 164 0
154 167 0
155 167 0
157 169 0
156 170 0
160 175 0
157 172 0
152 164 0
155 169 0
158 171 0
159 172 0
160 176 0
162 177 0
161 176 0
158 172 0
161 174 0
159 173 0
156 169 0
163 178 0
163 179 0
164 179 0
162 178 0
165 185 0
163 179 0
158 175 0
162 179 0
162 180 0
166 184 0
164 180 0
163 179 0
163 177 0
163 179 0
166 185 0
164 182 0
167 186 0
161 180 0
167 185 0
163 181 0
168 187 0
164 181 0
165 183 0
179 203 159
178 202 163
176 200 137
174 199 140
180 205 163
174 199 155
178 203 147
179 203 155
175 199 149
174 199 153
177 203 163
177 201 153
176 202 155
179 203 167
178 204 171
180 205 171
179 204 169
178 202 171
175 201 157
176 201 161
173 199 159
174 200 165
177 203 171
172 198 155
177 202 161
180 205 167
175 201 173
176 202 171
173 199 140
175 200 151
174 201 167
171 197 159
175 200 142
174 201 163
174 200 157
174 201 171
178 205 181
177 202 161
175 202 167
173 198 149
175 201 155
174 199 130
172 198 159
176 202 173
175 200 155
176 202 159
169 195 155
174 200 165
174 199 163
174 200 155
175 201 157
174 201 177
170 194 133
174 199 155
173 198 151
175 200 161
170 194 125
174 198 157
173 198 161
177 203 169
173 198 144
174 199 142
173 198 155
174 199 155
178 202 159
175 200 159
172 197 155
174 200 161
175 199 142
174 199 169
171 194 135
174 199 163
177 202 172
176 200 144
178 201 157
167 190 153
141 165 168
149 173 185
141 165 175
143 168 176
141 166 175
144 169 185
144 168 176
143 168 182
147 170 175
136 160 166
140 164 193
144 168 182
150 174 184
143 167 174
144 168 183
150 173 185
152 175 184
150 173 174
150 173 183
151 173 169
148 172 188
146 168 183
145 167 186
148 171 181
144 167 169
156 178 178
145 167 193
135 157 175
145 168 171
131 155 179
137 160 177
132 155 194
115 140 195
122 146 199
110 136 192
112 137 192
126 149 195
123 146 194
132 154 195
134 155 201
122 145 191
106 129 174
82 107 152
63 98 163
61 97 160
60 96 163
62 97 155
60 95 152
58 93 148
59 94 157
63 97 150
61 95 145
59 93 141
60 96 158
72 103 139
68 101 139
65 97 140
73 103 138
65 97 141
57 92 139
58 92 150
58 91 144
57 91 138
56 89 136
58 92 143
58 92 144
56 90 140
57 92 141
59 94 147
57 91 154
59 93 149
59 93 139
58 92 142
60 94 141
58 92 144
58 92 141
59 94 144
60 94 141
57 91 135
61 96 150
59 94 146
60 95 148
58 93 140
60 94 144
59 94 144
61 96 150
60 96 150
59 94 136
60 96 156
59 94 142
59 94 140
60 95 150
61 96 148
59 94 145
59 94 146
61 96 146
59 94 138
61 96 151
61 96 143
57 92 136
60 96 145
60 95 146
60 95 147
60 95 141
61 97 150
60 96 143
60 95 141
60 96 145
61 96 145
59 94 141
62 97 152
60 95 145
60 95 144
61 96 145
61 96 143
60 95 139
59 94 132
60 95 133
61 96 143
60 96 143
59 94 127
62 97 151
61 96 144
59 94 134
62 98 149
61 96 143
61 96 139
60 94 140
61 96 143
60 94 142
61 96 151
61 96 142
61 97 152
60 94 128
61 96 141
60 95 139
59 94 136
60 95 139
60 96 141
61 97 150
60 94 144
61 96 141
59 94 135
60 95 129
59 94 134
61 97 143
60 96 140
60 95 134
61 96 141
61 95 144
61 96 142
60 95 143
60 95 137
59 94 140
61 96 153
60 95 134
59 94 131
60 95 129
60 95 135
60 94 133
59 94 135
59 94 139
61 96 143
61 95 137
60 95 134
59 94 129
58 92 128
59 93 134
57 91 113
59 94 125
60 94 131
59 92 131
59 93 125
56 88 111
58 91 120
58 92 113
58 91 122
91 112 96
113 124 0
126 138 0
109 121 0
122 135 0
127 139 0
116 123 0
107 118 0
127 140 0
117 128 0
110 120 0
130 141 0
127 139 0
123 135 0
114 122 0
109 121 0
112 122 0
111 119 0
116 123 0
110 118 0
114 122 0
120 128 0
114 120 0
125 135 0
128 137 0
123 131 0
126 134 0
122 131 0
123 130 0
123 131 0
125 137 0
126 133 0
127 135 0
124 132 0
111 118 0
123 129 0
119 128 0
127 133 0
126 134 0
122 130 0
121 126 0
136 146 0
125 132 0
127 135 0
138 143 0
129 135 0
123 129 0
127 133 0
122 128 0
124 130 0
127 131 0
127 133 0
121 127 0
134 141 0
136 142 0
142 151 0
132 138 0
138 145 0
124 129 0
132 138 0
123 125 0
132 140 0
130 137 0
134 142 0
141 147 0
132 136 0
139 146 0
145 153 0
133 139 0
136 144 0
141 148 0
137 145 0
134 141 0
142 149 0
140 146 0
146 156 0
141 148 0
133 140 0
135 141 0
145 152 0
145 151 0
145 153 0
144 150 0
142 150 0
148 159 0
144 153 0
148 155 0
151 162 0
154 164 0
149 160 0
149 158 0
148 160 0
149 163 0
156 166 0
143 151 0
143 155 0
157 167 0
149 158 0
155 166 0
160 174 0
150 159 0
149 163 0
151 162 0
153 165 0
153 165 0
152 162 0
159 173 0
154 166 0
157 171 0
149 160 0
146 158 0
157 171 0
157 173 0
157 174 0
156 169 0
154 166 0
155 168 0
158 170 0
163 178 0
155 168 0
158 171 0
157 171 0
156 169 0
162 176 0
157 171 0
160 178 0
162 178 0
161 178 0
160 178 0
162 180 0
161 179 0
160 177 0
161 179 0
158 174 0
165 184 0
161 178 0
161 178 0
167 185 0
162 178 0
159 176 0
159 176 0
164 185 0
164 183 0
164 183 0
164 184 0
165 184 0
159 177 0
175 200 157
178 202 161
175 200 149
173 198 142
177 202 157
177 202 159
180 205 165
175 201 165
178 202 137
176 200 155
180 205 175
178 202 157
178 203 161
178 203 169
176 201 163
182 207 181
176 201 163
175 201 169
176 202 169
177 203 161
177 201 157
177 203 167
179 205 175
175 199 144
171 196 153
172 198 159
174 200 140
176 202 165
176 202 159
177 203 173
173 200 155
172 198 163
175 201 173
176 203 171
177 203 169
175 201 165
173 199 149
174 199 147
173 199 155
174 201 186
175 201 161
175 202 169
173 199 153
175 202 173
173 199 159
174 200 163
176 202 161
173 200 167
178 204 167
174 199 151
171 197 149
172 199 163
177 202 153
172 197 144
172 197 149
174 199 140
173 198 147
171 196 137
178 204 173
174 198 147
178 204 179
179 205 181
176 201 157
175 201 159
175 201 173
172 198 164
177 202 167
176 201 159
172 196 151
174 198 149
173 199 170
173 198 153
174 199 157
175 200 165
176 200 159
178 203 177
160 185 184
146 170 182
150 173 173
151 176 182
144 167 181
142 167 187
148 172 187
143 167 171
144 168 180
151 175 188
156 180 191
160 183 186
157 180 192
148 171 171
152 176 178
151 175 191
138 162 182
144 167 164
134 157 173
143 166 183
146 168 180
150 172 172
142 166 172
159 180 191
147 169 180
150 172 179
157 179 184
145 167 179
130 153 168
138 160 166
133 156 177
140 162 188
120 143 177
123 147 199
104 130 184
118 143 193
117 141 184
122 146 192
120 143 191
125 148 195
134 156 197
123 145 190
86 106 146
77 103 152
60 96 158
65 100 163
65 100 159
61 96 157
60 96 157
63 98 160
59 94 156
63 97 143
60 95 154
62 96 152
61 95 159
67 99 144
69 100 140
70 101 143
64 96 134
61 94 138
58 91 141
55 88 141
55 89 132
56 90 137
56 90 134
57 92 141
58 92 152
59 93 141
57 91 139
58 93 139
59 93 149
59 94 152
58 92 146
56 90 133
57 92 139
59 94 144
60 95 151
58 93 143
57 92 133
60 95 148
59 93 142
60 95 147
59 93 142
60 95 141
60 95 156
59 93 138
59 94 141
60 94 135
59 94 147
59 94 136
59 95 145
60 95 154
59 94 145
59 94 148
59 94 138
59 94 140
60 95 141
59 94 143
60 95 146
60 95 141
60 95 149
60 95 143
60 95 151
59 95 145
60 95 140
60 95 142
61 96 147
62 98 155
60 95 139
59 94 133
61 96 151
60 95 140
61 97 151
59 94 145
60 96 144
61 96 143
61 96 143
60 96 143
60 96 147
61 96 142
61 95 142
62 97 141
59 94 136
61 96 149
60 95 140
60 95 145
61 97 148
60 95 137
61 96 151
62 97 152
60 95 141
59 94 135
58 93 129
61 96 141
60 94 137
60 96 142
61 96 150
61 96 140
60 95 134
60 95 143
60 95 129
60 95 143
62 97 149
61 96 141
61 96 151
60 95 147
61 97 145
60 95 140
60 95 133
60 95 133
61 95 145
60 94 131
61 96 145
58 93 122
59 93 128
60 95 129
61 96 144
60 95 136
58 92 122
59 94 136
61 96 140
59 93 129
59 94 129
59 93 121
61 95 130
59 93 118
59 93 124
58 91 129
59 93 128
59 93 131
58 92 126
60 94 135
59 92 122
56 88 121
58 91 128
59 92 124
59 90 104
117 129 25
116 129 0
116 126 0
112 121 0
116 128 0
132 144 0
103 113 0
129 141 0
123 134 0
112 122 0
128 141 0
128 139 0
119 132 0
116 126 0
132 146 0
121 131 0
130 142 0
118 129 0
117 127 0
121 129 0
129 138 0
112 120 0
120 130 0
112 121 0
118 127 0
123 134 0
116 125 0
126 135 0
128 136 0
118 129 0
127 136 0
121 133 0
112 120 0
118 126 0
131 138 0
123 131 0
118 124 0
112 115 0
124 133 0
129 132 0
122 125 0
130 138 0
128 133 0
132 141 0
119 127 0
125 132 0
126 132 0
118 126 0
139 147 0
132 139 0
131 135 0
135 141 0
135 141 0
117 120 0
129 136 0
133 141 0
137 145 0
126 132 0
130 136 0
132 139 0
148 157 0
137 144 0
141 149 0
137 145 0
138 143 0
137 144 0
145 152 0
143 151 0
139 143 0
141 149 0
139 146 0
134 138 0
143 150 0
142 152 0
140 149 0
139 146 0
145 153 0
140 148 0
145 153 0
144 151 0
144 155 0
145 154 0
146 155 0
143 151 0
138 147 0
146 154 0
147 156 0
146 158 0
150 162 0
144 151 0
150 161 0
150 158 0
161 173 0
145 157 0
149 159 0
147 158 0
141 149 0
152 163 0
143 151 0
151 163 0
148 159 0
155 164 0
156 170 0
149 162 0
153 168 0
161 174 0
155 168 0
155 167 0
155 169 0
154 167 0
157 172 0
154 165 0
153 167 0
157 172 0
154 171 0
162 176 0
154 167 0
157 170 0
159 173 0
159 173 0
163 179 0
157 174 0
160 175 0
158 174 0
158 176 0
161 176 0
164 182 0
160 175 0
163 181 0
165 184 0
166 183 0
160 177 0
167 188 0
161 177 0
158 174 0
164 184 0
158 176 0
162 180 0
160 176 0
163 181 0
167 185 0
160 178 0
162 180 0
161 178 0
168 187 0
167 187 0
165 181 0
178 203 142
176 201 161
179 203 161
172 195 130
177 201 151
175 200 142
175 199 142
178 203 161
178 203 165
175 199 142
179 205 171
177 202 161
182 207 171
175 201 161
178 203 169
176 202 171
177 203 163
178 204 167
170 196 153
176 202 171
175 201 165
177 203 171
172 198 157
171 197 144
173 200 165
174 200 161
177 204 181
176 202 169
178 203 157
174 201 171
175 201 165
175 202 163
176 202 161
175 201 167
172 198 142
169 195 149
172 197 135
168 193 144
172 198 159
175 202 167
175 202 159
171 196 144
175 202 173
174 200 155
175 201 161
173 199 159
171 198 165
176 201 165
175 200 161
176 202 169
175 202 177
172 197 157
173 198 155
175 201 161
175 201 169
174 199 155
178 204 171
177 202 169
174 200 159
171 197 153
178 204 181
172 198 153
172 196 155
177 202 159
179 204 169
178 203 169
173 198 157
172 197 151
172 197 159
173 197 157
174 198 155
181 205 175
174 198 150
172 196 157
178 202 153
178 203 169
168 193 167
144 168 169
135 160 171
147 171 184
152 176 190
144 167 182
159 183 188
153 177 181
134 158 168
153 177 185
131 155 167
145 169 173
152 176 189
148 172 184
146 170 181
144 168 179
143 166 162
149 172 187
141 164 176
141 163 174
149 171 180
152 174 179
147 169 171
150 172 174
149 172 171
150 172 174
144 166 167
153 175 181
143 165 178
136 159 171
139 161 158
113 137 154
132 155 173
129 152 189
109 135 186
137 160 199
122 146 194
114 139 192
133 156 200
113 137 184
130 152 194
116 139 183
103 124 158
96 114 142
78 103 150
60 95 161
61 97 158
61 97 165
61 96 154
61 96 158
58 93 152
61 97 155
62 96 145
62 97 156
59 94 152
60 94 147
61 95 153
65 98 141
69 100 139
67 99 138
64 94 127
64 96 134
58 93 139
56 90 144
57 91 143
57 91 138
58 92 145
58 92 146
58 92 150
58 92 144
59 94 150
59 93 148
59 94 144
58 93 141
59 93 141
61 97 157
59 93 140
59 94 147
59 93 129
59 94 137
58 92 141
60 95 148
58 93 149
59 94 139
58 92 134
59 94 142
60 95 149
57 91 129
59 94 138
60 95 147
61 97 144
58 93 129
60 95 142
60 95 137
59 94 145
61 96 149
60 96 148
61 96 152
60 95 147
61 96 148
60 95 137
60 95 147
59 95 142
58 93 136
60 96 149
60 96 144
62 97 154
61 97 147
61 96 153
61 96 144
60 95 145
59 93 134
59 93 129
60 95 145
61 96 152
60 96 143
60 96 147
61 96 148
61 96 144
60 94 137
61 96 143
61 96 145
59 94 133
59 94 137
61 96 141
60 95 139
60 95 143
60 95 140
60 95 136
60 95 141
59 94 136
61 96 141
61 96 150
60 95 143
61 96 148
61 96 143
61 96 139
61 96 139
59 94 125
61 96 142
60 95 133
61 96 147
62 97 147
61 96 148
60 95 129
60 95 141
61 96 144
60 95 136
59 94 133
60 94 140
61 95 139
57 91 122
59 94 125
62 97 143
60 95 131
60 96 139
59 93 124
60 95 134
60 94 135
60 94 136
58 92 122
59 93 131
60 95 131
61 95 136
60 95 134
60 94 128
58 93 122
59 93 115
58 91 115
58 91 121
58 92 128
58 91 127
58 92 124
59 92 120
57 89 109
57 90 125
101 119 78
118 131 0
132 142 0
116 126 0
114 127 0
120 130 0
126 138 0
122 133 0
122 131 0
119 126 0
131 144 0
119 133 0
119 129 0
108 119 0
119 132 0
118 131 0
105 114 0
118 126 0
126 134 0
128 139 0
124 133 0
113 121 0
127 138 0
115 126 0
123 133 0
125 135 0
130 139 0
119 130 0
131 141 0
116 126 0
116 124 0
121 130 0
127 136 0
129 138 0
121 130 0
117 123 0
123 132 0
121 128 0
123 132 0
129 135 0
134 146 0
130 137 0
123 129 0
126 134 0
125 133 0
131 140 0
125 133 0
128 135 0
130 138 0
129 135 0
126 134 0
131 138 0
134 141 0
127 131 0
127 134 0
140 149 0
130 140 0
133 141 0
129 137 0
128 134 0
129 136 0
135 144 0
133 141 0
136 146 0
134 141 0
139 147 0
136 143 0
131 139 0
140 150 0
142 150 0
143 148 0
131 140 0
134 142 0
140 147 0
142 150 0
143 152 0
149 154 0
132 138 0
147 158 0
141 147 0
149 159 0
148 157 0
143 149 0
144 152 0
142 151 0
149 161 0
148 158 0
147 156 0
144 152 0
144 153 0
152 163 0
154 165 0
147 156 0
148 161 0
148 157 0
153 164 0
148 161 0
154 163 0
152 162 0
146 160 0
155 165 0
155 169 0
153 166 0
150 160 0
154 165 0
158 172 0
158 172 0
157 169 0
155 169 0
156 167 0
159 172 0
153 166 0
154 166 0
154 166 0
158 172 0
155 169 0
161 175 0
153 166 0
150 164 0
159 176 0
156 171 0
161 176 0
162 177 0
158 172 0
157 175 0
158 174 0
164 180 0
157 172 0
159 175 0
165 182 0
166 183 0
164 182 0
156 170 0
161 177 0
160 177 0
164 181 0
159 175 0
164 182 0
161 175 0
165 182 0
169 188 0
163 179 0
167 185 0
163 180 0
160 177 0
164 182 0
164 184 0
165 184 0
178 203 142
174 200 155
173 198 155
175 199 144
172 197 151
179 205 163
175 199 155
178 203 163
175 200 157
178 203 171
180 205 159
176 201 169
179 204 153
177 203 165
176 201 167
175 200 161
174 199 144
175 200 161
172 198 155
178 203 157
169 195 135
172 198 169
179 205 169
174 200 144
174 200 171
177 203 167
173 200 159
174 199 155
170 196 147
175 203 169
174 201 171
173 200 173
177 203 161
173 198 135
176 203 182
174 199 151
173 199 159
172 197 147
177 203 177
174 201 171
172 197 157
174 200 163
172 198 161
170 195 155
174 199 159
173 200 177
176 201 155
175 201 167
174 199 159
173 199 167
172 198 163
174 199 161
174 200 161
175 201 161
171 197 151
174 200 163
175 201 163
172 197 151
177 203 171
171 197 163
178 203 149
175 201 163
178 204 173
172 198 163
177 203 171
177 202 149
175 200 161
170 195 155
172 197 153
174 198 153
181 207 173
174 199 147
173 198 181
181 204 174
175 200 170
174 198 155
173 197 165
149 174 176
143 168 180
147 172 193
147 170 171
142 166 177
151 175 181
152 176 183
140 164 190
135 159 165
143 167 171
144 168 191
147 171 172
150 173 174
138 162 176
144 168 168
151 174 182
146 169 177
143 166 172
154 177 187
144 167 175
142 166 183
144 167 184
146 168 171
147 169 187
159 181 191
149 172 181
163 184 186
149 171 183
148 170 182
135 158 172
122 145 159
129 152 173
135 158 172
115 138 178
110 136 191
110 135 187
123 146 194
118 143 192
141 161 199
124 147 198
122 145 190
123 145 188
95 113 139
91 110 148
71 102 161
60 96 161
58 94 156
60 96 158
61 96 149
65 98 152
60 95 145
59 94 154
60 95 149
61 94 149
59 94 145
67 99 147
71 102 144
68 99 132
62 94 141
62 93 134
69 98 127
57 91 137
56 90 136
56 90 145
56 90 141
57 91 139
58 93 147
58 92 145
55 89 143
57 91 140
58 92 139
59 94 140
58 93 150
59 93 144
60 95 149
60 95 149
60 94 135
57 92 139
60 95 150
57 91 144
59 94 142
59 95 147
59 93 134
60 95 144
60 95 145
58 93 136
58 93 144
60 95 143
60 95 140
60 95 146
61 97 152
60 95 141
61 96 142
60 95 146
58 92 131
60 94 143
60 95 139
60 95 140
59 93 133
59 93 136
61 96 145
62 98 157
61 96 151
61 96 145
60 95 143
60 95 144
61 96 147
60 95 140
60 94 140
61 96 152
61 96 139
60 96 140
61 96 155
59 94 128
60 95 142
60 95 139
60 95 135
60 95 139
60 95 142
60 95 141
61 95 140
61 96 142
61 96 144
60 95 137
60 95 131
60 95 150
61 95 139
60 95 144
61 96 149
61 96 148
61 96 140
61 96 140
60 95 133
61 97 144
61 96 143
59 94 130
60 95 139
60 94 131
59 94 133
60 95 139
59 93 127
62 97 144
59 94 129
60 95 139
61 96 141
60 94 137
61 96 144
60 95 139
60 95 136
60 95 139
60 95 143
59 93 130
61 96 151
60 95 130
60 94 137
60 94 130
58 91 128
62 97 143
59 93 120
60 94 134
61 95 137
59 93 130
60 94 131
59 93 128
60 94 130
58 91 121
59 93 125
58 92 131
58 91 124
59 93 125
58 91 111
59 92 121
57 91 120
56 88 107
68 94 107
123 135 0
106 119 0
124 131 0
115 127 0
123 135 0
120 130 0
126 136 0
130 141 0
127 139 0
113 124 0
126 136 0
113 125 0
127 138 0
121 130 0
117 128 0
124 136 0
121 130 0
119 130 0
122 134 0
125 139 0
119 131 0
125 137 0
121 130 0
116 124 0
125 136 0
110 119 0
114 124 0
129 138 0
128 136 0
124 134 0
121 128 0
127 138 0
119 128 0
116 125 0
128 138 0
131 139 0
134 144 0
124 133 0
128 138 0
132 142 0
129 135 0
129 137 0
127 134 0
133 142 0
134 144 0
129 136 0
126 133 0
134 144 0
131 138 0
134 142 0
138 145 0
122 129 0
133 141 0
131 137 0
134 143 0
133 144 0
125 132 0
135 141 0
140 147 0
131 139 0
124 130 0
129 137 0
131 140 0
133 141 0
130 139 0
132 141 0
136 142 0
138 144 0
144 152 0
136 143 0
141 150 0
146 155 0
141 149 0
143 151 0
142 151 0
141 149 0
128 135 0
149 157 0
142 151 0
151 160 0
138 147 0
133 142 0
141 151 0
151 161 0
145 154 0
150 160 0
148 159 0
147 154 0
150 161 0
145 153 0
151 163 0
149 160 0
151 163 0
147 157 0
149 160 0
151 162 0
151 164 0
150 162 0
149 162 0
158 170 0
150 162 0
155 168 0
155 168 0
152 163 0
150 163 0
153 165 0
152 163 0
154 168 0
155 168 0
155 169 0
151 166 0
156 172 0
151 165 0
153 167 0
152 162 0
159 173 0
165 181 0
158 174 0
161 179 0
160 175 0
160 176 0
158 172 0
163 179 0
162 178 0
160 176 0
158 174 0
164 181 0
160 177 0
165 181 0
159 175 0
162 179 0
157 173 0
165 182 0
162 180 0
161 177 0
161 176 0
161 178 0
163 181 0
158 175 0
166 184 0
162 180 0
168 185 0
156 171 0
166 185 0
162 180 0
160 177 0
162 182 0
163 184 0
178 203 157
169 194 149
177 203 163
180 205 163
177 202 165
178 202 155
178 203 169
176 201 157
175 200 144
174 200 165
180 205 165
176 202 167
177 202 157
174 198 155
175 201 161
172 197 142
176 202 153
175 200 153
176 203 181
173 199 157
175 202 173
174 200 155
173 200 169
172 198 163
174 201 177
175 201 161
175 202 175
174 201 173
174 200 147
171 197 151
175 201 159
176 202 155
175 202 169
172 198 151
174 201 169
174 201 159
173 199 171
174 201 155
174 201 169
172 199 167
170 196 151
176 202 161
174 199 149
172 198 153
173 198 153
174 200 169
172 197 140
175 200 142
174 199 157
174 200 153
173 200 165
175 200 151
178 205 173
174 199 159
175 199 147
170 195 142
170 195 153
169 194 147
174 199 149
172 199 159
173 198 149
176 200 140
174 199 159
178 204 167
172 198 153
175 200 163
177 203 184
172 197 159
173 199 163
174 199 147
175 199 142
174 199 147
177 201 147
173 197 149
177 202 173
174 198 157
173 198 167
170 194 140
138 164 172
160 184 197
144 167 172
145 169 179
143 168 186
141 165 175
146 170 191
142 167 181
153 177 200
142 166 181
143 167 170
154 178 193
148 171 185
148 172 183
149 172 184
138 161 166
139 163 169
145 168 178
155 177 181
147 169 177
146 169 178
148 171 189
148 170 181
143 165 175
143 165 171
152 173 174
152 174 181
164 185 191
132 154 169
128 150 175
133 156 174
131 154 175
131 154 182
128 151 194
127 150 194
121 144 192
134 156 202
121 145 193
125 148 194
117 141 190
129 151 189
103 123 161
89 108 141
85 107 140
63 97 157
60 95 157
62 97 160
59 94 153
60 96 157
59 94 153
59 95 161
58 92 145
62 96 153
60 94 140
58 93 143
74 105 140
67 99 139
73 104 137
58 90 133
62 94 147
57 91 147
55 88 130
56 90 134
56 89 125
57 91 138
58 92 148
58 92 141
57 91 144
57 91 136
57 91 129
59 94 147
59 93 142
57 91 136
58 93 142
59 94 139
59 94 148
59 94 147
58 92 136
58 93 137
58 93 141
59 94 147
58 93 137
60 95 151
57 91 134
60 94 139
61 96 145
59 94 149
59 93 143
60 95 147
60 94 143
61 96 150
60 95 150
58 93 136
58 93 133
60 95 143
60 96 139
60 96 150
61 96 148
60 95 150
61 96 140
59 94 134
59 93 131
61 96 147
59 93 141
59 93 132
61 96 147
60 95 140
60 94 131
59 94 137
60 95 136
61 95 139
60 94 136
60 95 137
58 92 122
60 95 143
60 96 150
60 94 141
61 97 151
59 94 134
61 96 146
62 97 152
62 97 145
60 95 141
60 95 142
60 95 142
61 97 148
61 96 141
62 97 150
59 94 128
60 95 143
61 95 143
60 94 137
61 96 142
60 95 130
61 96 131
61 96 149
60 95 134
60 94 134
60 95 142
61 96 150
60 94 131
60 94 135
60 94 136
61 95 135
60 94 137
60 95 133
60 94 134
59 94 125
59 94 129
61 95 134
59 93 128
61 96 135
60 94 139
61 96 134
60 94 131
59 93 124
61 95 140
60 95 140
60 94 132
57 90 115
59 93 130
61 95 137
59 93 136
59 93 128
59 93 125
57 89 107
59 92 126
58 91 115
58 90 125
59 93 131
58 92 129
59 92 128
56 89 117
107 124 54
123 136 0
122 136 0
121 134 0
122 136 0
111 123 0
120 130 0
108 119 0
126 137 0
112 122 0
130 141 0
123 132 0
125 138 0
116 126 0
116 127 0
123 134 0
131 143 0
119 132 0
131 142 0
127 138 0
115 125 0
122 132 0
126 138 0
120 128 0
115 126 0
125 139 0
122 133 0
119 131 0
127 139 0
125 134 0
127 140 0
128 140 0
121 130 0
114 121 0
119 128 0
121 129 0
124 135 0
122 130 0
131 141 0
126 134 0
120 127 0
131 139 0
136 145 0
123 132 0
125 134 0
133 143 0
129 138 0
131 139 0
131 140 0
135 144 0
123 131 0
137 142 0
126 135 0
134 145 0
133 141 0
129 136 0
139 148 0
129 136 0
140 148 0
127 135 0
132 142 0
129 137 0
135 141 0
135 144 0
141 150 0
144 152 0
142 151 0
122 131 0
138 148 0
137 146 0
134 142 0
145 151 0
144 153 0
138 147 0
149 159 0
145 152 0
146 156 0
144 155 0
144 156 0
140 149 0
142 152 0
136 144 0
140 149 0
148 158 0
144 154 0
150 160 0
144 154 0
151 163 0
153 163 0
150 160 0
154 168 0
143 153 0
152 163 0
151 160 0
154 166 0
144 152 0
150 164 0
148 162 0
153 166 0
158 173 0
152 163 0
149 161 0
150 163 0
157 169 0
154 167 0
152 162 0
155 167 0
153 166 0
159 173 0
159 176 0
156 169 0
159 174 0
153 166 0
161 178 0
159 174 0
160 177 0
159 175 0
163 178 0
158 173 0
156 169 0
155 169 0
159 174 0
159 175 0
159 172 0
158 172 0
155 170 0
166 182 0
163 181 0
161 177 0
162 179 0
162 177 0
164 181 0
162 181 0
164 181 0
167 186 0
157 172 0
162 179 0
161 178 0
162 180 0
162 178 0
159 176 0
165 185 0
165 183 0
168 186 0
164 183 0
158 175 0
163 180 0
159 178 0
162 178 0
177 202 153
175 200 157
175 200 147
176 201 161
180 203 147
178 203 175
175 199 153
177 203 155
174 199 159
172 196 142
174 199 155
180 207 191
174 199 147
169 193 128
176 201 157
175 201 169
175 202 171
177 203 177
175 201 165
175 200 147
176 202 167
172 198 163
174 201 165
176 203 149
171 197 151
175 201 167
173 200 157
172 199 165
174 201 169
175 201 169
176 203 175
170 197 155
174 200 155
174 200 155
176 203 161
176 204 171
171 197 147
174 201 161
173 200 165
173 200 167
173 198 147
170 196 153
174 201 165
173 199 159
173 198 151
173 198 159
176 203 163
175 200 144
175 202 167
176 202 163
174 199 155
167 193 147
170 197 175
175 201 149
174 200 167
172 198 165
174 200 155
177 204 165
174 201 173
172 197 161
175 201 163
176 202 159
176 202 147
169 195 163
172 198 167
175 201 169
176 201 149
174 198 144
174 199 165
177 201 167
178 204 175
174 200 161
174 199 169
177 203 175
179 203 163
174 199 157
173 196 149
171 195 174
164 189 170
139 164 180
136 160 163
136 161 180
148 173 186
146 169 178
146 170 185
148 171 182
146 169 179
135 160 190
140 163 173
152 175 185
144 167 185
137 160 175
147 170 178
147 171 185
148 171 174
141 164 174
142 164 159
149 172 176
149 172 191
137 159 174
147 168 185
147 169 180
153 175 179
149 171 183
143 165 168
150 172 180
154 175 190
140 162 173
133 156 163
140 163 173
130 153 165
131 153 171
116 140 188
117 141 190
129 152 200
106 132 185
117 141 192
131 153 197
129 151 194
126 147 188
99 115 139
88 108 141
82 107 153
61 96 166
60 96 154
63 99 166
61 96 155
61 96 156
62 97 154
58 93 151
57 91 139
58 93 152
64 98 150
61 95 143
58 92 141
69 99 136
75 105 139
54 86 123
62 94 138
57 90 135
56 89 125
56 89 138
56 89 138
58 92 134
56 89 136
57 91 134
58 93 140
58 92 144
58 93 145
58 92 136
58 92 140
58 92 136
57 91 137
60 95 149
60 95 153
60 95 146
58 91 142
59 94 151
59 94 142
58 93 145
59 94 136
58 92 141
60 95 145
60 95 148
60 95 147
59 93 141
59 94 136
61 96 150
59 94 143
59 94 139
61 97 147
60 94 137
59 93 131
60 94 140
58 93 129
61 97 149
60 95 147
59 94 137
60 95 135
61 96 143
61 96 144
60 95 141
61 96 141
60 95 144
61 96 148
61 96 153
60 95 143
59 94 140
61 96 144
59 93 128
61 96 145
62 98 158
61 96 150
60 95 141
60 95 141
61 96 151
60 95 143
59 94 139
60 95 136
59 93 129
60 96 148
59 93 133
59 93 125
60 95 131
61 97 144
61 96 141
59 94 131
60 95 147
60 95 130
62 97 153
62 97 148
61 96 143
60 95 135
60 95 137
61 96 137
60 94 135
60 95 139
57 91 120
60 95 142
61 96 133
60 95 139
59 94 135
58 92 128
58 92 120
60 95 142
59 93 130
60 94 126
61 95 134
59 94 129
58 93 125
59 93 126
61 96 139
59 93 130
58 92 118
57 92 115
60 94 137
59 93 129
58 92 130
59 93 124
60 95 130
61 95 140
59 93 124
58 91 125
58 93 120
58 91 115
60 93 130
59 93 125
58 91 121
58 92 121
57 90 110
79 104 102
114 126 0
110 121 0
132 144 0
119 133 0
131 145 0
121 134 0
114 128 0
123 136 0
126 140 0
119 131 0
126 136 0
107 118 0
116 126 0
118 131 0
123 133 0
114 124 0
128 140 0
121 135 0
112 122 0
124 135 0
127 141 0
125 140 0
111 122 0
124 134 0
113 123 0
127 140 0
119 129 0
122 130 0
115 125 0
135 144 0
115 123 0
129 137 0
125 135 0
128 138 0
137 150 0
134 145 0
130 140 0
135 142 0
134 142 0
130 138 0
131 139 0
122 129 0
129 137 0
131 139 0
139 149 0
135 144 0
135 147 0
130 140 0
132 140 0
124 131 0
135 143 0
134 140 0
135 143 0
129 141 0
132 142 0
134 144 0
134 142 0
130 142 0
131 140 0
134 143 0
139 148 0
149 159 0
136 147 0
144 153 0
141 150 0
145 153 0
142 152 0
133 140 0
140 146 0
134 144 0
141 150 0
154 167 0
137 147 0
145 155 0
133 142 0
148 159 0
137 142 0
146 158 0
136 145 0
149 158 0
144 154 0
142 150 0
148 159 0
150 159 0
147 159 0
145 156 0
151 162 0
154 168 0
149 159 0
154 164 0
152 161 0
155 169 0
149 161 0
148 162 0
149 160 0
154 165 0
159 172 0
157 170 0
147 159 0
147 158 0
153 166 0
147 158 0
154 168 0
155 170 0
157 169 0
154 169 0
150 163 0
154 168 0
153 166 0
154 168 0
155 170 0
158 173 0
152 163 0
159 173 0
158 175 0
162 179 0
155 168 0
165 179 0
160 176 0
157 173 0
158 173 0
164 179 0
158 173 0
155 172 0
159 177 0
165 183 0
162 179 0
159 174 0
163 180 0
161 176 0
165 182 0
157 174 0
159 177 0
163 182 0
166 184 0
165 183 0
163 178 0
163 180 0
159 178 0
161 177 0
165 184 0
163 183 0
158 177 0
164 183 0
166 185 0
159 176 0
166 185 0
164 184 0
168 187 0
175 199 153
174 200 163
178 203 161
180 205 175
177 201 144
176 201 157
177 202 163
175 201 161
179 204 167
175 201 167
176 201 161
172 198 157
177 202 153
176 202 171
173 199 144
177 203 175
175 202 165
171 197 155
175 200 159
175 201 163
177 204 169
174 200 153
173 198 155
172 199 159
175 201 151
174 199 155
173 200 167
174 201 173
175 202 177
175 202 169
173 200 177
173 199 159
176 203 175
171 196 153
174 200 157
174 200 163
175 202 161
174 200 159
175 201 157
171 197 144
173 198 155
173 200 159
176 203 167
172 199 177
174 200 147
174 199 155
173 199 163
176 203 169
171 198 157
171 197 151
173 199 159
174 200 161
176 202 163
174 200 159
173 199 159
172 197 142
174 200 155
177 203 177
178 203 163
171 197 161
176 203 171
176 202 163
173 200 173
174 200 163
168 194 157
174 200 173
176 201 161
173 199 169
172 196 151
178 204 167
176 201 161
171 196 165
174 199 151
174 199 149
174 199 165
177 200 159
178 201 150
174 198 167
177 201 158
142 168 181
149 174 174
146 171 177
143 168 188
150 176 186
144 168 183
144 168 181
140 164 165
142 166 181
135 158 169
138 161 175
152 176 185
151 175 188
148 171 174
129 152 158
149 172 181
148 170 187
150 173 178
141 164 167
144 167 181
149 171 169
142 164 169
154 175 177
143 165 169
142 164 160
151 171 178
148 169 177
151 173 176
155 177 182
139 161 173
138 161 166
144 165 171
137 158 170
126 149 176
122 146 195
114 138 183
114 138 187
118 142 194
120 143 188
124 147 190
113 137 186
100 120 154
92 112 145
91 109 139
85 109 152
60 95 152
63 98 159
62 97 154
62 97 152
65 99 150
60 95 160
59 94 146
60 95 150
63 97 154
59 93 147
73 103 130
66 97 132
67 98 131
63 95 139
62 94 121
58 90 137
56 90 131
56 90 133
56 89 129
57 90 134
56 90 129
58 92 144
59 94 153
59 93 137
58 93 135
55 88 123
59 93 140
58 92 124
60 95 136
59 93 139
59 93 143
57 91 129
60 94 149
60 94 141
59 94 140
58 92 122
59 94 144
59 94 139
60 95 144
59 94 144
60 95 151
60 95 145
58 92 136
58 92 138
59 95 141
60 96 148
59 94 141
58 93 136
59 93 145
60 94 143
58 92 133
60 95 144
60 95 147
61 96 148
61 96 145
61 95 139
61 96 143
60 95 150
60 95 142
59 94 137
60 95 143
59 94 129
60 95 137
61 96 140
60 95 140
60 95 147
60 96 145
60 95 136
60 95 143
60 95 137
60 95 139
61 96 145
60 95 142
60 94 140
60 96 139
61 96 142
60 95 133
58 92 120
60 94 135
60 94 131
60 94 136
61 95 141
60 94 141
61 96 143
61 97 145
59 94 137
60 95 136
59 93 131
58 91 126
59 93 135
59 93 133
60 95 142
59 93 134
61 96 134
59 94 126
59 93 129
61 96 137
59 93 128
59 94 122
61 96 142
60 95 137
60 94 134
61 96 139
59 93 134
59 93 135
60 95 134
59 93 130
59 94 134
60 94 139
60 94 126
59 94 129
59 93 121
58 92 122
58 92 124
59 93 122
60 94 126
58 92 120
57 90 113
57 90 118
57 89 111
57 90 121
59 93 123
58 91 115
57 90 110
58 91 107
62 92 113
112 125 18
116 129 0
119 132 0
116 131 0
116 132 0
123 134 0
118 130 0
113 125 0
118 129 0
108 119 0
125 138 0
123 136 0
120 131 0
123 136 0
131 145 0
122 135 0
125 135 0
114 126 0
120 132 0
125 136 0
118 127 0
122 133 0
119 131 0
115 125 0
118 129 0
128 140 0
126 140 0
124 134 0
130 141 0
120 130 0
131 143 0
126 137 0
125 134 0
130 143 0
125 136 0
120 129 0
118 127 0
125 136 0
119 131 0
125 138 0
125 134 0
133 143 0
137 145 0
126 134 0
132 141 0
137 146 0
126 136 0
136 143 0
129 137 0
139 147 0
137 149 0
122 133 0
128 137 0
130 140 0
139 148 0
135 142 0
135 143 0
134 146 0
139 151 0
138 147 0
135 144 0
135 145 0
147 156 0
135 144 0
139 148 0
130 137 0
142 153 0
139 150 0
138 146 0
139 148 0
142 148 0
146 156 0
149 159 0
143 153 0
146 158 0
145 155 0
132 141 0
152 162 0
148 161 0
149 161 0
145 153 0
136 146 0
151 163 0
146 157 0
149 159 0
151 162 0
144 153 0
152 162 0
149 161 0
146 155 0
146 157 0
152 162 0
138 147 0
154 166 0
143 153 0
142 152 0
156 169 0
151 161 0
155 170 0
145 158 0
151 163 0
155 168 0
158 171 0
154 168 0
155 169 0
156 168 0
154 168 0
160 174 0
154 167 0
158 171 0
161 175 0
157 172 0
161 176 0
154 169 0
154 168 0
156 173 0
160 175 0
162 179 0
159 173 0
159 173 0
162 178 0
160 174 0
156 172 0
157 174 0
164 181 0
161 176 0
158 173 0
158 173 0
161 177 0
156 172 0
166 183 0
164 181 0
165 180 0
164 182 0
159 176 0
160 178 0
163 180 0
164 181 0
161 178 0
162 179 0
164 183 0
166 184 0
166 184 0
162 179 0
167 185 0
162 181 0
162 181 0
165 183 0
165 182 0
170 188 0
178 203 151
177 203 177
178 203 155
178 204 169
175 200 149
177 201 153
175 199 140
178 203 167
174 198 157
176 202 163
173 198 149
177 203 157
170 196 153
169 194 151
175 202 169
175 200 151
173 199 153
171 197 163
173 199 144
174 201 153
174 199 153
175 201 153
174 200 151
176 202 163
176 203 167
176 201 142
174 201 159
173 199 165
174 201 163
173 200 159
168 194 142
177 204 167
171 196 144
173 200 155
174 199 144
173 200 179
175 200 153
175 202 173
172 199 165
170 196 147
175 202 157
171 196 147
175 202 161
175 201 167
171 197 155
176 202 161
175 202 165
175 201 159
174 200 149
174 199 153
173 198 147
172 197 149
174 201 163
170 195 153
175 201 167
177 203 165
175 201 165
179 205 177
176 201 159
174 199 151
170 195 142
174 200 175
177 202 157
176 202 175
171 197 151
176 199 149
172 196 133
172 197 149
172 197 153
176 202 173
169 192 137
173 198 149
169 192 135
177 203 169
175 199 171
174 199 144
173 196 144
172 196 155
171 196 163
159 183 169
158 183 195
131 156 166
145 170 179
139 164 167
143 168 177
141 165 177
139 163 165
150 174 188
127 151 166
142 165 177
157 179 192
143 166 178
139 163 171
152 175 175
145 168 180
145 168 193
152 175 183
147 169 166
151 174 184
151 174 190
147 170 176
157 178 189
148 170 173
151 173 185
154 176 174
154 175 176
157 179 182
147 170 176
148 170 169
149 171 181
121 145 165
136 158 169
133 155 174
133 155 188
124 147 194
128 151 196
123 146 190
118 142 189
124 147 194
109 134 181
118 140 184
89 109 146
96 115 155
102 118 145
73 101 145
62 98 157
60 96 155
63 97 150
61 96 154
61 96 147
67 100 153
61 96 148
61 96 147
60 94 147
70 102 149
60 93 142
62 94 135
62 94 135
64 96 140
68 99 137
64 96 127
56 89 135
56 89 136
58 92 139
56 90 128
57 91 135
56 90 136
58 93 149
58 93 139
58 92 140
57 90 132
60 95 150
57 91 132
58 92 132
57 91 141
60 94 142
57 91 133
60 95 142
59 94 134
58 91 130
57 91 132
58 92 136
59 94 139
59 94 144
58 91 126
59 93 133
60 94 140
60 94 142
61 96 143
59 93 137
60 95 142
60 95 145
60 94 129
60 94 139
60 96 148
60 94 133
58 93 133
60 95 147
60 95 144
60 95 142
59 94 141
59 94 139
60 95 141
59 94 131
59 94 134
59 94 133
61 96 143
59 94 137
60 95 134
61 96 140
60 95 142
62 97 143
59 93 130
60 95 143
61 96 140
60 95 145
61 97 148
59 94 130
59 94 130
60 95 134
59 93 125
61 96 143
60 95 135
60 94 135
60 95 133
59 93 129
61 96 145
60 94 134
60 95 143
61 96 142
60 94 130
60 95 133
60 94 136
60 96 140
60 94 128
61 95 141
59 93 122
59 94 121
59 94 131
60 96 139
59 94 130
61 95 129
59 94 131
59 93 134
60 94 126
60 94 124
59 93 130
59 93 126
58 92 126
60 95 141
59 93 125
60 95 129
59 93 124
60 94 126
59 93 131
58 92 121
60 95 134
60 94 137
58 92 120
60 94 130
58 92 115
58 92 118
55 88 111
58 92 120
60 94 133
58 91 121
58 91 123
58 92 111
57 90 110
104 121 76
119 134 0
121 134 0
114 126 0
129 141 0
124 136 0
116 125 0
118 133 0
126 140 0
119 127 0
127 138 0
118 132 0
117 131 0
119 131 0
127 141 0
121 133 0
120 129 0
129 141 0
115 126 0
126 140 0
122 132 0
123 133 0
119 129 0
119 132 0
129 140 0
119 130 0
125 138 0
125 137 0
125 135 0
126 139 0
126 140 0
126 132 0
125 136 0
115 127 0
129 139 0
132 142 0
132 143 0
126 138 0
133 145 0
121 131 0
120 130 0
140 148 0
129 138 0
124 132 0
127 135 0
134 144 0
136 144 0
124 133 0
132 142 0
139 151 0
134 145 0
136 146 0
126 135 0
138 148 0
127 136 0
133 145 0
135 145 0
134 145 0
138 150 0
142 152 0
138 145 0
137 148 0
142 155 0
136 148 0
143 156 0
130 139 0
136 146 0
138 148 0
134 141 0
136 144 0
144 154 0
142 151 0
144 151 0
143 154 0
139 149 0
144 156 0
142 152 0
148 159 0
137 147 0
143 154 0
141 148 0
146 159 0
148 160 0
145 158 0
138 146 0
149 161 0
146 157 0
143 151 0
149 161 0
152 166 0
148 164 0
151 162 0
156 170 0
148 159 0
149 158 0
156 170 0
147 158 0
152 165 0
148 161 0
149 163 0
150 161 0
149 159 0
155 170 0
152 164 0
158 173 0
158 172 0
152 164 0
162 178 0
151 163 0
158 172 0
151 164 0
150 165 0
153 169 0
156 168 0
157 170 0
156 167 0
155 169 0
156 171 0
161 176 0
152 162 0
161 177 0
162 177 0
160 174 0
160 176 0
159 175 0
163 179 0
162 178 0
159 173 0
163 181 0
156 173 0
161 178 0
158 174 0
156 170 0
162 177 0
164 182 0
161 178 0
164 181 0
160 177 0
162 177 0
160 176 0
163 180 0
162 180 0
165 181 0
163 183 0
165 184 0
166 185 0
163 180 0
165 184 0
162 181 0
161 178 0
163 184 0
174 198 128
173 198 149
180 205 171
174 199 161
176 201 169
177 203 157
175 201 184
177 203 169
177 202 159
175 199 147
172 198 159
176 202 165
172 199 159
174 199 153
174 200 167
174 201 167
174 200 165
174 201 161
172 198 155
171 197 157
174 201 159
176 202 163
172 199 163
178 204 171
172 199 157
178 204 171
173 199 147
175 200 155
174 200 153
176 203 167
171 197 165
175 201 149
174 200 149
177 202 151
173 200 161
176 202 163
178 204 181
176 202 173
175 202 177
175 201 173
173 200 163
174 201 163
173 199 153
175 202 171
175 202 163
175 201 169
174 199 155
174 200 151
172 198 159
173 199 161
175 201 159
173 199 169
172 198 153
173 199 149
175 199 147
175 201 163
175 201 171
173 199 159
175 201 155
177 203 171
176 201 144
177 204 177
176 201 157
173 198 153
169 195 155
176 202 157
177 202 155
169 194 133
175 201 169
176 202 169
170 195 151
172 197 149
175 199 167
175 201 159
166 190 155
178 203 161
175 200 171
174 198 161
177 202 159
174 198 161
145 169 164
150 174 183
154 179 187
150 175 185
145 169 174
140 163 173
138 163 173
153 177 193
140 164 174
152 175 182
155 178 181
149 171 189
134 157 162
155 178 185
137 160 171
132 155 171
142 165 174
146 168 165
157 179 187
137 158 175
147 169 186
150 172 193
136 158 164
144 166 180
156 177 179
154 176 182
150 171 180
142 164 170
153 174 170
154 174 172
145 166 176
131 153 177
134 156 185
131 154 175
128 151 184
126 149 194
114 139 188
113 137 187
127 150 196
121 144 189
115 139 183
90 112 148
95 114 142
98 114 129
93 113 146
63 97 153
61 96 157
62 97 151
58 93 149
63 97 147
61 95 147
61 96 144
60 94 138
56 90 136
58 92 140
65 98 137
66 98 144
78 107 133
64 95 124
60 91 131
60 91 117
53 84 121
57 91 131
56 90 135
57 91 126
56 89 126
58 92 139
59 94 142
59 93 141
58 91 144
57 90 137
56 90 126
57 91 132
58 92 129
58 93 138
57 90 133
59 93 144
59 94 137
59 93 135
59 93 139
60 95 154
58 93 135
60 94 144
60 95 139
59 93 139
57 91 137
59 93 141
58 92 137
60 94 136
61 95 142
58 93 134
59 94 141
61 96 147
61 96 146
60 95 145
59 94 131
60 95 144
60 95 145
60 94 129
60 95 135
61 97 150
59 93 136
58 92 128
59 94 139
61 96 143
58 93 138
60 95 131
59 93 122
61 96 150
58 92 139
60 94 141
61 96 143
60 94 131
62 97 158
61 96 137
61 96 141
61 95 142
60 95 141
60 95 139
60 94 135
60 94 141
60 94 124
61 97 144
60 94 132
60 95 142
61 96 136
60 94 134
60 94 137
59 94 131
61 96 135
61 95 137
59 93 135
61 95 148
60 95 131
60 94 126
60 95 140
60 94 131
60 95 134
61 95 136
60 95 129
60 95 137
59 93 131
60 94 136
59 93 133
59 93 124
59 94 126
60 95 137
60 94 128
60 94 131
60 94 131
59 94 117
59 94 128
60 94 133
59 93 125
58 92 129
59 93 122
56 89 118
61 95 139
59 94 129
58 91 124
59 92 121
60 94 135
59 93 125
60 94 120
57 90 120
58 91 120
57 89 110
56 88 99
86 109 94
132 146 0
119 133 0
114 125 0
120 133 0
116 130 0
120 132 0
125 139 0
129 143 0
123 137 0
122 134 0
120 132 0
129 143 0
132 144 0
121 132 0
115 129 0
121 137 0
129 141 0
128 140 0
110 124 0
110 120 0
123 134 0
111 122 0
121 132 0
119 131 0
128 141 0
131 144 0
136 146 0
126 137 0
125 136 0
129 144 0
129 143 0
141 152 0
133 146 0
127 140 0
122 135 0
128 138 0
142 155 0
140 152 0
124 136 0
134 147 0
126 135 0
132 142 0
129 142 0
134 145 0
128 139 0
138 149 0
132 143 0
137 149 0
130 140 0
132 141 0
127 139 0
134 142 0
126 134 0
138 145 0
134 144 0
140 151 0
140 149 0
144 154 0
145 155 0
134 147 0
133 143 0
130 140 0
136 148 0
140 149 0
137 147 0
138 147 0
146 157 0
134 144 0
138 148 0
146 156 0
138 150 0
141 154 0
142 152 0
141 150 0
135 144 0
139 151 0
144 157 0
143 155 0
143 156 0
142 153 0
141 151 0
145 157 0
142 153 0
145 153 0
142 155 0
150 162 0
148 161 0
147 160 0
148 157 0
148 160 0
149 160 0
153 167 0
152 165 0
151 165 0
142 155 0
151 164 0
152 164 0
151 165 0
158 170 0
158 171 0
157 173 0
144 158 0
152 165 0
151 161 0
157 172 0
153 167 0
152 163 0
153 166 0
155 168 0
156 171 0
156 171 0
156 170 0
161 175 0
154 169 0
153 167 0
158 173 0
163 181 0
159 175 0
157 172 0
159 175 0
155 170 0
159 176 0
162 181 0
158 174 0
161 178 0
160 177 0
156 171 0
159 178 0
156 171 0
164 179 0
164 182 0
160 177 0
161 178 0
162 174 0
157 172 0
159 178 0
157 173 0
161 178 0
166 183 0
164 182 0
160 178 0
161 179 0
163 181 0
161 178 0
166 183 0
171 189 0
168 185 0
161 181 0
162 178 0
163 180 0
165 184 0
171 196 144
180 205 179
181 206 177
176 202 167
176 203 165
175 199 149
175 199 149
177 203 169
173 199 165
176 201 147
175 201 169
177 203 151
172 198 157
173 198 155
175 202 163
172 198 151
176 202 161
173 199 159
173 199 163
175 201 167
175 201 159
175 202 165
172 198 157
172 197 149
175 201 163
172 198 165
174 199 149
171 197 165
175 202 173
176 204 177
174 200 153
174 200 155
174 200 159
173 198 149
175 201 161
171 197 151
176 202 142
175 200 137
177 204 173
174 200 144
168 194 153
175 201 171
176 201 151
170 197 144
176 203 173
170 197 159
177 204 171
171 197 147
174 200 161
173 199 161
174 201 167
173 198 133
171 197 149
173 199 167
171 197 155
174 200 159
174 200 155
173 200 165
177 202 159
171 197 163
174 199 167
176 202 167
170 196 161
172 197 157
176 201 155
169 194 153
176 200 150
167 192 133
174 199 147
170 195 137
172 197 149
175 200 147
170 194 142
174 199 163
175 200 169
170 193 151
174 199 165
174 198 159
172 196 163
175 199 159
166 189 137
158 183 187
150 175 183
144 169 192
148 172 176
137 161 174
141 164 177
146 170 187
152 175 179
135 158 168
150 173 181
153 176 193
145 168 170
135 158 183
145 168 188
149 171 181
135 157 155
155 177 189
145 168 170
137 159 172
157 180 190
145 167 174
156 178 178
149 171 177
152 174 183
147 168 174
149 171 183
147 168 162
150 172 187
157 177 169
134 156 169
132 155 163
130 153 174
128 151 163
126 149 166
131 154 189
118 142 189
113 137 187
134 156 199
119 142 187
117 140 183
131 152 194
95 112 142
92 112 141
92 112 150
96 115 141
62 96 151
63 99 163
59 95 150
61 96 144
61 96 151
61 95 146
61 95 151
61 95 144
61 96 148
59 92 137
63 96 137
70 100 137
63 96 129
60 92 126
67 98 125
55 88 135
58 91 131
55 89 131
54 87 127
56 90 136
57 91 133
58 92 127
58 92 139
57 91 123
59 93 133
60 95 142
58 93 139
59 94 144
58 92 137
58 92 136
60 94 134
58 92 128
58 92 136
58 92 135
60 94 142
60 95 147
59 93 143
59 93 137
58 93 136
58 92 128
60 94 143
59 94 139
58 93 131
60 94 136
61 96 146
61 97 149
59 94 138
59 94 144
60 95 143
60 94 140
59 94 137
57 90 125
59 94 128
60 95 139
61 96 137
60 95 143
60 95 139
61 96 144
61 96 151
59 93 136
60 96 141
58 92 134
60 95 140
59 94 142
61 95 137
59 93 141
58 93 133
61 96 139
59 93 131
60 94 139
60 95 130
60 95 139
61 96 150
60 95 137
59 93 129
60 95 142
60 94 135
60 94 130
60 94 137
60 95 137
60 95 129
60 95 134
60 95 136
60 95 142
59 94 135
60 94 134
60 94 142
59 93 134
59 94 124
60 95 135
60 95 139
60 95 129
59 94 129
61 96 142
61 96 135
58 93 128
61 96 142
59 94 135
60 94 130
59 93 126
60 95 131
60 95 133
61 96 136
61 96 141
61 95 136
58 92 121
59 94 121
60 94 131
59 93 118
60 94 133
60 94 129
60 94 131
58 91 110
61 95 135
59 93 126
60 93 129
59 93 128
58 91 118
56 89 117
56 88 110
57 90 106
59 89 102
103 119 40
115 129 0
116 128 0
113 127 0
121 134 0
112 127 0
106 118 0
134 148 0
124 135 0
128 143 0
122 135 0
127 142 0
116 130 0
121 133 0
123 136 0
128 140 0
120 133 0
138 151 0
120 132 0
128 140 0
128 139 0
134 145 0
126 140 0
134 147 0
133 148 0
123 136 0
126 140 0
138 152 0
124 135 0
124 137 0
122 136 0
122 132 0
130 144 0
127 138 0
126 135 0
126 139 0
132 145 0
133 145 0
145 157 0
119 129 0
125 137 0
124 134 0
139 149 0
120 132 0
144 156 0
131 142 0
142 152 0
129 137 0
125 133 0
134 146 0
147 159 0
133 142 0
136 148 0
135 144 0
139 151 0
129 140 0
138 151 0
140 152 0
128 139 0
136 146 0
144 152 0
142 154 0
140 149 0
133 144 0
140 151 0
136 146 0
150 161 0
131 143 0
137 148 0
143 152 0
148 162 0
141 151 0
137 148 0
138 149 0
140 149 0
139 148 0
143 154 0
145 157 0
146 158 0
151 163 0
152 166 0
146 160 0
148 160 0
145 157 0
146 156 0
146 157 0
144 154 0
151 161 0
144 156 0
154 168 0
146 158 0
155 171 0
152 165 0
155 165 0
152 163 0
146 156 0
151 164 0
151 163 0
154 166 0
147 159 0
158 169 0
154 165 0
154 169 0
147 159 0
152 164 0
153 164 0
150 162 0
153 168 0
158 174 0
156 166 0
162 175 0
158 173 0
147 161 0
155 169 0
163 178 0
160 178 0
162 175 0
157 172 0
156 170 0
160 174 0
160 178 0
154 171 0
157 172 0
160 178 0
162 177 0
158 173 0
157 173 0
161 177 0
158 173 0
167 184 0
159 175 0
158 172 0
164 181 0
161 178 0
159 177 0
156 172 0
159 177 0
164 182 0
158 175 0
161 178 0
162 180 0
165 184 0
160 175 0
161 179 0
162 180 0
163 180 0
163 182 0
166 185 0
162 179 0
164 182 0
167 188 0
164 183 0
179 204 159
175 200 149
173 197 153
176 200 149
178 203 171
175 201 165
173 199 159
172 197 159
178 204 165
174 200 169
175 200 159
176 201 155
176 202 163
173 198 147
174 200 157
174 201 151
175 201 159
176 203 163
172 199 159
172 199 161
175 201 151
172 198 163
177 204 179
174 200 149
175 200 163
172 197 147
174 200 149
174 199 142
174 200 163
174 201 161
170 196 163
172 199 165
171 197 161
173 199 169
172 198 151
174 199 155
178 205 173
176 202 161
174 202 177
174 200 151
170 196 144
174 199 147
173 200 171
174 201 167
174 201 147
172 198 149
171 197 157
177 203 169
168 194 157
176 202 165
174 200 161
171 198 167
170 196 153
175 202 159
172 198 161
172 198 151
173 199 163
172 198 159
174 201 169
173 199 171
168 194 149
172 198 155
172 196 153
174 201 151
177 203 156
169 195 149
174 200 165
174 200 169
173 197 137
174 200 175
171 196 160
174 198 147
174 200 159
171 197 153
172 197 157
172 196 142
177 201 163
170 194 151
171 196 157
172 197 153
170 194 144
155 179 162
138 163 178
132 157 167
137 162 179
143 168 175
146 170 182
156 180 183
148 173 199
142 166 175
140 165 184
142 165 176
150 173 196
147 170 187
136 159 172
154 175 195
149 172 185
139 161 177
148 170 179
147 169 173
146 168 168
156 178 182
131 154 162
145 165 173
139 161 176
151 172 178
143 164 181
143 165 182
155 175 178
157 178 180
143 164 171
141 162 166
129 152 170
135 157 180
133 154 172
141 162 185
117 141 188
133 155 199
122 145 188
125 148 191
121 144 195
126 149 192
99 120 158
96 114 134
98 113 130
99 117 146
93 113 148
62 97 153
64 99 149
62 97 153
59 94 143
60 96 155
60 95 149
64 97 149
60 95 150
61 95 137
63 96 135
70 101 131
64 97 139
62 95 137
62 94 135
64 95 128
57 91 141
55 87 119
56 89 127
57 91 134
56 90 126
60 95 143
57 90 130
57 90 132
60 95 148
58 92 133
57 90 134
57 90 129
58 93 131
57 91 137
59 93 139
58 93 143
57 91 133
58 93 136
57 91 133
58 92 133
58 91 122
58 93 131
58 92 140
59 93 137
58 92 134
60 94 139
58 92 137
59 94 142
60 96 145
59 94 138
61 95 148
60 95 136
59 93 136
60 95 140
60 94 129
59 94 133
60 95 138
59 94 136
60 95 137
59 94 142
60 95 139
60 94 129
59 94 135
59 94 137
58 93 128
60 94 133
59 94 139
60 95 144
61 96 139
61 96 142
61 95 140
60 95 140
59 93 129
59 94 137
60 95 140
59 94 136
59 94 134
58 92 131
61 96 143
60 94 129
59 94 135
60 94 135
59 94 128
60 95 140
60 95 137
60 95 139
58 92 126
60 95 134
61 96 140
58 93 125
61 96 140
59 93 122
59 94 124
60 95 140
60 95 137
60 94 128
60 94 129
59 92 129
60 95 131
59 93 125
60 95 136
61 96 140
59 93 125
60 94 139
59 93 122
58 92 124
60 94 141
59 93 134
60 95 133
59 93 126
60 94 137
57 91 111
59 93 125
59 92 128
61 95 134
60 94 124
57 90 113
59 93 117
58 92 122
59 92 124
58 92 117
57 91 118
58 91 107
54 86 102
59 91 115
109 125 47
113 126 0
120 133 0
116 131 0
124 138 0
119 134 0
125 140 0
119 131 0
121 131 0
114 128 0
136 152 0
119 133 0
130 144 0
123 138 0
106 118 0
131 143 0
123 137 0
131 145 0
127 139 0
125 136 0
120 130 0
133 147 0
127 138 0
124 138 0
125 138 0
132 145 0
123 133 0
133 144 0
136 150 0
134 146 0
132 144 0
128 142 0
125 134 0
130 143 0
130 144 0
131 143 0
130 142 0
134 146 0
127 139 0
138 150 0
131 142 0
133 148 0
138 150 0
127 139 0
128 136 0
132 141 0
135 147 0
135 147 0
126 138 0
134 146 0
137 151 0
138 149 0
137 149 0
135 147 0
134 144 0
131 143 0
137 147 0
138 148 0
132 143 0
141 153 0
124 132 0
133 142 0
141 154 0
134 141 0
134 148 0
139 151 0
146 159 0
137 147 0
136 147 0
132 141 0
140 151 0
140 150 0
148 160 0
147 162 0
139 150 0
149 162 0
152 166 0
143 152 0
136 144 0
141 152 0
146 156 0
147 161 0
143 155 0
145 157 0
145 157 0
147 159 0
145 156 0
147 158 0
144 155 0
144 154 0
158 170 0
153 165 0
145 157 0
151 164 0
153 168 0
153 166 0
151 164 0
154 166 0
154 167 0
154 169 0
152 166 0
156 171 0
156 172 0
157 170 0
151 164 0
152 164 0
147 162 0
155 170 0
155 168 0
161 174 0
153 165 0
151 165 0
156 170 0
159 176 0
157 174 0
164 182 0
152 167 0
157 173 0
159 173 0
159 173 0
154 170 0
151 166 0
157 173 0
158 174 0
151 168 0
158 172 0
156 170 0
164 180 0
161 176 0
160 178 0
164 181 0
166 182 0
157 174 0
158 174 0
162 179 0
163 181 0
159 176 0
163 181 0
160 178 0
167 185 0
163 182 0
167 184 0
161 179 0
165 183 0
163 179 0
163 181 0
165 183 0
166 183 0
164 184 0
164 183 0
164 183 0
165 182 0
166 187 0
175 200 147
176 201 161
175 200 140
181 207 177
177 202 153
178 202 149
176 201 163
176 202 181
175 201 147
174 199 149
177 202 149
176 203 177
173 199 149
175 201 169
178 202 151
177 203 177
174 200 149
170 196 159
174 201 165
175 201 153
173 198 149
176 203 169
176 201 153
174 201 163
175 201 159
173 201 175
177 203 151
175 201 142
174 201 167
175 202 167
172 198 159
175 202 177
172 199 157
176 202 173
178 204 157
174 200 144
168 194 133
173 200 151
170 196 147
171 198 151
171 199 173
170 196 144
172 198 153
171 197 147
171 198 149
171 197 147
169 195 142
172 199 161
172 199 153
171 197 149
173 200 153
168 195 153
174 201 167
171 199 169
169 195 149
175 202 171
173 199 144
169 195 165
174 199 161
172 198 155
173 199 157
165 191 151
177 204 179
172 198 155
174 200 165
173 200 177
175 200 155
167 193 165
173 198 163
170 195 158
169 195 161
172 198 157
173 198 163
170 195 143
175 201 157
174 199 166
171 195 142
169 193 142
167 191 147
167 191 151
177 202 175
166 190 154
145 170 165
141 165 169
148 172 180
150 174 175
150 174 191
141 165 173
144 168 175
138 162 170
145 169 183
150 173 187
135 158 157
145 167 181
153 175 194
154 177 180
150 172 175
156 177 183
144 166 174
151 173 176
145 167 181
146 168 188
138 161 172
152 173 171
150 172 183
141 163 174
150 172 184
148 169 170
155 176 170
154 176 168
153 173 174
140 160 157
127 148 155
132 155 168
135 156 172
131 153 165
135 157 184
125 148 199
125 148 191
137 158 192
132 154 193
121 144 186
121 143 184
91 108 131
99 113 126
98 116 144
105 119 139
71 101 148
61 95 144
61 96 148
60 94 141
62 97 149
61 96 153
63 96 142
58 92 138
58 92 135
68 101 139
74 104 140
73 103 126
55 88 128
60 93 129
62 95 133
71 102 129
58 92 134
55 89 129
56 90 131
59 93 144
59 94 141
59 94 137
59 93 139
57 91 137
58 92 142
58 92 139
58 92 137
57 91 136
57 90 131
59 93 139
60 95 145
59 94 137
58 93 129
59 93 132
59 93 139
59 93 141
59 93 137
60 94 139
59 93 138
59 94 131
59 93 131
60 95 140
59 93 133
59 93 137
57 91 129
60 95 137
58 93 133
59 94 141
59 93 133
59 94 135
59 94 139
60 95 143
60 95 138
60 95 141
62 97 154
59 93 135
59 93 131
61 96 140
59 94 128
60 94 137
60 95 135
61 95 145
59 93 122
59 94 134
60 95 135
59 93 134
61 96 145
61 96 144
61 96 147
59 93 139
60 94 137
60 95 136
60 94 128
60 95 140
59 93 129
58 93 126
59 94 139
60 94 133
59 93 133
59 94 140
60 95 135
60 94 137
60 94 134
59 93 134
60 95 131
59 93 134
58 92 130
58 92 125
60 94 133
60 94 136
59 93 124
59 92 122
60 94 125
62 97 144
59 93 126
59 94 135
60 94 128
60 95 133
59 93 125
60 94 134
60 94 124
59 93 135
60 94 130
60 94 136
59 93 133
60 94 130
57 90 121
59 93 122
60 95 133
57 91 122
58 92 124
59 93 121
58 92 115
58 91 120
56 88 108
57 89 113
56 89 110
57 90 122
55 87 109
94 113 72
113 125 0
113 126 0
112 123 0
111 124 0
123 138 0
121 133 0
118 132 0
121 134 0
123 136 0
116 129 0
121 134 0
119 131 0
128 143 0
131 145 0
122 134 0
118 133 0
117 130 0
128 141 0
130 144 0
122 134 0
132 146 0
122 133 0
128 138 0
124 138 0
132 143 0
131 146 0
117 129 0
111 124 0
126 139 0
125 137 0
141 156 0
125 136 0
130 143 0
134 147 0
127 137 0
127 141 0
136 149 0
135 147 0
133 146 0
136 151 0
123 136 0
125 135 0
142 153 0
135 147 0
128 138 0
137 151 0
142 153 0
138 150 0
133 144 0
143 152 0
137 149 0
129 137 0
134 149 0
135 143 0
139 152 0
140 152 0
146 159 0
137 149 0
134 144 0
137 148 0
129 140 0
140 153 0
152 159 0
146 159 0
139 151 0
142 155 0
140 152 0
140 150 0
137 149 0
148 161 0
145 156 0
141 153 0
140 149 0
136 147 0
147 161 0
136 149 0
136 149 0
143 157 0
144 158 0
140 152 0
144 157 0
151 163 0
146 160 0
141 154 0
145 157 0
147 161 0
143 156 0
145 159 0
152 166 0
152 167 0
149 163 0
152 167 0
152 166 0
152 164 0
152 166 0
160 175 0
147 159 0
148 161 0
153 165 0
157 169 0
147 159 0
155 168 0
151 165 0
157 170 0
153 166 0
154 168 0
156 171 0
153 166 0
155 169 0
154 170 0
155 170 0
155 167 0
157 172 0
161 174 0
158 172 0
160 176 0
155 169 0
158 172 0
156 168 0
159 175 0
154 170 0
161 178 0
153 164 0
164 182 0
159 177 0
161 177 0
161 178 0
156 172 0
165 183 0
163 181 0
158 175 0
162 178 0
167 183 0
154 172 0
160 177 0
162 180 0
159 176 0
162 179 0
164 180 0
159 176 0
158 176 0
165 184 0
159 176 0
165 184 0
161 179 0
163 178 0
164 182 0
169 188 0
164 181 0
165 184 0
163 181 0
165 184 0
163 184 0
176 202 151
179 204 165
178 204 179
176 201 157
175 201 171
177 202 157
169 195 155
174 199 151
175 202 173
176 202 153
174 201 161
175 200 149
172 198 171
173 200 155
176 202 169
175 201 161
174 200 171
175 202 167
173 198 159
171 198 161
174 200 151
173 199 157
168 195 159
177 202 153
172 198 149
176 202 167
175 202 175
173 199 157
171 197 144
175 202 165
173 200 165
173 200 159
176 202 159
176 203 171
175 201 159
172 198 142
174 200 159
171 197 153
177 204 157
172 199 159
169 196 155
172 199 135
171 197 144
172 199 163
173 200 153
172 199 165
169 196 165
170 196 149
172 198 169
173 200 169
173 201 181
163 190 151
175 201 163
173 199 149
172 199 165
172 199 167
173 199 161
172 198 149
173 200 163
176 202 157
169 195 161
169 194 157
172 199 165
171 197 153
172 198 166
166 192 157
170 196 153
173 199 165
169 194 162
172 197 155
173 198 169
171 198 178
171 196 145
173 198 165
173 198 157
175 200 165
174 198 177
177 202 157
175 200 157
172 197 159
172 195 128
167 191 140
168 192 160
146 171 167
137 161 158
144 169 183
150 173 170
140 164 182
151 175 192
142 166 174
146 170 183
155 177 183
152 174 185
141 165 180
146 167 178
146 169 187
151 172 171
143 164 168
142 164 175
156 177 188
126 149 152
154 175 183
136 157 171
150 171 176
150 171 183
146 167 171
145 165 171
148 170 165
149 170 165
155 176 185
152 172 172
143 161 170
150 168 160
136 158 160
128 150 167
131 154 164
133 155 169
126 149 180
120 144 190
138 159 197
115 139 182
121 144 188
109 133 175
104 127 175
88 108 137
92 109 141
95 113 134
94 113 139
64 97 153
60 96 150
58 93 148
61 96 158
60 96 153
62 97 153
60 95 144
67 100 144
63 96 144
70 101 133
68 100 139
68 100 128
67 98 129
66 97 128
63 95 126
57 91 125
58 92 137
58 92 141
57 90 120
56 89 129
57 91 136
59 93 136
58 92 137
58 91 128
59 94 134
56 89 129
55 87 125
56 89 127
60 94 150
58 92 136
60 94 139
58 92 133
59 93 137
59 94 133
59 93 137
55 87 124
60 94 126
59 93 132
58 92 127
59 94 136
59 93 137
59 94 136
60 94 139
59 93 124
58 92 128
59 94 141
59 93 127
58 92 123
60 95 142
60 95 147
59 94 140
58 93 130
61 96 149
59 94 135
59 94 131
60 94 134
59 93 134
58 93 132
58 91 124
61 96 141
60 95 145
60 94 130
61 96 142
60 95 143
60 95 140
59 94 128
59 93 129
60 95 133
59 94 134
59 94 129
60 95 135
60 95 139
58 92 129
58 92 121
59 93 120
60 94 131
61 95 140
61 95 137
58 93 128
60 94 133
60 95 140
60 95 139
59 93 125
59 93 135
60 94 133
60 95 133
60 94 129
60 94 129
59 93 130
60 95 130
59 92 126
59 92 129
58 92 120
59 92 125
59 93 129
60 95 129
60 94 133
57 90 108
60 94 137
60 93 128
60 94 124
60 95 130
59 93 115
57 90 121
59 93 130
57 91 114
58 92 113
60 95 131
58 91 115
58 92 121
58 92 115
59 92 122
58 92 125
56 89 111
58 91 121
57 90 111
56 89 105
70 94 88
116 132 0
121 134 0
118 134 0
114 127 0
119 135 0
126 139 0
129 142 0
112 126 0
121 134 0
123 138 0
122 133 0
123 138 0
123 137 0
124 136 0
109 123 0
124 137 0
117 130 0
121 135 0
120 132 0
131 146 0
123 138 0
121 134 0
116 129 0
122 137 0
132 145 0
123 136 0
121 134 0
119 132 0
127 142 0
129 144 0
134 148 0
128 142 0
130 142 0
131 143 0
128 140 0
133 147 0
128 141 0
130 144 0
130 143 0
138 150 0
138 151 0
140 152 0
125 135 0
115 127 0
132 145 0
129 143 0
128 139 0
130 142 0
144 158 0
142 155 0
136 147 0
128 141 0
134 147 0
146 159 0
131 142 0
142 155 0
139 151 0
138 152 0
129 138 0
140 150 0
131 142 0
145 159 0
144 156 0
139 152 0
134 146 0
141 154 0
139 153 0
145 158 0
141 154 0
143 157 0
149 161 0
144 155 0
147 158 0
148 161 0
141 154 0
154 166 0
143 154 0
152 165 0
141 154 0
142 153 0
145 158 0
152 167 0
146 158 0
145 157 0
140 153 0
146 160 0
141 157 0
144 156 0
148 161 0
152 166 0
151 164 0
157 171 0
149 163 0
149 162 0
154 168 0
151 165 0
148 159 0
147 157 0
155 170 0
146 157 0
153 168 0
153 167 0
153 166 0
155 169 0
153 167 0
151 167 0
150 164 0
155 168 0
158 172 0
154 169 0
156 171 0
156 169 0
156 172 0
158 171 0
151 166 0
164 180 0
163 180 0
151 165 0
158 173 0
156 173 0
160 176 0
151 166 0
154 170 0
165 183 0
158 174 0
164 180 0
155 171 0
165 181 0
159 174 0
160 177 0
158 175 0
158 173 0
165 181 0
167 187 0
156 173 0
161 177 0
160 175 0
160 177 0
159 177 0
163 182 0
166 184 0
163 181 0
158 175 0
167 187 0
164 183 0
162 177 0
162 180 0
164 182 0
167 186 0
161 179 0
162 181 0
171 191 0
161 180 0
165 181 0
174 200 165
180 205 175
173 198 147
177 202 159
178 202 144
178 204 161
172 198 157
172 198 149
176 201 153
175 201 159
176 202 161
174 200 161
174 199 142
175 201 161
170 197 165
174 199 144
173 200 161
172 199 157
173 201 167
174 201 179
174 200 159
175 200 157
165 193 155
173 200 159
174 201 177
174 200 155
174 200 159
175 200 149
177 203 159
174 202 171
173 200 149
173 201 169
172 198 155
173 200 161
172 200 163
173 200 157
171 197 142
174 200 147
176 203 169
173 201 161
175 203 175
172 199 159
174 201 155
170 197 153
173 201 169
172 200 165
171 198 144
174 201 171
172 199 149
170 196 142
173 199 147
172 199 155
172 199 163
169 195 157
174 201 163
172 198 159
171 196 151
172 198 157
173 199 171
174 202 163
171 196 155
172 198 151
171 197 147
173 197 142
169 196 162
171 196 163
160 186 145
171 197 160
169 195 170
171 196 153
172 197 153
169 195 174
173 196 144
168 192 143
173 199 173
175 200 153
166 191 161
176 201 162
174 200 171
169 194 169
172 196 161
179 203 169
172 197 155
156 181 185
145 169 169
137 162 169
144 168 173
140 163 166
144 167 172
146 169 182
147 171 177
154 178 183
152 175 187
146 168 169
145 168 183
148 171 192
154 177 187
145 166 173
148 170 188
146 168 177
152 173 186
138 160 161
157 179 183
137 159 179
140 163 170
142 163 166
159 180 178
138 159 177
157 178 186
152 172 171
154 175 168
153 173 178
145 164 169
135 155 164
134 155 174
137 159 171
119 142 154
143 164 182
113 137 181
117 141 189
131 153 194
113 137 183
123 145 187
116 139 181
87 108 139
86 108 138
84 106 140
101 118 124
88 111 156
62 96 148
62 96 140
62 96 149
60 95 147
60 95 151
61 95 142
58 93 147
60 94 140
61 94 129
74 103 126
72 102 133
67 98 128
67 98 132
62 94 135
67 98 125
56 90 131
55 87 131
58 92 134
57 90 118
56 89 126
58 92 135
59 94 141
60 95 139
56 90 128
58 91 130
58 91 131
57 91 131
57 90 120
58 92 139
57 91 127
56 90 122
60 95 141
59 94 140
59 93 132
58 93 134
60 95 131
60 95 147
58 93 137
59 94 137
59 93 139
61 96 148
58 93 133
59 93 135
60 94 139
58 93 131
58 93 133
60 95 147
60 94 137
60 95 144
57 91 129
60 95 135
59 94 126
60 95 143
60 95 137
58 92 115
59 94 133
61 96 143
59 94 133
59 93 126
60 94 133
60 94 131
61 95 141
59 94 128
60 95 130
59 94 131
60 95 137
61 95 142
60 95 135
61 95 139
61 95 135
58 92 122
59 94 129
60 95 141
60 94 140
58 93 124
60 94 140
59 94 133
59 94 129
60 94 142
60 95 141
58 92 124
60 94 130
60 94 130
61 96 137
59 93 124
60 95 142
60 95 134
59 94 133
59 93 129
60 95 134
60 94 129
57 90 118
59 93 126
59 94 133
57 91 120
59 93 129
59 93 126
59 94 125
57 90 118
59 93 131
58 92 128
56 89 121
56 88 114
59 92 120
59 93 130
59 93 114
57 90 108
56 90 113
59 93 129
58 91 118
57 90 113
57 90 113
58 90 122
56 88 110
55 87 97
74 100 107
111 125 25
111 125 0
113 127 0
118 131 0
135 149 0
126 140 0
116 130 0
117 131 0
123 140 0
124 139 0
119 132 0
125 139 0
130 144 0
115 129 0
124 136 0
130 144 0
122 137 0
120 136 0
122 134 0
129 142 0
127 141 0
132 145 0
125 139 0
128 141 0
130 143 0
129 143 0
124 137 0
125 138 0
131 144 0
120 133 0
124 138 0
126 138 0
138 153 0
135 146 0
124 135 0
133 149 0
130 144 0
134 146 0
135 148 0
130 144 0
132 145 0
129 142 0
126 137 0
127 140 0
132 145 0
133 145 0
133 144 0
134 143 0
130 140 0
137 149 0
134 146 0
133 143 0
134 145 0
132 143 0
132 144 0
144 157 0
131 142 0
136 150 0
140 153 0
141 156 0
139 151 0
138 152 0
136 148 0
139 154 0
140 153 0
147 161 0
147 161 0
136 149 0
134 144 0
142 157 0
145 157 0
140 151 0
137 150 0
151 165 0
149 161 0
147 160 0
145 155 0
145 156 0
153 166 0
145 157 0
146 158 0
148 161 0
143 155 0
144 155 0
161 175 0
142 152 0
149 161 0
146 156 0
148 161 0
149 162 0
147 160 0
153 167 0
148 162 0
149 164 0
144 154 0
155 170 0
149 161 0
154 167 0
157 171 0
158 172 0
150 163 0
151 166 0
160 173 0
153 166 0
152 166 0
151 164 0
154 169 0
156 172 0
159 175 0
161 174 0
151 166 0
158 173 0
154 169 0
160 176 0
156 170 0
162 179 0
155 172 0
156 172 0
160 175 0
160 176 0
162 179 0
161 177 0
157 173 0
160 177 0
158 177 0
157 172 0
166 183 0
159 176 0
160 177 0
161 180 0
161 179 0
160 177 0
162 180 0
163 181 0
160 176 0
161 179 0
160 178 0
160 180 0
165 185 0
160 180 0
158 174 0
159 176 0
164 185 0
161 179 0
165 184 0
163 180 0
165 184 0
161 180 0
164 182 0
165 184 0
164 183 0
163 183 0
163 179 0
164 184 0
161 179 0
173 198 157
173 198 153
178 203 153
178 203 157
178 203 167
178 204 165
175 200 161
175 200 159
176 201 153
176 203 182
177 203 169
173 199 157
172 197 144
173 199 157
174 200 153
176 203 167
169 196 161
177 204 167
173 200 157
174 201 163
174 200 153
172 197 135
174 200 155
175 201 155
174 202 165
174 200 161
171 198 157
175 200 130
168 195 163
177 202 159
173 199 149
173 199 153
172 199 169
170 196 149
175 202 159
175 202 159
172 199 163
175 202 159
173 200 167
173 200 147
172 199 149
174 200 149
174 200 159
175 201 159
171 196 144
174 201 155
171 198 155
170 198 177
173 200 157
172 199 153
171 197 147
170 196 163
173 200 153
173 199 153
170 196 157
174 201 171
174 202 167
169 196 149
175 202 163
170 197 161
169 196 161
167 193 157
175 201 157
170 196 153
168 193 153
171 196 156
169 195 159
170 195 156
167 193 154
172 198 172
173 200 175
166 191 148
162 186 142
172 198 170
165 190 171
172 196 147
171 195 143
173 198 161
170 195 156
172 196 168
172 196 149
178 202 170
165 189 158
170 195 153
145 168 163
148 173 176
135 159 170
139 163 175
150 173 181
141 165 174
146 170 174
145 169 173
140 164 166
144 167 179
148 170 173
155 178 192
133 155 160
149 170 184
143 164 167
147 169 182
157 179 187
145 167 183
140 161 172
163 185 187
146 167 167
136 157 169
147 169 181
135 157 159
151 172 178
154 176 186
154 175 181
139 160 165
145 165 165
152 172 161
139 159 175
131 152 160
141 162 181
135 157 170
142 163 180
118 142 186
122 145 188
116 139 188
126 148 191
127 149 192
116 136 170
86 107 137
100 117 143
109 123 137
100 116 136
74 102 144
60 95 145
61 96 154
62 97 148
59 93 139
59 94 134
60 94 139
60 94 136
57 91 133
66 99 140
69 100 136
64 97 136
63 95 130
62 93 123
62 94 124
58 91 136
58 91 136
57 91 131
57 91 128
55 88 136
56 89 120
58 91 129
58 93 142
60 94 140
57 90 137
60 94 139
57 91 123
57 91 123
59 94 137
59 93 143
58 93 134
59 92 131
58 92 142
58 92 131
60 95 138
58 92 129
57 91 129
58 92 131
58 92 130
58 93 140
59 94 140
57 91 128
58 92 120
58 92 140
59 93 138
61 95 145
59 93 136
60 94 138
59 93 136
60 95 137
60 95 145
60 95 136
59 94 133
60 94 135
59 93 134
60 94 137
60 94 138
59 94 128
59 93 135
58 93 128
61 95 133
59 93 120
60 95 144
60 95 135
60 94 124
59 93 121
58 92 126
59 94 140
59 93 131
58 92 126
60 94 135
60 95 134
60 95 141
59 94 122
60 95 133
58 91 128
61 95 125
60 94 137
61 96 140
59 93 124
59 94 124
61 95 143
60 95 143
60 94 129
59 93 130
59 93 128
58 92 121
58 92 121
59 93 128
60 94 131
60 94 124
60 95 125
59 93 125
59 92 122
59 93 120
58 92 118
59 94 133
55 88 114
59 93 125
58 92 118
59 94 129
57 90 118
59 92 113
56 89 108
57 90 108
58 92 122
60 94 135
58 92 121
57 91 111
56 89 111
57 89 108
56 89 103
56 89 113
56 88 107
61 91 95
96 114 60
126 139 0
113 127 0
121 135 0
130 143 0
110 124 0
123 139 0
125 140 0
117 130 0
122 137 0
112 125 0
129 143 0
120 134 0
121 134 0
119 133 0
121 136 0
125 139 0
119 133 0
116 129 0
135 150 0
117 130 0
124 140 0
125 140 0
127 141 0
138 153 0
127 140 0
126 138 0
127 141 0
120 132 0
133 145 0
127 139 0
130 143 0
126 138 0
123 136 0
130 145 0
131 145 0
139 152 0
125 138 0
129 142 0
131 144 0
132 147 0
132 146 0
128 142 0
133 146 0
132 143 0
139 152 0
132 147 0
133 147 0
139 153 0
138 151 0
135 148 0
136 148 0
138 151 0
138 151 0
134 147 0
141 153 0
127 137 0
141 155 0
137 151 0
133 148 0
143 156 0
145 158 0
144 158 0
146 159 0
149 164 0
139 152 0
146 158 0
140 152 0
146 159 0
143 154 0
139 149 0
144 158 0
143 154 0
149 164 0
138 152 0
136 147 0
150 161 0
143 153 0
155 170 0
147 158 0
153 166 0
140 152 0
148 161 0
147 159 0
152 166 0
151 164 0
144 159 0
151 167 0
147 160 0
147 160 0
152 163 0
149 164 0
152 167 0
153 166 0
155 169 0
154 167 0
155 168 0
152 165 0
155 171 0
157 172 0
157 172 0
152 167 0
156 168 0
152 166 0
152 168 0
150 164 0
153 168 0
154 168 0
156 168 0
151 165 0
155 169 0
154 167 0
151 165 0
156 170 0
155 171 0
157 173 0
154 168 0
159 178 0
160 176 0
157 175 0
164 182 0
158 175 0
160 176 0
161 176 0
161 177 0
157 174 0
157 174 0
158 175 0
155 170 0
161 177 0
164 182 0
159 175 0
160 177 0
161 178 0
163 180 0
160 178 0
160 177 0
166 184 0
165 183 0
161 178 0
162 179 0
160 176 0
162 179 0
164 184 0
166 183 0
160 177 0
163 182 0
165 184 0
165 182 0
163 180 0
162 181 0
163 181 0
166 184 0
169 187 0
165 182 0
165 185 0
176 201 151
179 204 163
178 203 155
177 202 161
175 200 163
170 195 142
170 195 147
176 201 144
174 201 167
174 199 140
174 200 147
170 197 163
176 203 181
176 203 173
179 206 175
177 202 165
173 199 147
175 202 161
174 200 155
176 202 153
174 200 165
174 200 157
174 200 155
174 201 169
174 200 161
172 199 161
171 198 153
174 201 159
170 197 159
173 199 147
175 202 159
169 196 153
175 202 163
173 201 161
171 197 140
173 201 177
172 198 140
173 200 163
171 198 149
171 198 157
169 195 137
171 198 147
171 197 144
175 202 149
172 199 142
174 201 144
168 195 142
172 199 181
175 203 171
171 197 147
172 199 157
171 198 159
171 197 157
167 193 140
170 198 171
170 197 159
174 201 159
173 199 153
169 195 142
170 197 161
174 200 159
174 200 151
173 198 137
168 194 152
169 194 149
174 200 155
173 200 165
175 201 175
167 193 169
171 197 157
169 194 150
170 194 131
174 200 171
168 192 164
167 192 155
175 200 175
167 193 158
169 195 168
168 192 153
175 200 169
167 191 155
173 197 163
177 202 179
168 192 164
166 190 162
135 159 168
143 167 161
154 178 184
148 172 165
148 172 176
139 163 174
144 167 181
144 167 171
133 156 167
148 171 183
148 171 176
141 163 167
149 171 171
142 165 180
152 173 184
148 170 174
149 170 180
146 168 177
151 173 182
142 163 172
145 166 175
153 175 182
143 164 177
149 170 170
152 173 179
155 176 185
140 161 166
147 166 175
137 157 162
148 167 166
144 163 178
141 163 166
140 161 170
144 164 176
131 153 183
124 146 188
125 147 193
113 137 178
116 139 184
132 154 195
105 124 151
100 116 137
95 112 138
96 115 146
103 119 138
75 103 151
60 95 140
63 97 147
63 98 149
63 96 136
63 96 141
60 94 140
59 94 145
64 97 134
58 90 123
71 102 133
59 92 130
59 91 124
71 100 117
70 101 130
54 86 125
57 91 131
58 91 129
57 91 128
56 89 133
57 91 122
57 90 131
57 90 129
59 93 132
58 92 129
57 90 131
59 93 136
58 91 128
58 92 131
57 90 133
57 91 119
58 92 133
60 94 130
58 92 133
59 94 133
57 91 128
58 93 124
59 93 132
59 94 131
58 92 128
58 91 129
60 95 145
60 94 131
60 95 141
58 93 128
58 92 121
57 91 124
58 92 119
58 92 126
59 94 133
60 95 136
60 94 137
59 93 131
59 93 134
59 93 125
59 92 127
61 95 133
60 94 132
59 94 133
60 95 139
56 89 113
59 94 132
61 96 145
61 95 134
60 95 144
62 97 144
61 96 148
60 95 135
60 94 128
59 94 134
59 94 129
59 93 125
59 93 134
60 94 128
57 91 118
59 93 126
60 95 142
59 94 126
59 94 133
59 94 137
58 91 131
60 95 133
57 91 130
60 95 135
61 95 134
60 94 126
59 93 130
59 93 129
57 91 117
59 93 125
58 91 114
58 92 122
58 91 122
60 94 129
57 91 114
58 92 124
59 93 118
58 92 122
59 93 124
59 93 129
60 94 131
57 91 122
58 92 110
58 91 121
58 92 117
59 93 122
60 94 129
56 90 103
57 91 110
57 89 114
56 89 117
55 87 114
52 83 87
105 121 60
123 137 0
114 129 0
119 135 0
120 134 0
116 130 0
121 137 0
124 139 0
118 133 0
133 147 0
124 139 0
110 121 0
120 134 0
121 138 0
130 145 0
132 148 0
121 137 0
121 136 0
125 140 0
120 134 0
131 145 0
134 148 0
128 142 0
128 142 0
122 138 0
124 138 0
123 136 0
129 144 0
131 146 0
125 137 0
131 146 0
135 149 0
129 141 0
133 147 0
129 143 0
131 144 0
132 146 0
123 137 0
127 141 0
128 142 0
126 137 0
142 159 0
140 153 0
138 152 0
127 139 0
132 146 0
131 146 0
132 144 0
132 146 0
140 156 0
134 147 0
135 150 0
136 149 0
142 156 0
133 146 0
133 148 0
144 155 0
143 157 0
147 159 0
136 150 0
144 159 0
148 163 0
148 159 0
135 148 0
142 155 0
132 146 0
142 156 0
137 147 0
139 151 0
149 165 0
137 149 0
142 155 0
145 160 0
146 160 0
148 161 0
140 152 0
144 156 0
147 162 0
151 165 0
145 159 0
140 152 0
143 156 0
149 163 0
152 167 0
150 163 0
150 164 0
145 160 0
151 167 0
155 170 0
147 159 0
148 159 0
142 155 0
150 164 0
142 153 0
147 160 0
145 158 0
150 166 0
148 163 0
151 167 0
148 163 0
152 164 0
150 164 0
150 163 0
155 171 0
151 164 0
150 164 0
154 169 0
155 172 0
162 178 0
153 167 0
158 175 0
154 166 0
161 178 0
158 176 0
152 166 0
157 172 0
160 177 0
157 173 0
161 175 0
160 177 0
157 176 0
159 176 0
161 179 0
164 181 0
156 175 0
161 178 0
162 180 0
159 175 0
162 179 0
161 178 0
155 171 0
162 181 0
159 179 0
166 185 0
163 181 0
164 180 0
158 177 0
160 176 0
159 177 0
159 177 0
164 183 0
162 179 0
165 184 0
160 176 0
165 183 0
159 178 0
165 182 0
163 182 0
160 179 0
161 179 0
163 180 0
167 187 0
156 173 0
169 188 0
171 191 0
161 179 0
163 183 0
178 203 165
174 199 157
172 197 161
177 203 157
173 199 163
177 203 167
174 199 147
172 197 159
177 203 163
177 203 163
171 197 169
174 200 161
179 204 155
171 198 173
179 204 159
175 201 159
177 203 151
173 199 167
173 200 159
175 201 167
169 195 149
174 201 165
174 200 147
170 197 163
176 202 159
171 198 157
173 200 153
173 199 142
174 201 149
171 198 147
171 198 144
174 201 155
172 198 147
174 201 165
174 201 157
173 201 151
171 197 147
168 194 144
171 198 161
172 200 161
172 199 151
172 200 163
171 199 159
175 202 167
174 200 149
172 200 161
171 197 144
172 200 182
163 190 149
172 198 155
172 200 171
169 195 147
173 200 151
170 197 153
170 197 157
173 200 163
170 197 155
172 197 159
173 199 157
171 197 167
173 200 155
168 195 171
170 196 152
171 197 157
164 190 127
169 195 147
171 197 159
175 201 166
166 191 134
170 196 171
170 195 160
170 197 172
167 192 158
166 191 147
164 189 158
170 194 140
174 200 157
167 192 168
170 195 156
170 196 165
165 190 149
174 198 154
160 183 142
173 198 168
172 196 170
150 175 163
139 164 167
149 173 183
147 171 181
151 175 185
142 166 167
147 170 180
141 164 168
152 176 185
147 170 175
138 160 158
149 171 176
147 170 169
144 166 167
148 170 179
153 175 181
154 175 182
139 161 168
151 172 174
142 164 169
144 165 169
145 166 170
142 163 165
153 175 180
142 163 163
154 173 178
151 171 173
153 174 170
146 166 169
142 162 164
146 164 158
154 175 187
140 161 171
151 171 179
129 151 156
124 146 188
118 142 185
118 141 184
120 143 187
120 142 185
113 135 175
87 107 134
79 104 149
105 120 129
99 114 123
90 111 140
67 98 137
62 96 143
59 93 142
70 102 138
58 93 139
57 92 141
64 98 144
61 94 134
63 95 118
70 101 136
69 98 126
63 96 137
65 96 131
73 103 122
57 90 132
55 87 121
56 89 120
55 89 119
57 90 128
59 93 140
59 94 138
57 91 140
54 86 118
58 92 133
59 93 138
56 89 110
57 91 137
57 91 133
57 91 125
60 95 143
59 93 131
58 93 138
59 94 137
59 94 129
57 91 126
59 93 128
59 93 139
58 93 129
58 92 122
59 93 133
58 92 132
59 93 133
60 95 136
59 94 134
59 94 139
59 93 129
59 93 130
59 93 122
60 94 134
59 93 137
59 93 131
59 93 130
59 93 127
60 95 133
59 94 133
58 92 120
60 95 131
58 92 125
60 94 125
61 96 147
59 94 140
60 95 130
58 92 118
58 92 124
58 92 115
59 94 126
59 93 126
60 95 137
60 95 134
59 93 125
59 94 124
60 94 137
59 94 134
60 94 128
59 93 130
59 93 126
61 95 137
58 92 120
59 93 133
59 94 128
59 94 129
60 94 131
58 92 126
58 93 129
58 92 126
59 93 121
60 94 135
58 92 122
60 94 130
60 95 133
59 94 136
59 93 118
60 94 133
59 93 134
59 93 125
59 93 128
59 93 122
56 90 114
59 93 126
59 93 128
59 93 125
59 92 120
56 89 103
57 90 114
58 91 111
58 92 108
57 89 120
57 90 111
57 90 103
55 87 100
56 87 103
80 100 74
113 125 0
121 134 0
112 127 0
110 125 0
118 132 0
122 134 0
113 126 0
118 130 0
107 121 0
127 142 0
119 133 0
123 139 0
114 125 0
130 144 0
126 139 0
121 133 0
126 141 0
114 126 0
129 142 0
114 127 0
131 145 0
118 134 0
128 141 0
122 136 0
128 145 0
133 148 0
124 140 0
129 143 0
130 142 0
133 149 0
132 145 0
134 148 0
125 139 0
121 136 0
130 143 0
130 143 0
129 143 0
123 137 0
124 136 0
130 142 0
124 138 0
134 148 0
132 147 0
134 150 0
130 144 0
135 149 0
132 144 0
132 145 0
143 159 0
136 148 0
135 150 0
144 159 0
132 144 0
136 151 0
143 157 0
142 154 0
129 142 0
136 149 0
145 158 0
137 150 0
144 158 0
149 162 0
141 155 0
142 154 0
141 153 0
145 159 0
135 149 0
150 165 0
143 157 0
140 155 0
142 154 0
145 158 0
150 162 0
148 161 0
139 151 0
142 154 0
147 160 0
146 159 0
148 163 0
145 160 0
145 159 0
145 158 0
151 166 0
146 161 0
145 160 0
147 163 0
148 162 0
149 163 0
149 161 0
148 162 0
146 161 0
144 156 0
151 163 0
153 166 0
152 167 0
150 165 0
156 173 0
158 175 0
154 170 0
154 169 0
148 161 0
154 169 0
151 166 0
155 170 0
159 175 0
156 172 0
155 171 0
155 172 0
155 169 0
155 170 0
161 178 0
161 178 0
157 171 0
155 172 0
151 167 0
155 170 0
156 171 0
156 172 0
164 182 0
156 173 0
159 175 0
157 174 0
159 176 0
158 173 0
165 182 0
161 178 0
159 175 0
160 177 0
151 166 0
158 175 0
163 178 0
161 179 0
162 180 0
160 178 0
164 183 0
162 179 0
166 184 0
160 177 0
161 178 0
164 182 0
166 186 0
161 181 0
165 184 0
157 174 0
166 184 0
163 183 0
167 187 0
168 186 0
163 181 0
160 179 0
165 183 0
163 181 0
167 186 0
167 186 0
164 185 0
168 186 0
164 184 0
177 202 151
177 203 163
175 201 167
177 203 169
175 201 161
172 198 157
170 196 153
175 202 163
174 200 155
175 200 144
176 203 175
174 202 171
172 199 163
171 198 161
173 200 159
173 200 167
176 201 159
171 196 135
177 203 161
175 201 157
173 200 165
175 201 159
173 201 171
176 203 165
175 201 133
172 199 155
172 199 153
175 201 140
171 198 153
171 198 155
171 199 153
175 202 151
172 199 159
169 195 137
174 200 153
174 202 165
172 199 165
172 200 169
175 202 157
169 196 153
171 198 155
173 200 167
173 200 171
177 204 171
173 201 165
173 201 169
172 199 159
170 198 159
175 201 153
170 197 147
172 199 171
172 198 163
172 198 153
174 201 177
173 200 165
173 199 151
174 200 155
172 198 144
170 197 147
173 200 177
172 199 140
169 195 153
171 197 151
172 199 173
172 198 155
167 193 160
168 194 155
172 198 153
170 196 155
173 198 163
174 200 156
167 192 159
166 191 145
168 193 150
168 193 151
173 199 162
169 194 148
166 191 147
170 194 154
169 194 172
171 196 167
173 199 168
169 192 136
175 199 153
177 201 171
169 193 159
143 167 166
142 167 181
146 170 174
146 169 178
148 171 177
145 169 170
146 170 178
148 172 179
143 166 165
150 173 188
143 166 183
152 174 181
146 167 173
142 163 175
149 170 177
145 166 171
148 169 181
145 166 169
150 171 179
157 178 189
143 163 180
147 168 178
136 157 161
150 170 174
158 179 179
156 176 185
148 170 168
164 183 186
147 167 159
148 167 165
142 161 160
138 159 172
149 170 178
144 164 171
130 152 176
131 153 194
140 161 201
106 131 180
122 144 186
137 157 189
110 127 156
92 110 137
95 112 131
105 118 130
106 120 130
95 114 137
65 99 144
59 94 150
65 99 153
59 93 142
59 93 144
59 93 140
58 92 138
65 98 136
65 97 136
66 98 131
66 96 111
62 94 125
76 105 112
58 90 126
54 87 120
56 89 126
57 91 133
55 88 115
56 89 124
57 90 122
56 89 121
57 91 139
58 92 135
57 90 132
57 90 124
57 91 129
58 92 128
58 91 127
55 88 114
57 91 110
60 94 134
59 94 130
60 94 133
57 91 118
57 91 127
58 92 128
60 95 129
58 92 122
59 92 128
58 91 129
58 92 128
60 94 137
59 94 129
60 95 136
58 92 124
59 93 135
59 94 137
60 95 133
58 92 118
60 94 137
61 96 135
59 94 137
60 95 140
59 94 136
59 93 129
61 95 137
60 94 133
60 94 138
59 93 128
59 94 126
58 92 121
60 94 137
58 91 126
60 95 135
60 95 131
59 93 126
58 93 125
59 94 133
60 94 137
58 93 122
58 91 118
58 92 125
60 94 142
59 93 126
59 93 129
59 93 124
59 93 131
59 94 122
59 93 126
59 93 125
60 94 128
60 94 128
59 93 113
60 94 121
58 92 120
59 93 125
57 90 114
59 94 125
58 92 124
59 94 122
56 89 113
59 93 133
59 93 129
58 93 118
58 91 114
56 89 120
58 91 125
57 90 111
58 92 126
58 91 114
57 90 111
59 92 126
57 90 105
54 86 100
58 92 115
56 89 105
55 87 107
55 87 97
52 83 88
90 112 76
115 128 0
118 131 0
123 138 0
120 134 0
116 131 0
110 123 0
119 133 0
110 123 0
116 130 0
117 131 0
124 139 0
126 140 0
123 138 0
128 143 0
126 141 0
128 143 0
122 136 0
120 133 0
130 144 0
127 141 0
124 140 0
126 140 0
135 151 0
138 152 0
127 141 0
120 134 0
125 139 0
129 143 0
133 147 0
126 142 0
130 146 0
125 139 0
133 146 0
131 145 0
133 147 0
121 132 0
132 148 0
139 152 0
124 137 0
136 149 0
136 150 0
129 142 0
134 146 0
139 156 0
131 144 0
131 144 0
137 150 0
143 157 0
137 152 0
131 146 0
139 154 0
141 154 0
130 141 0
139 153 0
137 150 0
137 152 0
136 149 0
143 157 0
136 149 0
143 157 0
130 145 0
135 148 0
152 165 0
142 155 0
137 150 0
144 156 0
143 158 0
131 144 0
143 155 0
144 161 0
142 157 0
143 158 0
149 164 0
148 164 0
147 162 0
153 166 0
147 160 0
149 163 0
140 152 0
152 166 0
145 158 0
146 159 0
144 158 0
153 166 0
146 161 0
155 172 0
146 159 0
144 155 0
146 158 0
148 161 0
150 164 0
155 170 0
147 160 0
146 160 0
146 161 0
146 160 0
151 164 0
155 169 0
153 168 0
152 167 0
157 175 0
153 169 0
150 166 0
147 164 0
157 172 0
160 175 0
157 173 0
151 167 0
154 169 0
160 177 0
159 177 0
154 169 0
151 164 0
157 174 0
155 173 0
154 168 0
157 173 0
159 176 0
159 175 0
156 170 0
156 171 0
153 170 0
161 179 0
152 169 0
155 172 0
163 180 0
163 179 0
166 184 0
164 181 0
161 179 0
163 183 0
162 180 0
157 174 0
163 182 0
164 182 0
160 177 0
160 178 0
164 183 0
159 178 0
160 176 0
160 177 0
162 179 0
157 175 0
164 181 0
162 181 0
163 181 0
166 185 0
163 183 0
156 174 0
166 186 0
162 180 0
160 179 0
164 182 0
164 185 0
156 173 0
162 181 0
165 184 0
165 184 0
177 202 159
174 199 153
177 203 165
171 197 157
175 200 140
169 194 151
177 203 171
175 201 171
175 201 149
178 203 153
178 203 157
172 199 147
175 200 142
174 199 159
177 204 175
176 202 159
176 204 181
173 200 153
176 203 157
170 197 171
173 201 173
172 199 161
172 198 147
171 199 169
169 196 144
171 198 151
172 198 153
176 204 173
171 199 155
173 201 169
172 200 157
174 202 171
171 196 137
171 198 155
171 198 155
170 196 142
173 200 149
174 200 147
172 200 157
173 200 159
169 197 151
173 200 165
173 202 163
175 201 144
168 196 151
175 201 149
172 199 161
175 202 163
168 194 157
173 199 157
170 197 161
173 201 163
169 196 157
172 198 140
175 201 153
169 195 135
173 201 169
172 198 159
170 196 144
170 197 153
176 203 177
172 198 155
173 199 155
169 195 155
167 193 147
172 198 152
169 195 161
168 195 156
172 198 148
171 197 156
171 196 150
171 196 147
176 203 177
163 187 151
177 204 186
168 192 155
166 191 153
168 193 153
174 199 155
158 183 154
172 197 157
168 193 164
166 190 154
167 191 149
163 186 144
176 200 177
163 186 166
153 177 182
147 171 177
139 163 169
144 168 171
147 171 175
139 163 170
149 172 182
134 158 162
144 167 183
141 162 178
146 168 183
156 177 182
155 178 190
139 160 168
152 173 180
154 175 193
152 173 181
158 178 180
150 172 177
145 166 178
141 162 171
150 170 182
146 166 158
162 183 184
144 164 170
155 175 180
155 175 174
147 164 165
146 164 155
148 166 164
144 163 168
146 167 175
137 157 170
140 161 166
132 153 181
124 147 189
127 148 179
118 141 179
120 142 184
126 148 189
93 111 133
88 109 137
98 114 132
101 117 134
97 114 129
74 100 133
66 99 144
60 95 144
59 93 147
62 96 143
62 96 148
62 95 137
63 95 128
64 98 136
75 105 129
66 98 129
67 98 116
58 91 116
80 108 118
56 89 120
54 87 116
57 91 126
55 87 116
55 88 119
57 90 126
59 94 131
58 92 131
58 92 129
58 92 129
57 90 131
56 88 116
58 92 115
58 92 126
59 93 125
58 92 128
57 91 118
58 92 118
58 92 130
58 92 127
59 93 131
59 92 130
59 93 130
58 91 135
59 93 133
58 93 126
59 93 130
58 92 129
58 92 121
59 93 134
59 93 131
59 94 129
60 94 137
59 92 129
59 94 136
59 94 134
60 94 139
58 92 129
61 96 146
57 91 123
59 93 137
60 95 136
59 93 125
58 92 122
59 93 126
58 91 120
59 94 128
60 95 131
57 91 118
59 93 131
60 95 135
59 93 128
59 93 124
59 93 130
59 94 129
58 92 113
60 95 136
58 92 122
59 94 131
59 94 131
58 92 128
60 94 134
60 94 133
58 91 120
60 95 136
60 95 131
58 92 126
59 92 129
59 94 130
59 93 128
58 92 120
59 93 122
59 93 128
58 91 126
60 94 129
58 92 122
56 88 110
59 92 122
58 92 114
58 92 124
56 89 107
59 94 115
60 94 129
57 90 115
57 90 118
59 93 118
57 91 114
57 90 115
56 89 108
58 92 118
57 90 115
53 84 99
56 87 114
54 85 102
71 98 102
122 135 0
125 136 0
113 126 0
119 132 0
120 134 0
114 128 0
114 127 0
123 137 0
118 134 0
116 130 0
121 135 0
125 139 0
126 142 0
120 135 0
108 123 0
119 134 0
123 137 0
121 137 0
123 140 0
117 132 0
130 147 0
128 142 0
134 150 0
126 143 0
118 133 0
133 148 0
128 142 0
132 148 0
128 145 0
125 139 0
132 147 0
133 147 0
138 155 0
132 146 0
131 145 0
124 140 0
140 155 0
126 142 0
133 150 0
136 152 0
133 149 0
128 139 0
131 145 0
135 150 0
137 151 0
137 152 0
143 159 0
126 141 0
136 151 0
147 161 0
134 148 0
140 155 0
140 153 0
140 156 0
142 155 0
137 151 0
138 152 0
134 148 0
135 150 0
147 162 0
139 152 0
143 158 0
142 155 0
136 149 0
142 157 0
147 161 0
150 166 0
142 157 0
137 151 0
135 147 0
147 162 0
136 149 0
137 152 0
143 157 0
140 155 0
147 159 0
143 157 0
146 157 0
144 159 0
144 156 0
152 168 0
147 162 0
144 158 0
142 155 0
148 162 0
153 168 0
145 161 0
152 166 0
148 162 0
151 166 0
149 163 0
153 167 0
155 173 0
159 176 0
154 170 0
149 164 0
140 156 0
158 175 0
149 164 0
146 159 0
150 164 0
149 164 0
150 161 0
152 168 0
149 165 0
152 168 0
150 166 0
156 172 0
157 173 0
157 173 0
156 172 0
150 165 0
153 171 0
156 172 0
154 169 0
155 167 0
161 177 0
157 172 0
161 179 0
158 174 0
158 176 0
156 171 0
152 169 0
156 172 0
158 174 0
161 178 0
157 174 0
161 180 0
161 178 0
160 176 0
162 180 0
165 182 0
162 180 0
156 173 0
163 178 0
161 179 0
163 180 0
161 177 0
161 180 0
162 181 0
162 179 0
156 172 0
157 175 0
162 180 0
162 181 0
159 177 0
161 182 0
166 186 0
156 175 0
165 183 0
162 179 0
167 186 0
163 181 0
161 178 0
164 185 0
165 186 0
164 184 0
164 179 0
162 181 0
172 197 147
180 204 167
176 202 169
175 202 161
171 196 153
177 202 153
176 202 165
179 204 163
176 202 167
172 197 144
177 203 173
172 197 140
179 206 181
175 202 159
175 202 169
174 200 149
170 197 161
174 201 165
175 201 155
175 202 161
174 200 151
177 205 173
171 198 155
174 201 169
174 202 179
172 199 163
174 202 155
176 203 155
174 202 161
172 199 153
174 203 177
172 198 142
167 194 144
173 200 153
172 198 140
171 198 137
172 198 144
174 201 161
170 197 147
170 198 167
174 203 179
174 202 175
171 198 155
172 199 151
172 198 153
171 197 144
170 197 153
172 200 177
176 204 177
171 198 157
170 196 142
167 193 133
171 198 165
172 199 159
172 199 165
168 194 147
171 198 157
174 201 167
170 196 153
167 195 157
173 199 161
169 195 149
168 194 159
172 198 144
172 198 163
169 196 151
172 198 157
172 198 158
165 190 163
169 195 159
167 192 160
164 190 156
174 200 159
162 188 157
171 196 155
172 198 153
172 197 165
171 194 144
167 192 142
167 192 160
167 192 175
171 195 144
166 190 163
170 194 159
164 188 153
167 191 158
171 195 168
156 180 169
146 169 174
138 162 159
145 169 163
138 162 165
149 172 185
157 181 196
159 181 190
155 178 187
140 162 178
151 173 178
155 177 188
152 173 172
150 172 178
148 170 179
153 175 184
158 179 185
156 177 185
157 178 194
147 168 171
144 166 173
142 163 173
151 172 174
155 176 178
145 166 170
161 182 179
145 167 178
147 167 167
146 166 171
149 165 158
147 165 164
140 160 164
130 151 158
133 154 173
141 162 173
126 148 192
123 145 184
110 133 172
126 148 188
134 154 185
121 139 166
91 111 140
87 109 134
104 119 142
98 116 139
92 110 130
66 98 145
61 96 141
61 95 142
65 96 134
61 95 143
59 93 137
59 93 141
66 99 129
66 97 126
64 97 129
63 95 120
73 103 126
77 106 118
59 92 119
57 90 124
56 89 117
55 88 120
56 90 117
56 89 123
58 92 133
55 87 113
59 92 137
59 93 131
58 92 131
58 92 128
57 91 119
57 90 120
59 93 135
59 93 134
58 91 129
56 89 119
58 93 122
58 92 127
59 94 129
58 92 129
56 89 128
59 93 126
56 89 116
57 90 124
59 93 118
59 93 134
60 94 140
58 92 129
58 92 122
59 93 129
58 93 133
58 92 131
59 92 131
60 94 136
60 94 129
57 90 123
59 93 139
58 93 128
58 92 115
59 93 127
60 94 130
60 95 134
59 93 122
59 93 134
58 92 126
58 92 122
59 93 115
59 94 129
59 93 128
58 92 120
59 93 126
59 94 129
60 95 131
60 94 133
58 92 120
57 91 122
58 92 129
59 92 126
58 92 125
58 91 120
60 95 131
59 94 130
60 94 129
59 93 125
59 94 126
60 94 126
60 95 135
57 91 115
59 93 124
59 93 124
58 91 114
58 91 124
58 92 121
58 92 120
58 92 117
59 93 125
57 90 114
56 89 107
57 91 117
58 91 118
57 91 113
58 91 117
59 92 118
57 90 115
56 88 102
56 89 110
57 90 116
57 90 120
54 86 99
54 87 105
56 88 99
70 96 94
114 131 31
107 122 0
101 116 0
124 138 0
116 129 0
117 130 0
113 129 0
125 139 0
123 137 0
120 135 0
115 130 0
129 145 0
115 128 0
117 130 0
125 141 0
132 145 0
131 147 0
128 145 0
121 138 0
127 140 0
132 146 0
133 148 0
126 141 0
126 139 0
130 145 0
122 137 0
132 146 0
124 139 0
130 143 0
132 146 0
132 149 0
136 151 0
135 152 0
127 140 0
131 148 0
138 153 0
140 155 0
121 137 0
138 154 0
134 149 0
134 148 0
134 149 0
135 150 0
133 149 0
123 136 0
137 146 0
143 158 0
138 153 0
135 149 0
143 159 0
138 154 0
142 158 0
127 143 0
136 151 0
138 154 0
142 157 0
146 163 0
143 158 0
146 158 0
146 160 0
143 156 0
141 155 0
129 141 0
139 154 0
140 151 0
144 160 0
145 160 0
145 160 0
156 172 0
142 159 0
137 153 0
146 160 0
150 164 0
147 162 0
148 166 0
149 164 0
143 158 0
143 158 0
142 157 0
142 154 0
153 169 0
150 163 0
148 164 0
144 161 0
142 155 0
151 166 0
150 165 0
144 160 0
152 167 0
150 168 0
143 158 0
158 173 0
148 159 0
153 171 0
153 168 0
146 162 0
153 168 0
142 154 0
152 167 0
155 168 0
155 169 0
153 169 0
152 168 0
148 162 0
155 170 0
148 163 0
154 171 0
153 167 0
156 173 0
154 170 0
154 167 0
156 174 0
159 174 0
157 175 0
157 172 0
153 170 0
160 177 0
158 173 0
155 171 0
157 172 0
160 178 0
159 177 0
156 174 0
156 173 0
158 175 0
157 174 0
157 173 0
162 179 0
161 177 0
161 178 0
163 182 0
158 176 0
159 175 0
155 172 0
162 180 0
169 188 0
163 181 0
164 182 0
162 181 0
156 173 0
164 183 0
160 178 0
166 184 0
160 179 0
161 180 0
162 181 0
167 185 0
163 183 0
165 184 0
166 186 0
166 186 0
161 177 0
161 179 0
161 180 0
163 182 0
166 187 0
164 182 0
166 186 0
169 186 0
161 180 0
175 201 161
174 200 163
176 202 153
177 203 175
177 203 159
171 197 140
174 200 161
172 199 175
172 198 163
174 200 147
176 201 161
175 201 155
172 198 157
173 199 159
176 203 169
170 197 165
173 200 169
174 201 169
171 198 147
176 205 179
176 204 184
173 201 169
172 199 159
175 201 151
174 200 155
173 200 157
175 201 151
171 197 133
173 200 151
173 201 163
171 198 140
172 199 159
170 197 147
173 201 163
174 201 165
170 197 147
174 202 161
169 196 142
172 200 163
172 199 144
171 198 155
170 197 153
170 197 155
169 195 151
173 200 153
168 195 161
170 197 153
172 200 161
176 204 171
175 202 169
169 196 155
173 201 169
167 194 157
171 198 167
171 197 153
165 192 140
168 194 144
171 197 161
166 192 151
172 198 149
172 199 163
169 196 171
170 196 151
167 193 157
167 193 144
170 197 165
172 197 165
173 200 178
169 195 153
170 196 157
164 189 157
167 192 147
170 195 171
171 196 155
169 194 153
169 194 153
171 196 162
171 197 161
173 197 158
171 196 165
168 193 162
168 193 147
173 197 171
171 196 156
161 185 151
168 192 140
167 191 140
175 199 175
146 170 160
130 154 159
145 168 169
149 173 183
146 169 176
148 171 176
162 185 186
148 170 173
143 166 176
145 168 176
142 164 167
153 174 184
151 173 184
149 171 172
148 169 182
139 161 167
162 183 186
145 167 184
143 164 175
163 184 191
135 155 159
152 173 183
149 170 171
162 183 176
140 161 171
154 175 166
158 177 176
136 155 146
162 180 177
150 169 178
153 172 185
149 167 170
139 160 173
131 153 171
129 151 174
124 146 178
112 136 177
120 143 184
124 145 182
119 140 182
107 124 153
93 111 125
106 119 132
99 115 133
103 118 125
83 106 133
63 97 140
65 98 144
64 98 135
62 95 131
61 96 149
60 93 130
69 101 124
66 97 117
63 96 134
68 99 129
65 96 122
63 95 115
67 96 111
55 88 110
58 91 137
57 90 129
56 89 125
56 90 120
57 91 128
54 87 122
55 87 117
58 91 117
57 90 128
57 91 127
55 87 115
59 93 128
58 92 129
59 93 133
57 90 116
58 92 127
56 89 118
59 93 128
58 93 127
58 92 122
60 94 131
57 90 117
62 97 147
60 93 133
56 89 115
59 93 134
59 93 132
58 91 117
59 93 131
59 93 132
59 93 136
60 94 131
59 93 135
58 92 128
59 93 134
59 93 123
58 93 124
59 93 117
57 90 117
59 93 124
58 93 129
59 93 124
59 93 126
58 92 122
59 93 129
59 93 130
58 92 128
60 95 134
58 92 124
60 94 133
59 93 125
60 94 136
58 92 114
59 92 125
59 93 130
60 95 133
60 94 134
60 94 130
58 91 121
60 94 129
59 93 135
59 93 125
58 92 122
59 93 124
58 92 118
59 94 135
60 94 135
58 91 113
59 93 134
59 94 129
57 91 126
56 90 115
59 93 129
58 92 120
58 92 120
56 89 110
57 91 111
56 89 117
57 90 108
57 91 111
57 90 114
58 92 128
57 90 108
60 94 129
56 88 105
57 90 105
56 89 108
56 88 111
55 86 105
56 88 108
73 98 97
107 120 18
107 121 0
113 128 0
120 134 0
120 133 0
105 119 0
120 133 0
122 136 0
126 140 0
105 120 0
107 120 0
102 114 0
120 137 0
120 134 0
123 136 0
132 148 0
126 141 0
118 132 0
136 150 0
119 134 0
126 142 0
130 147 0
128 146 0
127 143 0
124 140 0
130 148 0
137 155 0
122 137 0
129 145 0
138 154 0
132 148 0
133 149 0
129 143 0
139 155 0
134 150 0
132 145 0
127 141 0
139 155 0
126 142 0
140 156 0
129 144 0
140 156 0
138 155 0
129 145 0
125 137 0
131 145 0
142 155 0
134 150 0
134 149 0
138 152 0
141 156 0
138 152 0
139 153 0
141 157 0
129 142 0
150 165 0
147 163 0
143 158 0
141 156 0
144 162 0
147 162 0
145 161 0
142 156 0
142 156 0
142 157 0
147 162 0
147 162 0
146 162 0
150 167 0
150 165 0
148 165 0
135 149 0
138 153 0
148 164 0
139 152 0
143 155 0
152 168 0
141 156 0
145 161 0
148 165 0
144 155 0
147 161 0
148 162 0
151 164 0
142 158 0
144 158 0
144 159 0
143 155 0
152 166 0
158 174 0
151 166 0
148 160 0
154 170 0
150 165 0
154 168 0
155 172 0
160 177 0
146 160 0
158 172 0
151 165 0
150 164 0
150 165 0
160 178 0
157 172 0
155 172 0
153 168 0
154 169 0
158 175 0
156 169 0
160 177 0
159 174 0
157 171 0
159 175 0
157 173 0
153 168 0
153 169 0
155 170 0
161 177 0
155 170 0
161 180 0
156 173 0
156 173 0
156 171 0
158 175 0
157 174 0
159 176 0
160 177 0
157 174 0
159 174 0
158 174 0
167 186 0
155 172 0
160 177 0
158 176 0
162 180 0
157 174 0
161 180 0
161 177 0
162 178 0
164 183 0
162 181 0
160 180 0
168 187 0
161 179 0
163 181 0
161 179 0
162 179 0
164 181 0
164 182 0
163 182 0
166 184 0
162 182 0
159 177 0
165 186 0
168 187 0
165 185 0
160 178 0
161 179 0
163 181 0
166 185 0
165 185 0
168 194 149
176 201 157
173 199 144
172 197 147
176 202 167
178 204 165
176 202 155
172 198 157
177 204 169
176 202 167
175 201 169
174 200 161
176 203 163
178 204 167
173 200 144
174 201 151
172 199 153
176 204 167
172 197 135
170 197 155
172 198 140
171 199 161
172 199 157
175 203 175
169 196 144
172 199 157
171 197 151
173 198 135
175 203 157
173 200 153
172 200 171
173 200 159
169 197 169
170 198 151
174 201 157
172 199 161
170 197 155
175 202 159
170 197 144
171 197 151
174 200 151
172 200 151
172 199 161
168 195 159
174 201 171
176 204 171
173 200 155
170 196 155
170 196 142
167 193 144
172 198 153
172 200 163
171 199 175
173 200 159
165 192 144
168 194 151
171 198 184
170 196 140
165 191 144
168 194 151
169 195 142
170 196 159
168 194 161
170 196 159
172 198 155
168 194 159
171 198 167
171 197 157
167 192 149
169 196 159
172 197 153
170 196 157
169 194 153
175 201 165
169 195 155
169 194 162
167 191 147
169 193 155
165 189 145
171 195 162
172 196 162
165 189 149
161 185 140
168 192 156
169 193 169
170 193 158
168 192 161
170 193 159
175 199 168
144 167 156
140 164 168
154 178 179
140 162 173
147 171 175
147 171 169
147 170 181
143 166 174
133 155 157
145 168 183
154 176 172
155 177 182
152 174 179
149 170 178
145 166 171
146 167 164
148 169 174
148 168 168
143 164 166
146 166 177
145 167 168
150 170 180
145 166 172
149 170 174
158 178 184
141 162 164
158 178 172
153 172 171
150 168 162
156 174 157
153 171 172
135 156 166
139 159 165
130 152 169
124 146 187
132 153 189
110 134 174
122 143 181
132 153 188
111 133 169
92 109 132
84 106 136
99 116 129
94 111 131
91 110 119
85 105 127
58 92 127
65 98 137
62 94 132
65 98 145
60 93 134
68 100 134
70 101 136
70 102 136
71 100 117
67 98 130
73 103 126
76 103 111
59 92 126
55 87 110
58 92 130
56 89 115
58 92 130
56 88 122
57 90 116
57 90 115
57 91 128
56 89 112
58 91 124
58 93 127
58 92 128
59 93 129
57 91 129
57 90 129
59 93 126
59 93 131
57 92 123
60 94 136
58 92 128
57 90 119
59 93 132
59 93 125
59 94 138
58 92 122
59 94 133
58 92 127
58 91 122
59 93 126
58 92 124
58 92 128
60 95 136
58 93 132
59 94 130
59 93 121
57 91 120
59 93 121
57 91 125
58 93 121
59 93 125
58 92 124
60 95 138
60 95 137
59 93 128
61 95 133
59 94 134
59 93 126
59 93 128
60 94 133
59 93 122
59 92 125
58 91 121
61 96 144
59 94 129
59 94 134
58 92 126
61 95 136
57 91 116
58 92 117
59 93 126
58 91 122
58 92 122
60 94 131
59 93 124
58 92 125
58 92 129
59 93 115
58 91 124
61 95 131
58 93 121
58 92 120
59 93 118
59 93 126
58 91 118
56 88 111
57 90 115
57 90 114
58 92 115
58 92 117
57 91 118
57 90 113
58 91 115
55 88 105
57 90 105
55 87 103
56 89 100
56 89 99
55 88 94
55 86 115
85 109 92
108 123 0
96 109 0
112 127 0
124 138 0
114 127 0
111 124 0
111 125 0
123 139 0
120 136 0
122 137 0
118 133 0
123 138 0
125 140 0
111 124 0
127 143 0
127 141 0
121 139 0
116 130 0
123 139 0
119 133 0
126 141 0
127 143 0
121 136 0
125 140 0
131 147 0
129 143 0
125 137 0
123 138 0
133 148 0
127 144 0
139 155 0
128 143 0
131 147 0
134 151 0
132 147 0
132 149 0
141 158 0
132 146 0
135 149 0
129 144 0
134 150 0
135 149 0
144 158 0
130 144 0
137 153 0
142 156 0
144 158 0
139 156 0
134 148 0
135 150 0
144 162 0
139 155 0
148 165 0
140 156 0
148 162 0
148 164 0
134 150 0
146 164 0
140 156 0
142 158 0
142 160 0
147 164 0
142 158 0
140 155 0
137 152 0
140 156 0
145 157 0
147 165 0
140 156 0
140 153 0
143 159 0
142 157 0
140 154 0
146 162 0
152 169 0
143 157 0
145 161 0
146 163 0
144 160 0
142 156 0
156 171 0
150 167 0
141 156 0
152 167 0
141 156 0
145 161 0
149 165 0
148 163 0
147 161 0
148 164 0
149 164 0
146 159 0
155 171 0
150 166 0
147 162 0
158 173 0
147 162 0
156 172 0
152 168 0
156 170 0
155 171 0
155 171 0
147 162 0
151 167 0
152 168 0
152 168 0
157 172 0
154 171 0
148 164 0
153 168 0
154 169 0
156 171 0
154 169 0
160 177 0
156 173 0
163 181 0
157 174 0
156 170 0
159 177 0
162 178 0
152 168 0
158 175 0
156 173 0
166 185 0
160 178 0
159 178 0
161 179 0
157 174 0
156 173 0
161 178 0
160 179 0
155 172 0
164 180 0
157 174 0
160 177 0
165 184 0
163 181 0
162 182 0
159 177 0
166 187 0
157 176 0
163 180 0
160 177 0
161 179 0
165 185 0
165 185 0
164 184 0
157 177 0
168 186 0
162 181 0
164 185 0
165 184 0
163 180 0
168 187 0
165 182 0
160 179 0
165 185 0
166 185 0
162 180 0
164 183 0
164 182 0
162 181 0
175 201 161
175 200 165
173 199 161
175 202 161
179 206 179
176 202 173
175 201 167
172 197 157
175 201 157
176 202 157
173 199 167
175 201 157
176 204 165
174 200 147
175 201 159
174 201 149
172 198 151
173 200 159
171 198 149
173 200 155
175 202 155
173 200 157
173 199 144
173 199 147
173 200 169
174 203 173
173 200 153
169 196 153
175 203 167
172 200 175
170 197 151
172 200 177
170 196 142
174 202 157
172 198 133
172 200 167
174 201 157
170 197 149
171 198 153
171 198 155
172 199 157
169 195 155
173 200 155
175 202 157
171 197 159
173 200 171
169 195 149
177 204 169
173 198 142
172 200 159
173 200 157
174 201 161
170 197 159
171 197 151
175 201 159
168 194 153
172 198 149
173 200 165
178 205 171
168 195 147
170 196 157
176 203 173
170 197 165
172 198 142
170 196 144
172 198 144
173 199 161
175 201 167
167 193 151
174 199 155
172 198 155
172 196 155
163 188 143
163 188 160
167 192 151
172 197 162
174 201 170
167 192 151
169 194 157
164 189 160
165 190 148
170 194 160
167 191 160
164 189 160
166 190 159
168 191 156
167 191 175
166 189 158
174 198 181
170 194 172
154 178 181
141 164 172
152 175 183
143 166 157
144 167 177
154 177 179
140 164 163
146 168 183
155 177 182
147 169 170
141 164 175
146 167 173
154 175 175
155 175 183
157 177 176
160 181 184
151 172 186
153 174 178
160 179 187
160 180 183
147 168 165
153 173 170
156 176 169
163 183 190
154 174 179
161 181 173
161 179 171
146 165 166
140 160 157
136 155 151
146 164 160
136 156 159
142 163 172
124 147 178
120 143 184
125 147 185
135 156 189
131 152 186
126 147 182
111 129 160
92 110 132
98 113 129
99 115 132
99 116 131
88 107 132
64 96 130
59 93 136
64 97 137
67 100 141
59 93 140
61 95 136
68 99 124
59 92 120
66 98 136
74 102 119
65 97 119
91 118 116
63 93 125
53 85 108
56 89 128
54 86 107
58 92 113
55 88 114
57 90 110
58 92 117
58 91 127
57 90 128
57 91 120
58 91 134
57 91 119
56 89 125
58 91 136
58 91 126
55 88 112
58 92 122
57 91 119
59 93 128
58 92 117
58 93 131
59 93 132
59 93 126
57 90 110
59 93 134
58 91 122
58 92 116
58 93 128
59 93 125
58 92 120
58 91 127
59 93 136
58 91 126
59 94 133
59 93 127
59 93 129
61 95 141
57 91 115
57 91 113
58 92 124
57 91 120
60 94 133
58 92 117
59 93 133
59 93 118
58 92 120
59 93 128
58 92 124
60 95 135
58 92 121
60 94 133
60 94 134
59 93 122
59 93 124
57 91 114
58 92 115
58 92 120
58 92 126
58 91 122
58 92 122
58 91 110
55 88 99
60 94 128
59 94 128
57 90 117
58 91 121
59 93 124
56 89 115
57 91 114
59 93 121
59 92 122
59 93 125
57 91 120
57 90 100
57 90 115
56 88 118
57 90 113
59 93 124
56 89 114
56 89 114
58 92 120
56 89 113
56 90 102
57 89 111
54 86 92
56 88 110
55 88 101
54 86 88
67 94 95
105 120 0
125 141 0
124 138 0
109 123 0
130 145 0
114 132 0
125 140 0
127 143 0
112 127 0
112 127 0
115 130 0
112 128 0
117 133 0
125 141 0
120 133 0
126 142 0
121 137 0
132 148 0
128 141 0
125 142 0
114 128 0
119 135 0
126 139 0
136 153 0
124 141 0
135 151 0
129 144 0
121 137 0
138 155 0
127 142 0
129 142 0
131 146 0
134 149 0
127 142 0
138 154 0
124 140 0
143 160 0
132 148 0
137 151 0
132 151 0
141 156 0
123 137 0
133 149 0
128 143 0
132 147 0
137 152 0
143 160 0
135 152 0
143 159 0
142 157 0
145 160 0
143 160 0
150 164 0
144 162 0
139 152 0
137 153 0
143 158 0
143 160 0
137 155 0
138 152 0
150 168 0
143 159 0
143 158 0
137 151 0
143 159 0
138 154 0
149 167 0
142 156 0
139 156 0
141 159 0
134 149 0
140 155 0
143 157 0
152 167 0
152 167 0
140 155 0
148 165 0
141 157 0
142 156 0
147 163 0
145 161 0
147 164 0
150 165 0
144 159 0
148 166 0
151 168 0
150 166 0
145 161 0
150 167 0
148 163 0
150 168 0
152 169 0
151 166 0
150 165 0
154 171 0
155 170 0
149 164 0
155 171 0
142 158 0
154 171 0
150 168 0
155 171 0
149 165 0
150 164 0
151 167 0
159 178 0
149 162 0
159 174 0
154 170 0
149 167 0
158 174 0
156 174 0
152 165 0
152 168 0
154 171 0
153 168 0
160 176 0
159 177 0
152 169 0
151 167 0
150 167 0
160 179 0
161 180 0
156 172 0
158 174 0
157 175 0
156 169 0
159 177 0
161 180 0
156 172 0
157 172 0
158 176 0
161 178 0
157 175 0
157 175 0
163 179 0
162 180 0
158 178 0
166 185 0
163 180 0
159 177 0
159 177 0
165 185 0
163 181 0
163 184 0
164 184 0
164 182 0
162 181 0
166 186 0
164 185 0
163 181 0
162 180 0
165 185 0
164 184 0
165 183 0
163 183 0
163 183 0
156 176 0
161 180 0
165 184 0
166 186 0
162 182 0
165 184 0
174 198 137
176 202 155
174 199 155
172 199 157
170 196 157
172 199 155
175 201 159
173 199 147
175 201 161
175 202 163
172 198 151
172 199 182
175 202 167
174 201 155
173 200 151
171 198 149
174 202 169
173 200 159
174 200 144
172 200 175
171 198 153
176 203 157
173 199 147
171 199 165
173 200 163
175 203 182
173 200 142
173 201 165
173 201 163
171 198 153
173 201 173
174 202 167
176 203 169
173 200 155
175 203 173
170 197 165
173 201 159
174 201 167
172 200 153
172 198 151
173 200 142
171 198 151
174 202 169
170 196 144
174 201 167
173 200 161
173 200 161
170 196 147
171 197 163
169 196 155
168 196 159
168 196 167
171 198 165
174 200 153
175 200 153
166 192 151
173 200 173
173 200 169
176 202 163
174 199 155
174 201 165
172 197 144
166 192 165
170 196 157
171 197 157
164 190 147
168 194 167
169 195 151
174 200 163
171 197 159
168 194 163
171 196 158
174 199 151
166 191 144
169 194 163
170 196 164
165 190 162
168 194 161
173 198 159
168 193 163
166 191 158
170 195 157
172 197 172
171 195 171
165 189 164
159 184 156
159 183 153
165 189 149
170 194 161
172 195 144
158 182 163
147 170 174
148 172 179
142 166 168
145 169 165
151 175 175
148 170 180
145 167 170
153 175 181
146 169 175
148 169 165
143 165 169
143 164 173
162 183 197
156 177 189
147 167 180
137 158 165
152 172 180
168 188 199
154 174 177
151 171 176
155 175 187
153 173 183
160 179 185
146 167 174
156 175 188
153 173 162
134 153 150
141 160 162
147 167 160
155 173 174
136 155 155
140 160 169
141 162 181
125 148 191
124 145 181
134 155 189
129 150 185
130 150 187
134 154 188
98 118 151
100 114 125
94 111 125
101 116 130
102 117 119
84 106 127
64 98 140
59 93 131
60 93 120
59 93 141
63 95 120
59 92 125
69 100 126
65 97 126
71 101 124
67 98 120
67 96 113
73 101 103
56 88 110
56 90 118
57 90 126
55 87 116
57 90 122
56 89 118
56 89 118
57 90 119
55 88 109
56 90 121
57 91 125
58 92 126
58 92 128
59 94 130
59 92 118
56 90 120
57 91 128
60 95 143
57 90 115
57 91 115
58 92 128
57 90 122
57 90 118
57 91 120
58 92 131
57 91 113
58 91 124
58 92 125
58 91 119
59 93 128
57 90 115
58 92 128
60 95 129
58 92 124
59 93 133
57 91 125
59 93 115
59 94 131
59 93 115
58 92 120
59 93 134
60 94 133
59 93 130
58 91 122
58 91 118
58 92 133
59 93 128
59 92 121
58 91 125
58 92 120
58 92 120
59 93 125
59 93 122
58 92 120
60 95 137
59 93 124
60 94 130
59 93 128
60 95 130
57 91 120
58 91 115
59 94 130
59 93 124
60 94 131
59 93 124
60 94 128
59 93 130
56 89 103
57 89 117
58 92 118
58 91 117
57 90 108
57 91 114
57 90 118
57 91 107
59 92 131
58 91 114
57 90 110
57 91 111
56 89 103
58 91 114
57 90 117
57 91 117
55 87 105
54 85 102
56 89 97
55 86 103
78 100 76
114 129 18
117 131 0
109 123 0
101 115 0
121 136 0
105 119 0
119 132 0
98 114 0
112 127 0
113 130 0
123 137 0
118 132 0
115 130 0
111 128 0
119 133 0
127 140 0
117 131 0
123 140 0
130 147 0
128 143 0
127 142 0
122 136 0
126 141 0
133 149 0
126 143 0
125 143 0
131 146 0
142 159 0
127 144 0
131 148 0
128 144 0
126 143 0
136 153 0
140 156 0
127 142 0
138 152 0
135 151 0
124 140 0
139 155 0
136 152 0
133 149 0
142 161 0
131 147 0
136 151 0
136 152 0
143 160 0
138 154 0
135 152 0
137 151 0
138 156 0
136 152 0
143 158 0
131 144 0
145 162 0
137 152 0
133 148 0
141 156 0
135 150 0
147 162 0
140 156 0
145 160 0
143 161 0
130 146 0
153 172 0
145 161 0
142 157 0
143 157 0
139 154 0
149 166 0
143 158 0
146 159 0
141 156 0
153 169 0
145 159 0
145 161 0
147 164 0
151 167 0
153 169 0
145 161 0
152 168 0
153 169 0
134 149 0
147 162 0
147 163 0
151 166 0
143 159 0
150 164 0
153 169 0
143 158 0
150 166 0
145 161 0
150 165 0
154 170 0
149 166 0
145 161 0
147 163 0
150 165 0
155 172 0
151 167 0
153 169 0
149 163 0
153 169 0
152 169 0
150 166 0
155 172 0
150 166 0
155 173 0
153 168 0
156 175 0
153 167 0
152 169 0
155 173 0
155 172 0
158 175 0
158 177 0
158 174 0
152 166 0
155 172 0
159 176 0
155 173 0
160 176 0
156 174 0
159 178 0
158 176 0
156 174 0
162 180 0
155 172 0
161 181 0
157 175 0
156 172 0
157 177 0
156 175 0
157 175 0
159 176 0
155 173 0
162 182 0
163 182 0
159 177 0
164 183 0
163 182 0
153 169 0
162 181 0
165 186 0
157 174 0
168 188 0
162 182 0
166 186 0
162 182 0
165 184 0
162 179 0
164 182 0
160 180 0
165 183 0
162 182 0
165 186 0
161 181 0
163 182 0
161 179 0
162 180 0
166 186 0
163 181 0
168 187 0
168 187 0
163 182 0
177 203 173
176 201 155
176 201 159
177 204 177
172 197 149
178 204 157
171 196 142
177 204 159
176 202 149
172 199 142
173 199 167
169 195 147
177 204 169
173 200 153
178 205 159
171 198 149
172 199 161
172 198 151
175 203 169
174 201 157
175 202 163
175 202 161
172 198 142
177 203 153
171 198 151
172 198 142
173 201 171
173 199 153
169 196 142
171 198 159
171 198 153
172 199 153
172 198 157
175 202 167
174 201 167
171 198 171
172 199 153
170 197 161
173 200 169
172 199 159
169 197 163
169 196 161
173 200 157
174 200 140
172 199 157
175 201 159
169 197 167
173 199 165
166 193 140
169 197 175
173 199 159
171 197 161
170 196 147
172 198 161
171 198 159
171 198 163
174 200 157
167 193 159
172 199 159
169 195 151
170 195 149
169 195 153
169 194 140
169 195 155
167 193 161
174 200 169
174 199 153
165 192 169
171 198 165
165 190 159
163 189 151
172 197 153
174 201 181
170 196 159
167 192 161
167 192 157
165 190 145
174 199 168
169 193 144
170 195 160
170 195 152
173 198 165
172 197 175
168 192 155
170 194 154
167 192 159
171 196 157
160 183 147
170 194 169
170 193 167
173 196 176
161 184 165
140 164 167
140 163 164
140 163 156
143 166 181
152 174 182
140 162 159
154 176 181
142 164 168
156 179 175
132 154 151
155 176 185
151 172 159
144 165 169
154 175 180
150 171 171
150 171 170
152 173 185
160 180 194
155 175 175
149 168 168
146 166 167
153 173 172
147 168 171
154 174 171
156 175 175
150 170 173
144 162 154
128 149 152
148 167 166
137 155 156
151 170 171
129 150 157
129 151 186
116 139 178
127 148 181
124 146 181
125 146 182
117 140 179
115 136 167
88 106 125
98 113 114
103 116 120
100 113 108
92 111 132
70 98 116
63 98 142
59 94 139
57 90 133
57 91 125
65 97 136
71 101 115
72 103 117
71 100 114
67 97 111
63 95 124
82 107 98
60 91 111
56 89 116
56 89 114
55 88 104
55 88 120
57 90 109
58 92 126
57 90 124
58 92 117
57 90 113
57 90 127
57 91 121
56 89 121
58 91 121
56 89 121
59 92 118
57 90 119
57 90 117
59 93 120
57 91 122
57 91 118
60 94 128
57 90 113
60 94 126
58 92 120
58 92 125
58 92 129
57 90 124
58 91 121
58 92 129
56 89 111
58 91 117
60 95 136
60 94 136
59 93 126
58 91 130
58 91 120
56 90 118
60 95 140
59 93 126
59 94 125
56 90 117
57 90 113
58 91 128
60 94 129
59 93 122
57 90 111
60 95 136
57 90 111
57 91 122
58 92 117
58 91 126
57 91 121
57 91 118
59 94 125
58 91 118
56 90 108
56 89 108
60 94 130
60 95 130
59 93 122
56 89 110
58 92 118
60 94 128
57 91 113
55 88 103
58 92 122
58 92 125
56 88 103
58 92 117
57 91 121
58 91 122
57 90 113
56 89 100
59 93 121
56 88 105
57 90 103
57 90 120
57 90 117
56 89 114
56 89 117
55 87 107
56 88 102
57 90 105
55 87 97
53 84 89
68 93 88
113 128 18
113 126 0
104 120 0
102 117 0
111 123 0
104 116 0
112 126 0
117 133 0
117 130 0
103 118 0
112 127 0
119 132 0
108 123 0
119 135 0
120 135 0
126 141 0
122 137 0
123 139 0
123 137 0
128 144 0
132 147 0
131 147 0
126 142 0
120 136 0
132 148 0
115 131 0
126 141 0
127 145 0
129 146 0
121 137 0
132 149 0
125 140 0
121 137 0
114 128 0
130 147 0
134 147 0
139 156 0
135 152 0
125 139 0
122 135 0
139 154 0
135 152 0
125 143 0
139 157 0
140 157 0
141 159 0
137 152 0
127 142 0
141 157 0
134 150 0
139 155 0
132 146 0
132 146 0
138 153 0
144 162 0
131 144 0
136 153 0
145 162 0
140 156 0
140 154 0
144 160 0
146 160 0
145 159 0
146 161 0
145 161 0
145 160 0
143 159 0
138 152 0
135 150 0
142 157 0
145 160 0
148 164 0
144 159 0
141 156 0
140 154 0
140 155 0
141 156 0
150 167 0
145 162 0
146 161 0
150 164 0
154 171 0
136 149 0
149 165 0
148 166 0
147 164 0
145 162 0
146 160 0
145 162 0
148 165 0
144 160 0
148 162 0
156 172 0
158 174 0
150 167 0
149 166 0
164 181 0
155 173 0
151 167 0
151 169 0
154 172 0
149 165 0
151 168 0
155 170 0
155 172 0
151 166 0
155 174 0
156 171 0
154 168 0
157 174 0
157 175 0
151 166 0
160 176 0
158 174 0
148 165 0
158 173 0
154 172 0
159 174 0
150 165 0
154 169 0
154 172 0
159 176 0
156 174 0
153 171 0
156 173 0
158 176 0
160 177 0
156 173 0
162 180 0
157 174 0
159 177 0
156 173 0
160 178 0
158 177 0
163 181 0
154 171 0
155 170 0
162 179 0
161 177 0
162 180 0
163 183 0
162 181 0
160 178 0
159 177 0
163 181 0
160 180 0
163 181 0
164 183 0
164 184 0
162 179 0
157 174 0
159 176 0
168 188 0
166 184 0
166 186 0
159 178 0
159 178 0
161 180 0
166 185 0
163 183 0
164 185 0
167 187 0
164 182 0
163 183 0
166 187 0
170 196 147
166 191 144
174 200 159
178 204 165
174 199 142
176 202 159
174 200 165
177 204 165
173 199 161
175 201 144
173 199 151
172 199 140
176 202 155
172 198 153
175 201 149
175 201 153
173 200 142
172 199 171
173 200 157
172 198 128
172 199 155
175 202 163
174 201 173
172 199 155
174 201 147
169 196 149
173 199 128
172 199 155
172 198 149
176 203 149
171 198 153
169 197 165
176 202 151
171 199 155
174 201 165
175 203 181
169 196 159
169 196 149
169 197 159
172 199 163
173 200 165
171 199 169
174 200 155
174 201 165
167 194 155
175 201 159
169 196 149
169 195 144
168 194 140
169 196 169
170 197 155
171 198 161
172 198 157
169 195 157
173 199 153
169 195 142
174 201 181
170 197 165
172 198 155
170 197 167
173 200 163
176 203 171
172 198 167
173 200 169
172 197 151
170 196 157
169 194 142
170 196 151
174 200 175
171 196 149
166 191 153
166 192 153
172 198 167
173 198 169
165 189 131
164 188 125
171 197 161
167 192 167
165 190 172
172 196 156
167 192 154
168 192 153
168 192 154
174 198 165
172 196 172
166 190 156
163 186 145
165 188 157
164 187 150
164 187 170
166 189 168
170 194 151
145 168 169
149 173 168
144 168 166
145 168 164
143 166 173
149 171 168
140 163 163
150 172 172
145 168 175
149 171 174
153 174 182
157 179 182
158 178 189
143 164 179
150 170 167
140 160 166
149 170 166
157 177 178
152 172 175
147 167 169
162 182 181
160 180 188
144 165 167
134 154 164
159 179 185
159 179 180
146 166 178
154 171 159
149 168 160
136 153 155
146 165 168
139 160 162
149 169 188
120 142 181
124 146 189
126 147 184
117 139 174
125 145 181
121 142 171
100 119 148
79 101 133
91 109 129
98 115 124
98 114 119
93 109 119
61 94 123
63 98 154
59 93 129
62 95 120
58 92 133
66 97 124
70 101 125
65 98 129
71 101 115
66 96 110
76 104 106
60 92 116
55 88 117
56 89 125
56 89 120
54 87 103
57 90 110
55 88 122
56 89 114
56 89 111
59 93 121
57 91 122
57 91 124
57 90 122
56 89 116
56 89 115
58 91 129
58 91 121
58 92 118
58 91 117
58 91 121
59 94 134
58 92 118
55 88 111
58 91 120
54 87 113
57 91 115
57 91 107
61 95 133
59 93 129
57 91 115
58 92 122
58 92 126
56 89 120
58 92 131
58 91 117
56 89 118
58 92 126
57 91 115
60 94 129
58 92 126
59 93 120
56 89 103
58 91 125
58 92 117
60 94 120
59 93 120
58 92 118
58 91 111
60 95 130
58 92 108
57 90 110
57 91 110
58 92 124
58 92 115
59 93 129
58 91 115
59 93 131
58 92 120
59 93 118
59 93 130
60 94 125
57 91 117
58 91 117
58 91 113
58 92 111
57 90 107
59 93 124
57 91 120
58 91 111
57 91 113
57 90 110
56 88 113
58 91 121
58 91 114
58 91 121
57 91 108
55 87 95
55 87 99
56 89 121
56 89 107
57 90 108
57 90 117
55 88 99
56 88 108
55 87 108
78 99 72
100 114 0
122 138 0
101 116 0
109 123 0
115 129 0
111 124 0
117 132 0
114 130 0
105 118 0
107 121 0
119 133 0
113 128 0
124 140 0
119 135 0
129 142 0
111 126 0
113 129 0
129 144 0
122 137 0
121 134 0
122 136 0
121 137 0
127 142 0
114 129 0
120 134 0
132 147 0
129 145 0
131 146 0
137 156 0
135 150 0
137 154 0
129 146 0
141 158 0
133 150 0
128 143 0
131 145 0
128 144 0
135 152 0
136 150 0
131 146 0
133 151 0
131 144 0
136 152 0
141 156 0
127 142 0
138 155 0
134 150 0
134 152 0
133 149 0
140 156 0
136 150 0
147 164 0
135 151 0
132 146 0
136 152 0
138 153 0
149 165 0
141 156 0
134 150 0
146 162 0
146 165 0
143 160 0
143 158 0
140 155 0
144 161 0
131 148 0
145 159 0
147 163 0
146 161 0
140 153 0
147 163 0
137 153 0
148 163 0
144 161 0
149 165 0
149 164 0
143 159 0
137 151 0
153 169 0
147 163 0
151 167 0
142 159 0
139 156 0
160 178 0
153 172 0
149 166 0
155 173 0
148 162 0
143 155 0
156 174 0
150 166 0
147 162 0
149 165 0
151 167 0
153 170 0
149 164 0
160 180 0
156 172 0
149 167 0
147 164 0
152 169 0
158 176 0
153 170 0
154 171 0
154 169 0
157 172 0
153 171 0
153 169 0
154 171 0
152 171 0
156 171 0
154 171 0
152 168 0
154 169 0
156 170 0
152 167 0
163 182 0
157 175 0
160 176 0
158 177 0
154 169 0
156 172 0
157 173 0
157 174 0
156 175 0
158 173 0
154 171 0
163 181 0
158 176 0
155 170 0
157 176 0
158 176 0
160 176 0
161 178 0
161 178 0
161 180 0
162 181 0
165 183 0
162 181 0
160 178 0
164 183 0
165 184 0
159 177 0
165 184 0
166 185 0
163 182 0
158 178 0
164 184 0
165 183 0
162 182 0
162 182 0
163 180 0
165 184 0
165 183 0
160 179 0
163 183 0
165 186 0
158 176 0
163 184 0
161 181 0
168 187 0
168 187 0
166 185 0
164 183 0
164 184 0
164 184 0
176 201 153
176 202 149
172 197 142
171 196 135
173 199 161
173 198 159
174 200 133
172 198 151
174 200 151
173 199 155
173 200 177
175 202 157
171 198 161
175 202 151
173 199 153
172 199 151
174 200 157
169 196 155
169 196 155
173 200 153
176 202 161
176 203 157
172 200 159
172 199 161
173 200 153
176 203 161
173 200 161
170 197 144
173 201 169
173 200 153
174 201 167
174 202 155
176 203 167
169 196 149
168 195 147
170 197 157
174 201 163
177 205 173
173 199 157
175 202 167
174 201 155
172 198 165
176 204 165
171 196 133
171 197 161
170 197 151
172 199 169
175 201 153
175 202 167
171 198 153
169 195 159
175 202 157
174 200 163
170 196 159
173 199 149
172 197 171
171 198 165
169 196 153
174 200 171
171 197 163
178 203 179
167 193 161
172 198 159
176 202 175
168 194 159
172 197 157
169 195 159
175 201 173
170 196 161
168 194 167
169 193 161
169 194 165
171 197 157
161 186 147
162 187 144
161 185 144
175 201 165
168 193 158
168 192 151
160 183 140
168 192 137
162 186 144
167 191 153
164 189 164
170 194 150
169 194 160
170 194 176
171 194 153
166 189 148
166 189 155
163 186 149
165 187 140
165 187 164
158 181 180
145 167 173
151 174 180
153 175 189
135 158 157
152 175 179
147 170 181
143 165 174
148 169 173
151 173 184
155 176 173
151 173 176
147 168 175
144 165 176
151 171 168
152 173 190
158 178 176
157 177 194
145 165 169
157 176 171
142 163 168
141 161 160
153 174 173
157 177 183
151 172 167
141 161 159
143 160 150
153 172 175
141 160 149
153 169 165
149 167 176
134 153 158
133 153 180
146 165 199
129 150 178
126 148 181
127 148 181
121 143 174
125 145 171
101 119 134
98 114 132
99 114 110
99 115 127
101 113 109
86 105 118
60 94 134
60 93 122
61 94 130
60 92 122
67 98 126
66 98 122
72 101 119
60 92 115
62 94 119
66 96 99
66 96 113
54 87 116
55 87 102
55 88 117
55 88 109
55 87 118
55 88 105
58 92 126
58 92 118
58 91 120
57 90 110
58 91 122
57 90 119
56 89 122
57 90 122
58 92 127
59 93 128
54 86 107
56 89 113
58 91 124
58 92 128
55 88 112
58 92 128
57 91 108
57 91 118
57 90 120
59 92 129
57 91 124
58 92 125
57 91 124
59 93 122
58 92 122
57 91 114
57 90 118
59 93 125
57 90 111
56 89 111
59 94 130
58 92 122
58 92 129
57 90 117
59 93 121
59 94 124
57 91 113
58 92 126
57 90 121
55 87 115
57 91 118
58 91 115
60 94 126
58 91 114
59 93 115
59 92 122
57 90 105
57 91 115
58 92 117
58 92 122
57 91 108
58 92 121
57 90 122
58 92 118
58 91 124
57 90 118
58 91 110
56 90 105
55 88 107
57 90 113
58 91 118
55 88 107
56 89 103
56 89 115
58 92 107
56 89 111
56 90 103
56 89 102
58 92 120
57 90 111
57 90 105
55 87 99
56 88 113
54 85 95
54 86 95
53 85 82
54 85 84
89 105 44
106 121 0
113 127 0
113 127 0
122 137 0
110 125 0
111 126 0
118 136 0
113 128 0
106 122 0
127 143 0
113 128 0
116 131 0
126 140 0
120 136 0
124 141 0
118 134 0
123 140 0
129 145 0
133 150 0
117 131 0
129 146 0
122 138 0
135 153 0
126 141 0
133 148 0
130 146 0
139 157 0
132 149 0
124 138 0
113 130 0
124 141 0
133 149 0
142 159 0
137 153 0
133 152 0
134 152 0
130 147 0
130 145 0
137 153 0
128 143 0
131 147 0
137 155 0
140 156 0
136 152 0
135 153 0
135 151 0
148 164 0
137 155 0
142 158 0
136 153 0
142 159 0
133 150 0
139 155 0
135 149 0
139 156 0
146 164 0
132 148 0
141 156 0
142 159 0
135 149 0
141 157 0
148 165 0
137 152 0
149 165 0
141 155 0
146 163 0
146 163 0
149 167 0
141 156 0
148 165 0
142 157 0
143 160 0
140 158 0
146 161 0
142 159 0
139 154 0
152 168 0
148 164 0
144 159 0
155 171 0
152 170 0
148 164 0
151 169 0
145 162 0
145 160 0
144 159 0
152 170 0
151 165 0
146 161 0
146 164 0
147 165 0
153 169 0
149 168 0
151 168 0
158 175 0
155 172 0
149 166 0
147 163 0
147 163 0
157 173 0
157 173 0
151 167 0
151 167 0
151 169 0
145 160 0
158 176 0
154 172 0
150 167 0
159 177 0
150 168 0
153 169 0
159 175 0
157 174 0
163 181 0
157 175 0
156 173 0
155 172 0
151 165 0
159 175 0
150 166 0
157 172 0
155 173 0
155 172 0
156 172 0
161 180 0
156 172 0
154 172 0
161 179 0
166 186 0
164 182 0
161 179 0
162 182 0
165 183 0
160 177 0
157 179 0
162 181 0
161 179 0
164 182 0
167 185 0
158 175 0
162 180 0
151 168 0
164 182 0
162 183 0
165 187 0
162 181 0
161 180 0
162 184 0
161 181 0
162 180 0
167 188 0
159 176 0
164 184 0
159 178 0
162 181 0
171 190 0
162 181 0
165 185 0
163 182 0
162 183 0
165 184 0
163 184 0
160 179 0
167 185 0
163 182 0
164 183 0
165 186 0
177 203 173
175 201 171
172 198 167
175 201 159
175 200 147
177 204 173
174 200 157
175 202 167
174 201 155
170 195 142
175 202 169
170 197 157
173 199 151
173 200 167
175 202 155
176 202 161
175 201 137
173 200 151
173 199 144
170 196 117
175 202 171
166 192 144
172 200 177
173 200 144
174 201 167
170 196 149
171 197 151
173 201 171
173 200 149
174 201 149
170 196 149
169 196 161
177 203 142
171 198 161
170 197 165
172 198 161
172 199 163
174 200 159
172 199 153
175 202 155
167 193 147
170 197 161
173 199 157
175 202 165
173 199 167
175 202 155
173 200 175
172 199 157
172 198 167
172 198 149
175 201 165
175 201 163
179 204 167
174 199 155
179 207 204
178 204 186
173 198 157
173 198 157
173 200 173
178 203 169
174 201 167
176 201 173
174 200 161
172 198 157
172 198 173
167 192 167
172 197 149
176 200 171
174 200 171
166 190 149
169 194 157
170 195 157
165 190 144
173 198 153
172 195 140
167 191 144
168 193 149
162 187 158
169 194 162
167 191 161
169 193 148
166 190 170
163 187 148
166 189 140
172 197 169
169 193 160
159 183 156
169 192 164
169 193 166
166 189 168
162 185 148
171 194 167
173 196 158
168 191 163
151 173 165
145 168 176
141 164 165
153 175 167
150 173 175
154 177 182
155 176 181
141 163 165
142 164 168
145 166 168
158 180 189
138 159 158
158 178 182
153 173 174
149 169 173
152 173 173
161 181 184
153 172 179
147 167 166
156 176 177
150 170 170
146 165 163
157 176 180
142 163 178
151 171 161
148 167 170
135 155 159
148 167 163
148 166 161
144 162 156
144 163 161
139 159 178
114 138 176
128 149 181
138 158 188
123 144 177
117 139 169
117 139 171
122 141 168
87 106 136
85 104 118
88 106 119
91 109 112
96 110 113
77 101 117
60 93 120
58 93 137
61 95 133
64 96 129
64 97 125
61 93 129
65 97 129
63 96 126
66 97 120
85 110 108
61 91 109
57 90 124
53 84 104
54 86 107
58 92 121
54 86 110
58 92 121
57 90 124
57 90 118
56 90 115
57 90 122
57 90 118
59 93 122
56 88 111
56 89 119
58 91 127
56 89 107
57 91 105
58 92 122
57 90 120
57 90 111
57 90 114
56 89 113
58 92 133
56 89 109
58 91 113
55 88 96
59 93 127
58 91 121
59 93 125
58 91 117
55 88 106
58 92 122
55 89 110
58 93 126
58 92 121
57 90 112
58 91 118
59 93 123
57 90 115
59 93 129
57 90 103
57 90 114
58 92 126
58 91 118
57 91 114
57 91 122
59 92 124
56 90 103
59 93 120
58 92 113
56 89 99
57 90 120
59 93 128
58 92 120
59 93 120
58 92 121
60 94 130
58 92 114
59 93 115
57 90 108
57 90 118
56 88 99
58 91 117
59 93 118
58 92 114
57 91 113
56 89 99
54 87 95
56 89 108
57 90 111
58 92 117
58 91 124
55 88 95
56 89 97
56 89 97
57 90 105
55 87 103
54 85 102
57 90 110
54 85 107
63 93 99
91 109 51
112 128 0
108 121 0
116 130 0
105 120 0
111 124 0
124 141 0
120 134 0
114 130 0
112 126 0
122 137 0
116 132 0
117 134 0
115 130 0
122 135 0
114 130 0
119 137 0
117 132 0
112 127 0
130 147 0
127 142 0
113 128 0
128 146 0
125 143 0
127 145 0
125 142 0
125 142 0
132 149 0
121 138 0
128 146 0
131 146 0
127 142 0
126 142 0
138 154 0
138 155 0
123 139 0
134 151 0
128 144 0
130 145 0
122 138 0
123 139 0
133 149 0
129 143 0
127 142 0
126 143 0
135 153 0
142 159 0
134 151 0
128 145 0
130 143 0
144 160 0
142 160 0
131 146 0
143 161 0
142 160 0
135 152 0
137 154 0
145 159 0
134 148 0
129 145 0
146 163 0
140 156 0
136 151 0
148 164 0
133 148 0
144 159 0
138 152 0
131 146 0
145 160 0
144 160 0
147 164 0
142 157 0
143 157 0
151 167 0
145 161 0
147 165 0
139 155 0
153 168 0
144 161 0
145 162 0
149 163 0
137 154 0
153 170 0
151 167 0
150 164 0
144 160 0
145 162 0
158 175 0
135 151 0
155 170 0
151 168 0
156 174 0
156 171 0
147 166 0
151 169 0
147 162 0
146 162 0
157 174 0
152 170 0
150 167 0
148 163 0
150 166 0
153 171 0
158 175 0
150 165 0
153 170 0
147 164 0
147 164 0
156 173 0
157 175 0
151 170 0
151 169 0
153 170 0
151 168 0
158 176 0
156 172 0
154 170 0
149 166 0
159 178 0
152 167 0
162 180 0
154 173 0
152 169 0
163 182 0
154 173 0
160 177 0
161 177 0
157 174 0
154 170 0
155 171 0
159 176 0
164 183 0
164 184 0
164 182 0
150 168 0
160 178 0
159 176 0
154 171 0
165 183 0
161 180 0
161 182 0
156 174 0
161 181 0
162 181 0
162 182 0
162 182 0
159 177 0
163 180 0
165 184 0
161 181 0
162 182 0
167 185 0
162 180 0
166 186 0
160 180 0
162 180 0
160 179 0
163 182 0
165 183 0
163 181 0
159 179 0
163 183 0
163 181 0
163 182 0
167 186 0
162 183 0
162 181 0
166 185 0
164 184 0
175 201 157
176 201 144
178 204 163
176 203 163
174 199 147
171 197 130
177 203 153
175 202 165
173 200 151
174 200 149
172 199 159
175 202 161
172 199 155
172 199 161
173 198 137
167 192 125
174 201 165
172 198 155
172 199 157
172 198 147
174 200 151
175 201 151
172 197 147
172 199 157
174 201 161
173 200 161
171 198 147
175 202 169
174 201 153
169 196 151
175 201 163
173 200 161
169 195 137
169 196 149
170 196 147
172 197 140
174 200 153
172 198 153
173 199 153
172 199 169
174 200 155
175 202 165
172 197 142
172 198 151
171 197 165
173 199 157
175 202 171
166 193 159
176 202 175
174 200 159
168 194 151
173 198 147
175 200 159
172 198 163
176 201 149
174 199 169
170 196 155
174 200 161
170 195 157
172 196 163
174 199 161
174 198 171
174 199 155
173 198 149
177 203 173
165 190 161
179 204 159
171 196 153
167 191 151
178 203 159
172 197 159
172 196 161
173 198 167
176 201 173
168 192 151
176 201 161
168 192 150
173 198 161
170 194 166
173 198 177
168 192 156
165 190 158
169 193 168
170 193 162
166 190 126
161 184 156
158 181 143
167 191 155
169 192 173
171 194 153
164 187 145
161 183 124
169 192 156
170 193 164
166 189 177
133 157 142
147 170 164
151 173 175
152 174 179
136 158 151
147 168 170
149 170 169
154 176 182
153 175 180
155 176 178
149 170 182
154 175 184
145 166 166
159 179 183
152 173 183
143 163 166
139 159 166
150 170 171
160 179 190
155 175 183
159 179 180
154 174 169
154 173 178
149 168 161
157 176 181
151 171 163
141 161 157
144 163 166
156 173 170
155 172 175
146 164 168
128 149 180
141 160 194
126 147 178
121 142 175
130 150 182
134 153 185
129 150 180
101 122 116
94 111 115
91 108 104
102 114 118
93 108 109
92 110 117
60 92 121
59 93 131
58 92 125
67 97 124
64 96 118
69 98 116
66 95 105
71 101 110
66 97 115
78 105 105
62 94 115
54 86 110
53 85 110
54 86 111
56 89 126
56 88 97
56 89 113
56 89 111
53 84 95
56 90 113
54 86 105
54 87 112
57 91 116
56 88 122
57 91 115
56 90 117
58 91 113
57 90 113
57 91 124
55 87 108
58 92 115
57 90 113
58 91 113
58 91 123
58 91 118
58 92 116
57 91 125
56 89 102
57 90 124
58 91 115
58 92 120
57 90 113
57 90 108
58 92 109
58 92 131
57 90 102
55 88 107
57 90 115
57 91 110
58 92 115
58 92 114
58 91 128
58 92 120
58 92 121
58 92 130
58 92 120
58 92 117
59 93 118
57 91 121
58 91 125
58 92 118
58 92 122
58 92 117
58 92 115
57 90 115
56 89 103
58 92 124
57 90 110
57 90 115
59 92 117
57 90 108
58 91 115
58 92 113
59 93 121
56 89 111
58 92 115
57 90 115
57 90 105
58 91 120
58 91 115
56 89 113
59 91 120
57 91 107
57 89 111
57 90 113
56 88 111
55 87 92
53 85 86
56 88 107
54 85 88
60 87 72
94 107 31
88 101 0
105 119 0
111 125 0
120 137 0
118 134 0
119 135 0
113 129 0
100 115 0
111 126 0
113 129 0
126 141 0
111 127 0
115 130 0
116 134 0
112 128 0
122 138 0
127 143 0
120 135 0
117 133 0
125 141 0
119 137 0
124 139 0
121 136 0
119 137 0
124 140 0
125 142 0
133 148 0
129 148 0
133 151 0
114 129 0
130 145 0
138 154 0
118 132 0
136 153 0
131 148 0
135 151 0
136 154 0
136 151 0
133 147 0
130 146 0
137 154 0
131 147 0
142 159 0
135 150 0
138 157 0
139 155 0
144 161 0
139 157 0
142 161 0
138 154 0
130 145 0
125 143 0
131 145 0
140 158 0
133 150 0
145 164 0
136 152 0
143 159 0
142 156 0
140 157 0
144 161 0
147 163 0
152 169 0
141 158 0
140 158 0
139 156 0
147 166 0
142 161 0
140 158 0
142 160 0
147 165 0
150 169 0
152 170 0
140 158 0
142 159 0
139 154 0
150 167 0
144 160 0
144 159 0
156 173 0
150 167 0
147 162 0
152 169 0
146 162 0
153 170 0
154 169 0
144 158 0
147 162 0
157 176 0
144 158 0
147 165 0
153 170 0
147 163 0
149 165 0
150 168 0
144 162 0
149 165 0
156 172 0
153 169 0
157 175 0
152 170 0
154 171 0
155 171 0
154 170 0
147 164 0
145 162 0
156 174 0
153 169 0
159 174 0
158 175 0
152 170 0
155 171 0
152 170 0
156 174 0
153 169 0
152 169 0
159 176 0
150 167 0
152 169 0
151 171 0
162 178 0
160 179 0
151 169 0
158 175 0
156 174 0
156 173 0
154 171 0
161 180 0
151 169 0
158 176 0
163 180 0
163 179 0
157 175 0
155 172 0
157 174 0
156 171 0
154 174 0
156 174 0
161 177 0
162 181 0
160 181 0
164 180 0
164 181 0
160 178 0
158 176 0
166 186 0
158 178 0
165 185 0
160 179 0
158 177 0
167 187 0
164 183 0
166 186 0
166 187 0
168 187 0
168 190 0
163 184 0
162 181 0
163 184 0
169 191 0
165 184 0
168 189 0
162 180 0
163 184 0
159 179 0
166 185 0
158 178 0
163 183 0
164 184 0
172 198 163
172 197 155
173 199 155
176 201 142
173 199 157
176 201 151
173 198 142
170 197 163
177 203 163
175 201 155
174 200 157
177 203 155
175 200 151
171 198 155
171 196 137
175 202 167
175 201 157
170 197 149
173 200 149
174 200 151
174 201 173
173 200 169
173 200 155
174 200 153
172 199 159
173 200 163
175 201 147
175 202 169
170 196 147
174 201 157
172 200 163
176 202 161
172 199 155
176 202 167
175 202 165
175 201 161
177 203 171
181 208 188
175 200 186
175 202 181
175 202 171
172 199 173
171 198 171
174 199 151
174 201 171
173 199 167
175 202 188
175 202 173
171 198 153
174 200 179
177 202 161
174 199 151
173 199 161
171 197 163
173 198 159
174 199 153
173 198 153
170 197 153
173 199 177
174 199 171
174 200 175
174 199 165
177 203 165
167 193 159
175 201 177
173 198 172
177 203 171
172 197 161
166 190 157
170 195 169
170 194 157
171 195 169
171 195 169
176 200 165
171 196 169
174 198 171
169 194 151
172 195 163
174 199 167
173 198 167
170 195 155
169 193 163
169 193 175
162 186 152
166 190 155
165 188 147
166 189 158
164 188 149
164 187 153
164 188 166
168 191 160
171 194 160
167 190 158
170 192 162
170 193 164
161 184 161
148 171 158
150 173 173
159 181 185
149 171 171
137 159 154
152 174 176
145 166 165
148 169 177
135 156 148
152 173 174
153 174 183
145 166 165
143 164 163
147 166 171
148 168 166
146 165 174
142 162 168
153 173 172
148 167 174
155 174 182
149 169 160
153 173 178
144 165 160
160 179 174
163 181 187
147 164 150
143 162 155
148 164 165
158 175 169
139 157 153
123 144 169
138 157 190
136 156 184
124 145 177
132 152 181
118 139 176
126 146 171
101 128 117
92 112 119
94 111 127
84 103 117
88 106 115
91 108 107
84 106 118
63 95 129
60 92 114
67 98 127
63 94 113
68 98 113
74 104 125
66 96 109
75 104 115
67 95 101
84 110 103
54 87 99
55 88 113
55 87 113
55 87 110
55 87 107
56 89 113
56 89 114
55 87 105
58 92 113
58 91 125
55 87 115
56 89 109
56 89 113
57 90 120
57 90 112
57 90 114
56 90 121
55 87 101
58 92 123
57 90 119
58 92 118
58 91 113
58 92 115
55 88 112
58 92 114
58 91 120
57 90 110
57 91 121
58 91 115
58 93 121
56 89 110
57 91 126
58 92 110
56 90 114
57 91 113
57 91 115
56 90 112
58 92 115
59 93 128
59 92 122
58 92 115
59 93 118
56 89 111
59 93 120
58 91 117
58 91 118
58 91 117
58 92 126
57 90 113
58 92 122
58 91 118
59 93 121
57 90 113
58 92 118
57 90 118
58 92 107
57 91 105
56 89 110
57 89 111
58 91 120
57 90 107
57 89 105
54 85 95
57 90 114
57 91 108
57 90 102
56 88 105
58 92 118
57 90 113
57 90 114
57 89 99
54 86 99
53 84 94
57 90 107
57 90 111
56 88 107
55 87 92
54 86 105
78 98 76
95 112 18
103 118 0
107 123 0
106 120 0
111 125 0
101 115 0
121 136 0
111 127 0
108 122 0
120 135 0
115 131 0
114 130 0
107 120 0
109 125 0
124 142 0
132 149 0
116 133 0
117 134 0
110 127 0
114 130 0
119 136 0
126 142 0
126 143 0
131 146 0
128 146 0
120 136 0
131 150 0
126 142 0
128 145 0
130 144 0
126 143 0
120 136 0
120 136 0
122 137 0
135 152 0
136 154 0
129 145 0
135 150 0
138 157 0
138 156 0
130 148 0
135 150 0
135 154 0
138 155 0
143 158 0
143 162 0
135 153 0
138 156 0
145 163 0
133 150 0
133 150 0
137 154 0
143 158 0
142 159 0
137 154 0
143 160 0
146 162 0
142 162 0
139 156 0
145 161 0
144 163 0
142 157 0
145 163 0
135 151 0
141 157 0
147 163 0
140 157 0
145 163 0
141 157 0
140 156 0
141 158 0
144 161 0
133 148 0
145 160 0
140 157 0
142 157 0
147 164 0
149 166 0
153 169 0
145 162 0
144 162 0
147 164 0
152 171 0
144 162 0
149 165 0
148 166 0
152 167 0
144 160 0
147 166 0
153 171 0
151 167 0
143 160 0
152 171 0
154 174 0
146 162 0
153 171 0
150 167 0
143 158 0
153 169 0
151 170 0
149 165 0
155 173 0
150 164 0
147 163 0
148 165 0
149 165 0
150 168 0
150 165 0
151 170 0
152 169 0
159 177 0
157 175 0
158 177 0
152 169 0
159 179 0
155 173 0
162 181 0
160 179 0
162 180 0
160 177 0
161 178 0
160 179 0
163 184 0
157 177 0
164 182 0
157 176 0
159 177 0
160 178 0
157 175 0
156 173 0
155 173 0
157 175 0
164 182 0
158 175 0
162 180 0
163 180 0
157 176 0
159 178 0
163 182 0
158 176 0
159 176 0
162 181 0
157 177 0
152 170 0
162 182 0
161 180 0
162 182 0
156 174 0
160 180 0
159 177 0
167 188 0
166 185 0
161 181 0
165 185 0
166 185 0
163 184 0
161 180 0
165 185 0
160 181 0
163 182 0
166 186 0
168 188 0
161 180 0
160 179 0
162 182 0
169 190 0
167 186 0
165 184 0
167 188 0
163 182 0
164 184 0
174 201 163
175 201 169
174 201 165
175 202 177
174 200 159
171 197 159
175 201 149
175 202 173
173 199 159
173 199 140
176 202 157
177 204 155
175 201 151
173 200 171
173 199 151
174 201 153
175 202 165
170 196 140
177 204 163
176 203 159
173 200 159
174 200 157
174 200 144
175 202 157
170 197 157
174 199 144
174 201 167
173 200 155
178 205 165
177 203 169
176 202 165
174 200 157
179 205 169
176 203 167
176 201 157
173 200 189
174 200 163
176 202 173
176 201 157
176 202 177
175 201 171
173 200 167
176 203 167
165 191 173
170 196 171
175 200 171
178 203 165
176 201 181
179 204 175
177 203 177
178 202 171
175 199 163
185 210 199
175 201 181
173 198 169
177 203 177
178 202 185
173 197 170
176 200 177
178 203 181
178 202 181
173 198 160
176 200 177
175 200 165
177 202 181
175 201 186
169 193 159
169 194 169
176 201 182
172 196 161
174 199 173
178 203 179
168 192 165
169 194 157
174 198 161
177 201 173
172 197 167
173 197 157
173 196 163
172 196 171
178 202 177
173 197 164
166 190 159
171 196 165
168 192 155
165 189 159
166 189 159
172 195 151
165 188 139
168 191 151
165 188 160
167 190 154
168 190 145
158 180 163
165 187 166
167 189 167
166 188 170
153 176 170
147 169 161
141 163 166
142 163 171
156 178 176
145 168 169
153 174 168
151 172 161
148 169 175
141 161 157
146 167 173
158 178 182
148 168 168
149 170 168
156 176 185
158 178 182
156 175 173
161 181 180
137 158 158
152 171 176
152 172 170
160 179 180
154 173 178
149 169 174
150 169 161
142 159 147
140 160 163
142 160 154
143 160 153
141 159 160
118 139 169
113 136 175
123 144 174
114 136 166
119 140 166
128 148 176
110 136 110
110 135 114
86 104 113
95 110 121
95 109 106
92 109 112
94 109 101
63 93 119
58 91 130
63 96 131
63 96 121
58 91 107
63 93 114
72 102 118
66 96 110
69 98 104
85 111 103
53 85 99
56 89 114
56 90 111
55 87 108
56 89 122
55 88 97
54 86 115
55 88 109
56 89 115
58 92 124
56 89 111
57 91 121
56 90 120
57 91 121
56 88 94
57 90 118
55 87 118
56 89 106
57 91 118
55 87 114
59 92 126
57 91 121
58 91 123
58 92 124
55 88 111
58 92 117
57 91 103
58 92 118
55 87 102
57 90 113
56 89 117
55 89 102
58 91 120
58 91 113
58 92 111
58 91 124
56 88 114
58 91 117
58 92 122
59 93 124
58 91 118
55 88 109
58 92 122
59 93 120
59 93 122
56 89 103
56 89 108
57 90 108
57 91 111
58 91 120
56 90 102
57 90 103
56 89 110
58 92 120
58 92 114
58 92 115
58 91 111
57 90 107
57 90 120
56 89 123
55 87 107
58 91 115
58 91 120
58 92 124
55 87 99
55 88 99
55 88 97
57 91 111
57 90 103
55 87 103
57 89 102
58 91 108
54 86 99
58 91 113
55 87 97
52 83 90
55 85 88
86 105 51
99 112 0
93 107 0
108 120 0
113 128 0
94 107 0
103 118 0
108 124 0
110 125 0
119 134 0
112 128 0
118 132 0
118 134 0
118 135 0
108 123 0
115 131 0
126 142 0
127 142 0
124 139 0
125 141 0
116 132 0
124 141 0
117 132 0
113 129 0
120 136 0
132 148 0
130 147 0
128 144 0
127 145 0
133 148 0
124 139 0
135 152 0
129 145 0
140 159 0
135 153 0
127 143 0
132 149 0
126 140 0
135 151 0
123 139 0
134 152 0
133 151 0
138 154 0
141 158 0
128 147 0
136 152 0
133 149 0
128 143 0
129 145 0
138 151 0
141 158 0
140 158 0
139 155 0
140 157 0
140 158 0
145 161 0
146 165 0
144 162 0
139 155 0
136 154 0
144 163 0
148 166 0
135 153 0
138 156 0
134 150 0
141 158 0
142 160 0
148 165 0
147 163 0
147 165 0
142 160 0
137 154 0
148 166 0
143 160 0
150 167 0
141 154 0
147 163 0
146 164 0
151 168 0
147 166 0
141 158 0
149 165 0
139 155 0
138 154 0
142 159 0
151 169 0
145 163 0
155 174 0
157 173 0
155 170 0
150 166 0
152 171 0
146 162 0
151 168 0
151 169 0
150 168 0
152 171 0
157 176 0
151 169 0
154 170 0
151 167 0
138 154 0
152 166 0
151 168 0
156 171 0
152 169 0
150 169 0
156 173 0
160 177 0
153 169 0
156 172 0
151 168 0
155 170 0
152 170 0
159 175 0
153 170 0
153 170 0
156 174 0
152 168 0
144 161 0
158 176 0
150 167 0
159 178 0
160 180 0
159 176 0
158 176 0
160 177 0
159 177 0
156 174 0
160 177 0
153 171 0
155 174 0
161 180 0
156 175 0
162 180 0
164 183 0
159 179 0
162 181 0
157 176 0
158 178 0
165 183 0
160 178 0
156 175 0
160 178 0
160 179 0
164 182 0
157 175 0
157 175 0
162 182 0
160 179 0
162 182 0
164 184 0
162 182 0
163 184 0
160 179 0
162 179 0
160 179 0
160 181 0
162 179 0
163 181 0
156 176 0
163 184 0
163 181 0
164 185 0
161 182 0
162 181 0
162 183 0
166 186 0
166 186 0
164 183 0
165 185 0
166 187 0
164 184 0
176 202 157
177 204 181
174 199 155
175 202 159
173 199 151
171 198 163
167 194 140
178 204 165
173 200 167
174 201 153
176 202 153
175 201 155
174 201 159
174 201 175
176 202 157
174 200 149
174 200 155
173 199 159
178 204 165
172 199 169
170 197 159
175 201 137
176 202 155
172 199 167
174 200 159
171 198 153
175 201 171
177 202 157
175 201 169
174 200 165
173 200 161
177 204 173
173 199 163
173 200 153
175 200 159
175 200 161
174 200 157
174 200 171
178 204 177
177 202 171
172 198 151
183 209 194
182 207 188
184 208 194
185 207 188
176 201 163
179 203 184
178 202 181
182 206 186
177 203 191
175 201 196
177 202 169
175 200 179
179 203 177
188 212 201
178 202 181
188 210 209
179 204 199
179 202 189
177 201 198
173 197 184
183 206 191
178 203 186
176 200 169
174 198 182
176 199 193
187 209 199
169 192 161
175 200 174
180 204 199
174 197 165
169 193 151
174 199 171
175 199 157
175 200 175
167 190 151
176 200 177
171 195 169
171 193 157
175 200 169
174 197 179
165 188 158
177 201 185
166 188 157
171 194 166
167 190 165
169 192 159
166 189 165
162 185 149
163 186 165
169 191 156
172 195 165
157 180 145
167 190 167
164 186 153
162 183 149
167 189 159
149 171 157
152 174 182
150 173 167
140 163 168
157 179 180
133 154 156
151 173 172
142 163 166
156 177 172
149 169 164
141 163 157
162 183 182
161 181 182
165 184 190
147 167 164
151 170 171
158 177 180
153 173 176
153 173 174
160 179 183
155 175 166
151 171 172
167 187 182
151 170 163
154 174 176
147 165 155
148 164 161
132 150 150
147 165 156
138 155 154
140 153 154
123 145 181
124 145 174
115 138 169
130 150 176
124 144 171
103 129 107
105 132 113
97 118 90
94 111 114
83 101 119
91 105 97
86 105 126
79 99 109
61 95 130
62 94 124
62 94 117
63 94 112
63 93 105
61 93 124
63 93 99
73 102 107
89 116 99
64 96 117
52 83 95
56 88 102
55 88 108
55 87 106
56 89 103
55 87 105
55 88 115
57 91 115
55 87 101
55 88 109
58 92 123
55 88 101
55 88 107
57 91 116
56 89 100
57 90 117
55 87 109
57 90 115
57 90 100
56 89 107
55 87 110
57 90 118
56 88 103
58 91 113
57 90 121
57 91 111
58 92 114
57 91 110
56 89 112
57 91 113
57 90 118
59 93 121
58 92 113
56 89 115
58 92 108
57 90 107
58 93 126
57 89 104
57 91 115
57 90 109
55 88 108
57 91 118
56 89 97
56 89 111
58 91 118
58 92 115
57 90 105
58 92 114
57 90 110
57 90 116
57 91 118
57 91 104
56 89 107
57 90 111
57 91 114
59 93 120
56 89 111
57 91 111
57 91 111
55 87 97
57 89 100
55 87 110
58 91 120
55 87 97
55 87 92
57 90 115
54 86 100
52 82 92
54 86 108
56 88 108
54 86 102
55 86 107
55 87 105
54 86 97
61 87 74
106 121 44
95 110 0
100 112 0
111 126 0
111 128 0
111 126 0
113 128 0
115 131 0
117 133 0
113 129 0
113 129 0
114 130 0
110 126 0
112 127 0
119 136 0
117 132 0
122 139 0
124 140 0
107 123 0
111 127 0
117 132 0
119 135 0
131 151 0
130 148 0
119 136 0
121 138 0
126 142 0
131 146 0
123 139 0
126 143 0
130 147 0
138 156 0
135 153 0
125 142 0
129 146 0
129 147 0
126 143 0
137 155 0
124 139 0
135 152 0
139 158 0
131 147 0
127 144 0
127 143 0
136 153 0
141 158 0
128 143 0
126 143 0
139 155 0
141 158 0
138 155 0
143 160 0
132 149 0
141 159 0
138 156 0
130 146 0
139 156 0
148 167 0
144 163 0
136 153 0
135 151 0
146 164 0
146 164 0
137 154 0
142 160 0
139 158 0
140 158 0
149 164 0
140 159 0
143 158 0
150 167 0
142 160 0
139 155 0
153 169 0
138 154 0
147 166 0
154 171 0
151 170 0
150 168 0
140 158 0
151 168 0
146 162 0
149 167 0
149 167 0
148 166 0
150 164 0
145 163 0
153 172 0
148 167 0
156 174 0
144 157 0
154 172 0
148 166 0
153 169 0
155 173 0
151 168 0
151 169 0
149 168 0
150 170 0
156 175 0
149 168 0
149 164 0
145 163 0
154 172 0
155 172 0
148 166 0
148 166 0
153 168 0
151 166 0
153 170 0
149 166 0
159 179 0
162 182 0
152 172 0
156 174 0
157 174 0
161 178 0
149 165 0
160 177 0
157 174 0
157 175 0
159 178 0
157 175 0
161 182 0
157 174 0
155 175 0
152 171 0
161 178 0
154 172 0
160 179 0
150 166 0
156 175 0
163 182 0
159 175 0
165 185 0
162 181 0
156 173 0
157 175 0
160 181 0
162 180 0
160 177 0
160 179 0
158 173 0
154 170 0
162 181 0
163 184 0
163 182 0
166 187 0
157 177 0
163 182 0
166 187 0
155 172 0
156 174 0
162 181 0
162 180 0
162 182 0
165 186 0
160 179 0
168 189 0
162 181 0
164 181 0
164 182 0
163 182 0
166 186 0
160 180 0
165 186 0
165 185 0
166 187 0
165 185 0
163 184 0
163 184 0
163 182 0
167 187 0
163 184 0
178 204 167
175 200 149
174 200 149
176 203 165
176 202 167
173 199 155
177 203 163
176 202 157
174 199 140
173 200 157
175 202 171
175 201 151
176 202 149
178 205 171
176 203 173
170 196 147
173 200 147
174 201 159
177 204 161
169 196 142
174 200 157
173 198 135
176 202 167
177 203 159
172 199 157
170 196 155
173 199 153
172 199 163
178 205 163
177 203 161
174 201 173
176 204 182
175 202 173
171 197 161
174 199 153
184 209 186
179 205 179
180 205 177
181 206 179
181 204 191
182 206 193
182 206 193
182 206 182
181 204 193
178 203 182
182 208 184
180 205 186
180 204 196
180 202 171
184 209 201
180 204 179
182 205 191
181 206 196
177 201 181
178 202 181
176 200 175
180 204 177
179 204 193
176 199 177
177 201 189
176 201 187
182 206 194
179 203 191
183 207 193
176 200 186
185 210 198
176 200 189
180 203 181
184 207 198
184 207 194
179 203 188
182 206 199
178 200 188
169 192 163
173 197 159
175 199 186
170 193 140
172 196 181
170 194 169
166 190 153
170 194 159
171 195 157
167 189 168
167 190 164
167 190 164
172 194 165
168 191 171
160 183 140
165 189 157
164 187 172
171 193 170
166 188 148
159 181 157
167 189 170
167 190 163
172 194 161
168 189 163
171 193 173
160 182 164
136 158 157
154 176 179
148 170 166
149 170 167
144 165 167
161 182 176
156 178 158
140 162 153
149 170 167
151 172 167
156 177 188
147 167 169
145 165 163
144 164 160
141 162 174
163 182 180
154 174 172
165 184 188
144 165 158
149 169 171
148 168 159
154 174 171
152 173 171
163 181 182
148 166 159
143 160 158
145 163 168
143 161 160
151 163 160
143 156 169
121 143 175
129 149 183
131 151 182
133 153 178
107 132 111
111 137 114
103 129 118
104 123 100
81 101 115
84 103 117
90 107 105
90 105 95
63 93 121
58 92 124
68 98 111
70 101 115
74 104 110
68 98 107
74 102 104
66 97 107
79 106 107
71 100 102
55 87 110
56 88 113
55 87 108
53 85 92
57 91 117
54 87 99
53 85 98
55 88 108
57 90 112
55 88 99
56 89 111
55 88 111
56 89 119
55 87 103
56 89 109
56 88 113
57 90 110
57 90 122
55 87 107
56 90 111
55 87 100
55 88 103
58 91 120
57 90 107
56 88 110
58 92 107
56 89 100
57 89 111
57 90 110
58 91 122
55 87 107
58 92 126
55 88 103
57 90 111
57 90 111
56 90 109
57 90 114
55 87 103
58 92 124
58 91 117
58 91 108
57 91 120
57 90 107
57 91 108
57 91 118
57 90 110
57 91 105
57 90 102
55 87 100
55 88 110
58 92 115
56 88 105
58 91 108
56 89 110
57 90 114
59 93 128
57 90 114
57 90 113
55 87 94
56 89 94
56 89 103
57 90 107
53 85 97
55 88 102
55 87 95
55 87 92
55 87 94
52 83 90
52 82 88
56 88 100
54 86 103
52 82 90
52 83 80
81 101 54
99 114 0
106 121 0
111 126 0
96 109 0
110 125 0
95 108 0
100 115 0
108 123 0
115 129 0
112 128 0
95 110 0
105 120 0
114 129 0
120 138 0
115 128 0
112 126 0
114 130 0
113 128 0
110 126 0
123 139 0
119 136 0
113 127 0
122 140 0
121 137 0
119 136 0
125 144 0
124 140 0
125 139 0
128 144 0
124 140 0
128 144 0
130 146 0
127 144 0
130 149 0
119 138 0
127 142 0
129 147 0
134 150 0
135 152 0
140 157 0
135 151 0
133 152 0
131 146 0
126 143 0
141 158 0
128 143 0
133 150 0
134 152 0
134 153 0
136 154 0
137 153 0
137 154 0
147 166 0
135 152 0
136 152 0
144 162 0
141 157 0
138 155 0
142 161 0
136 153 0
135 150 0
148 164 0
141 158 0
140 157 0
144 162 0
146 164 0
137 155 0
144 160 0
143 161 0
143 161 0
138 157 0
140 156 0
149 170 0
139 156 0
147 165 0
143 159 0
147 165 0
140 157 0
146 164 0
145 162 0
147 164 0
147 164 0
145 161 0
137 153 0
154 170 0
148 165 0
142 160 0
154 171 0
140 156 0
152 170 0
150 169 0
153 170 0
154 172 0
159 178 0
150 168 0
150 168 0
153 171 0
152 171 0
153 170 0
159 176 0
158 175 0
154 173 0
154 174 0
153 169 0
158 176 0
154 172 0
154 173 0
159 178 0
144 162 0
158 175 0
160 180 0
153 170 0
153 171 0
154 172 0
158 178 0
156 173 0
154 172 0
160 177 0
152 171 0
160 179 0
160 177 0
154 171 0
157 175 0
155 173 0
160 177 0
157 173 0
160 180 0
156 174 0
159 178 0
157 175 0
152 171 0
164 183 0
155 171 0
157 175 0
160 178 0
159 177 0
160 179 0
159 178 0
164 185 0
154 169 0
159 175 0
157 174 0
162 182 0
163 182 0
156 176 0
159 175 0
157 175 0
163 182 0
159 179 0
166 186 0
158 175 0
162 181 0
164 184 0
164 184 0
163 181 0
165 185 0
159 178 0
159 178 0
162 183 0
163 183 0
163 183 0
164 182 0
163 182 0
162 181 0
165 185 0
160 178 0
165 186 0
165 186 0
165 186 0
163 182 0
167 188 0
165 186 0
155 176 0
163 183 0
168 190 0
179 205 159
175 200 155
174 200 147
177 202 135
176 202 153
173 200 161
171 197 149
176 200 147
177 203 163
177 204 165
176 202 151
173 199 147
171 197 133
174 200 153
176 203 179
173 200 159
171 197 125
172 199 155
176 202 169
173 200 153
174 199 159
176 203 165
174 201 157
176 201 159
177 203 167
172 197 155
178 205 175
177 202 155
176 203 159
173 199 149
178 204 169
177 204 173
180 205 179
179 203 191
181 204 186
181 206 184
182 206 196
181 205 182
175 201 173
179 204 196
180 204 171
179 204 194
178 203 191
180 204 177
182 206 182
180 204 188
178 202 189
182 207 199
178 201 175
176 200 179
180 205 184
181 206 188
180 205 186
184 209 196
184 208 182
182 205 186
177 201 189
180 204 182
179 203 182
178 202 194
185 210 201
178 202 188
181 204 184
178 203 182
175 200 177
181 205 198
166 189 165
182 206 191
173 196 166
173 196 173
173 196 175
174 199 182
179 202 188
177 200 182
183 205 199
179 201 201
178 201 188
173 196 169
180 202 181
175 199 167
173 196 144
178 202 180
165 189 163
170 193 156
168 191 169
173 196 180
168 191 170
163 186 161
163 185 160
165 187 150
174 197 171
161 183 153
166 188 156
164 186 156
170 192 166
161 183 147
166 187 154
157 178 147
171 191 158
156 177 164
164 187 181
149 170 177
142 164 164
142 163 172
151 172 170
146 167 164
148 169 165
148 169 167
149 170 162
144 165 166
147 167 171
146 167 163
155 175 170
150 170 168
153 172 170
160 179 186
150 169 154
154 174 175
151 171 177
148 168 166
160 179 182
150 170 167
150 168 176
149 169 155
153 169 154
139 157 141
139 157 156
146 163 154
163 168 152
126 145 171
128 148 174
125 146 176
123 144 169
97 125 115
112 138 100
100 126 107
91 118 110
99 120 105
94 108 106
76 96 102
86 102 102
79 99 115
59 92 118
62 94 124
67 98 124
66 98 116
65 96 122
64 96 102
67 94 80
81 107 97
84 110 99
55 87 103
54 86 92
56 89 105
54 86 96
55 87 117
54 86 91
55 87 99
55 87 104
55 88 115
53 85 103
53 84 96
54 86 94
58 91 114
54 86 108
57 90 115
54 86 97
58 92 119
55 87 103
57 90 115
57 90 111
55 86 102
56 89 105
59 92 122
56 89 103
57 90 115
57 90 108
57 90 122
57 90 118
57 91 115
56 89 105
54 87 96
55 88 101
56 89 107
55 88 104
58 91 117
54 86 88
56 89 99
57 90 117
57 90 111
55 87 94
58 92 114
57 90 122
56 89 117
58 92 116
57 91 115
55 87 102
59 92 108
57 91 111
57 91 114
59 92 115
56 89 101
57 90 117
56 90 111
58 92 120
56 89 102
55 87 99
57 90 108
59 92 111
57 90 114
56 89 114
57 90 103
56 89 102
55 87 102
57 90 103
55 87 97
54 86 94
54 85 95
52 83 82
53 84 92
53 84 90
53 85 94
64 87 67
93 111 44
112 127 0
110 125 0
105 121 0
104 119 0
112 128 0
104 119 0
109 122 0
108 122 0
111 127 0
114 131 0
114 129 0
117 133 0
122 140 0
111 126 0
114 130 0
107 118 0
118 135 0
120 138 0
128 145 0
107 123 0
112 126 0
124 142 0
113 131 0
120 136 0
119 135 0
124 140 0
117 134 0
128 146 0
127 143 0
123 139 0
122 139 0
126 142 0
131 149 0
130 145 0
122 137 0
128 146 0
138 156 0
130 149 0
131 147 0
145 160 0
143 160 0
134 152 0
135 152 0
129 145 0
131 146 0
134 152 0
141 158 0
134 152 0
137 156 0
123 140 0
134 153 0
139 158 0
141 159 0
139 156 0
135 154 0
135 154 0
148 165 0
146 165 0
135 153 0
142 161 0
130 147 0
143 160 0
136 150 0
148 166 0
148 165 0
138 155 0
138 156 0
144 161 0
146 164 0
138 152 0
144 161 0
139 155 0
143 160 0
143 161 0
147 164 0
144 162 0
145 163 0
148 166 0
148 165 0
150 168 0
154 171 0
139 154 0
153 172 0
151 167 0
151 166 0
147 164 0
147 165 0
155 172 0
150 168 0
143 161 0
151 169 0
148 164 0
152 172 0
151 169 0
143 161 0
150 166 0
154 172 0
155 172 0
158 177 0
163 182 0
151 168 0
154 173 0
156 174 0
147 164 0
149 167 0
153 172 0
155 171 0
149 164 0
160 179 0
153 171 0
155 172 0
160 180 0
153 172 0
157 174 0
155 173 0
148 165 0
156 174 0
153 170 0
158 178 0
150 167 0
161 180 0
153 170 0
159 176 0
156 173 0
157 177 0
151 167 0
153 172 0
159 177 0
154 173 0
159 179 0
161 180 0
157 176 0
156 175 0
156 175 0
157 175 0
163 181 0
165 185 0
161 180 0
160 177 0
165 186 0
157 175 0
162 182 0
158 178 0
157 175 0
159 177 0
162 180 0
163 181 0
164 182 0
162 182 0
161 181 0
165 186 0
164 182 0
166 184 0
164 183 0
162 183 0
159 180 0
165 185 0
158 179 0
166 186 0
159 180 0
164 183 0
162 183 0
164 183 0
165 187 0
163 184 0
162 180 0
164 184 0
167 188 0
162 182 0
165 186 0
167 189 0
162 182 0
163 183 0
168 188 0
170 192 0
168 189 0
175 200 130
177 203 159
172 198 140
177 202 137
176 203 179
178 205 177
172 198 165
175 201 147
174 200 155
178 204 167
173 199 161
171 197 157
173 198 155
175 201 144
171 196 142
175 200 157
177 203 157
173 200 161
176 202 163
177 202 155
180 206 175
174 201 159
174 201 161
174 200 157
175 201 173
175 201 169
177 203 173
178 204 173
172 198 173
181 205 181
183 208 186
178 202 163
183 207 194
181 205 182
179 204 177
179 202 181
178 203 182
183 207 189
183 208 189
180 206 191
178 202 184
183 207 188
179 203 191
180 203 171
184 208 203
177 201 169
177 202 191
181 205 188
173 198 179
175 199 184
182 207 189
178 201 181
179 204 184
179 203 177
179 202 179
183 206 184
177 201 177
176 199 171
177 201 179
179 203 186
174 199 177
176 200 184
180 203 190
181 204 184
183 207 182
176 200 177
174 198 175
182 205 190
179 201 186
177 200 175
176 200 182
177 200 181
175 198 181
180 202 182
174 197 184
179 203 189
179 202 196
185 206 191
184 207 194
172 194 179
173 196 175
169 191 157
171 195 152
165 188 169
170 194 163
173 197 181
169 191 155
168 191 166
164 187 162
161 184 165
166 189 154
168 190 149
171 193 160
169 191 152
174 196 173
175 198 169
165 186 163
169 191 167
160 181 144
166 187 162
149 170 156
142 163 154
147 169 176
151 173 176
134 155 150
146 167 163
148 169 167
143 163 164
155 176 184
153 173 166
149 170 168
155 174 173
156 176 177
146 166 157
161 180 183
149 168 177
153 173 185
152 171 164
155 173 172
158 176 177
155 174 176
152 172 165
151 170 170
145 164 162
141 159 140
137 156 155
141 157 146
143 160 159
159 166 153
152 155 130
132 152 181
123 143 165
115 136 152
108 134 107
96 123 110
102 128 109
92 119 113
104 130 95
93 116 118
91 106 117
83 98 99
69 89 95
75 94 97
59 91 111
61 92 112
63 95 130
59 91 114
61 93 110
69 100 110
82 108 87
88 113 85
56 86 94
53 86 97
55 88 103
56 89 105
56 88 110
53 85 86
54 86 103
56 89 108
54 85 104
56 89 100
56 88 104
56 89 101
55 87 107
55 88 110
55 87 98
55 87 92
55 88 107
57 90 117
56 89 107
57 90 103
58 92 121
56 89 104
57 90 115
56 89 107
56 89 103
57 91 103
57 90 114
57 90 117
54 85 90
55 88 100
57 90 109
59 93 128
57 89 113
56 90 110
58 91 117
57 90 103
56 89 103
57 90 122
56 89 98
56 89 100
58 91 118
55 88 111
56 89 110
58 91 115
59 93 117
58 91 114
55 88 111
57 89 102
58 91 113
57 89 110
56 89 111
56 88 99
57 90 105
56 89 113
56 89 99
59 92 128
55 88 102
55 88 95
57 90 111
56 89 108
54 87 102
52 83 78
54 86 97
54 85 92
56 89 100
55 87 92
53 85 94
54 86 90
53 84 88
56 84 80
81 100 36
121 137 0
109 123 0
100 115 0
94 108 0
113 130 0
105 119 0
108 122 0
109 123 0
116 133 0
114 130 0
103 119 0
113 129 0
121 138 0
108 124 0
113 127 0
123 139 0
106 122 0
116 134 0
117 134 0
113 129 0
131 147 0
115 131 0
120 137 0
123 140 0
136 151 0
122 138 0
126 144 0
123 139 0
122 140 0
122 140 0
129 145 0
130 147 0
128 146 0
127 144 0
133 152 0
136 153 0
123 140 0
122 137 0
134 152 0
131 148 0
136 152 0
125 144 0
135 152 0
137 154 0
133 151 0
141 158 0
132 149 0
144 162 0
137 156 0
132 151 0
129 149 0
136 153 0
135 153 0
137 152 0
140 157 0
146 165 0
141 159 0
138 155 0
142 161 0
137 155 0
147 165 0
148 164 0
132 149 0
142 158 0
134 152 0
135 152 0
134 151 0
139 158 0
145 164 0
135 151 0
140 159 0
136 153 0
146 165 0
149 170 0
147 166 0
150 169 0
147 166 0
146 162 0
147 167 0
145 163 0
146 163 0
151 169 0
142 158 0
144 160 0
152 172 0
147 164 0
144 161 0
147 164 0
145 163 0
153 172 0
147 164 0
149 167 0
144 160 0
152 170 0
150 169 0
149 167 0
148 168 0
150 168 0
146 163 0
148 165 0
156 174 0
151 170 0
149 166 0
154 173 0
154 171 0
147 164 0
149 167 0
155 174 0
148 166 0
153 170 0
154 174 0
153 171 0
158 174 0
159 177 0
155 173 0
160 177 0
155 175 0
153 172 0
152 170 0
158 177 0
156 174 0
152 170 0
160 179 0
157 174 0
156 174 0
151 169 0
151 169 0
150 167 0
157 177 0
160 178 0
159 178 0
158 178 0
158 177 0
164 183 0
161 179 0
156 175 0
158 176 0
160 182 0
156 176 0
160 178 0
159 180 0
160 179 0
164 184 0
154 170 0
160 179 0
161 181 0
158 178 0
158 179 0
160 178 0
159 178 0
161 181 0
164 185 0
156 176 0
167 187 0
161 181 0
161 179 0
163 183 0
156 175 0
161 181 0
162 183 0
161 181 0
166 188 0
159 177 0
165 184 0
164 184 0
166 186 0
161 180 0
167 187 0
166 187 0
163 184 0
162 181 0
165 186 0
165 187 0
164 183 0
163 183 0
162 182 0
163 182 0
163 185 0
177 203 157
172 197 149
176 202 163
176 201 161
175 200 159
176 202 159
176 202 171
176 201 167
175 201 159
176 203 165
175 200 149
175 201 151
174 200 147
176 202 144
175 201 163
172 198 147
176 201 163
179 204 159
178 203 173
175 201 167
175 200 155
177 203 163
174 200 171
172 198 161
178 203 161
177 202 167
178 203 181
185 209 194
180 204 184
179 204 175
179 203 169
182 207 188
180 205 175
185 209 193
176 200 182
180 205 194
181 205 181
178 202 181
182 206 188
175 199 184
182 206 186
180 204 182
175 200 173
178 202 191
177 203 189
179 203 175
175 200 165
175 200 177
177 203 184
184 208 184
177 200 173
178 203 182
187 209 188
177 201 177
183 207 189
175 200 179
179 204 182
182 206 181
180 203 184
184 207 189
174 198 181
177 202 182
183 208 196
179 202 193
176 199 182
178 201 186
186 210 196
178 201 188
174 197 184
181 204 187
180 203 191
177 201 181
184 208 199
174 196 173
176 199 186
177 200 191
183 205 201
183 205 198
178 200 189
179 201 189
182 204 186
178 200 189
176 198 171
167 190 163
164 186 149
159 181 144
169 192 175
164 186 162
171 193 160
176 198 182
172 195 166
168 189 163
167 189 179
162 184 151
159 180 152
167 189 161
164 186 161
162 183 156
168 190 163
165 186 157
154 174 151
154 175 164
156 178 173
155 176 171
149 171 167
149 171 176
149 170 164
155 174 165
151 171 175
143 164 161
147 167 170
160 179 188
150 170 181
152 171 181
153 172 175
157 176 184
147 167 165
152 172 171
161 180 181
161 179 182
157 176 179
151 170 171
158 177 174
148 169 144
146 166 146
135 154 146
145 163 162
149 167 169
160 173 179
161 163 135
153 161 157
131 150 178
110 133 153
103 130 110
99 127 121
94 122 111
110 136 100
110 136 105
105 131 99
87 114 110
85 103 108
77 94 89
82 99 112
72 100 117
76 106 115
68 98 109
61 91 107
70 99 97
62 93 107
68 95 94
88 112 94
64 94 100
53 84 99
55 88 99
55 87 98
55 87 101
56 89 106
54 86 101
54 86 105
54 86 113
53 85 99
54 86 94
54 87 85
56 89 108
54 86 84
54 86 101
55 88 105
54 86 103
56 88 107
54 86 103
55 88 105
56 89 111
55 87 107
57 89 112
56 89 111
58 92 124
58 91 113
57 90 120
55 88 108
56 88 106
54 86 107
56 89 108
57 90 115
55 87 104
56 89 110
59 92 126
56 88 105
56 88 110
55 88 102
55 88 98
56 89 113
58 91 110
56 90 111
57 90 102
58 92 103
59 93 124
56 89 107
57 90 103
56 89 107
58 92 113
57 90 105
57 90 108
57 90 110
56 88 105
57 90 111
55 87 103
57 90 105
55 88 105
55 88 99
55 87 107
54 86 94
55 86 102
53 84 97
56 88 86
53 85 100
54 86 92
53 85 84
52 83 95
57 86 94
81 102 62
106 123 0
109 123 0
98 113 0
103 119 0
101 115 0
114 130 0
102 119 0
113 127 0
96 112 0
97 111 0
108 123 0
113 129 0
117 132 0
111 126 0
99 113 0
117 134 0
115 132 0
108 122 0
122 139 0
115 133 0
122 138 0
118 135 0
116 133 0
126 144 0
124 141 0
127 142 0
128 146 0
129 146 0
117 133 0
126 142 0
133 152 0
132 150 0
126 145 0
129 145 0
137 154 0
131 148 0
131 147 0
125 142 0
129 146 0
125 141 0
132 147 0
129 146 0
141 160 0
124 141 0
143 162 0
141 160 0
125 144 0
141 161 0
134 149 0
131 148 0
138 155 0
143 160 0
127 144 0
137 154 0
140 160 0
141 160 0
137 155 0
144 161 0
140 157 0
133 150 0
144 163 0
142 160 0
145 162 0
138 156 0
144 162 0
137 155 0
137 155 0
142 160 0
148 166 0
137 156 0
142 159 0
153 171 0
142 160 0
147 167 0
139 153 0
149 167 0
150 167 0
143 161 0
150 168 0
139 157 0
147 165 0
149 166 0
156 175 0
144 160 0
141 160 0
149 169 0
146 163 0
151 168 0
150 169 0
147 166 0
153 172 0
156 176 0
148 166 0
152 170 0
153 171 0
146 163 0
160 180 0
148 165 0
151 171 0
149 167 0
153 172 0
152 169 0
152 169 0
143 161 0
147 165 0
150 169 0
151 168 0
157 179 0
155 172 0
150 169 0
158 176 0
155 173 0
152 169 0
149 169 0
155 175 0
157 177 0
158 173 0
158 176 0
155 173 0
155 173 0
163 183 0
155 174 0
160 179 0
152 172 0
153 172 0
158 176 0
154 171 0
160 177 0
151 170 0
156 175 0
160 178 0
157 174 0
163 182 0
155 173 0
165 184 0
159 178 0
160 180 0
156 174 0
157 176 0
162 181 0
161 180 0
160 179 0
160 180 0
160 180 0
159 178 0
165 184 0
161 181 0
161 180 0
159 177 0
157 176 0
159 179 0
167 187 0
164 184 0
165 184 0
156 175 0
168 188 0
162 181 0
164 185 0
160 181 0
160 180 0
161 180 0
166 186 0
163 181 0
163 183 0
167 187 0
168 189 0
164 183 0
165 187 0
166 186 0
167 189 0
162 182 0
160 181 0
163 182 0
167 188 0
165 185 0
158 179 0
162 183 0
165 186 0
165 185 0
157 176 0
178 203 161
178 203 157
176 202 155
175 202 155
171 196 135
173 199 149
173 199 155
177 203 165
174 201 163
177 203 163
179 205 171
175 201 157
174 201 173
172 197 153
174 199 159
178 204 157
174 200 171
179 204 157
176 202 159
175 201 161
175 200 163
174 200 173
180 205 165
179 203 163
184 208 188
182 205 175
182 207 191
182 208 203
180 204 189
181 206 177
180 203 177
181 205 179
184 208 182
182 207 184
171 196 179
181 206 181
185 209 196
177 201 165
182 207 184
179 202 188
178 202 179
182 206 193
179 202 167
181 205 189
175 200 182
174 198 173
180 204 186
179 203 191
183 207 184
182 206 184
180 205 196
178 202 179
178 203 186
182 205 182
184 208 194
176 200 182
182 206 194
180 205 199
181 205 184
181 205 177
179 202 163
180 203 184
180 203 187
176 200 185
178 201 179
175 199 181
179 203 194
175 198 186
176 199 171
173 197 177
183 206 196
181 203 182
180 203 173
174 197 175
171 194 177
178 200 184
182 205 191
177 200 182
172 194 179
179 201 189
182 205 196
166 188 177
173 194 181
184 206 198
178 200 191
173 195 167
171 193 156
161 183 157
168 191 159
165 186 159
164 186 161
172 194 174
173 195 167
167 188 157
163 185 160
165 188 151
161 184 160
165 186 163
158 179 155
164 185 165
167 188 157
166 187 169
165 186 173
144 166 162
147 168 167
142 164 158
138 159 158
143 163 165
151 172 176
146 167 165
150 171 179
146 167 161
159 179 183
146 165 169
142 161 160
156 175 180
152 172 173
155 175 174
156 175 168
154 172 171
145 164 158
148 167 157
145 165 153
139 158 153
155 174 166
142 162 145
146 165 157
152 169 159
140 156 149
166 172 162
165 170 156
124 137 144
121 143 166
91 119 111
107 133 100
101 128 108
98 125 113
107 134 100
115 140 97
112 137 95
111 135 94
107 127 88
94 116 95
86 106 80
71 101 118
62 94 128
59 90 115
74 101 100
67 97 105
76 104 107
93 116 70
67 96 98
51 81 92
54 86 103
56 88 106
56 88 105
54 86 90
54 86 94
53 85 87
56 88 106
56 89 107
56 89 103
53 85 98
55 87 102
54 87 113
55 88 96
54 86 87
52 83 95
56 88 110
57 90 117
54 86 92
55 88 110
55 88 110
57 90 117
56 88 100
55 88 87
55 87 99
56 89 107
56 88 110
53 85 106
55 88 94
56 88 110
56 89 103
57 89 106
57 90 119
57 90 100
54 87 96
57 90 108
56 89 102
55 88 103
56 88 105
55 88 95
57 89 107
58 91 111
55 88 100
56 88 100
55 88 95
57 90 108
56 88 107
54 86 105
55 87 110
57 90 110
56 88 107
56 88 102
54 86 92
56 89 111
56 88 107
55 88 100
54 85 94
55 87 92
55 87 102
52 82 86
55 87 92
53 84 84
54 86 82
53 84 82
57 88 88
66 90 76
89 104 36
89 104 0
100 114 0
102 118 0
96 110 0
100 116 0
111 125 0
108 124 0
105 119 0
111 126 0
103 118 0
116 133 0
107 124 0
119 137 0
119 136 0
120 134 0
119 136 0
109 124 0
107 123 0
112 128 0
102 119 0
114 131 0
118 136 0
111 126 0
123 140 0
121 135 0
123 140 0
123 141 0
123 139 0
129 147 0
116 133 0
124 143 0
119 136 0
114 131 0
130 148 0
132 150 0
139 156 0
130 147 0
125 141 0
138 155 0
133 150 0
134 151 0
122 139 0
140 157 0
134 151 0
121 138 0
136 154 0
136 154 0
143 161 0
133 151 0
141 160 0
133 152 0
139 158 0
140 158 0
143 160 0
136 154 0
133 149 0
139 156 0
140 157 0
145 162 0
129 148 0
137 155 0
143 160 0
137 154 0
142 163 0
144 164 0
138 156 0
146 164 0
143 160 0
144 161 0
139 156 0
146 165 0
148 168 0
145 163 0
148 167 0
146 163 0
144 163 0
148 167 0
143 159 0
144 162 0
145 163 0
150 170 0
149 167 0
145 164 0
142 158 0
148 168 0
145 163 0
153 173 0
153 173 0
156 176 0
143 162 0
149 168 0
147 164 0
156 173 0
155 173 0
148 168 0
158 175 0
150 169 0
152 170 0
148 168 0
158 177 0
149 166 0
156 177 0
156 175 0
153 172 0
150 168 0
145 162 0
152 169 0
152 167 0
153 172 0
153 173 0
156 175 0
159 178 0
154 174 0
153 170 0
157 176 0
150 169 0
156 173 0
156 176 0
160 178 0
154 172 0
155 174 0
158 179 0
165 184 0
159 178 0
157 177 0
157 175 0
155 172 0
158 177 0
160 178 0
158 178 0
159 178 0
150 167 0
160 181 0
160 178 0
161 179 0
158 176 0
162 181 0
162 181 0
158 177 0
162 183 0
161 180 0
156 175 0
154 173 0
162 181 0
161 179 0
161 180 0
159 177 0
158 177 0
161 182 0
159 179 0
158 178 0
161 179 0
157 177 0
161 180 0
158 177 0
162 181 0
159 177 0
159 178 0
161 179 0
163 183 0
166 186 0
159 179 0
166 185 0
164 186 0
162 183 0
165 185 0
157 177 0
157 174 0
164 182 0
164 185 0
168 188 0
164 185 0
164 185 0
167 189 0
167 187 0
165 184 0
165 186 0
162 181 0
164 184 0
165 186 0
166 187 0
172 198 157
178 203 159
178 204 167
177 203 151
173 200 137
177 204 175
174 200 153
178 204 161
177 203 165
173 199 149
176 202 157
177 201 161
176 202 173
178 203 163
179 206 191
176 202 165
177 203 161
178 205 173
175 200 161
176 203 163
178 203 163
183 206 186
184 208 196
181 205 179
183 207 189
182 206 188
179 204 191
184 209 199
181 205 171
179 204 184
181 206 184
178 203 171
183 207 196
178 203 177
180 205 186
176 201 179
181 205 181
186 210 204
177 202 181
178 203 196
181 206 184
181 205 191
177 202 184
177 201 173
184 208 191
181 207 204
179 203 182
181 204 175
179 201 169
179 205 186
177 201 167
178 203 173
183 205 193
176 201 196
183 207 203
182 205 189
179 204 193
180 203 181
180 205 191
181 205 183
173 197 176
179 202 174
176 200 188
173 196 151
177 201 182
173 196 169
182 205 181
178 202 197
179 203 191
176 200 182
173 197 186
179 203 188
174 196 174
174 196 173
179 201 179
174 197 184
183 205 198
177 199 184
178 200 194
181 204 188
179 200 191
174 195 179
182 204 186
179 202 190
170 192 178
179 200 188
173 194 186
167 189 154
167 189 174
164 186 161
172 194 165
165 187 160
169 191 160
168 188 175
169 190 164
169 190 173
166 188 154
159 180 152
162 183 159
170 191 164
171 192 169
167 188 169
163 184 151
150 171 157
154 175 175
161 182 176
149 170 172
151 172 173
149 169 167
149 170 172
149 170 180
150 169 172
152 172 158
158 177 168
129 150 149
154 173 169
161 180 173
169 187 191
160 180 178
152 171 159
160 178 178
150 169 162
155 174 173
146 167 144
151 171 149
143 163 145
145 164 156
145 164 151
142 158 161
145 148 128
165 170 158
147 149 134
130 146 155
111 136 107
113 138 100
109 135 105
110 136 105
113 139 95
95 121 105
113 140 100
101 124 100
97 120 105
95 114 100
101 118 84
72 97 106
59 90 113
66 96 104
59 92 109
61 94 110
70 99 110
88 111 76
86 111 101
51 82 82
57 90 121
53 85 84
53 84 94
54 86 103
54 86 101
53 84 100
56 89 104
52 83 84
52 83 83
55 87 105
55 87 103
56 88 110
54 86 99
55 87 99
56 88 96
55 87 90
56 88 107
55 87 100
56 89 108
53 85 99
55 88 108
56 88 107
55 88 100
56 88 108
54 86 99
58 92 111
57 91 108
57 90 113
55 88 102
55 87 104
57 90 115
54 86 92
57 90 103
56 89 107
56 89 99
56 88 100
55 88 107
57 90 118
57 90 117
56 89 105
56 89 100
56 89 111
56 89 100
56 88 114
55 87 102
55 87 90
55 88 95
55 87 100
58 92 110
55 88 94
55 88 97
55 88 105
55 87 95
55 87 102
52 83 95
54 86 89
54 86 97
55 88 100
54 86 99
54 86 94
52 82 92
52 83 88
60 86 84
80 96 36
91 107 0
97 112 0
106 123 0
98 113 0
103 118 0
95 112 0
96 111 0
111 127 0
107 124 0
98 112 0
118 134 0
105 121 0
101 116 0
107 120 0
104 120 0
102 117 0
117 134 0
117 133 0
112 128 0
121 138 0
122 138 0
120 136 0
125 141 0
110 126 0
120 138 0
114 130 0
126 144 0
118 135 0
118 135 0
122 140 0
129 146 0
118 137 0
128 148 0
132 148 0
119 135 0
131 150 0
127 145 0
129 143 0
127 145 0
135 153 0
140 158 0
126 144 0
141 159 0
132 151 0
141 160 0
135 151 0
129 147 0
135 152 0
142 160 0
147 165 0
139 158 0
129 147 0
142 162 0
133 152 0
134 151 0
140 158 0
146 164 0
141 158 0
138 157 0
141 158 0
137 155 0
141 156 0
142 160 0
145 161 0
148 164 0
148 165 0
132 149 0
136 154 0
140 159 0
141 157 0
151 170 0
145 163 0
150 169 0
143 161 0
153 170 0
143 161 0
145 166 0
140 160 0
140 156 0
150 168 0
155 173 0
143 163 0
151 171 0
146 166 0
149 167 0
150 167 0
145 162 0
151 170 0
148 166 0
155 173 0
151 168 0
155 174 0
153 170 0
151 169 0
155 175 0
152 169 0
148 168 0
152 169 0
151 170 0
153 171 0
148 167 0
157 175 0
155 175 0
153 172 0
157 177 0
152 172 0
151 170 0
150 169 0
151 168 0
154 172 0
157 175 0
164 181 0
159 178 0
151 171 0
154 170 0
160 179 0
154 174 0
155 173 0
157 176 0
157 177 0
151 171 0
158 178 0
152 171 0
159 176 0
154 175 0
154 171 0
159 177 0
159 178 0
155 174 0
159 181 0
160 178 0
163 181 0
159 179 0
157 176 0
157 175 0
157 175 0
164 185 0
155 175 0
161 181 0
162 183 0
159 179 0
158 176 0
167 186 0
162 181 0
157 176 0
155 175 0
165 184 0
167 186 0
160 180 0
163 181 0
154 173 0
159 180 0
162 182 0
161 181 0
160 182 0
162 180 0
158 177 0
161 181 0
162 182 0
162 182 0
160 180 0
169 189 0
162 181 0
166 186 0
162 181 0
162 182 0
163 180 0
164 185 0
164 184 0
164 183 0
164 184 0
159 177 0
164 185 0
167 187 0
165 186 0
164 183 0
166 187 0
157 177 0
163 183 0
160 181 0
164 185 0
168 190 0
164 185 0
178 204 169
177 204 175
171 197 159
177 203 171
175 200 144
176 202 159
176 202 159
177 203 163
176 202 167
175 200 157
182 207 186
175 200 149
179 205 167
175 200 161
178 204 167
176 202 177
174 200 161
177 203 163
181 206 181
180 205 181
182 206 189
178 203 165
182 207 186
176 202 181
185 210 193
181 205 193
179 205 182
183 207 177
180 205 188
181 206 182
181 204 153
180 205 182
182 206 184
184 208 189
180 205 191
182 207 196
183 207 198
181 206 184
180 205 186
180 203 173
182 206 182
176 202 175
178 203 188
181 206 188
180 204 181
184 208 189
185 210 191
182 207 184
184 209 203
181 205 189
181 205 189
175 200 186
173 198 171
178 202 194
179 203 194
179 203 199
178 201 177
173 197 165
176 199 174
179 203 180
181 204 194
178 202 195
175 199 187
171 194 178
183 206 194
173 197 176
177 202 183
180 204 183
179 202 193
180 203 186
176 199 173
183 206 182
175 198 186
182 204 182
171 194 169
179 202 188
183 205 198
177 199 184
174 197 193
173 195 188
173 195 175
173 195 181
182 204 188
176 197 184
176 197 175
180 200 193
181 202 201
177 198 191
170 191 185
170 192 167
172 195 175
163 184 155
165 186 155
166 188 164
168 188 161
167 187 156
166 187 170
168 190 166
168 190 161
165 185 155
165 185 151
162 182 161
163 183 161
174 194 171
150 169 161
152 172 181
154 174 165
144 164 154
151 172 169
151 172 165
157 177 178
160 179 187
149 168 157
157 176 164
165 183 185
154 175 157
155 173 171
158 178 181
164 182 181
147 167 157
164 182 184
153 172 167
160 179 174
150 169 164
148 168 159
149 170 158
140 159 155
151 170 161
154 173 150
157 171 155
153 161 137
154 160 141
140 149 106
108 131 97
92 119 114
106 132 103
108 134 114
106 132 105
106 131 99
101 126 95
100 125 91
100 122 96
99 118 99
90 106 85
88 108 92
75 102 99
63 94 105
63 94 110
63 92 94
66 94 96
93 115 87
86 111 78
54 86 87
51 82 87
53 84 95
55 87 94
54 86 95
54 86 99
55 88 94
53 85 80
54 86 92
54 85 99
55 87 92
55 87 105
54 86 84
55 87 103
56 89 103
55 87 102
56 89 106
56 89 100
55 87 101
53 84 86
55 87 99
55 87 77
55 88 101
55 87 100
54 87 87
55 88 94
56 88 102
56 88 109
56 88 102
57 89 107
54 86 92
55 87 92
57 90 103
56 88 107
55 87 108
56 89 100
57 90 107
55 87 107
57 90 111
56 89 108
55 88 111
57 90 110
55 87 90
55 88 111
55 87 107
56 89 110
57 90 114
55 87 103
55 87 95
55 87 88
55 88 100
53 85 88
55 87 103
56 89 108
56 88 108
56 88 107
52 82 94
52 82 80
52 83 86
52 82 92
52 82 94
68 91 78
77 94 36
106 120 0
101 115 0
90 104 0
107 122 0
115 131 0
103 117 0
112 127 0
99 113 0
110 125 0
106 120 0
108 123 0
106 121 0
116 133 0
118 134 0
105 121 0
105 121 0
119 136 0
111 128 0
106 123 0
115 131 0
115 130 0
107 121 0
113 129 0
108 124 0
115 130 0
122 140 0
127 143 0
124 144 0
131 147 0
111 126 0
124 142 0
133 149 0
125 143 0
122 139 0
129 145 0
125 142 0
136 154 0
134 152 0
124 142 0
133 150 0
123 139 0
131 148 0
132 151 0
129 146 0
128 145 0
137 154 0
137 156 0
132 150 0
141 157 0
131 148 0
136 154 0
131 150 0
136 156 0
129 146 0
126 142 0
141 159 0
141 158 0
134 153 0
140 157 0
143 163 0
135 152 0
142 162 0
143 161 0
141 157 0
144 163 0
150 170 0
141 159 0
133 151 0
144 161 0
148 166 0
146 164 0
147 166 0
150 168 0
140 160 0
145 165 0
146 165 0
145 165 0
145 164 0
147 165 0
148 166 0
136 156 0
149 167 0
152 171 0
148 166 0
142 159 0
144 164 0
148 165 0
151 171 0
154 171 0
155 173 0
149 169 0
152 171 0
150 168 0
158 177 0
142 157 0
151 169 0
155 173 0
146 162 0
156 174 0
152 170 0
150 170 0
150 169 0
146 165 0
157 176 0
154 170 0
155 173 0
149 166 0
156 173 0
157 176 0
154 174 0
147 164 0
151 171 0
153 171 0
150 168 0
148 166 0
155 173 0
155 174 0
154 174 0
158 178 0
155 172 0
157 174 0
155 175 0
159 177 0
149 169 0
156 173 0
155 174 0
155 174 0
152 169 0
163 181 0
161 180 0
161 181 0
153 173 0
158 177 0
158 175 0
158 178 0
153 172 0
160 179 0
166 183 0
162 181 0
157 178 0
155 172 0
155 173 0
157 177 0
157 177 0
161 183 0
160 178 0
159 176 0
159 180 0
162 181 0
156 175 0
158 178 0
158 178 0
158 177 0
161 180 0
155 175 0
165 185 0
158 176 0
159 177 0
160 181 0
165 186 0
161 182 0
162 182 0
161 181 0
160 180 0
158 177 0
164 186 0
166 186 0
167 187 0
164 183 0
162 182 0
165 187 0
166 186 0
161 182 0
164 183 0
167 187 0
162 182 0
166 187 0
165 188 0
165 185 0
165 186 0
166 187 0
168 189 0
165 185 0
168 190 0
170 192 0
176 201 153
173 198 155
178 204 155
180 205 163
176 202 151
173 199 155
176 201 153
177 203 161
176 202 167
176 200 153
178 203 161
177 203 169
179 205 171
177 203 165
175 201 159
174 199 159
182 207 186
181 205 184
180 204 181
179 203 182
183 208 193
186 209 189
184 209 189
181 205 181
180 204 184
182 207 175
182 206 179
182 206 175
182 206 177
180 205 188
180 205 182
177 201 175
181 205 177
177 202 165
179 204 179
178 204 177
185 209 179
179 203 177
185 208 193
183 207 194
180 205 179
180 204 182
183 207 188
182 207 191
176 201 198
182 206 189
182 206 191
188 212 204
182 206 199
177 202 186
182 206 194
183 207 193
183 207 189
179 204 183
176 200 173
178 203 191
171 195 181
176 201 189
171 194 169
178 201 187
172 196 172
173 198 171
174 198 178
175 199 187
173 197 168
174 198 178
182 205 179
182 204 184
175 197 181
177 201 194
177 200 185
176 198 175
177 200 171
175 197 177
180 203 183
177 199 181
177 200 177
182 205 198
183 205 206
179 201 186
180 203 193
180 202 189
183 205 198
182 204 206
171 191 175
174 193 177
180 201 194
172 193 182
171 192 183
178 200 194
175 196 188
176 198 173
159 181 151
166 187 162
164 185 164
163 184 155
165 186 160
168 189 165
170 191 161
165 185 153
167 187 167
162 182 155
164 184 157
162 182 165
158 178 153
141 161 143
154 175 164
151 172 172
150 170 172
155 175 162
151 169 177
157 178 169
154 174 175
145 164 164
155 174 182
158 177 171
153 173 184
160 179 180
157 176 171
154 173 171
153 172 164
164 182 182
165 183 179
159 178 160
156 176 160
142 161 148
148 168 143
157 176 166
137 157 144
142 161 149
179 196 152
177 191 137
160 175 72
132 148 51
112 137 92
105 131 115
106 132 108
107 132 97
104 129 95
105 128 101
99 123 97
100 123 103
105 123 70
92 111 94
97 112 75
73 93 86
65 95 109
73 102 106
61 90 98
68 97 88
90 113 84
85 111 93
58 86 75
52 83 84
54 86 99
53 84 83
55 87 111
53 84 84
54 86 103
54 86 92
55 87 103
54 86 92
54 86 101
52 83 99
51 81 86
55 86 100
56 88 103
54 86 99
55 87 106
53 84 87
54 86 85
57 90 107
54 86 101
55 88 97
55 88 107
55 88 110
54 86 102
56 89 99
55 87 110
54 86 94
53 85 90
56 88 100
54 85 100
57 90 111
55 87 88
55 88 94
55 87 95
53 85 86
53 85 86
54 86 96
54 86 95
55 88 94
54 86 97
54 87 86
56 89 103
53 84 86
53 85 97
54 86 98
53 84 78
55 88 102
55 88 99
51 82 80
55 87 107
53 85 97
54 86 88
54 85 97
52 83 76
54 85 102
54 86 92
53 85 86
50 80 72
74 97 70
89 105 40
88 102 0
88 103 0
90 104 0
101 116 0
101 116 0
102 117 0
107 124 0
106 123 0
96 111 0
98 114 0
113 127 0
102 116 0
122 139 0
101 117 0
112 127 0
112 129 0
110 126 0
108 126 0
108 123 0
120 137 0
116 133 0
121 136 0
119 136 0
115 132 0
125 142 0
124 142 0
127 144 0
123 140 0
126 145 0
117 137 0
129 145 0
128 146 0
126 143 0
121 140 0
120 138 0
127 143 0
132 149 0
133 149 0
128 146 0
127 145 0
124 142 0
132 151 0
119 137 0
121 139 0
127 145 0
139 159 0
135 154 0
143 160 0
118 134 0
137 155 0
127 144 0
146 164 0
130 148 0
125 145 0
141 157 0
144 162 0
144 163 0
145 164 0
131 149 0
139 158 0
135 151 0
140 160 0
138 155 0
148 166 0
134 150 0
147 165 0
141 159 0
145 163 0
135 151 0
139 156 0
137 156 0
131 147 0
142 160 0
143 162 0
140 159 0
140 158 0
150 166 0
138 157 0
146 163 0
146 165 0
150 169 0
147 165 0
146 165 0
149 166 0
152 171 0
141 159 0
152 170 0
147 163 0
152 171 0
141 158 0
156 176 0
148 167 0
157 175 0
151 168 0
151 170 0
151 170 0
153 174 0
145 163 0
148 167 0
150 169 0
152 170 0
156 174 0
149 167 0
148 167 0
148 166 0
154 173 0
148 166 0
152 170 0
145 163 0
157 177 0
151 170 0
154 173 0
155 174 0
150 169 0
157 177 0
157 176 0
150 168 0
145 161 0
153 173 0
159 177 0
157 176 0
157 177 0
150 170 0
155 175 0
153 172 0
159 178 0
157 175 0
158 177 0
153 171 0
165 182 0
153 172 0
159 177 0
160 179 0
154 173 0
157 175 0
161 181 0
154 174 0
165 185 0
157 178 0
166 187 0
160 181 0
157 176 0
160 178 0
158 177 0
158 179 0
161 185 0
157 174 0
164 186 0
157 176 0
157 179 0
160 181 0
163 185 0
158 177 0
162 182 0
158 178 0
164 184 0
164 184 0
161 180 0
159 177 0
159 179 0
164 185 0
165 186 0
157 177 0
163 184 0
164 184 0
159 178 0
164 186 0
166 188 0
165 186 0
165 185 0
160 180 0
165 185 0
161 181 0
164 184 0
165 185 0
165 185 0
165 186 0
165 185 0
166 187 0
161 183 0
166 186 0
170 192 0
165 185 0
164 186 0
167 188 0
167 189 0
164 183 0
179 204 157
177 202 155
173 199 142
174 200 161
176 202 161
178 204 165
178 203 149
178 203 163
178 202 142
183 208 186
177 202 153
181 206 157
178 203 159
179 205 177
177 203 161
179 203 177
181 206 179
188 210 177
182 205 184
183 207 177
179 204 182
181 205 186
183 208 196
178 203 177
180 205 188
182 206 189
179 203 179
182 206 177
184 208 189
182 206 186
182 207 189
181 205 186
182 206 188
181 206 179
182 206 189
175 198 179
176 201 179
181 205 173
182 206 193
183 207 189
181 205 171
181 207 198
178 202 181
174 199 182
179 203 175
177 200 175
187 211 196
180 205 189
183 207 193
181 206 191
175 198 173
176 199 165
176 201 194
175 199 190
175 199 165
180 205 205
170 193 178
175 200 185
168 192 166
175 200 183
172 197 180
168 191 163
173 197 192
173 197 172
168 191 163
171 195 185
185 208 201
184 207 200
174 197 171
181 205 186
180 203 189
174 197 175
181 203 186
178 201 177
176 199 182
176 198 181
178 200 183
180 202 182
176 198 184
172 193 167
182 204 191
172 194 186
176 198 175
171 194 169
175 195 184
178 199 188
180 201 198
173 194 184
180 201 188
168 189 175
168 189 172
176 196 177
171 192 172
166 188 166
160 181 150
165 186 155
166 187 169
171 192 169
160 181 149
170 191 169
171 191 167
168 189 175
168 189 165
158 176 142
167 187 173
168 187 172
158 178 170
159 179 165
144 164 161
148 167 164
146 166 152
157 177 166
150 170 171
148 166 165
148 168 164
152 171 178
150 169 176
145 165 151
155 173 164
156 174 174
158 177 178
153 170 168
151 170 161
156 176 158
158 178 149
155 174 159
159 178 157
142 161 149
142 161 161
152 170 161
169 185 124
178 192 143
166 179 88
148 160 31
127 145 62
97 123 94
96 123 102
114 138 95
102 128 94
102 127 100
96 121 97
104 126 92
100 120 95
101 119 88
87 106 84
83 104 78
70 97 107
66 97 102
65 94 99
71 99 89
89 113 81
85 110 84
64 93 96
49 80 74
54 86 97
54 86 93
52 83 81
54 86 94
54 86 94
53 83 90
55 87 110
55 87 99
54 87 100
56 88 98
52 83 88
52 84 87
54 85 87
53 84 99
54 87 90
56 88 105
54 85 92
56 89 110
56 88 105
54 86 101
55 87 88
56 89 117
57 90 111
53 84 93
55 88 104
56 89 107
56 89 105
55 88 110
53 85 90
55 87 88
54 85 99
55 88 100
56 88 99
56 88 97
55 88 102
54 86 100
56 88 103
58 91 102
54 86 102
55 87 86
56 89 110
55 87 95
53 84 94
54 86 84
51 82 74
53 84 84
54 86 88
55 87 90
56 89 108
54 86 95
55 86 90
54 85 92
51 81 86
53 85 78
54 83 76
75 97 62
87 104 47
89 105 0
90 104 0
107 122 0
91 106 0
104 118 0
99 112 0
105 122 0
95 110 0
106 120 0
93 110 0
109 125 0
111 126 0
116 130 0
110 126 0
116 131 0
106 123 0
111 129 0
117 133 0
106 123 0
109 126 0
115 130 0
123 141 0
124 143 0
112 129 0
124 142 0
110 126 0
111 128 0
122 139 0
132 150 0
130 147 0
125 143 0
135 152 0
121 136 0
117 135 0
135 152 0
127 144 0
120 137 0
122 140 0
130 148 0
122 140 0
136 153 0
110 127 0
134 154 0
125 144 0
134 153 0
133 152 0
131 149 0
132 149 0
128 144 0
133 152 0
139 157 0
141 158 0
132 149 0
123 142 0
134 153 0
141 159 0
139 157 0
139 159 0
137 154 0
145 165 0
136 155 0
142 158 0
142 159 0
137 155 0
140 158 0
142 160 0
142 161 0
140 157 0
143 162 0
149 167 0
148 169 0
147 167 0
149 168 0
143 163 0
149 168 0
143 161 0
145 166 0
154 173 0
153 173 0
141 158 0
143 161 0
147 168 0
148 166 0
153 174 0
144 163 0
146 164 0
144 162 0
142 161 0
153 171 0
148 166 0
152 172 0
149 167 0
147 165 0
153 171 0
150 168 0
151 169 0
152 169 0
156 175 0
143 162 0
152 172 0
150 172 0
155 173 0
153 172 0
149 168 0
146 164 0
152 171 0
147 165 0
157 176 0
154 172 0
155 174 0
157 176 0
157 177 0
148 166 0
148 167 0
156 175 0
159 179 0
148 169 0
150 168 0
156 174 0
148 163 0
161 181 0
159 177 0
157 177 0
162 183 0
159 178 0
157 176 0
151 171 0
156 176 0
159 179 0
160 180 0
155 174 0
159 180 0
156 175 0
160 179 0
156 176 0
159 180 0
160 178 0
156 177 0
160 179 0
160 180 0
159 180 0
161 180 0
158 178 0
158 177 0
153 172 0
160 178 0
160 180 0
161 179 0
156 175 0
160 180 0
157 177 0
165 185 0
159 178 0
165 184 0
160 181 0
163 182 0
160 179 0
156 175 0
157 178 0
158 178 0
161 182 0
157 178 0
158 178 0
165 186 0
160 177 0
161 181 0
163 184 0
162 183 0
160 180 0
164 186 0
161 182 0
162 181 0
167 187 0
163 183 0
168 189 0
170 191 0
164 185 0
161 179 0
165 186 0
169 188 0
164 185 0
162 183 0
165 185 0
166 188 0
165 186 0
160 178 0
167 188 0
164 183 0
165 184 0
176 202 157
176 200 140
177 203 159
177 203 157
177 202 159
178 203 169
176 201 161
179 203 157
181 206 175
183 209 182
179 205 159
180 204 157
179 203 144
182 207 179
181 206 173
188 211 214
176 201 163
185 208 194
177 202 165
182 208 181
184 207 173
183 206 179
182 207 177
184 208 186
184 208 189
181 206 188
184 208 184
183 207 184
180 204 181
185 210 203
179 204 171
180 204 181
181 205 186
178 202 181
182 206 188
174 196 165
184 208 191
184 210 196
182 206 179
179 204 186
181 206 188
181 204 169
180 204 186
176 200 177
180 205 184
181 206 196
183 207 191
181 206 198
178 202 173
181 205 184
178 202 177
180 204 188
175 200 170
172 197 181
175 198 183
169 192 174
168 193 176
173 198 185
171 196 174
177 201 186
176 200 182
171 195 181
175 199 180
176 201 206
173 197 169
172 195 177
177 201 177
181 205 189
182 207 199
179 201 186
175 198 182
182 205 193
186 209 211
182 205 193
181 203 199
176 198 179
180 201 180
177 199 184
180 203 186
181 203 191
172 194 163
183 205 177
175 197 188
179 202 193
181 202 201
178 199 182
182 204 198
174 195 175
169 189 180
176 197 182
168 189 176
170 189 182
174 195 181
176 197 179
169 190 171
168 189 173
163 183 151
171 191 169
165 186 159
162 182 158
170 190 159
158 178 147
158 178 137
152 170 130
165 185 165
161 180 157
157 175 142
159 177 173
154 173 174
156 176 170
159 179 175
156 176 177
141 162 154
151 171 176
161 179 180
157 176 182
164 183 186
159 177 178
157 175 176
165 183 189
156 174 169
161 178 173
154 173 157
151 170 153
150 168 163
153 172 155
162 181 156
146 164 148
137 157 137
139 158 147
176 193 144
178 192 136
160 175 51
147 159 31
149 163 18
116 138 95
100 126 105
111 136 80
104 128 90
107 131 101
101 126 94
91 116 99
102 124 93
101 120 84
98 116 78
88 108 86
87 110 89
63 93 101
65 95 92
55 87 86
84 106 72
104 125 65
62 90 88
52 83 80
54 86 88
53 84 92
51 81 85
52 82 76
52 83 86
52 83 79
53 84 90
49 79 86
54 85 92
52 83 74
54 85 84
51 82 86
54 86 76
55 86 97
53 84 82
50 80 70
52 83 86
56 88 100
55 88 86
52 83 86
55 87 107
54 86 84
55 87 95
53 84 82
53 84 93
52 83 90
54 85 90
55 87 100
51 82 80
56 88 103
52 83 74
52 83 80
54 86 90
56 89 107
52 83 78
55 87 96
55 88 95
55 88 107
52 83 94
55 87 99
55 87 95
51 82 92
53 84 84
57 90 108
52 83 82
52 83 88
53 83 92
53 84 92
51 81 78
53 84 97
53 83 102
48 78 70
59 84 70
67 86 47
89 104 0
88 102 0
87 102 0
106 122 0
91 106 0
91 106 0
103 116 0
101 116 0
82 97 0
110 126 0
102 116 0
112 129 0
113 127 0
121 138 0
110 128 0
100 115 0
112 129 0
109 126 0
114 129 0
112 127 0
109 124 0
115 131 0
104 119 0
110 126 0
116 131 0
121 139 0
105 123 0
116 134 0
114 132 0
121 138 0
125 142 0
122 138 0
129 146 0
120 137 0
123 140 0
128 145 0
114 132 0
126 143 0
131 150 0
134 153 0
123 139 0
136 155 0
117 134 0
134 153 0
124 143 0
129 147 0
125 144 0
132 150 0
133 152 0
135 152 0
127 145 0
131 151 0
134 150 0
126 144 0
140 158 0
132 151 0
133 151 0
136 155 0
133 150 0
126 144 0
140 161 0
139 158 0
141 161 0
135 153 0
135 154 0
139 158 0
140 160 0
135 154 0
140 159 0
144 163 0
139 160 0
135 155 0
147 167 0
146 166 0
137 157 0
138 158 0
143 164 0
148 168 0
142 161 0
149 168 0
152 171 0
145 164 0
144 164 0
153 172 0
148 167 0
148 167 0
148 168 0
155 174 0
151 170 0
153 174 0
153 172 0
154 174 0
154 174 0
133 152 0
151 170 0
157 176 0
146 164 0
149 169 0
151 171 0
149 166 0
150 169 0
151 170 0
159 178 0
147 165 0
155 175 0
154 174 0
151 172 0
149 168 0
154 174 0
148 166 0
152 170 0
153 171 0
159 178 0
161 180 0
150 169 0
141 159 0
158 178 0
155 174 0
152 169 0
159 180 0
155 174 0
151 169 0
157 177 0
150 169 0
161 181 0
157 175 0
162 183 0
157 176 0
159 180 0
156 176 0
160 178 0
160 180 0
158 177 0
151 172 0
161 182 0
161 180 0
154 173 0
158 175 0
162 183 0
158 177 0
159 179 0
162 181 0
156 176 0
163 184 0
159 177 0
161 181 0
162 183 0
158 179 0
157 178 0
163 183 0
165 187 0
164 185 0
159 180 0
154 173 0
164 184 0
164 186 0
163 182 0
156 175 0
162 181 0
161 182 0
164 185 0
162 183 0
163 184 0
159 180 0
163 183 0
161 183 0
155 175 0
163 184 0
161 182 0
167 188 0
158 178 0
161 181 0
163 186 0
167 187 0
161 181 0
165 185 0
157 177 0
167 188 0
164 184 0
164 185 0
163 183 0
171 192 0
162 185 0
161 182 0
168 189 0
165 185 0
163 185 0
162 180 0
159 179 0
168 190 0
168 189 0
162 183 0
179 205 163
176 201 153
179 204 149
180 206 171
179 204 171
178 203 167
174 198 144
178 202 157
176 202 159
175 200 165
179 202 161
179 204 175
184 208 193
181 205 182
187 211 203
185 209 198
185 209 188
183 207 186
184 207 186
178 203 173
184 208 193
182 207 198
179 203 171
183 208 191
185 208 194
184 207 189
184 208 182
184 209 191
183 207 184
181 205 179
178 203 182
179 203 161
180 206 182
173 197 171
187 211 196
182 206 181
180 203 182
181 206 194
181 205 171
182 207 184
184 209 184
178 202 175
182 206 177
182 206 182
182 207 204
179 202 189
178 202 188
175 200 182
181 206 186
180 204 188
183 207 190
174 198 186
175 199 183
175 199 181
176 201 184
172 198 181
172 196 179
175 199 179
181 206 191
165 188 170
178 203 184
161 185 165
172 196 164
174 198 181
178 201 189
178 202 191
174 198 166
179 203 188
176 200 188
176 199 181
177 200 188
175 198 192
190 214 209
177 200 193
175 198 188
178 201 171
176 199 171
180 202 191
185 206 198
177 199 181
184 207 198
176 197 177
174 195 182
182 205 191
171 193 175
169 191 171
186 207 201
184 204 203
180 202 189
180 200 190
181 201 194
180 201 190
180 200 196
181 201 199
177 198 191
170 191 168
175 196 182
169 189 163
173 193 181
166 187 159
175 194 175
174 194 181
167 188 155
160 179 157
169 189 147
171 191 179
157 176 144
161 180 151
163 181 167
147 166 164
149 169 169
155 175 173
152 172 166
147 166 155
148 168 160
148 168 167
154 173 167
154 173 169
159 177 171
146 165 160
156 175 175
149 167 160
152 171 160
151 170 145
159 178 153
159 178 154
153 172 157
162 180 166
153 172 151
152 170 148
157 174 134
172 186 135
154 170 25
150 165 25
140 154 36
139 153 31
106 130 100
100 125 99
92 118 90
102 126 99
116 139 80
103 126 84
108 130 92
103 122 82
95 113 70
92 113 88
96 116 74
79 104 84
55 85 82
66 94 94
74 99 92
99 123 82
77 102 80
52 83 82
49 79 65
53 84 89
52 83 72
53 84 78
51 82 78
51 82 72
54 87 95
52 82 87
52 83 90
54 87 92
49 79 64
53 85 93
54 86 92
54 86 93
52 83 90
55 87 84
55 87 95
56 88 94
54 85 94
54 85 91
53 85 82
51 81 80
55 87 95
54 85 97
56 88 102
54 85 92
54 86 90
55 88 94
55 86 107
55 88 98
54 86 92
52 82 78
53 84 82
54 86 86
52 83 90
53 85 95
54 85 97
53 84 94
52 82 97
54 85 92
51 81 80
52 83 86
52 83 95
52 82 80
52 83 88
53 84 100
52 82 90
52 84 74
51 81 88
50 77 60
81 100 62
83 100 0
87 102 0
84 97 0
98 113 0
99 114 0
93 108 0
99 113 0
94 110 0
91 106 0
101 115 0
102 118 0
97 111 0
96 112 0
102 118 0
112 129 0
101 118 0
106 121 0
117 133 0
110 126 0
119 136 0
115 131 0
106 123 0
108 126 0
118 135 0
118 135 0
113 131 0
116 133 0
120 137 0
113 131 0
115 133 0
103 120 0
122 139 0
117 135 0
125 144 0
130 149 0
124 143 0
129 147 0
126 144 0
130 147 0
125 142 0
127 146 0
132 151 0
136 155 0
127 145 0
144 162 0
121 140 0
122 138 0
132 150 0
142 162 0
137 155 0
127 145 0
135 153 0
138 157 0
134 154 0
130 148 0
132 151 0
135 153 0
148 167 0
135 152 0
141 162 0
132 149 0
141 160 0
136 154 0
136 153 0
143 160 0
134 152 0
146 166 0
148 167 0
142 162 0
136 154 0
144 162 0
141 161 0
140 159 0
137 154 0
137 157 0
142 161 0
149 168 0
143 161 0
152 173 0
150 169 0
151 170 0
148 166 0
142 163 0
142 162 0
149 170 0
148 168 0
153 171 0
150 170 0
146 165 0
152 172 0
157 175 0
152 170 0
150 168 0
137 155 0
147 165 0
155 174 0
150 169 0
151 170 0
154 172 0
146 166 0
152 171 0
149 169 0
158 177 0
148 168 0
149 168 0
149 168 0
150 167 0
141 160 0
149 169 0
155 174 0
158 179 0
149 169 0
158 178 0
150 168 0
155 177 0
154 173 0
152 171 0
153 171 0
157 177 0
156 175 0
146 165 0
156 177 0
154 176 0
154 173 0
154 173 0
160 178 0
156 175 0
157 175 0
157 177 0
152 172 0
156 175 0
160 178 0
156 174 0
163 182 0
157 177 0
151 170 0
159 179 0
160 178 0
156 177 0
156 176 0
156 175 0
155 175 0
158 177 0
159 179 0
164 183 0
158 177 0
163 183 0
159 180 0
155 173 0
157 176 0
156 174 0
158 177 0
164 183 0
160 180 0
157 176 0
164 185 0
162 181 0
160 179 0
162 181 0
160 180 0
158 179 0
166 187 0
163 182 0
161 183 0
152 171 0
163 182 0
161 181 0
159 180 0
164 185 0
166 186 0
164 185 0
164 185 0
160 180 0
165 186 0
165 184 0
163 181 0
159 179 0
164 185 0
159 180 0
162 181 0
165 186 0
164 186 0
164 185 0
161 182 0
161 183 0
162 182 0
168 189 0
161 182 0
166 189 0
166 186 0
163 185 0
165 185 0
163 184 0
164 184 0
171 193 0
178 203 151
177 203 157
178 204 163
180 205 177
176 201 153
180 204 163
178 204 175
176 201 159
178 203 153
181 205 165
182 206 171
184 209 186
184 208 181
182 206 179
182 207 184
184 209 193
181 206 175
181 206 179
182 206 189
182 207 182
183 206 179
179 203 175
180 206 196
183 208 194
182 206 177
177 202 175
182 207 177
184 209 196
179 204 189
173 198 165
182 207 191
182 207 189
181 204 171
180 204 188
178 201 182
183 207 181
185 209 193
177 202 182
185 208 193
178 202 179
181 205 198
179 203 188
178 203 194
183 206 181
179 204 182
182 207 201
179 203 188
174 199 184
184 208 189
178 203 189
178 202 185
174 198 160
176 200 167
172 197 182
173 197 174
180 203 196
172 196 180
177 202 192
176 199 181
177 202 199
180 203 181
169 193 184
177 202 183
176 200 190
175 199 176
176 200 191
170 194 191
167 191 177
176 199 187
173 196 177
174 196 169
176 200 186
171 194 171
174 197 182
180 202 196
181 204 186
177 199 194
182 204 186
185 206 191
182 205 198
176 198 177
167 189 175
180 202 177
174 195 193
178 199 186
173 195 181
173 194 179
179 201 188
178 199 193
177 198 183
171 192 173
177 197 175
174 194 170
172 192 184
174 194 189
170 190 178
173 193 176
165 185 165
162 182 161
162 182 159
165 184 167
175 195 181
166 186 171
162 182 151
165 183 169
170 189 163
162 181 159
160 179 151
161 178 160
164 182 170
145 166 158
147 167 153
156 175 168
149 168 162
140 159 147
149 169 160
158 177 178
158 176 179
161 179 181
161 179 180
152 170 156
165 183 171
144 165 159
162 181 158
151 170 150
151 170 150
156 175 153
154 173 146
159 178 161
140 160 155
138 156 126
173 190 105
145 159 47
150 164 25
158 176 18
143 160 25
136 153 36
103 127 90
104 129 95
101 126 84
98 121 105
101 124 82
97 120 84
107 124 88
94 115 76
99 119 74
109 127 67
94 117 78
73 101 88
61 91 86
83 106 76
86 110 86
89 114 86
51 80 76
48 77 71
52 83 90
52 84 78
51 81 76
51 82 83
52 83 80
51 81 77
52 83 86
53 84 87
53 84 91
52 82 72
52 83 76
50 79 74
53 85 86
52 83 89
52 82 85
54 85 101
49 79 73
53 84 88
53 84 88
56 88 108
53 84 90
52 83 84
55 87 100
54 86 90
56 88 102
54 86 95
53 84 80
56 89 97
52 83 80
53 84 94
54 86 90
51 82 86
52 82 86
50 81 82
51 81 82
55 87 102
54 86 97
51 81 57
55 86 99
52 84 97
53 83 102
51 82 76
51 81 82
53 84 86
49 79 76
61 86 67
74 93 40
91 107 25
92 106 0
100 113 0
94 108 0
83 96 0
96 110 0
93 108 0
92 109 0
106 122 0
90 105 0
98 115 0
114 129 0
96 113 0
105 119 0
95 110 0
96 112 0
119 134 0
108 123 0
96 112 0
106 123 0
111 128 0
113 129 0
102 119 0
107 124 0
119 136 0
113 129 0
106 121 0
118 134 0
123 140 0
117 132 0
130 147 0
117 135 0
125 142 0
124 142 0
124 143 0
134 151 0
118 135 0
131 149 0
116 132 0
123 141 0
126 145 0
114 130 0
132 151 0
132 150 0
130 149 0
138 156 0
122 140 0
127 144 0
140 159 0
125 143 0
128 145 0
133 152 0
127 144 0
121 140 0
125 144 0
134 154 0
134 152 0
138 156 0
136 155 0
130 149 0
132 151 0
133 151 0
137 155 0
139 158 0
141 160 0
134 152 0
129 146 0
145 164 0
136 153 0
138 154 0
144 164 0
140 161 0
145 165 0
147 167 0
146 165 0
144 162 0
141 160 0
149 169 0
141 161 0
140 160 0
144 162 0
146 166 0
144 161 0
143 162 0
142 160 0
143 159 0
142 159 0
147 167 0
148 166 0
145 163 0
152 171 0
136 155 0
145 163 0
147 166 0
141 159 0
149 171 0
146 164 0
152 172 0
143 161 0
151 172 0
149 166 0
148 167 0
154 175 0
150 170 0
147 165 0
144 165 0
148 169 0
148 168 0
149 169 0
147 165 0
153 171 0
149 168 0
153 171 0
163 184 0
157 176 0
153 174 0
152 172 0
153 173 0
154 173 0
148 168 0
159 178 0
154 174 0
157 177 0
163 183 0
152 171 0
154 173 0
157 178 0
153 172 0
158 177 0
157 178 0
152 169 0
161 180 0
154 174 0
161 180 0
159 180 0
157 177 0
151 171 0
154 173 0
157 177 0
156 175 0
159 180 0
156 175 0
152 172 0
159 179 0
165 186 0
156 174 0
163 183 0
157 176 0
161 181 0
159 179 0
158 178 0
161 180 0
154 175 0
154 174 0
163 183 0
159 178 0
163 182 0
156 173 0
157 176 0
155 175 0
156 176 0
157 174 0
161 182 0
157 176 0
164 183 0
164 181 0
159 180 0
158 177 0
162 181 0
167 187 0
165 186 0
164 185 0
163 184 0
161 181 0
157 177 0
156 177 0
162 181 0
163 184 0
161 180 0
165 186 0
162 183 0
158 179 0
167 188 0
165 185 0
164 185 0
166 186 0
165 186 0
162 184 0
161 183 0
167 188 0
164 185 0
167 188 0
165 187 0
166 187 0
165 186 0
159 181 0
165 185 0
165 185 0
177 203 171
176 201 155
180 206 177
183 208 169
178 202 159
179 204 151
182 208 171
182 207 186
187 211 193
182 205 181
185 209 189
187 210 188
184 207 182
184 206 177
184 208 198
177 200 159
180 204 173
179 203 169
185 210 194
184 210 203
182 207 194
180 205 181
181 205 177
183 208 189
180 205 188
186 211 193
179 204 188
180 204 193
181 205 184
179 203 188
186 209 184
179 204 191
181 206 193
176 199 177
183 207 188
180 203 167
178 202 173
182 206 188
183 207 191
183 207 194
181 205 189
182 206 171
179 203 189
177 200 169
178 202 175
185 210 212
180 205 188
178 203 186
180 205 189
175 199 181
175 199 180
169 193 161
172 196 178
174 198 168
175 200 178
168 194 183
172 196 182
167 192 180
173 198 181
174 199 190
172 197 181
170 194 182
165 188 164
166 189 175
169 194 176
171 194 171
174 198 181
182 205 190
175 198 175
174 197 183
172 195 188
182 204 188
176 199 171
179 202 179
175 198 181
182 205 189
178 201 184
169 192 173
183 206 203
178 201 194
181 203 198
175 197 181
174 196 177
181 203 179
181 202 188
182 203 196
171 192 182
176 198 171
176 197 188
179 199 186
171 192 188
178 198 188
168 188 174
168 189 175
170 189 167
169 188 169
176 195 183
175 195 181
170 191 173
163 183 166
163 183 149
172 191 179
160 179 137
172 192 179
171 191 169
157 176 153
174 193 179
167 186 175
169 188 167
168 186 171
164 183 163
160 178 166
156 176 161
150 169 168
157 177 167
158 177 165
160 179 175
161 180 179
147 166 165
166 184 197
157 176 174
157 176 171
153 172 154
145 166 150
143 163 144
150 169 147
144 164 147
142 161 145
147 165 148
149 167 148
158 174 142
169 187 92
153 168 31
149 163 25
148 165 36
149 167 25
131 146 47
123 141 61
101 125 90
94 120 99
104 124 82
95 119 97
93 117 72
103 121 80
96 117 60
85 107 78
100 121 68
91 114 79
78 102 78
65 94 79
88 110 78
89 112 80
97 121 78
53 80 64
49 79 67
52 82 86
52 82 87
49 79 67
49 79 87
53 84 90
56 87 90
51 81 72
51 82 74
54 85 82
52 83 97
52 83 91
52 83 99
54 86 113
52 83 67
53 85 88
54 86 79
51 82 92
55 87 94
53 84 84
53 84 84
50 80 78
52 82 70
53 84 86
54 85 94
51 81 84
51 82 72
54 86 88
51 82 88
51 82 86
53 85 72
53 84 90
51 82 78
52 82 86
52 83 86
52 83 84
52 83 78
52 83 88
51 81 82
52 83 86
51 80 84
51 81 76
58 84 62
63 86 67
75 92 44
76 92 36
90 104 0
92 106 0
93 107 0
89 104 0
87 102 0
87 101 0
107 124 0
94 109 0
103 117 0
103 118 0
91 105 0
89 103 0
109 124 0
100 116 0
102 118 0
102 117 0
104 119 0
110 127 0
101 116 0
102 118 0
101 118 0
112 128 0
114 132 0
107 125 0
121 139 0
125 141 0
117 133 0
115 132 0
118 137 0
114 132 0
114 130 0
109 127 0
111 128 0
113 129 0
117 136 0
125 143 0
110 127 0
130 148 0
129 146 0
125 142 0
121 138 0
115 132 0
133 150 0
117 136 0
118 136 0
120 137 0
124 143 0
130 148 0
125 144 0
135 154 0
120 138 0
128 147 0
130 149 0
132 149 0
131 150 0
120 138 0
137 155 0
140 159 0
133 151 0
135 153 0
132 151 0
126 146 0
131 150 0
133 152 0
146 165 0
145 162 0
138 158 0
133 152 0
127 146 0
137 155 0
146 166 0
141 159 0
139 158 0
145 165 0
142 160 0
135 155 0
151 171 0
146 165 0
141 160 0
149 169 0
145 165 0
139 159 0
137 156 0
146 165 0
141 159 0
151 170 0
138 158 0
139 159 0
152 173 0
151 169 0
142 161 0
141 160 0
146 164 0
152 170 0
153 172 0
145 163 0
148 169 0
145 163 0
151 169 0
150 170 0
149 167 0
148 167 0
151 170 0
155 176 0
153 171 0
153 172 0
155 175 0
146 163 0
144 163 0
157 178 0
146 165 0
155 175 0
152 172 0
152 171 0
154 173 0
153 173 0
153 172 0
153 173 0
156 175 0
155 176 0
152 171 0
151 168 0
157 177 0
153 172 0
152 171 0
161 180 0
148 166 0
154 172 0
160 181 0
158 178 0
155 175 0
159 180 0
152 171 0
159 179 0
155 176 0
158 180 0
157 175 0
155 175 0
155 174 0
154 174 0
160 181 0
158 179 0
159 179 0
155 174 0
163 182 0
153 174 0
156 175 0
158 177 0
157 178 0
157 175 0
160 182 0
152 171 0
155 175 0
159 179 0
161 182 0
165 185 0
160 180 0
155 176 0
159 181 0
164 187 0
162 183 0
160 178 0
157 177 0
163 184 0
162 179 0
160 178 0
160 181 0
163 183 0
160 181 0
161 180 0
162 182 0
164 184 0
162 182 0
165 186 0
159 177 0
158 178 0
169 190 0
164 185 0
170 192 0
164 184 0
165 185 0
161 179 0
160 179 0
166 187 0
164 186 0
167 187 0
159 179 0
166 187 0
164 186 0
167 188 0
161 183 0
164 183 0
162 181 0
168 191 0
164 184 0
160 181 0
169 189 0
168 188 0
162 182 0
164 184 0
178 203 151
179 204 159
179 205 167
179 204 159
179 204 155
181 206 179
179 204 171
184 207 181
184 207 171
185 209 189
187 210 184
183 208 188
185 209 188
184 207 182
180 204 177
189 212 193
184 208 182
188 212 206
181 206 182
186 209 198
180 203 184
179 204 182
182 207 182
188 212 206
183 207 198
183 208 186
182 206 191
183 208 193
183 208 191
180 205 177
180 205 186
183 208 198
183 207 186
182 206 188
185 210 191
177 202 159
183 207 186
175 200 179
186 210 194
177 201 186
185 210 194
181 206 199
176 201 175
176 202 196
180 205 184
186 209 194
176 202 193
180 204 191
183 207 193
175 200 179
169 194 183
172 197 186
174 199 188
170 195 181
164 188 156
176 201 174
173 197 184
176 200 194
174 198 179
171 194 171
177 201 182
174 198 194
172 196 177
173 196 175
170 195 175
174 198 194
167 191 166
177 201 180
177 200 188
170 193 187
173 197 180
183 207 199
177 198 176
179 201 179
182 204 188
178 200 189
171 193 163
171 193 177
177 198 179
177 199 181
182 203 194
172 194 182
177 199 191
182 203 188
178 200 184
174 194 186
182 204 191
188 209 194
171 192 186
163 184 151
171 191 185
182 202 203
177 197 197
175 195 177
175 194 189
173 193 183
176 195 193
178 197 183
172 191 187
166 184 159
177 197 191
170 189 160
175 195 182
160 179 137
162 182 147
173 193 177
158 176 151
161 179 156
161 180 151
162 179 165
168 186 175
161 179 155
164 181 173
158 177 169
149 168 152
168 186 183
151 170 159
151 170 177
161 180 171
167 185 188
158 176 176
150 170 153
159 177 173
153 173 151
142 162 130
153 172 158
159 178 159
149 168 145
157 174 158
143 162 144
126 143 130
160 178 70
158 172 25
149 165 44
148 162 25
146 163 40
146 161 25
149 166 25
115 135 84
101 124 86
96 120 90
99 121 92
101 122 80
83 106 94
91 112 80
101 121 74
103 124 57
104 128 72
95 117 60
65 91 86
92 113 74
94 116 78
93 118 90
77 97 60
68 89 47
76 98 74
54 81 65
49 79 76
51 81 78
49 78 79
50 80 84
51 81 72
51 81 82
51 81 78
53 84 84
52 84 81
51 81 82
46 74 62
54 85 88
52 83 84
49 78 80
50 80 84
52 83 74
53 85 82
53 84 88
52 83 82
54 86 97
54 86 90
52 83 82
50 81 65
53 84 88
51 81 82
50 81 78
52 83 84
51 81 80
53 85 88
51 81 74
49 79 72
51 81 82
52 83 82
50 80 78
50 77 71
63 87 65
71 93 47
76 94 51
72 88 25
82 96 0
71 84 0
92 106 0
70 85 0
98 110 0
106 122 0
83 98 0
84 98 0
99 115 0
83 98 0
95 109 0
101 117 0
99 113 0
97 112 0
114 129 0
107 123 0
101 117 0
95 109 0
116 132 0
97 114 0
97 112 0
108 125 0
108 126 0
117 135 0
106 122 0
107 126 0
109 126 0
123 138 0
107 123 0
113 129 0
119 136 0
123 139 0
123 139 0
108 126 0
121 139 0
112 130 0
113 130 0
112 130 0
128 146 0
131 149 0
116 134 0
119 137 0
117 135 0
112 129 0
120 138 0
108 127 0
122 141 0
115 134 0
130 148 0
125 143 0
125 142 0
123 141 0
117 134 0
135 154 0
137 156 0
135 154 0
133 148 0
126 144 0
140 159 0
132 150 0
132 149 0
134 152 0
131 149 0
130 147 0
146 167 0
139 157 0
135 155 0
144 162 0
135 153 0
149 168 0
142 160 0
135 155 0
145 166 0
144 164 0
141 159 0
138 158 0
135 155 0
140 160 0
139 158 0
137 157 0
143 163 0
149 170 0
151 169 0
135 153 0
141 158 0
148 166 0
145 165 0
146 164 0
150 168 0
152 171 0
152 170 0
147 166 0
148 166 0
152 171 0
153 173 0
151 170 0
145 164 0
146 166 0
146 164 0
147 167 0
152 170 0
158 177 0
152 169 0
153 173 0
149 167 0
145 164 0
152 172 0
149 169 0
145 163 0
148 167 0
153 171 0
151 171 0
150 169 0
154 172 0
154 173 0
149 169 0
158 178 0
156 176 0
152 171 0
149 168 0
153 173 0
153 172 0
153 171 0
149 167 0
154 175 0
156 176 0
160 179 0
150 171 0
149 167 0
154 173 0
158 178 0
155 176 0
157 178 0
159 178 0
149 169 0
150 169 0
161 180 0
159 180 0
154 175 0
155 176 0
159 177 0
154 172 0
157 178 0
158 175 0
154 173 0
156 176 0
156 175 0
154 174 0
156 175 0
159 180 0
154 174 0
155 174 0
155 175 0
159 180 0
155 175 0
164 184 0
163 184 0
164 184 0
161 181 0
162 182 0
161 181 0
161 182 0
162 184 0
157 178 0
159 180 0
153 173 0
158 174 0
161 181 0
159 179 0
162 182 0
159 179 0
162 182 0
164 186 0
163 184 0
158 177 0
157 176 0
167 186 0
161 181 0
162 184 0
160 181 0
157 177 0
168 189 0
158 178 0
162 182 0
166 188 0
168 191 0
167 186 0
165 186 0
164 184 0
160 181 0
156 174 0
160 179 0
162 181 0
161 182 0
164 183 0
166 187 0
168 189 0
167 188 0
163 184 0
168 190 0
159 179 0
165 186 0
167 188 0
168 189 0
180 205 161
176 200 165
181 205 161
180 205 165
180 204 157
184 207 181
182 205 186
185 209 182
186 210 184
185 209 184
184 208 191
186 210 186
183 206 175
182 205 173
181 205 163
183 206 171
188 210 189
186 209 188
182 207 186
185 209 191
182 206 179
182 206 179
185 208 191
185 208 184
181 205 189
179 203 191
181 207 191
179 202 175
183 207 184
181 205 175
182 208 191
182 206 179
182 206 188
182 207 188
178 203 177
180 204 179
181 207 198
181 206 181
179 203 184
183 206 179
181 205 179
180 203 177
179 204 188
183 207 191
181 206 182
178 202 184
178 203 189
179 204 193
178 202 181
174 198 165
176 199 178
169 194 183
171 195 172
174 198 184
176 201 181
173 197 187
170 195 177
170 193 162
172 196 180
175 200 197
168 192 161
177 202 192
169 194 181
172 195 187
174 198 177
171 194 162
174 198 187
175 198 183
181 205 203
169 192 185
176 199 180
181 203 189
176 198 179
179 202 188
172 194 173
180 202 186
178 200 188
179 202 191
179 201 194
176 198 175
176 198 175
176 198 188
175 196 179
183 204 193
172 193 173
173 193 179
175 195 186
180 202 194
178 198 173
168 188 167
172 193 188
176 196 188
175 195 181
174 194 181
179 199 194
176 196 188
178 198 193
167 186 181
181 200 183
177 197 184
165 185 161
172 192 166
176 195 171
167 186 155
169 188 179
177 196 181
165 184 153
164 182 151
164 183 167
165 183 159
160 177 147
166 184 161
163 181 161
146 163 137
152 171 172
148 167 158
162 180 176
144 162 155
161 179 173
146 164 159
145 164 157
163 181 166
158 177 152
151 171 158
159 177 162
152 170 145
151 170 154
162 180 170
163 180 150
141 159 136
158 174 153
156 177 18
154 172 25
150 166 18
151 168 18
143 158 40
139 155 31
146 163 31
140 157 0
105 125 67
104 128 90
104 126 92
102 122 86
91 113 80
85 109 80
104 125 66
93 116 68
102 123 58
101 119 60
95 115 47
84 105 65
99 121 67
78 103 74
83 102 51
81 95 0
84 98 0
87 101 0
90 103 18
78 96 18
87 105 44
65 86 54
68 89 51
51 80 62
50 80 74
49 79 67
51 81 76
49 78 67
52 83 82
52 82 74
50 79 74
51 82 76
51 81 84
51 81 80
50 80 78
49 78 72
48 77 74
50 80 72
50 81 65
50 80 72
50 80 72
53 84 84
51 82 82
49 78 62
51 81 84
51 81 80
48 76 74
59 85 65
60 83 67
69 88 57
73 92 44
62 80 36
82 96 25
91 104 0
78 91 0
97 111 0
76 90 0
88 103 0
82 97 0
87 101 0
92 108 0
87 102 0
103 117 0
96 111 0
91 106 0
80 95 0
110 125 0
87 104 0
93 108 0
98 113 0
94 111 0
119 136 0
95 109 0
97 112 0
115 132 0
104 121 0
97 113 0
109 125 0
111 127 0
113 129 0
108 127 0
117 133 0
105 123 0
122 140 0
106 122 0
119 135 0
111 129 0
110 127 0
126 143 0
118 135 0
117 134 0
125 144 0
120 139 0
134 153 0
125 143 0
118 135 0
136 153 0
121 138 0
123 142 0
132 148 0
110 125 0
117 135 0
130 148 0
127 145 0
132 151 0
127 146 0
126 143 0
121 139 0
131 149 0
127 145 0
124 143 0
131 150 0
123 140 0
116 135 0
132 149 0
131 150 0
125 144 0
133 150 0
130 149 0
132 151 0
140 161 0
126 143 0
142 161 0
134 154 0
141 159 0
142 162 0
141 161 0
139 158 0
139 158 0
134 152 0
137 155 0
137 157 0
140 159 0
142 162 0
138 155 0
128 147 0
146 167 0
135 155 0
138 155 0
142 162 0
150 169 0
150 170 0
147 168 0
154 174 0
144 164 0
145 165 0
143 162 0
144 163 0
151 171 0
153 172 0
147 168 0
139 158 0
138 157 0
147 167 0
140 158 0
151 171 0
145 166 0
155 174 0
152 172 0
147 166 0
156 176 0
147 165 0
156 174 0
150 169 0
152 171 0
153 172 0
149 169 0
152 171 0
154 173 0
156 174 0
154 174 0
153 173 0
155 174 0
156 177 0
152 172 0
150 170 0
153 172 0
150 170 0
152 170 0
148 167 0
151 171 0
160 179 0
150 169 0
156 175 0
147 166 0
154 174 0
159 178 0
156 176 0
154 175 0
161 182 0
164 183 0
159 178 0
153 173 0
159 179 0
154 174 0
152 173 0
158 178 0
159 178 0
153 172 0
160 181 0
157 176 0
150 169 0
163 183 0
159 179 0
158 179 0
161 180 0
156 175 0
156 177 0
158 177 0
157 177 0
157 178 0
158 177 0
159 180 0
161 180 0
157 176 0
163 182 0
167 189 0
158 179 0
163 183 0
156 176 0
157 178 0
156 174 0
163 184 0
167 188 0
163 184 0
160 180 0
160 178 0
159 180 0
158 177 0
162 182 0
159 178 0
159 180 0
161 182 0
163 183 0
160 180 0
164 185 0
161 182 0
163 184 0
166 187 0
165 187 0
163 185 0
159 180 0
164 184 0
168 188 0
166 187 0
157 177 0
168 190 0
160 182 0
164 186 0
165 186 0
162 184 0
164 184 0
164 185 0
168 189 0
164 185 0
170 190 0
164 186 0
165 186 0
164 186 0
165 186 0
166 186 0
181 206 169
175 199 153
179 204 167
186 209 184
183 207 189
181 205 163
184 208 186
186 210 188
186 209 181
183 207 184
183 207 188
178 201 179
181 205 184
181 205 177
181 205 182
183 207 188
184 208 193
185 208 189
183 207 181
185 209 181
187 210 184
183 207 184
181 205 181
185 210 194
184 208 193
181 205 179
183 208 201
181 205 199
184 207 191
182 206 182
182 206 181
177 201 182
177 203 191
179 202 179
179 203 177
178 202 177
177 201 173
183 207 191
181 205 193
180 205 175
177 202 175
185 208 184
182 208 194
180 205 188
178 202 171
180 205 182
178 202 191
179 202 186
180 205 189
179 204 189
177 201 164
175 199 180
175 199 181
180 205 190
170 194 163
172 196 166
173 197 180
168 192 168
180 204 193
170 193 163
168 191 166
168 191 169
176 199 177
174 198 185
171 194 182
177 201 181
177 200 186
171 194 164
180 204 200
177 200 192
176 199 179
178 201 181
178 200 190
181 204 191
178 201 189
175 198 182
176 199 184
174 196 175
169 191 171
173 195 167
182 204 188
174 196 173
171 192 175
176 197 175
179 200 181
174 194 182
179 199 186
180 200 194
175 196 191
179 200 197
176 196 173
175 195 196
174 194 188
179 200 193
181 202 199
175 195 189
163 182 172
177 197 192
175 194 191
170 189 181
181 200 184
174 193 169
174 193 167
177 196 179
171 190 169
173 191 169
167 186 163
162 180 165
162 180 159
158 176 151
165 182 175
167 185 162
171 189 159
158 176 155
153 168 159
158 177 169
141 160 155
142 161 156
157 175 175
157 175 168
161 179 166
138 156 148
155 175 152
161 180 159
142 162 126
157 176 144
152 171 154
137 157 136
150 169 150
148 164 151
147 165 115
154 175 44
156 172 18
159 176 31
148 164 31
156 175 18
142 160 25
144 162 25
143 161 36
141 158 0
111 132 72
96 118 78
84 107 78
88 111 78
102 122 60
101 120 70
96 117 74
93 116 70
82 102 61
95 112 40
90 109 40
90 112 70
99 121 70
101 119 47
84 98 0
81 96 0
85 99 0
92 106 0
88 103 0
85 100 0
82 96 0
98 112 0
85 99 0
80 94 0
78 93 18
82 97 25
74 92 40
72 90 36
71 92 67
68 90 51
67 88 51
63 85 54
76 96 51
67 89 67
56 79 47
59 79 38
62 85 70
63 85 62
73 93 51
72 91 51
52 71 40
79 98 57
64 83 47
72 86 18
87 104 25
80 93 0
82 97 0
83 96 0
89 102 0
90 104 0
99 112 0
82 97 0
95 109 0
83 98 0
89 103 0
85 100 0
92 107 0
81 96 0
87 102 0
93 108 0
78 91 0
92 107 0
91 106 0
92 108 0
98 114 0
105 121 0
106 122 0
104 121 0
103 119 0
103 120 0
103 118 0
102 116 0
114 130 0
105 121 0
115 131 0
107 126 0
108 124 0
123 141 0
110 126 0
111 128 0
110 125 0
117 135 0
112 129 0
115 132 0
111 130 0
119 138 0
105 122 0
124 141 0
123 142 0
114 131 0
106 123 0
121 139 0
123 139 0
113 131 0
118 135 0
127 145 0
121 139 0
128 147 0
121 138 0
127 144 0
131 150 0
125 143 0
123 140 0
122 140 0
129 146 0
129 149 0
124 142 0
127 146 0
134 153 0
137 155 0
127 145 0
140 159 0
132 151 0
130 150 0
130 149 0
136 154 0
135 155 0
130 148 0
142 160 0
140 159 0
146 165 0
137 156 0
142 162 0
132 151 0
135 152 0
139 160 0
141 160 0
145 166 0
144 166 0
136 155 0
145 164 0
136 155 0
142 161 0
134 153 0
144 163 0
142 161 0
144 163 0
142 160 0
141 158 0
137 155 0
143 162 0
152 170 0
139 156 0
143 162 0
149 167 0
147 166 0
146 165 0
147 166 0
141 159 0
147 167 0
150 169 0
143 164 0
141 159 0
148 169 0
146 167 0
148 167 0
146 166 0
153 173 0
143 163 0
150 170 0
144 163 0
151 172 0
143 163 0
156 176 0
153 173 0
147 167 0
157 177 0
157 178 0
150 170 0
149 169 0
156 175 0
155 176 0
154 173 0
150 169 0
156 177 0
156 177 0
158 178 0
156 175 0
150 170 0
150 168 0
155 176 0
159 177 0
159 179 0
155 174 0
152 171 0
151 170 0
152 171 0
151 171 0
150 169 0
153 172 0
156 177 0
152 172 0
159 180 0
156 175 0
154 175 0
157 177 0
154 173 0
159 179 0
159 180 0
161 181 0
155 176 0
155 174 0
156 176 0
161 182 0
159 180 0
162 183 0
162 183 0
157 178 0
159 181 0
162 184 0
161 181 0
159 177 0
164 186 0
165 186 0
162 183 0
161 180 0
158 179 0
160 182 0
158 178 0
157 177 0
167 186 0
159 179 0
162 181 0
160 179 0
165 186 0
161 182 0
160 180 0
162 182 0
165 185 0
160 181 0
164 185 0
159 180 0
159 179 0
164 184 0
162 183 0
162 184 0
160 181 0
165 185 0
163 183 0
165 187 0
164 184 0
162 182 0
160 181 0
160 180 0
164 185 0
165 185 0
160 180 0
167 187 0
167 189 0
166 188 0
163 185 0
161 182 0
165 185 0
166 186 0
165 186 0
164 186 0
166 187 0
164 185 0
162 184 0
168 189 0
179 204 167
176 201 159
184 208 188
182 205 182
186 209 186
188 212 193
186 209 189
184 208 182
184 208 186
184 208 186
184 208 188
186 209 175
183 207 188
184 207 193
183 208 186
181 205 179
183 207 196
188 211 198
182 205 171
182 206 173
179 203 173
185 209 189
183 207 182
186 210 188
186 209 194
179 204 184
181 205 186
182 207 186
186 209 191
180 205 175
186 210 204
179 203 169
181 205 175
180 204 181
185 209 203
178 203 184
174 198 181
183 207 191
183 206 175
177 202 175
182 206 196
180 205 182
179 204 173
180 204 184
181 206 193
176 200 173
176 201 171
180 203 175
180 204 181
176 200 181
174 200 184
174 198 169
173 198 168
176 201 178
169 194 175
173 197 176
177 201 179
178 202 186
175 199 188
172 196 187
173 197 175
170 194 182
172 196 177
171 195 173
172 196 175
176 201 188
170 194 184
174 198 185
168 191 182
176 199 192
170 194 174
171 193 171
179 202 179
177 199 179
179 201 186
175 198 188
177 200 184
179 202 173
181 202 184
172 194 177
171 193 182
175 196 177
179 201 184
186 207 189
179 200 193
174 194 181
174 195 181
170 191 186
184 205 203
175 195 182
178 198 181
172 192 190
179 200 188
174 195 187
169 189 183
179 199 194
160 179 167
184 203 198
171 190 173
186 204 205
176 195 187
180 198 184
171 190 173
166 185 165
160 179 159
173 192 182
171 190 169
154 173 137
155 174 137
173 191 173
167 185 160
163 181 161
150 167 144
160 177 155
167 184 179
167 183 165
168 185 184
158 177 163
145 164 148
146 164 161
152 171 154
149 167 162
163 182 159
159 177 158
144 163 147
159 178 158
159 178 145
161 179 167
158 177 156
156 172 160
140 161 108
141 160 36
159 177 40
152 167 0
144 162 36
146 163 25
141 160 25
141 157 18
147 166 0
137 153 18
140 158 18
114 135 60
101 123 78
99 120 67
94 117 65
102 122 72
96 116 62
106 127 70
97 117 58
97 114 36
98 115 18
86 107 54
88 112 80
84 103 40
93 107 0
93 109 0
103 119 0
81 95 0
107 122 0
89 104 0
90 106 0
86 99 0
83 97 0
83 97 0
88 102 0
93 106 0
93 107 0
92 106 0
72 84 0
93 107 0
86 100 0
70 84 0
82 96 0
92 106 0
87 102 0
99 113 0
89 104 0
72 84 0
93 108 0
96 110 0
81 95 0
86 100 0
88 101 0
88 102 0
95 108 0
96 111 0
81 96 0
95 109 0
91 105 0
95 109 0
90 102 0
89 103 0
91 106 0
91 106 0
88 101 0
87 102 0
97 113 0
93 109 0
99 115 0
97 111 0
105 121 0
95 111 0
95 110 0
108 123 0
108 124 0
97 112 0
92 107 0
108 124 0
103 119 0
112 128 0
106 123 0
114 131 0
106 122 0
118 134 0
114 132 0
110 126 0
109 127 0
119 136 0
104 120 0
114 131 0
107 124 0
119 134 0
112 130 0
116 131 0
109 125 0
110 126 0
116 134 0
115 133 0
117 135 0
115 133 0
121 139 0
113 130 0
113 130 0
117 135 0
116 134 0
113 130 0
125 144 0
133 151 0
123 141 0
128 145 0
134 153 0
128 146 0
124 143 0
129 148 0
130 147 0
131 150 0
132 149 0
129 147 0
134 154 0
123 140 0
136 157 0
133 152 0
143 163 0
134 154 0
142 160 0
131 150 0
138 156 0
135 153 0
130 149 0
132 151 0
134 154 0
136 155 0
137 156 0
140 158 0
141 159 0
140 160 0
138 159 0
136 154 0
136 155 0
140 159 0
142 162 0
144 163 0
142 161 0
140 160 0
149 170 0
140 160 0
145 164 0
146 165 0
143 164 0
147 165 0
143 160 0
145 165 0
146 166 0
147 168 0
146 166 0
140 161 0
145 164 0
151 171 0
150 170 0
141 160 0
146 165 0
152 170 0
155 175 0
141 160 0
152 172 0
153 172 0
147 165 0
148 166 0
150 170 0
152 170 0
145 163 0
154 173 0
151 169 0
153 173 0
153 172 0
154 173 0
149 170 0
155 175 0
154 175 0
158 179 0
153 172 0
153 173 0
154 175 0
162 183 0
161 181 0
157 175 0
153 175 0
152 171 0
154 173 0
157 177 0
155 174 0
157 174 0
157 178 0
153 171 0
154 174 0
148 168 0
154 172 0
153 174 0
153 171 0
156 177 0
154 172 0
158 180 0
161 183 0
154 172 0
154 173 0
157 178 0
159 180 0
155 175 0
162 183 0
161 180 0
160 179 0
160 181 0
159 180 0
159 179 0
155 174 0
156 175 0
159 180 0
155 174 0
161 181 0
160 180 0
154 174 0
162 183 0
162 182 0
164 185 0
161 181 0
158 178 0
161 182 0
158 176 0
156 176 0
156 177 0
161 181 0
161 178 0
158 178 0
161 182 0
162 180 0
163 182 0
160 183 0
165 186 0
162 183 0
163 185 0
162 182 0
162 184 0
162 181 0
164 184 0
165 186 0
165 186 0
167 187 0
163 184 0
165 185 0
164 183 0
161 182 0
158 179 0
163 182 0
166 187 0
163 184 0
169 192 0
163 184 0
167 187 0
162 183 0
167 188 0
165 187 0
162 181 0
162 183 0
160 181 0
165 186 0
167 188 0
166 187 0
166 187 0
165 186 0
166 188 0
180 204 153
187 210 194
186 210 184
185 207 182
188 212 188
184 208 186
182 204 177
184 208 201
189 212 201
187 211 199
183 206 191
185 209 198
179 203 182
183 207 182
181 205 169
186 211 184
180 204 171
186 210 193
185 209 203
183 207 177
180 204 181
183 207 179
180 204 177
182 206 191
184 208 194
183 208 198
187 210 194
184 208 177
182 207 191
181 206 189
181 205 175
178 202 179
181 205 188
178 203 179
183 207 196
186 209 194
181 205 188
179 203 184
180 204 184
181 206 186
188 212 206
183 208 189
178 203 193
174 199 159
181 206 175
178 203 173
182 207 173
172 197 177
175 200 175
178 202 177
176 201 188
171 196 179
175 200 169
173 197 181
175 199 184
173 196 175
173 196 174
175 199 174
171 195 174
179 203 195
167 191 181
171 195 169
175 199 176
166 190 162
177 201 185
165 189 178
169 193 176
171 193 163
176 200 187
173 196 171
168 191 173
178 201 173
178 200 186
176 198 173
183 205 196
180 201 196
175 197 173
181 204 188
180 202 196
173 195 181
178 199 167
183 204 194
182 203 186
177 199 182
174 195 182
184 206 203
182 202 188
176 197 189
177 198 184
181 203 199
174 193 184
183 204 201
179 198 182
177 198 177
170 190 184
178 198 194
174 194 178
186 205 201
170 188 178
164 183 173
178 197 181
184 202 193
179 199 184
158 178 149
171 190 169
178 198 175
175 193 181
172 190 177
171 189 171
156 174 144
159 178 147
161 179 159
168 186 168
173 190 167
168 184 171
171 188 177
166 182 173
168 184 174
143 161 141
156 174 160
161 179 169
138 158 137
153 171 160
147 167 142
152 170 145
149 167 155
150 169 144
159 177 143
150 169 146
143 160 143
132 152 78
143 163 44
158 177 18
147 164 0
146 163 25
153 171 25
141 157 31
139 158 18
139 158 25
142 159 0
137 155 0
120 137 0
110 130 57
99 118 70
102 123 67
102 122 54
100 121 60
101 120 44
93 112 47
109 124 0
100 116 0
96 114 25
95 116 67
86 104 67
90 104 0
79 94 0
97 112 0
99 113 0
99 115 0
82 97 0
90 105 0
87 102 0
78 93 0
80 96 0
88 102 0
85 99 0
89 101 0
89 103 0
75 90 0
97 112 0
92 106 0
80 94 0
86 101 0
88 102 0
91 105 0
77 90 0
83 97 0
90 104 0
81 96 0
78 92 0
89 104 0
92 108 0
91 107 0
85 98 0
88 103 0
79 93 0
83 96 0
85 98 0
103 119 0
92 109 0
87 103 0
107 121 0
84 100 0
106 122 0
94 109 0
106 121 0
98 113 0
88 105 0
93 108 0
89 106 0
106 121 0
91 107 0
84 100 0
103 118 0
102 118 0
96 112 0
103 118 0
122 138 0
96 113 0
107 123 0
118 135 0
109 127 0
98 115 0
104 123 0
104 119 0
111 128 0
105 123 0
122 139 0
101 117 0
110 127 0
112 130 0
112 130 0
120 138 0
117 134 0
119 135 0
121 138 0
123 142 0
119 137 0
126 145 0
116 133 0
122 140 0
125 145 0
122 138 0
118 138 0
119 138 0
131 149 0
124 142 0
122 140 0
119 137 0
132 150 0
131 149 0
133 152 0
131 150 0
131 150 0
116 134 0
120 138 0
129 147 0
135 153 0
126 145 0
131 150 0
138 157 0
137 155 0
133 153 0
130 149 0
138 157 0
134 152 0
133 152 0
146 166 0
137 158 0
133 151 0
140 159 0
132 151 0
140 159 0
139 159 0
138 157 0
148 167 0
134 154 0
132 151 0
145 163 0
140 159 0
137 155 0
134 152 0
140 159 0
153 173 0
139 159 0
134 152 0
135 155 0
144 163 0
144 165 0
146 165 0
136 157 0
146 166 0
144 163 0
146 167 0
148 167 0
150 170 0
151 173 0
144 165 0
152 170 0
150 168 0
151 172 0
146 165 0
144 165 0
151 169 0
150 169 0
150 170 0
148 168 0
147 165 0
158 178 0
149 170 0
142 160 0
146 166 0
158 178 0
151 171 0
150 169 0
152 172 0
145 162 0
145 165 0
145 164 0
152 170 0
157 177 0
153 174 0
143 162 0
154 174 0
151 169 0
156 175 0
162 184 0
151 172 0
151 172 0
151 169 0
162 185 0
154 172 0
157 179 0
160 180 0
155 176 0
156 175 0
153 174 0
155 175 0
150 171 0
155 176 0
155 177 0
156 173 0
145 164 0
159 179 0
161 182 0
157 176 0
156 177 0
161 181 0
154 173 0
155 174 0
153 174 0
156 176 0
164 185 0
158 178 0
155 174 0
158 178 0
155 175 0
161 182 0
155 175 0
162 183 0
152 174 0
165 186 0
162 181 0
161 181 0
161 181 0
159 179 0
165 186 0
157 179 0
168 188 0
164 184 0
162 183 0
161 181 0
159 179 0
160 179 0
160 180 0
167 187 0
158 177 0
164 185 0
163 184 0
165 185 0
163 185 0
167 187 0
164 184 0
163 184 0
164 184 0
154 173 0
158 179 0
163 181 0
163 184 0
165 185 0
161 183 0
160 182 0
165 187 0
163 182 0
163 183 0
166 187 0
165 185 0
166 187 0
162 182 0
166 187 0
165 185 0
167 189 0
167 188 0
165 186 0
162 184 0
167 187 0
168 190 0
166 186 0
163 184 0
165 185 0
190 212 191
187 210 184
187 210 188
187 211 196
188 212 194
187 210 194
186 209 198
187 211 184
183 206 189
185 209 193
185 208 194
179 203 173
189 211 186
184 208 201
181 205 186
182 206 189
181 206 179
185 209 199
181 205 175
179 203 188
187 210 194
180 205 175
183 207 177
181 205 177
180 204 171
178 202 167
176 202 173
184 209 199
183 208 189
180 204 184
182 206 188
181 206 186
182 205 188
183 207 191
177 200 169
183 207 179
186 211 196
183 208 194
179 203 181
179 203 179
177 202 188
179 204 181
180 205 177
176 200 175
176 201 175
178 202 181
179 204 179
177 202 179
179 204 186
180 205 169
174 199 179
179 203 188
174 199 194
173 198 198
174 198 188
168 192 162
168 192 175
173 198 181
172 196 183
176 199 181
173 197 194
180 205 204
177 202 172
176 200 188
170 193 179
176 200 184
166 190 157
177 200 189
169 192 179
164 187 174
173 196 181
174 197 173
183 206 203
176 198 188
180 202 173
179 202 184
181 203 188
179 202 194
174 196 173
183 204 193
187 208 199
176 198 173
179 201 184
174 195 184
175 195 182
183 204 194
182 204 193
181 202 199
179 200 186
177 198 181
177 197 194
175 196 192
172 192 179
183 203 189
179 199 188
174 194 182
182 202 189
183 202 196
180 200 189
175 193 181
176 195 185
184 203 196
174 192 189
181 199 186
171 190 173
165 184 155
179 198 173
174 192 177
173 190 175
164 182 159
158 176 147
155 173 144
163 180 161
166 183 163
160 177 147
168 185 169
173 189 177
164 179 169
159 174 157
164 180 174
164 182 181
149 167 152
146 163 143
161 180 155
156 175 160
159 178 153
152 171 149
164 182 175
151 169 147
160 178 135
147 167 62
138 157 40
154 172 0
153 170 0
157 177 25
147 164 25
150 170 0
147 167 31
144 163 18
139 158 18
132 152 18
131 146 0
120 136 0
114 132 31
97 119 65
95 117 65
107 129 65
100 121 65
109 125 36
116 133 0
113 129 0
118 134 0
99 117 36
94 110 18
93 109 0
90 106 0
95 111 0
96 112 0
88 103 0
105 119 0
88 104 0
94 107 0
84 98 0
97 111 0
88 103 0
96 110 0
86 100 0
77 93 0
98 112 0
94 110 0
92 106 0
89 104 0
94 109 0
86 100 0
75 91 0
92 106 0
85 98 0
82 97 0
92 106 0
90 103 0
81 95 0
99 112 0
86 101 0
100 115 0
103 118 0
94 110 0
78 91 0
98 112 0
92 106 0
104 119 0
104 119 0
94 109 0
100 115 0
110 126 0
96 111 0
86 101 0
95 110 0
99 114 0
89 104 0
103 119 0
102 117 0
95 110 0
109 124 0
99 115 0
99 115 0
92 108 0
113 130 0
96 112 0
104 121 0
117 134 0
108 125 0
108 123 0
116 132 0
115 132 0
105 124 0
110 127 0
106 122 0
112 128 0
126 143 0
125 142 0
114 131 0
117 135 0
117 135 0
118 135 0
109 126 0
116 135 0
118 137 0
120 137 0
124 143 0
114 130 0
135 153 0
115 132 0
127 144 0
125 144 0
125 143 0
116 134 0
120 138 0
134 151 0
124 143 0
137 155 0
133 153 0
128 147 0
123 141 0
123 141 0
134 154 0
135 154 0
131 150 0
133 152 0
132 151 0
136 157 0
126 144 0
129 148 0
124 140 0
136 156 0
140 159 0
133 153 0
137 157 0
137 155 0
135 154 0
142 161 0
137 156 0
139 157 0
135 154 0
142 162 0
131 150 0
148 169 0
147 169 0
134 152 0
140 159 0
142 161 0
140 160 0
136 155 0
147 167 0
143 160 0
147 167 0
143 161 0
144 165 0
148 168 0
134 152 0
152 173 0
145 161 0
142 161 0
145 165 0
147 168 0
142 162 0
148 168 0
144 163 0
145 166 0
144 166 0
145 165 0
151 171 0
151 170 0
150 171 0
155 176 0
155 175 0
144 163 0
153 172 0
150 170 0
150 169 0
149 169 0
152 173 0
154 174 0
144 162 0
156 177 0
158 179 0
153 173 0
156 176 0
148 168 0
147 166 0
149 170 0
157 176 0
152 173 0
154 172 0
154 173 0
159 178 0
154 174 0
162 181 0
162 182 0
154 173 0
152 171 0
155 176 0
150 170 0
154 172 0
149 169 0
159 180 0
160 180 0
156 176 0
159 179 0
157 177 0
159 181 0
152 173 0
161 180 0
158 179 0
155 176 0
163 184 0
163 184 0
158 175 0
162 181 0
158 177 0
161 180 0
153 174 0
152 173 0
161 182 0
160 179 0
161 181 0
158 177 0
155 176 0
161 180 0
162 184 0
161 181 0
159 180 0
161 182 0
161 182 0
161 181 0
159 181 0
152 171 0
164 184 0
159 179 0
159 179 0
157 178 0
165 186 0
165 186 0
160 180 0
164 184 0
149 169 0
164 185 0
162 183 0
162 183 0
160 183 0
162 183 0
160 180 0
166 188 0
162 184 0
168 189 0
163 183 0
165 185 0
160 181 0
160 180 0
166 186 0
165 186 0
166 188 0
160 181 0
163 184 0
162 182 0
162 183 0
164 186 0
165 186 0
163 185 0
165 185 0
166 186 0
163 185 0
168 189 0
167 187 0
164 183 0
167 188 0
166 187 0
166 186 0
164 186 0
165 183 0
168 189 0
187 210 191
188 211 184
181 205 171
185 208 191
185 209 186
188 211 196
187 211 181
185 208 182
184 208 184
184 207 182
187 210 188
185 209 189
188 211 193
183 207 179
183 208 186
180 204 181
184 207 184
186 211 201
182 207 184
183 207 194
184 209 196
182 205 184
181 205 182
181 204 177
183 208 193
180 205 193
182 205 188
177 201 194
181 206 182
179 203 175
183 208 191
179 204 189
177 201 184
185 209 188
178 203 181
181 205 194
176 201 169
180 205 193
176 202 181
180 205 189
176 201 177
179 204 184
176 200 173
174 198 171
169 194 161
178 203 188
179 203 181
172 196 161
173 197 181
180 206 188
170 194 173
170 195 176
177 201 185
168 192 178
171 195 176
172 195 177
169 194 172
167 190 168
177 200 176
179 204 190
176 199 182
178 201 188
171 194 183
173 197 181
171 194 175
167 191 178
175 199 189
164 188 168
170 193 169
180 202 182
170 194 170
172 194 179
180 202 179
179 201 182
175 197 175
180 202 186
176 199 177
184 206 199
185 207 196
179 201 182
177 200 180
179 201 186
182 203 194
176 197 184
181 202 189
169 190 177
175 196 189
178 198 188
180 201 194
173 193 179
175 194 179
176 196 175
181 201 189
178 198 192
180 199 188
181 200 189
173 192 173
180 199 194
185 204 196
173 191 181
177 195 188
179 198 184
176 194 171
166 185 165
166 185 167
166 186 151
162 180 165
165 183 157
168 186 161
173 190 159
176 195 165
147 164 134
177 194 167
173 190 161
165 182 171
175 193 173
163 179 155
159 174 163
163 180 159
164 180 153
146 162 117
157 174 154
159 177 164
163 181 155
156 174 145
144 162 141
148 167 149
164 181 166
156 173 153
136 156 100
150 169 44
139 160 54
158 177 0
154 172 0
149 167 0
153 171 25
155 174 40
146 165 25
143 161 18
141 161 0
137 155 0
129 149 0
126 144 0
126 142 0
123 141 0
107 124 31
95 111 25
114 131 18
109 124 0
105 120 0
115 133 0
100 117 0
98 115 0
96 112 0
93 109 0
89 104 0
102 119 0
98 113 0
96 112 0
75 91 0
95 112 0
90 106 0
76 91 0
96 112 0
95 111 0
102 117 0
90 105 0
87 103 0
91 105 0
91 107 0
83 98 0
106 123 0
87 101 0
91 107 0
102 119 0
94 110 0
84 98 0
92 107 0
80 94 0
83 98 0
88 102 0
91 105 0
85 101 0
95 109 0
104 119 0
88 103 0
92 106 0
113 129 0
99 115 0
95 111 0
101 118 0
105 120 0
89 103 0
97 113 0
103 120 0
91 107 0
95 110 0
94 110 0
94 109 0
105 120 0
98 114 0
105 121 0
100 116 0
103 119 0
98 114 0
87 104 0
100 115 0
121 138 0
107 123 0
113 129 0
104 122 0
107 125 0
95 112 0
123 138 0
111 129 0
115 132 0
117 134 0
111 129 0
114 131 0
111 130 0
120 136 0
116 132 0
120 138 0
119 136 0
127 146 0
110 129 0
122 140 0
122 140 0
110 129 0
126 145 0
130 148 0
121 139 0
123 141 0
123 143 0
126 146 0
116 134 0
121 139 0
132 149 0
126 146 0
122 141 0
115 135 0
135 154 0
136 157 0
117 135 0
137 156 0
136 154 0
130 149 0
136 155 0
129 147 0
123 143 0
138 158 0
129 150 0
143 163 0
132 153 0
137 156 0
135 156 0
133 151 0
138 159 0
144 165 0
141 161 0
148 167 0
145 164 0
141 162 0
142 162 0
148 168 0
149 170 0
137 157 0
134 152 0
139 158 0
140 160 0
147 166 0
148 170 0
143 161 0
141 161 0
142 160 0
149 170 0
145 165 0
145 166 0
142 161 0
141 161 0
152 173 0
144 164 0
139 158 0
144 163 0
149 169 0
147 167 0
145 164 0
154 175 0
152 173 0
144 164 0
148 169 0
146 165 0
140 159 0
158 178 0
152 172 0
151 172 0
152 171 0
159 178 0
151 173 0
148 170 0
156 176 0
146 167 0
151 171 0
155 176 0
147 166 0
155 175 0
146 166 0
151 172 0
154 175 0
155 176 0
155 176 0
150 169 0
145 165 0
157 178 0
150 169 0
161 183 0
154 174 0
159 179 0
152 173 0
151 172 0
157 177 0
152 172 0
150 170 0
160 181 0
158 179 0
153 171 0
159 180 0
158 178 0
156 177 0
162 181 0
157 177 0
156 177 0
157 176 0
157 176 0
151 172 0
164 185 0
159 178 0
163 182 0
159 179 0
164 185 0
164 185 0
162 182 0
161 184 0
160 180 0
160 180 0
159 180 0
162 184 0
163 185 0
151 171 0
165 187 0
163 183 0
163 182 0
163 185 0
167 188 0
157 177 0
165 187 0
163 182 0
159 179 0
159 178 0
153 172 0
168 189 0
160 181 0
170 190 0
160 182 0
161 181 0
166 188 0
157 176 0
165 186 0
162 183 0
163 180 0
164 184 0
160 181 0
158 180 0
162 181 0
158 180 0
162 183 0
162 183 0
158 177 0
161 182 0
166 188 0
160 180 0
167 189 0
163 185 0
167 186 0
167 189 0
161 183 0
167 188 0
164 184 0
167 189 0
162 184 0
166 187 0
165 185 0
168 189 0
163 183 0
165 185 0
164 185 0
164 186 0
165 187 0
169 190 0
164 185 0
183 206 177
185 208 193
188 210 182
186 209 184
186 210 186
184 208 184
186 209 193
186 209 188
186 209 191
185 209 186
185 209 191
186 209 184
185 207 184
187 210 193
182 206 184
180 205 186
185 209 184
182 206 177
181 205 171
185 208 189
178 203 184
177 202 181
179 203 177
184 209 198
183 206 188
185 208 193
179 204 175
177 202 165
183 208 184
183 207 186
181 205 181
179 204 182
180 204 171
182 207 194
179 204 181
177 202 182
179 204 173
183 207 181
180 204 177
183 207 196
181 205 186
176 201 182
178 202 155
184 208 194
175 199 157
178 203 165
182 206 175
174 199 172
174 198 168
181 205 188
178 202 183
164 188 171
174 199 185
174 198 173
179 203 188
172 196 177
177 201 191
180 204 199
176 200 183
177 202 188
174 197 169
169 193 182
178 202 179
174 198 190
166 190 172
164 188 158
180 204 206
172 195 178
172 195 175
174 198 184
167 190 170
180 204 196
181 203 188
180 203 198
179 202 193
178 201 186
180 201 186
178 200 181
185 208 188
175 197 181
173 194 179
176 197 179
174 195 184
183 204 186
179 200 189
172 193 171
181 202 194
176 197 179
178 200 193
180 201 193
184 205 194
176 196 188
167 187 161
175 195 182
168 188 182
173 192 175
173 192 184
186 205 205
177 196 177
176 195 191
183 203 192
168 185 169
190 208 200
178 196 186
174 193 177
179 197 184
169 187 169
168 187 157
161 179 157
176 193 173
158 175 157
170 187 173
171 189 169
160 177 153
168 186 167
164 182 142
159 176 159
151 166 135
169 184 177
161 178 144
162 179 157
168 184 165
153 169 137
153 171 139
146 165 153
154 171 156
151 169 135
155 173 147
147 165 135
140 160 70
149 169 51
153 173 40
156 176 0
157 177 0
150 169 0
154 175 0
140 159 0
148 169 0
147 164 0
145 166 0
144 163 0
133 150 0
126 145 0
128 145 0
112 127 0
123 138 0
119 136 0
114 130 0
94 109 0
111 128 0
115 132 0
113 131 0
118 137 0
100 116 0
81 97 0
114 130 0
102 117 0
98 114 0
96 113 0
88 103 0
95 111 0
95 109 0
98 115 0
92 107 0
76 91 0
67 82 0
102 117 0
118 133 0
91 107 0
95 110 0
101 118 0
95 110 0
101 117 0
86 103 0
108 123 0
85 100 0
89 104 0
93 107 0
96 112 0
97 114 0
98 114 0
91 107 0
86 101 0
91 106 0
98 113 0
101 116 0
93 107 0
96 111 0
113 128 0
108 124 0
101 117 0
92 107 0
98 113 0
89 106 0
113 129 0
100 115 0
92 108 0
110 126 0
104 119 0
106 122 0
106 122 0
111 129 0
94 111 0
106 122 0
116 134 0
115 132 0
124 139 0
117 134 0
88 104 0
112 129 0
102 118 0
110 127 0
109 126 0
115 133 0
110 128 0
98 115 0
111 128 0
118 137 0
113 131 0
126 145 0
113 128 0
105 122 0
128 147 0
121 140 0
121 139 0
129 148 0
125 143 0
126 144 0
136 154 0
124 141 0
115 134 0
125 145 0
130 150 0
118 136 0
121 139 0
122 141 0
117 135 0
130 149 0
131 149 0
127 144 0
126 145 0
122 141 0
134 153 0
133 153 0
137 156 0
126 143 0
136 155 0
139 158 0
133 152 0
128 148 0
137 158 0
127 145 0
139 157 0
145 165 0
129 149 0
131 152 0
137 155 0
139 158 0
131 150 0
145 166 0
141 159 0
135 152 0
134 152 0
145 164 0
147 167 0
145 166 0
130 150 0
139 159 0
147 166 0
148 168 0
147 167 0
144 164 0
147 165 0
143 163 0
141 161 0
138 155 0
148 168 0
146 165 0
146 169 0
150 171 0
137 154 0
142 163 0
146 165 0
140 160 0
157 177 0
149 169 0
143 162 0
148 167 0
140 158 0
139 156 0
148 170 0
146 165 0
157 178 0
154 174 0
144 164 0
145 166 0
148 169 0
160 179 0
149 169 0
152 172 0
154 175 0
160 180 0
150 171 0
148 167 0
158 179 0
155 175 0
148 170 0
153 172 0
153 174 0
157 179 0
158 179 0
150 170 0
157 180 0
153 175 0
152 174 0
156 177 0
157 178 0
158 177 0
154 175 0
157 178 0
156 176 0
146 166 0
156 176 0
159 181 0
159 179 0
151 171 0
157 176 0
156 177 0
154 173 0
153 171 0
161 182 0
159 178 0
155 177 0
154 173 0
163 184 0
151 172 0
152 173 0
158 177 0
164 184 0
158 179 0
160 181 0
162 184 0
165 186 0
163 183 0
158 179 0
160 181 0
161 183 0
157 178 0
157 176 0
159 178 0
160 179 0
167 190 0
162 184 0
164 186 0
159 178 0
162 182 0
164 184 0
159 179 0
160 181 0
159 181 0
159 178 0
163 183 0
166 187 0
156 176 0
159 179 0
166 185 0
159 179 0
164 184 0
161 181 0
159 178 0
167 186 0
160 183 0
160 183 0
163 184 0
167 188 0
161 178 0
164 184 0
161 180 0
166 186 0
155 176 0
166 188 0
163 185 0
165 187 0
161 181 0
167 189 0
165 186 0
166 186 0
166 188 0
161 183 0
163 183 0
163 183 0
165 186 0
165 186 0
168 189 0
161 182 0
165 186 0
163 183 0
168 189 0
167 188 0
162 184 0
185 208 184
190 213 203
185 209 184
187 210 189
185 209 186
184 208 188
187 210 184
185 209 179
184 208 182
184 207 182
187 211 193
186 209 189
182 206 181
187 211 203
185 209 191
176 200 171
181 205 173
182 206 188
184 208 181
184 207 184
183 206 194
180 204 175
182 205 181
182 207 175
187 212 196
180 204 184
182 207 188
181 205 188
187 210 191
183 207 194
180 204 175
180 204 179
180 204 181
176 200 177
183 208 186
183 206 194
177 201 175
176 200 163
180 204 193
173 197 161
183 208 179
177 201 179
181 207 198
178 203 179
177 201 171
180 204 179
177 202 175
184 209 207
181 206 189
182 206 184
177 202 186
171 196 169
164 188 163
173 196 164
169 193 166
170 194 183
173 198 181
178 203 191
177 202 191
173 195 167
172 195 176
172 195 169
172 195 192
172 195 173
181 205 190
174 198 172
172 195 174
168 191 175
172 196 173
177 200 182
178 201 186
176 199 188
178 200 193
182 204 181
172 195 182
182 204 182
177 200 171
179 200 186
185 206 200
179 200 169
181 203 181
176 198 188
180 201 194
167 189 167
177 198 193
176 197 175
170 192 173
177 197 165
172 193 181
190 211 206
173 193 186
180 200 186
181 201 194
174 194 184
182 202 196
177 196 188
171 190 173
177 195 177
168 187 174
186 205 186
175 194 175
172 190 179
176 195 182
178 195 191
179 197 191
164 184 155
158 176 140
178 197 159
177 195 179
171 189 165
164 182 149
174 192 171
173 191 159
168 185 149
173 191 169
161 177 157
164 181 163
170 187 147
168 186 155
163 180 159
168 186 149
166 181 157
164 180 149
157 171 151
164 179 157
154 171 134
144 160 131
161 178 133
148 165 118
141 161 57
147 169 36
145 164 25
155 176 25
157 176 0
153 170 0
152 172 0
157 178 0
151 171 0
148 167 0
139 159 0
145 165 0
139 156 0
129 149 0
123 140 0
120 137 0
119 134 0
122 139 0
110 127 0
130 147 0
122 138 0
105 121 0
117 134 0
103 120 0
102 118 0
104 121 0
106 122 0
99 116 0
103 119 0
98 114 0
104 120 0
90 106 0
102 119 0
93 109 0
98 114 0
94 109 0
89 103 0
86 102 0
99 114 0
92 108 0
87 103 0
92 108 0
94 110 0
82 97 0
90 104 0
93 108 0
104 119 0
95 110 0
99 113 0
91 106 0
109 125 0
106 121 0
113 129 0
105 119 0
99 115 0
97 112 0
95 111 0
105 121 0
98 115 0
95 109 0
99 115 0
87 103 0
112 128 0
98 114 0
109 125 0
82 97 0
103 119 0
112 128 0
107 124 0
96 113 0
106 121 0
106 122 0
96 114 0
105 122 0
117 135 0
118 136 0
112 129 0
111 130 0
106 123 0
111 129 0
96 113 0
107 124 0
120 138 0
109 127 0
104 122 0
110 128 0
107 124 0
121 138 0
117 136 0
116 133 0
106 125 0
118 136 0
116 136 0
117 136 0
127 146 0
134 153 0
122 140 0
115 132 0
108 125 0
120 137 0
119 137 0
120 140 0
125 143 0
135 155 0
130 148 0
124 142 0
135 155 0
119 138 0
132 152 0
129 150 0
127 147 0
135 154 0
134 154 0
144 164 0
125 144 0
129 148 0
129 150 0
132 151 0
132 152 0
124 143 0
132 151 0
133 152 0
139 159 0
133 153 0
130 150 0
133 152 0
124 143 0
137 156 0
143 163 0
136 156 0
148 168 0
142 163 0
143 164 0
140 160 0
147 166 0
141 161 0
145 166 0
131 151 0
140 160 0
139 157 0
147 166 0
142 161 0
142 163 0
132 151 0
145 166 0
139 160 0
149 170 0
146 165 0
147 166 0
148 169 0
150 171 0
151 171 0
145 165 0
153 174 0
141 162 0
150 172 0
140 160 0
151 170 0
141 159 0
154 173 0
154 176 0
137 157 0
151 171 0
149 169 0
160 181 0
144 164 0
153 174 0
159 180 0
156 178 0
147 166 0
154 174 0
156 177 0
150 169 0
150 171 0
150 171 0
153 173 0
151 171 0
154 174 0
162 182 0
152 173 0
148 169 0
153 174 0
160 180 0
156 175 0
154 173 0
155 176 0
157 178 0
155 176 0
154 174 0
147 166 0
150 170 0
164 186 0
150 171 0
154 174 0
159 179 0
162 180 0
157 179 0
153 172 0
153 174 0
157 178 0
153 174 0
157 178 0
155 174 0
163 184 0
159 178 0
157 177 0
160 180 0
158 179 0
162 183 0
164 185 0
159 180 0
157 179 0
158 179 0
162 183 0
157 177 0
156 177 0
163 183 0
160 180 0
154 173 0
162 182 0
165 187 0
163 185 0
164 185 0
163 183 0
163 184 0
166 188 0
161 182 0
163 186 0
162 183 0
164 185 0
166 188 0
163 183 0
164 184 0
160 178 0
167 186 0
158 178 0
158 178 0
167 188 0
162 184 0
165 187 0
164 184 0
165 187 0
167 188 0
160 180 0
161 182 0
159 181 0
165 185 0
163 184 0
163 184 0
169 190 0
163 184 0
166 188 0
165 186 0
163 184 0
160 181 0
163 184 0
167 188 0
165 186 0
166 189 0
163 184 0
163 184 0
164 184 0
165 186 0
163 183 0
162 183 0
168 190 0
165 186 0
164 185 0
167 189 0
164 186 0
168 191 0
186 210 188
188 212 199
186 209 189
187 211 191
191 214 211
187 210 184
188 212 193
183 207 181
183 207 186
188 210 201
186 210 196
184 208 188
185 209 199
187 212 196
183 207 184
184 208 184
182 207 182
180 204 173
183 206 181
186 211 191
186 209 191
185 208 186
183 207 186
182 206 184
184 208 188
184 208 186
180 203 182
182 206 194
183 207 182
178 202 175
178 203 177
180 205 179
181 206 194
174 198 161
179 204 186
176 200 161
177 202 177
180 205 173
182 206 181
177 201 165
180 205 188
174 199 169
181 205 181
175 200 181
176 200 177
181 206 194
175 198 169
179 204 188
179 203 177
178 202 174
175 199 180
179 202 179
171 195 186
177 201 174
169 193 177
174 199 193
172 195 177
175 198 181
173 196 190
168 191 164
176 200 191
174 198 176
176 198 173
172 195 180
172 195 160
171 194 188
174 197 164
175 199 185
180 203 189
167 190 174
170 193 167
173 196 187
180 202 177
183 205 188
176 198 189
182 204 189
179 201 186
180 201 189
174 196 171
176 198 184
185 207 194
187 209 203
181 203 193
182 204 191
181 202 177
187 208 196
179 199 186
182 203 194
177 199 177
173 193 181
181 202 182
184 204 194
173 193 182
176 196 177
176 196 177
165 184 173
181 200 184
177 196 187
170 189 163
169 187 181
184 202 204
186 205 207
178 197 184
182 201 194
181 198 189
185 203 191
179 197 181
177 195 175
172 189 169
171 189 163
176 194 181
168 186 155
164 183 157
163 180 161
161 179 155
181 198 186
182 198 188
169 185 157
160 177 137
161 178 159
159 176 137
163 179 153
143 157 135
156 171 142
145 161 111
160 177 147
169 184 161
158 174 133
144 163 57
146 165 25
152 172 51
146 165 25
156 176 0
157 177 0
150 170 0
158 178 0
147 168 0
148 167 0
148 167 0
144 161 0
134 152 0
144 162 0
134 153 0
129 146 0
117 134 0
124 141 0
119 136 0
112 129 0
111 127 0
106 122 0
114 132 0
119 138 0
111 129 0
110 127 0
109 125 0
98 115 0
111 128 0
96 112 0
105 121 0
98 114 0
94 109 0
101 118 0
95 111 0
93 108 0
91 107 0
96 113 0
102 119 0
94 108 0
107 122 0
98 113 0
99 115 0
105 121 0
100 116 0
90 106 0
101 116 0
92 106 0
91 107 0
93 107 0
100 116 0
101 116 0
100 116 0
86 104 0
95 112 0
89 104 0
96 112 0
88 104 0
103 120 0
98 114 0
103 121 0
97 114 0
105 121 0
93 109 0
103 119 0
112 128 0
107 123 0
108 125 0
114 129 0
104 120 0
101 118 0
106 123 0
109 126 0
113 132 0
108 125 0
99 116 0
106 124 0
106 123 0
100 117 0
112 129 0
114 132 0
111 128 0
119 136 0
112 131 0
122 139 0
127 145 0
107 127 0
117 136 0
127 145 0
105 123 0
117 137 0
122 141 0
119 135 0
128 147 0
116 135 0
118 137 0
121 138 0
131 149 0
117 135 0
131 149 0
119 138 0
119 139 0
126 145 0
130 148 0
133 152 0
125 142 0
132 152 0
124 143 0
137 157 0
135 155 0
127 146 0
126 144 0
135 154 0
126 145 0
131 149 0
137 158 0
144 162 0
135 154 0
131 150 0
134 153 0
129 149 0
135 154 0
137 156 0
141 161 0
146 166 0
144 163 0
138 157 0
141 161 0
130 150 0
132 151 0
133 153 0
141 160 0
130 150 0
135 155 0
128 148 0
142 163 0
143 163 0
136 155 0
136 155 0
141 161 0
150 171 0
145 164 0
136 156 0
140 158 0
138 157 0
143 164 0
148 168 0
154 174 0
149 170 0
150 171 0
149 170 0
144 163 0
141 162 0
145 165 0
147 167 0
144 165 0
144 164 0
149 168 0
154 174 0
152 172 0
147 167 0
149 170 0
157 179 0
153 174 0
151 170 0
153 174 0
151 171 0
152 173 0
147 167 0
146 166 0
143 162 0
152 171 0
150 171 0
153 173 0
160 180 0
144 163 0
152 171 0
152 174 0
155 177 0
155 175 0
155 177 0
156 175 0
152 173 0
151 172 0
151 171 0
155 175 0
147 167 0
159 178 0
151 173 0
156 177 0
155 176 0
155 177 0
158 179 0
160 181 0
157 177 0
156 175 0
157 179 0
155 176 0
157 178 0
162 184 0
160 179 0
159 181 0
161 183 0
154 175 0
160 180 0
157 177 0
158 179 0
166 189 0
162 185 0
159 180 0
156 177 0
162 181 0
160 180 0
163 183 0
160 180 0
160 179 0
165 185 0
164 185 0
157 176 0
154 173 0
155 175 0
159 180 0
157 178 0
156 178 0
165 185 0
165 185 0
160 182 0
162 183 0
161 181 0
160 177 0
165 186 0
163 184 0
162 184 0
158 178 0
157 176 0
161 182 0
163 184 0
157 179 0
163 185 0
164 184 0
163 184 0
165 187 0
165 186 0
165 186 0
168 191 0
166 188 0
162 184 0
161 182 0
157 178 0
165 188 0
164 184 0
164 185 0
164 186 0
170 192 0
165 187 0
164 186 0
165 187 0
167 187 0
163 184 0
166 188 0
170 193 0
168 189 0
162 182 0
164 185 0
168 189 0
161 182 0
166 187 0
165 187 0
169 190 0
163 183 0
164 185 0
164 184 0
191 214 193
185 208 179
184 206 167
183 206 179
189 212 188
185 208 188
190 213 199
183 206 177
186 208 179
181 205 169
189 212 196
181 206 179
187 211 193
189 212 199
186 209 181
182 206 191
181 204 175
179 203 173
180 204 175
186 209 194
185 209 194
180 204 186
184 207 193
182 205 177
182 206 184
180 204 181
186 211 204
178 202 181
179 203 175
179 204 179
181 204 177
181 206 179
178 202 175
179 203 177
181 206 188
181 206 189
180 205 186
180 205 186
179 204 188
177 202 167
176 201 173
180 205 175
175 200 169
175 200 165
179 203 177
177 201 175
182 206 188
177 202 187
169 193 163
174 199 179
177 200 164
175 199 184
170 193 162
178 202 181
170 193 172
175 200 179
175 199 198
175 199 196
175 199 179
172 196 180
173 196 181
173 196 188
171 195 178
171 194 185
171 193 163
168 191 173
170 194 169
175 199 190
170 193 167
176 199 177
178 200 187
179 201 182
177 199 181
168 190 165
180 203 198
178 200 188
173 195 171
178 199 181
177 198 169
169 191 165
180 202 182
175 197 184
178 200 173
174 195 173
177 198 182
181 202 193
174 195 182
175 195 181
174 194 182
182 202 191
178 198 181
183 202 196
175 195 188
179 198 186
174 194 177
171 191 167
172 193 177
172 190 188
174 193 181
176 195 181
186 205 196
178 197 188
175 192 186
184 202 188
182 201 186
179 195 184
181 200 179
169 187 165
172 190 173
176 193 171
166 183 153
160 177 151
162 180 155
163 181 142
172 190 151
169 187 151
168 185 163
182 199 179
161 179 149
167 184 151
166 183 149
160 176 142
165 180 151
161 178 149
166 182 149
158 173 149
162 177 153
164 181 133
154 174 67
140 160 36
141 161 51
145 164 44
161 183 0
160 180 0
154 175 0
155 174 0
147 167 0
146 166 0
151 170 0
139 159 0
140 159 0
132 151 0
135 153 0
121 138 0
110 126 0
126 145 0
112 127 0
113 130 0
122 138 0
112 129 0
127 146 0
116 133 25
112 130 0
110 127 0
108 125 0
112 128 0
104 121 0
114 131 0
104 121 0
105 121 0
106 123 0
81 97 0
98 113 0
98 115 0
101 117 0
100 116 0
105 121 0
86 101 0
105 121 0
102 118 0
110 127 0
103 119 0
92 108 0
94 111 0
97 113 0
102 117 0
99 115 0
105 120 0
110 127 0
99 116 0
117 133 0
97 112 0
104 121 0
106 123 0
97 114 0
109 125 0
107 125 0
102 119 0
112 128 0
106 122 0
100 114 0
109 125 0
97 115 0
116 133 0
110 128 0
116 134 0
112 130 0
113 132 0
117 133 0
94 111 0
102 119 0
121 139 0
105 122 0
112 131 0
129 148 0
116 133 0
115 133 0
99 117 0
122 140 0
118 135 0
120 136 0
109 128 0
112 130 0
112 130 0
113 130 0
110 129 0
117 134 0
115 133 0
125 143 0
114 130 0
122 140 0
121 141 0
126 144 0
113 130 0
116 135 0
125 144 0
125 143 0
118 137 0
119 139 0
119 137 0
130 149 0
132 151 0
121 140 0
130 150 0
130 150 0
121 140 0
119 137 0
133 150 0
127 145 0
132 151 0
119 138 0
131 152 0
127 145 0
137 155 0
142 162 0
135 155 0
137 158 0
120 139 0
138 157 0
138 157 0
132 151 0
136 156 0
134 154 0
135 155 0
131 151 0
137 157 0
139 159 0
139 161 0
138 158 0
141 160 0
139 159 0
134 154 0
150 171 0
152 174 0
145 164 0
138 159 0
141 161 0
139 159 0
152 172 0
139 157 0
145 164 0
150 171 0
143 165 0
144 163 0
141 160 0
144 163 0
148 168 0
151 171 0
137 159 0
152 173 0
147 167 0
150 172 0
149 168 0
147 167 0
153 174 0
144 164 0
141 159 0
158 180 0
146 165 0
151 174 0
151 170 0
149 170 0
150 171 0
151 172 0
148 168 0
148 168 0
148 168 0
152 172 0
155 175 0
154 175 0
156 177 0
155 175 0
147 165 0
150 169 0
152 172 0
148 168 0
156 176 0
154 175 0
146 166 0
153 173 0
154 175 0
148 168 0
154 177 0
150 170 0
154 172 0
157 177 0
156 177 0
152 172 0
153 172 0
151 171 0
156 175 0
157 178 0
153 174 0
157 178 0
156 177 0
148 169 0
151 173 0
152 172 0
162 183 0
160 180 0
153 172 0
152 171 0
161 181 0
155 175 0
157 178 0
153 172 0
154 176 0
156 176 0
159 180 0
156 178 0
159 181 0
165 185 0
163 185 0
155 176 0
159 180 0
154 174 0
159 179 0
161 182 0
167 186 0
165 187 0
159 179 0
158 178 0
157 177 0
162 183 0
157 179 0
160 181 0
169 191 0
166 186 0
163 184 0
162 181 0
162 181 0
159 180 0
164 185 0
164 185 0
163 185 0
167 187 0
170 191 0
163 185 0
163 183 0
164 186 0
162 183 0
159 179 0
161 183 0
161 182 0
154 174 0
161 180 0
164 187 0
165 188 0
164 186 0
166 186 0
164 186 0
160 183 0
168 190 0
166 188 0
161 182 0
164 184 0
167 189 0
164 186 0
169 190 0
166 188 0
167 188 0
165 187 0
169 191 0
168 192 0
168 190 0
163 183 0
166 187 0
164 187 0
167 188 0
163 184 0
183 206 186
191 214 199
188 210 182
187 209 179
188 211 196
185 209 189
183 206 188
184 207 181
187 210 186
183 207 175
184 207 188
179 203 179
182 205 188
185 209 194
185 208 182
189 213 196
187 211 199
186 209 196
184 208 194
185 208 194
181 206 181
178 201 173
183 206 165
183 207 189
182 206 175
181 205 177
180 205 173
182 206 184
181 205 167
179 203 173
179 204 175
182 206 181
181 206 186
176 200 179
179 202 171
179 203 161
180 205 184
180 205 184
176 200 161
182 206 186
179 203 191
181 205 179
174 198 181
175 200 171
178 203 175
178 202 186
176 200 173
181 205 181
173 197 153
179 203 189
175 200 173
178 202 184
178 203 191
174 198 163
166 190 171
171 195 169
176 199 178
175 199 178
167 191 177
177 201 186
169 193 183
169 192 174
172 196 184
169 193 168
167 190 170
176 199 184
175 199 175
169 191 181
168 192 161
179 203 188
174 196 178
181 204 181
176 199 177
183 205 189
181 204 179
171 193 165
171 193 171
170 193 171
174 196 173
174 195 184
179 201 179
184 206 196
168 188 167
179 199 189
181 202 182
178 199 186
174 194 171
179 200 189
171 191 171
185 205 184
181 201 188
178 199 181
179 199 194
184 205 194
176 195 194
172 191 169
176 195 179
180 199 181
176 196 175
175 194 184
177 196 179
178 196 186
184 202 196
180 198 188
178 196 182
178 196 186
172 190 175
168 187 157
162 180 155
168 185 161
171 189 165
170 188 159
165 182 163
167 185 159
180 197 181
164 179 165
171 187 165
166 184 142
169 186 161
167 185 151
169 185 157
166 182 161
168 185 147
160 177 130
155 171 130
161 178 142
154 170 142
155 172 108
153 173 80
156 177 72
146 166 62
144 164 36
155 176 25
161 182 0
157 178 0
154 174 0
155 174 0
148 168 0
150 169 0
145 164 0
146 166 0
129 147 0
131 148 0
117 135 0
121 137 0
119 137 0
123 140 0
103 121 0
123 140 0
111 126 0
115 133 0
123 141 0
118 136 0
96 114 0
96 113 0
107 124 0
112 130 0
118 135 0
99 116 0
93 110 0
117 134 0
103 119 0
99 117 0
91 106 0
93 107 0
105 121 0
108 124 0
97 113 0
100 117 0
113 129 0
92 107 0
107 123 0
110 126 0
96 113 0
94 111 0
101 117 0
111 127 0
104 120 0
100 117 0
101 118 0
105 120 0
108 124 0
111 127 0
101 117 0
101 117 0
98 114 0
106 123 0
104 121 0
106 123 0
104 119 0
107 123 0
108 124 0
113 130 0
103 120 0
110 127 0
114 131 0
106 123 0
103 120 0
113 130 0
105 121 0
111 129 0
103 123 0
117 134 0
123 142 0
106 124 0
115 133 0
105 123 0
119 137 0
119 137 0
109 126 0
113 131 0
115 132 0
111 129 0
118 136 0
117 136 0
117 134 0
110 129 0
118 137 0
126 145 0
125 143 0
124 142 0
117 137 0
118 136 0
123 142 0
126 144 0
129 149 0
128 146 0
129 149 0
132 150 0
142 162 0
126 146 0
119 138 0
119 138 0
126 144 0
122 142 0
129 148 0
123 143 0
128 148 0
138 158 0
120 138 0
144 163 0
128 147 0
138 158 0
128 147 0
123 142 0
132 150 0
141 160 0
143 163 0
127 147 0
130 150 0
141 158 0
149 167 0
139 158 0
132 153 0
141 161 0
143 162 0
136 155 0
143 162 0
138 158 0
141 162 0
141 162 0
143 163 0
127 146 0
139 160 0
139 159 0
147 167 0
145 166 0
145 165 0
140 161 0
160 181 0
147 168 0
150 169 0
141 160 0
148 169 0
148 169 0
149 168 0
155 177 0
146 167 0
151 172 0
149 168 0
151 170 0
148 167 0
144 164 0
152 171 0
146 165 0
147 167 0
151 172 0
152 173 0
148 169 0
157 178 0
150 172 0
148 170 0
152 173 0
138 157 0
151 172 0
151 172 0
151 174 0
158 179 0
153 172 0
162 182 0
146 168 0
156 179 0
153 173 0
155 176 0
156 177 0
154 175 0
155 175 0
148 169 0
153 174 0
158 179 0
162 184 0
158 179 0
155 176 0
156 176 0
157 178 0
157 178 0
163 184 0
161 182 0
158 178 0
159 180 0
157 178 0
156 176 0
152 172 0
160 180 0
155 174 0
165 184 0
155 176 0
156 176 0
161 182 0
159 179 0
162 183 0
163 184 0
158 181 0
157 180 0
161 181 0
156 177 0
152 172 0
157 178 0
160 180 0
159 180 0
167 188 0
162 182 0
162 181 0
160 180 0
158 177 0
160 181 0
163 184 0
158 179 0
160 178 0
157 178 0
160 180 0
157 178 0
162 182 0
166 187 0
164 184 0
167 189 0
164 185 0
160 179 0
165 186 0
162 183 0
166 187 0
162 181 0
166 187 0
159 181 0
164 184 0
165 186 0
163 184 0
159 179 0
158 180 0
163 184 0
164 186 0
163 184 0
162 183 0
165 186 0
168 189 0
157 176 0
164 185 0
166 186 0
160 181 0
165 186 0
165 185 0
164 185 0
164 186 0
168 189 0
166 187 0
157 177 0
169 189 0
164 185 0
171 193 0
169 191 0
162 183 0
164 187 0
167 187 0
163 184 0
164 188 0
166 188 0
165 187 0
162 182 0
165 187 0
168 190 0
191 213 198
189 212 198
183 206 175
183 206 189
187 211 198
186 209 191
181 204 177
180 203 161
186 209 184
185 208 186
185 208 179
186 210 194
180 203 173
180 203 169
187 210 186
178 202 179
188 211 196
187 210 203
184 208 179
181 205 184
182 206 175
186 210 203
182 205 182
182 207 188
178 203 177
178 203 184
181 205 173
182 206 191
177 202 179
182 206 181
183 207 181
179 203 184
174 199 177
181 205 186
178 203 169
185 209 193
177 202 184
183 208 196
181 205 161
173 197 167
179 203 179
179 203 169
180 205 182
181 205 194
173 197 173
179 203 191
178 202 179
174 199 184
175 200 167
172 196 169
176 201 173
174 198 182
174 197 155
171 196 191
174 198 178
173 197 183
172 195 165
176 200 175
171 195 182
166 190 175
178 202 189
174 198 189
177 201 181
175 198 188
174 197 182
179 201 171
174 197 170
169 192 156
178 201 188
179 202 179
180 203 186
178 201 169
177 200 179
179 202 182
176 199 184
177 199 184
182 204 194
177 199 175
172 194 181
180 202 184
185 206 198
186 207 186
179 200 177
180 201 181
175 196 182
184 206 196
178 198 181
181 202 196
179 200 188
174 195 169
171 191 173
178 199 182
185 205 194
184 204 194
172 192 182
172 191 171
179 199 181
171 190 177
190 210 194
182 201 186
173 192 171
176 194 182
180 198 186
182 199 198
180 198 182
184 201 186
180 197 191
173 192 171
171 189 161
185 203 186
165 183 153
177 195 173
166 184 161
177 194 169
170 187 161
178 196 173
171 188 151
168 185 144
157 175 135
160 178 137
167 183 149
161 177 147
171 189 149
158 174 142
155 172 130
161 177 140
168 184 153
153 171 72
145 164 36
141 162 44
150 172 44
144 164 36
151 172 36
160 180 0
156 176 0
157 178 0
148 169 0
147 166 0
152 173 0
137 158 0
141 163 0
150 169 0
142 163 0
132 150 0
121 139 0
128 145 0
109 126 0
124 141 0
121 140 0
112 130 0
116 133 0
120 139 0
118 137 0
105 123 0
113 130 0
103 119 0
107 125 0
104 121 0
106 122 0
111 128 0
116 133 0
94 110 0
106 122 0
109 127 0
122 140 0
92 108 0
91 108 0
92 109 0
114 131 0
105 122 0
98 115 0
106 122 0
94 111 0
109 126 0
96 112 0
112 129 0
112 129 0
103 119 0
94 112 0
116 132 0
97 114 0
104 121 0
112 129 0
105 124 0
105 122 0
113 130 0
104 121 0
109 128 0
99 116 0
105 122 0
113 131 0
96 113 0
106 123 0
119 136 0
112 131 0
109 125 0
114 131 0
117 135 0
107 124 0
112 130 0
101 118 0
106 123 0
120 138 0
110 127 0
117 135 0
108 125 0
125 142 0
115 133 0
118 137 0
112 130 0
124 143 0
119 138 0
119 137 0
124 143 0
118 136 0
119 138 0
115 132 0
123 141 0
123 141 0
126 145 0
126 144 0
125 142 0
132 151 0
124 142 0
119 138 0
129 148 0
125 144 0
130 149 0
129 150 0
136 155 0
123 141 0
126 146 0
134 152 0
123 141 0
123 140 0
130 148 0
134 153 0
132 150 0
139 160 0
134 153 0
129 147 0
133 152 0
126 147 0
135 156 0
139 158 0
145 164 0
142 163 0
137 157 0
131 150 0
128 148 0
136 155 0
145 164 0
144 166 0
135 155 0
139 159 0
140 160 0
140 160 0
146 165 0
136 155 0
134 153 0
143 162 0
143 161 0
141 160 0
147 168 0
146 167 0
142 162 0
146 168 0
143 163 0
142 161 0
144 165 0
149 168 0
147 167 0
148 169 0
151 171 0
140 161 0
140 161 0
141 159 0
146 166 0
149 170 0
147 165 0
146 166 0
150 172 0
149 170 0
145 166 0
148 168 0
155 176 0
145 164 0
146 164 0
155 176 0
149 170 0
154 175 0
150 169 0
154 175 0
152 173 0
151 171 0
151 172 0
151 171 0
152 172 0
146 166 0
154 175 0
152 173 0
145 165 0
153 174 0
157 177 0
156 177 0
159 179 0
156 176 0
158 179 0
153 173 0
155 178 0
157 177 0
152 172 0
155 175 0
152 174 0
153 173 0
156 176 0
158 179 0
158 180 0
166 188 0
153 174 0
155 175 0
152 172 0
158 178 0
156 177 0
156 178 0
157 179 0
159 180 0
161 181 0
160 181 0
157 179 0
157 177 0
160 182 0
154 174 0
162 184 0
156 176 0
157 177 0
162 183 0
162 183 0
160 181 0
162 183 0
161 181 0
162 185 0
163 184 0
162 183 0
158 179 0
165 187 0
157 177 0
155 176 0
158 179 0
160 179 0
161 182 0
161 180 0
162 183 0
161 183 0
167 188 0
158 179 0
164 185 0
162 184 0
159 180 0
166 187 0
165 186 0
162 184 0
157 178 0
170 192 0
158 179 0
157 178 0
159 181 0
164 184 0
168 189 0
165 187 0
157 176 0
159 179 0
166 186 0
164 186 0
165 188 0
164 186 0
159 179 0
161 184 0
162 181 0
162 184 0
161 181 0
158 179 0
168 190 0
166 187 0
163 183 0
163 183 0
168 188 0
168 190 0
165 185 0
165 187 0
169 190 0
164 186 0
169 191 0
171 192 0
169 189 0
164 185 0
169 188 0
164 185 0
163 185 0
164 186 0
186 209 189
187 210 184
186 208 179
190 213 194
189 212 194
188 211 193
180 203 165
191 214 204
186 209 189
185 208 179
185 208 179
186 209 188
182 205 169
184 207 189
183 207 177
188 211 203
179 203 173
180 204 179
183 206 186
191 214 203
183 206 188
186 209 193
180 204 179
181 206 189
180 204 177
176 199 167
181 205 165
180 205 173
182 206 188
177 201 173
177 202 179
180 205 179
179 203 165
179 203 179
179 204 179
184 209 194
179 203 165
178 202 171
176 200 167
181 206 199
182 207 191
177 203 189
175 200 182
181 206 182
184 209 201
178 202 175
180 204 188
175 200 184
174 198 181
174 198 186
173 197 174
175 199 175
171 194 169
178 203 189
177 202 189
172 196 179
179 203 188
172 196 182
170 194 175
176 200 178
176 200 189
176 200 181
169 191 172
169 192 176
180 204 189
172 195 167
169 192 180
174 197 169
174 197 181
175 198 194
179 202 173
176 199 173
177 200 167
179 202 184
171 194 171
175 197 182
183 206 188
181 202 181
184 206 206
180 201 182
176 198 173
183 204 196
177 199 181
180 201 198
181 201 191
188 209 204
171 191 173
176 197 184
182 202 191
183 204 199
180 200 193
179 199 173
182 201 189
179 199 182
176 196 179
187 206 203
185 205 189
179 198 171
178 197 184
184 202 198
184 202 196
185 204 196
177 195 184
181 200 181
184 201 191
178 196 182
178 196 184
179 197 182
171 189 173
170 188 167
179 196 181
173 191 165
167 184 167
170 188 161
169 186 159
182 199 177
168 187 128
171 189 157
163 182 133
159 177 137
163 181 144
174 191 163
170 187 163
162 177 151
163 180 142
169 184 159
156 174 117
151 172 57
137 156 36
144 164 25
145 166 44
143 165 44
155 176 25
158 178 0
156 177 0
149 170 0
138 159 0
152 172 0
145 165 0
146 166 0
141 160 0
135 154 0
133 152 0
132 151 0
122 141 0
123 141 0
122 140 0
116 133 0
122 141 0
116 135 0
117 135 0
123 142 25
114 132 0
116 134 0
101 120 0
115 133 0
109 127 0
110 128 0
104 121 0
108 125 0
103 120 0
87 104 0
103 119 0
111 128 0
101 118 0
104 121 0
92 108 0
103 119 0
100 116 0
116 133 0
108 126 0
118 135 0
108 124 0
104 120 0
96 112 0
97 113 0
98 115 0
106 123 0
113 131 0
105 122 0
104 121 0
99 115 0
107 124 0
95 113 0
102 118 0
118 136 0
107 123 0
106 122 0
104 121 0
107 123 0
106 123 0
114 132 0
102 119 0
107 124 0
99 116 0
115 133 0
112 129 0
116 134 0
102 118 0
114 131 0
117 135 0
123 140 0
114 131 0
114 133 0
122 140 0
123 141 0
107 124 0
115 132 0
108 128 0
113 131 0
118 136 0
121 140 0
111 128 0
125 145 0
122 140 0
131 149 0
124 143 0
117 134 0
118 138 0
121 139 0
127 146 0
119 138 0
131 150 0
130 149 0
119 138 0
128 146 0
131 150 0
123 143 0
131 149 0
132 153 0
134 153 0
133 152 0
128 147 0
132 152 0
129 148 0
133 153 0
133 152 0
138 157 0
143 163 0
143 162 0
135 155 0
131 151 0
134 154 0
134 154 0
131 150 0
136 156 0
126 147 0
130 149 0
130 149 0
146 165 0
143 163 0
145 166 0
138 158 0
142 161 0
143 164 0
144 165 0
140 159 0
143 164 0
145 166 0
145 165 0
143 163 0
137 159 0
140 160 0
147 169 0
145 165 0
143 162 0
143 163 0
142 162 0
146 169 0
150 171 0
147 166 0
149 169 0
150 171 0
147 168 0
136 155 0
146 165 0
145 165 0
142 162 0
149 170 0
151 173 0
145 165 0
150 170 0
150 170 0
147 168 0
151 172 0
147 168 0
153 175 0
146 166 0
151 172 0
149 170 0
154 175 0
154 175 0
147 167 0
147 165 0
157 175 0
152 173 0
153 174 0
154 175 0
154 173 0
155 176 0
157 176 0
151 171 0
153 175 0
153 174 0
158 179 0
158 178 0
155 176 0
160 180 0
152 173 0
147 165 0
153 173 0
152 174 0
156 175 0
158 177 0
163 186 0
159 180 0
150 169 0
161 181 0
154 174 0
159 180 0
161 182 0
156 176 0
161 183 0
161 181 0
151 171 0
152 173 0
159 179 0
162 183 0
162 183 0
159 181 0
151 172 0
158 178 0
154 175 0
164 184 0
160 181 0
158 177 0
160 181 0
160 180 0
154 174 0
162 183 0
158 179 0
156 177 0
164 186 0
156 177 0
164 186 0
155 177 0
160 180 0
159 180 0
161 180 0
162 184 0
157 178 0
166 186 0
162 183 0
158 178 0
161 183 0
161 183 0
168 188 0
165 186 0
165 186 0
168 189 0
163 184 0
161 183 0
160 182 0
166 186 0
158 180 0
164 183 0
160 182 0
162 183 0
164 186 0
164 185 0
164 184 0
169 190 0
160 180 0
165 186 0
163 184 0
163 183 0
159 179 0
163 185 0
167 189 0
160 181 0
164 185 0
161 182 0
168 189 0
163 184 0
164 184 0
164 185 0
166 190 0
162 183 0
168 190 0
166 189 0
169 191 0
169 189 0
162 184 0
161 181 0
166 187 0
168 187 0
172 194 0
165 186 0
166 187 0
163 184 0
190 213 196
188 211 191
185 208 188
183 207 179
188 210 179
183 207 169
188 212 194
183 206 182
187 210 196
184 208 182
188 211 194
185 208 184
184 208 173
186 209 188
183 206 189
188 212 191
183 207 181
188 211 198
184 208 182
183 207 177
184 208 186
181 206 181
181 205 182
180 204 179
182 206 182
180 204 167
178 202 175
183 207 182
177 201 167
182 206 171
179 204 173
181 206 184
184 208 196
173 197 169
180 205 199
179 203 179
178 203 181
179 204 181
181 206 188
180 205 193
176 201 186
174 199 175
178 202 184
180 204 182
174 198 169
176 200 171
178 200 165
176 201 181
173 197 173
179 203 188
176 200 182
176 200 188
176 200 181
171 194 169
179 203 194
173 196 169
171 194 169
172 196 186
179 202 188
174 198 179
170 194 173
172 196 181
173 196 174
170 193 181
172 195 168
169 192 171
177 201 178
175 197 191
177 199 182
173 195 179
173 196 175
180 202 189
173 195 177
176 198 184
170 193 163
178 200 177
178 200 179
176 198 179
182 204 184
183 204 188
179 200 184
171 192 167
176 197 179
181 202 189
177 198 184
176 197 165
181 201 186
180 201 188
181 201 191
189 209 204
177 197 188
175 195 184
182 202 199
176 196 175
183 203 191
179 199 184
177 196 191
173 192 179
179 198 191
177 195 181
181 200 198
178 197 182
181 199 182
182 200 191
176 195 181
176 194 186
177 195 173
185 202 199
169 186 163
171 190 165
169 187 149
179 197 167
171 189 157
169 186 163
176 193 169
170 186 169
161 179 147
160 178 142
171 188 142
172 190 151
172 189 161
160 177 137
172 187 169
161 178 144
160 178 135
151 168 111
147 167 67
143 164 36
144 165 36
136 155 51
157 177 51
140 160 25
159 182 25
164 187 0
159 182 0
149 170 0
147 166 0
148 169 0
150 171 0
146 165 0
136 155 0
139 156 0
138 157 0
128 146 0
124 142 0
127 146 0
121 141 0
131 150 0
132 150 0
121 138 0
119 137 0
114 133 0
124 142 0
121 138 25
116 135 0
124 141 0
117 135 0
118 135 0
109 126 0
98 116 0
125 143 0
105 123 0
113 130 0
88 105 0
122 140 0
110 127 0
121 138 0
109 126 0
105 122 0
101 118 0
98 115 0
114 131 0
105 122 0
102 119 0
106 123 0
104 121 0
101 119 0
106 124 0
108 124 0
114 132 0
101 119 0
101 117 0
99 117 0
115 132 0
116 134 0
116 134 0
104 122 0
114 132 0
109 127 0
122 140 0
105 123 0
118 136 0
114 132 0
108 126 0
107 125 0
117 135 0
125 143 0
111 129 0
121 140 0
119 138 0
130 148 0
121 139 0
115 133 0
113 131 0
120 138 0
112 130 0
119 137 0
106 124 0
113 131 0
121 140 0
129 147 0
127 146 0
126 145 0
122 143 0
129 149 0
131 149 0
122 141 0
111 129 0
113 131 0
121 141 0
115 134 0
120 138 0
128 148 0
125 143 0
123 141 0
126 146 0
133 153 0
127 149 0
135 154 0
133 152 0
133 152 0
128 146 0
140 159 0
135 155 0
141 161 0
128 148 0
133 152 0
129 149 0
134 153 0
123 141 0
131 151 0
131 150 0
141 160 0
137 157 0
145 166 0
127 149 0
141 161 0
138 158 0
143 163 0
133 152 0
136 156 0
135 155 0
132 152 0
146 166 0
144 166 0
140 159 0
138 157 0
144 165 0
139 159 0
145 164 0
143 163 0
142 163 0
136 158 0
140 161 0
142 163 0
145 166 0
146 168 0
152 173 0
140 160 0
143 165 0
152 173 0
145 166 0
137 159 0
154 175 0
142 162 0
142 164 0
139 157 0
149 172 0
139 159 0
148 168 0
144 166 0
149 170 0
151 172 0
151 172 0
148 170 0
147 167 0
147 170 0
143 164 0
146 167 0
150 172 0
153 175 0
150 171 0
152 170 0
150 171 0
148 168 0
157 179 0
155 175 0
161 183 0
156 178 0
151 172 0
152 172 0
159 180 0
156 177 0
159 180 0
152 172 0
156 177 0
153 175 0
156 177 0
160 182 0
160 181 0
155 177 0
152 173 0
154 176 0
152 172 0
158 179 0
157 179 0
159 180 0
161 183 0
157 179 0
158 179 0
156 177 0
157 177 0
158 178 0
156 176 0
157 179 0
155 176 0
157 177 0
158 178 0
162 184 0
156 177 0
156 178 0
166 189 0
164 185 0
163 183 0
157 179 0
156 177 0
154 173 0
160 182 0
159 180 0
162 183 0
154 174 0
155 176 0
161 183 0
158 179 0
161 181 0
158 178 0
161 182 0
162 183 0
164 186 0
161 184 0
159 180 0
158 178 0
159 179 0
162 184 0
167 188 0
160 180 0
155 176 0
162 183 0
157 177 0
159 177 0
159 180 0
166 186 0
159 179 0
164 185 0
157 180 0
162 185 0
162 183 0
160 182 0
163 185 0
164 185 0
163 184 0
165 187 0
168 190 0
164 187 0
159 181 0
165 186 0
166 187 0
163 184 0
164 185 0
156 177 0
168 189 0
165 185 0
159 179 0
164 184 0
166 188 0
162 181 0
165 187 0
169 190 0
164 186 0
164 186 0
169 190 0
168 189 0
165 187 0
169 190 0
165 187 0
165 186 0
166 187 0
169 189 0
163 185 0
164 185 0
181 204 181
189 212 191
183 206 169
185 208 186
187 210 199
183 206 182
182 204 181
186 210 199
187 210 189
183 206 182
184 207 194
177 200 171
189 212 188
183 206 177
180 203 177
182 205 184
187 210 184
181 205 182
185 207 182
183 207 188
186 209 198
181 205 171
186 210 198
182 206 188
184 207 177
179 203 182
176 201 173
178 202 173
178 202 182
181 205 179
182 207 175
177 201 169
178 202 177
180 204 167
178 203 177
179 204 173
181 205 191
173 197 179
180 204 177
176 200 177
175 199 177
181 205 191
182 206 188
173 198 177
172 197 161
177 202 175
177 200 165
179 204 188
172 197 173
174 198 177
170 194 179
175 200 179
176 199 188
177 202 184
169 193 173
176 200 188
179 203 186
171 195 179
178 202 194
172 196 169
178 201 175
173 196 184
174 197 181
176 199 176
178 201 191
174 196 179
180 203 198
181 204 194
176 199 184
180 202 181
175 198 165
176 199 167
169 191 161
177 200 173
176 199 182
172 195 163
178 199 177
183 206 193
180 202 188
181 203 186
184 206 194
174 195 184
175 197 182
177 199 181
177 197 184
183 204 193
176 197 171
176 197 177
184 205 194
187 207 201
165 186 167
176 197 177
177 197 189
169 189 171
185 204 194
182 201 191
180 199 181
176 195 179
176 196 179
183 202 191
178 198 179
169 188 171
174 193 184
177 194 186
187 205 199
178 196 181
180 198 177
182 200 189
181 198 186
182 201 171
180 197 177
179 197 177
174 192 163
170 189 161
176 192 165
175 193 161
172 191 155
172 189 151
168 186 151
160 177 137
167 184 159
167 184 155
162 180 149
163 179 144
169 186 149
159 177 120
147 166 57
142 162 67
144 165 67
148 169 44
151 171 51
149 170 25
151 172 36
148 167 0
161 181 0
152 173 0
146 166 0
157 177 0
145 165 0
153 172 0
137 157 0
138 159 0
135 154 0
129 150 0
137 156 0
131 152 0
113 132 0
124 142 0
126 146 0
112 131 0
123 142 0
134 154 0
122 141 0
123 141 0
122 138 0
124 143 0
114 131 0
106 125 0
102 120 0
117 136 0
102 119 0
114 131 0
118 136 0
116 133 0
121 138 0
116 134 0
102 119 0
106 123 0
112 129 0
122 139 0
116 134 0
109 126 0
118 135 0
114 133 0
113 130 0
109 128 0
117 135 0
113 130 0
107 124 0
113 131 0
111 129 0
117 136 0
114 132 0
114 131 0
113 131 0
116 134 0
112 130 0
121 139 0
120 139 0
114 132 0
119 137 0
118 135 0
109 126 0
118 136 0
117 135 0
105 123 0
114 132 0
119 138 0
105 124 0
120 138 0
113 132 0
111 129 0
113 130 0
113 131 0
120 139 0
111 130 0
114 133 0
120 139 0
116 133 0
117 136 0
122 140 0
114 132 0
128 148 0
115 135 0
125 145 0
125 143 0
113 133 0
113 130 0
126 144 0
123 142 0
117 136 0
120 139 0
117 136 0
129 148 0
124 143 0
121 139 0
124 144 0
130 151 0
132 150 0
122 141 0
128 147 0
137 157 0
133 154 0
131 149 0
135 156 0
132 151 0
133 153 0
132 152 0
130 150 0
130 149 0
136 157 0
143 162 0
138 157 0
144 166 0
133 154 0
131 152 0
136 156 0
135 155 0
143 163 0
138 159 0
146 168 0
141 161 0
140 159 0
132 152 0
136 156 0
142 162 0
143 162 0
130 151 0
144 166 0
143 163 0
146 166 0
144 164 0
139 159 0
146 167 0
148 170 0
138 157 0
149 168 0
150 171 0
143 163 0
149 169 0
139 160 0
149 169 0
145 165 0
149 171 0
138 158 0
149 170 0
151 171 0
154 173 0
150 172 0
150 171 0
151 172 0
148 168 0
158 180 0
153 172 0
145 165 0
147 168 0
149 169 0
145 166 0
146 167 0
155 176 0
148 169 0
148 169 0
156 177 0
144 165 0
152 173 0
156 178 0
152 173 0
145 166 0
162 183 0
147 168 0
152 172 0
151 173 0
157 176 0
157 178 0
153 173 0
154 173 0
157 179 0
156 178 0
151 172 0
154 175 0
155 177 0
159 181 0
154 174 0
161 183 0
155 177 0
156 177 0
152 173 0
149 170 0
157 178 0
159 180 0
155 176 0
158 179 0
157 179 0
159 180 0
156 178 0
154 173 0
160 181 0
159 179 0
164 186 0
159 179 0
157 179 0
162 182 0
161 183 0
161 182 0
155 175 0
161 181 0
165 186 0
160 181 0
162 183 0
158 180 0
159 180 0
158 179 0
156 177 0
156 177 0
155 176 0
163 185 0
163 184 0
162 182 0
161 181 0
164 183 0
159 180 0
164 186 0
166 188 0
161 182 0
159 180 0
159 181 0
162 184 0
162 182 0
161 183 0
164 184 0
159 179 0
163 185 0
164 185 0
160 180 0
169 191 0
163 183 0
165 185 0
161 181 0
164 186 0
162 183 0
161 184 0
159 180 0
160 181 0
166 187 0
164 185 0
161 183 0
163 184 0
168 189 0
164 185 0
167 189 0
163 185 0
160 180 0
167 188 0
165 186 0
165 185 0
166 187 0
166 188 0
163 184 0
158 179 0
167 189 0
169 192 0
169 190 0
168 190 0
167 188 0
164 187 0
165 186 0
166 187 0
166 188 0
165 185 0
169 190 0
186 209 189
188 210 201
181 204 165
185 207 175
187 210 191
182 206 189
185 208 193
190 213 198
185 208 196
181 204 175
184 207 186
181 205 171
182 204 171
185 209 188
188 210 194
186 209 186
183 206 194
186 209 188
179 202 179
179 203 165
179 203 165
180 204 171
180 204 177
180 204 175
177 201 171
184 207 186
181 205 173
178 201 165
175 199 159
182 207 175
178 202 173
177 202 175
178 203 173
178 202 167
174 199 169
178 202 171
177 202 171
178 203 179
176 200 167
176 201 182
178 202 189
181 206 181
176 199 169
179 203 171
176 199 163
179 204 201
178 202 177
174 198 182
176 200 175
180 204 182
176 200 177
173 197 163
166 190 177
174 198 172
179 204 194
173 197 188
177 201 188
172 196 191
174 198 186
173 197 184
177 201 191
170 194 161
172 195 169
180 203 193
178 201 189
179 203 189
174 197 184
179 202 189
181 204 191
175 197 171
178 201 184
178 201 177
174 196 179
176 198 177
180 203 179
173 195 171
179 201 179
180 202 175
184 206 193
180 201 191
179 200 188
184 204 193
182 203 173
173 193 173
183 203 198
185 206 198
182 202 186
178 198 191
178 199 188
183 204 182
180 200 188
178 197 184
182 202 189
183 203 189
174 193 186
188 208 207
178 198 175
185 204 189
179 198 181
183 202 186
183 202 189
177 196 175
173 192 169
185 204 193
185 203 191
184 202 193
174 191 177
178 196 179
171 187 169
176 194 171
177 195 171
177 195 167
173 191 167
168 185 167
169 187 153
172 190 142
168 186 142
164 181 149
167 184 147
157 175 142
149 167 135
178 194 165
167 183 157
165 181 157
175 191 157
150 170 76
151 171 57
150 171 36
145 166 36
152 173 51
145 167 62
150 171 51
156 179 0
157 178 0
156 177 0
152 172 0
149 170 0
160 179 0
146 167 0
141 161 0
142 161 0
136 155 0
140 161 0
134 155 0
136 156 0
126 144 0
125 145 0
133 152 0
122 141 0
132 151 0
120 138 0
127 146 0
122 141 0
118 137 0
111 128 0
119 137 0
117 134 0
124 142 0
111 130 0
111 128 0
110 127 0
106 125 0
118 138 0
111 130 0
116 134 0
104 122 0
108 124 0
117 135 0
111 128 0
117 135 0
113 130 0
120 138 0
119 136 0
119 137 0
126 144 0
107 125 0
97 115 0
111 128 0
118 136 0
110 129 0
112 128 0
120 139 0
112 129 0
112 129 0
114 132 0
110 129 0
115 134 0
117 135 0
102 119 0
115 133 0
105 124 0
117 134 0
132 151 0
125 143 0
115 134 0
119 137 0
117 136 0
116 134 0
114 133 0
119 138 0
124 142 0
116 133 0
117 136 0
120 139 0
119 138 0
122 139 0
118 136 0
115 133 0
125 144 0
131 149 0
134 152 0
121 139 0
130 150 0
121 140 0
125 146 0
124 140 0
131 150 0
125 145 0
128 148 0
127 147 0
134 153 0
121 140 0
137 157 0
122 140 0
126 145 0
124 143 0
122 139 0
143 164 0
133 153 0
127 146 0
130 150 0
131 151 0
135 154 0
128 148 0
127 147 0
137 155 0
129 147 0
133 153 0
133 153 0
137 157 0
133 154 0
132 153 0
130 148 0
131 150 0
144 166 0
140 159 0
133 153 0
147 167 0
125 144 0
149 170 0
143 164 0
147 168 0
139 158 0
142 161 0
135 155 0
133 153 0
143 165 0
148 169 0
142 163 0
135 155 0
144 165 0
147 167 0
151 173 0
150 172 0
148 168 0
139 160 0
145 166 0
139 159 0
146 168 0
144 165 0
144 164 0
155 176 0
143 163 0
145 165 0
138 160 0
148 170 0
150 170 0
147 168 0
147 168 0
144 165 0
145 166 0
158 178 0
153 174 0
135 155 0
148 169 0
145 166 0
152 173 0
150 170 0
151 172 0
151 171 0
152 174 0
147 167 0
151 171 0
147 168 0
147 167 0
148 168 0
156 177 0
155 175 0
156 177 0
151 171 0
154 175 0
157 178 0
154 175 0
160 182 0
153 174 0
162 184 0
150 170 0
155 177 0
155 176 0
155 176 0
157 179 0
155 176 0
159 179 0
152 173 0
153 174 0
155 175 0
156 177 0
155 177 0
160 181 0
151 172 0
160 180 0
160 182 0
160 179 0
159 181 0
160 182 0
160 181 0
155 175 0
157 179 0
160 181 0
157 179 0
157 179 0
168 189 0
159 180 0
154 175 0
153 171 0
161 183 0
161 180 0
163 184 0
156 177 0
158 178 0
160 181 0
159 180 0
157 177 0
159 180 0
158 179 0
163 184 0
156 177 0
164 186 0
156 178 0
161 181 0
158 180 0
156 177 0
158 180 0
158 181 0
159 179 0
157 176 0
163 184 0
164 186 0
162 185 0
160 182 0
163 183 0
161 182 0
162 183 0
160 182 0
167 189 0
162 184 0
163 184 0
155 175 0
168 190 0
163 184 0
163 185 0
163 186 0
166 189 0
163 185 0
163 184 0
164 187 0
159 182 0
167 189 0
163 183 0
155 175 0
162 183 0
164 185 0
168 189 0
169 190 0
164 186 0
167 188 0
165 186 0
167 187 0
163 185 0
160 180 0
167 189 0
169 191 0
167 190 0
167 189 0
165 185 0
165 186 0
164 186 0
167 188 0
164 185 0
164 184 0
185 208 177
186 209 184
189 212 193
184 206 184
189 211 196
188 212 203
185 207 179
184 207 182
183 205 173
187 210 191
188 212 193
179 202 181
188 210 199
185 209 182
186 208 193
185 209 193
183 207 184
184 207 181
184 208 184
182 206 181
178 202 173
180 203 171
179 204 177
181 205 186
184 208 189
184 209 196
179 203 179
182 206 182
183 207 189
181 206 177
176 200 182
180 204 171
179 204 194
172 196 155
177 201 179
179 203 179
177 201 179
178 202 177
176 200 171
182 207 194
173 198 159
181 206 181
178 202 173
178 203 184
175 200 182
179 204 196
177 201 181
173 197 153
174 198 173
178 202 175
175 199 182
174 198 169
174 198 173
178 202 188
176 199 179
169 193 169
175 199 182
174 198 184
177 201 169
175 198 175
168 191 165
175 198 184
178 202 175
171 194 182
174 198 179
173 196 175
175 198 173
178 200 179
174 198 182
177 200 182
180 202 181
179 202 191
178 201 181
176 199 163
174 197 173
174 197 175
182 205 188
180 202 189
177 199 184
180 201 191
181 202 188
183 205 194
181 202 181
177 199 188
181 201 186
184 205 194
174 195 169
173 194 167
179 200 189
180 200 181
173 194 171
177 197 184
182 202 189
187 207 199
179 199 181
177 196 186
176 195 177
173 192 159
186 205 196
177 196 175
176 194 171
178 197 177
175 193 181
170 187 179
185 203 186
185 203 186
180 197 182
171 188 184
181 198 181
179 197 177
184 202 182
176 194 165
172 190 161
184 201 179
178 196 171
165 184 133
171 190 135
167 185 135
158 176 140
169 187 144
170 188 147
161 179 147
163 180 140
159 175 130
159 179 108
148 168 44
146 166 25
152 174 51
148 168 57
150 171 44
148 167 67
150 169 51
159 180 44
163 186 0
163 184 0
154 176 0
148 169 0
148 170 0
151 172 0
153 173 0
141 160 0
140 160 0
144 164 0
135 154 0
139 157 0
126 144 0
123 142 0
134 154 0
131 149 0
115 134 0
121 140 0
137 157 0
114 133 0
118 137 0
112 131 0
121 139 0
117 134 0
126 144 0
117 135 0
117 135 0
115 133 0
120 137 0
107 126 0
114 133 0
95 112 0
106 125 0
108 126 0
119 137 0
114 132 0
113 130 0
119 136 0
110 128 0
119 138 0
110 129 0
118 135 0
107 124 0
116 134 0
100 118 0
124 142 0
119 137 0
118 136 0
113 130 0
114 132 0
126 144 0
119 138 0
105 123 0
111 129 0
124 142 0
111 129 0
118 138 0
105 123 0
120 138 0
111 131 0
111 129 0
108 125 0
121 138 0
115 134 0
121 140 0
116 134 0
121 139 0
123 143 0
126 146 0
120 139 0
122 142 0
122 141 0
118 137 0
118 136 0
121 140 0
130 150 0
113 133 0
124 142 0
114 132 0
120 137 0
128 146 0
124 143 0
131 151 0
112 132 0
118 137 0
123 143 0
135 154 0
129 147 0
137 155 0
129 149 0
131 150 0
125 144 0
130 149 0
127 147 0
138 158 0
136 157 0
126 145 0
123 142 0
137 157 0
130 149 0
138 158 0
128 147 0
144 164 0
135 155 0
138 159 0
142 163 0
126 145 0
144 164 0
137 155 0
140 160 0
136 157 0
134 154 0
138 157 0
136 156 0
144 165 0
134 154 0
146 168 0
132 152 0
141 161 0
147 167 0
140 162 0
137 157 0
142 162 0
149 170 0
146 166 0
145 165 0
136 157 0
139 160 0
149 168 0
150 170 0
145 167 0
146 166 0
149 168 0
142 163 0
148 169 0
142 162 0
152 173 0
143 165 0
143 165 0
145 164 0
147 169 0
145 165 0
142 164 0
154 174 0
152 171 0
149 169 0
144 165 0
153 174 0
156 175 0
149 169 0
158 178 0
154 177 0
155 176 0
143 165 0
146 168 0
152 173 0
151 170 0
150 170 0
152 173 0
155 174 0
153 174 0
148 168 0
146 166 0
156 176 0
156 177 0
155 176 0
153 174 0
155 175 0
156 177 0
147 167 0
150 172 0
148 168 0
152 172 0
160 182 0
154 175 0
161 182 0
160 179 0
162 182 0
159 181 0
154 175 0
160 181 0
160 179 0
160 181 0
158 179 0
154 176 0
160 181 0
157 177 0
159 180 0
158 178 0
167 189 0
157 178 0
162 184 0
159 181 0
154 176 0
157 178 0
157 179 0
158 180 0
164 186 0
162 183 0
160 180 0
159 180 0
159 180 0
155 176 0
160 182 0
162 183 0
160 181 0
156 180 0
158 179 0
163 184 0
163 185 0
156 177 0
157 177 0
161 182 0
163 185 0
162 183 0
159 181 0
165 187 0
161 183 0
163 184 0
161 180 0
157 178 0
158 181 0
166 189 0
163 185 0
163 185 0
161 182 0
164 186 0
160 182 0
162 183 0
164 185 0
164 186 0
164 184 0
162 183 0
161 182 0
163 183 0
165 186 0
160 182 0
163 185 0
164 186 0
164 186 0
163 184 0
166 187 0
165 187 0
165 186 0
166 187 0
164 187 0
168 189 0
161 182 0
160 180 0
165 186 0
167 190 0
168 189 0
165 186 0
161 182 0
164 185 0
166 187 0
170 193 0
166 188 0
167 188 0
164 187 0
165 187 0
165 187 0
165 187 0
168 190 0
167 188 0
167 189 0
163 183 0
185 207 186
184 207 171
190 212 193
184 207 171
185 209 181
189 211 193
188 210 191
185 208 193
187 210 199
185 208 184
183 206 188
182 205 175
185 208 189
182 205 177
185 208 194
182 206 181
184 208 175
185 208 194
181 204 184
178 201 163
184 208 173
180 205 188
184 208 182
182 205 189
178 203 163
179 202 167
184 208 181
179 203 167
175 199 169
181 205 188
176 199 155
179 203 177
182 206 182
179 203 191
178 203 179
179 204 177
180 205 189
176 201 173
180 204 179
178 202 186
180 205 182
178 203 184
180 204 181
172 196 169
179 203 184
180 204 184
176 199 169
175 199 177
176 200 163
172 197 175
179 204 181
175 199 182
182 206 203
175 198 181
175 199 182
179 203 175
175 199 175
167 189 165
174 197 175
170 192 173
168 192 157
173 196 179
180 203 196
175 198 181
170 193 167
178 201 184
173 196 161
182 206 199
175 198 173
182 205 193
177 199 184
175 198 175
174 197 175
179 202 173
179 201 177
186 208 194
168 191 161
179 201 182
178 199 167
174 196 189
185 206 189
179 200 199
172 193 179
182 203 201
180 201 181
177 198 179
186 207 194
184 205 191
175 195 165
179 199 188
181 201 175
182 202 193
172 192 161
178 197 188
187 206 201
180 199 186
179 199 189
180 199 196
178 197 181
186 206 194
178 196 179
176 195 169
187 205 196
187 204 203
179 197 182
178 196 181
181 198 188
174 191 175
184 201 198
183 200 179
177 195 175
174 192 159
172 190 161
170 189 159
170 188 151
172 191 149
182 200 161
165 184 140
163 180 130
176 193 151
169 188 130
171 189 149
167 184 151
158 174 133
158 178 80
149 169 51
151 172 57
148 168 67
157 179 62
144 166 44
153 174 36
151 171 57
150 172 0
159 181 0
153 175 0
155 176 0
153 173 0
151 173 0
150 170 0
144 164 0
143 164 0
139 159 0
132 152 0
136 156 0
130 149 0
140 160 0
125 144 0
132 150 0
133 152 0
127 145 0
128 147 0
119 138 0
119 138 25
127 147 0
114 133 0
112 131 0
138 156 0
125 144 0
103 121 0
125 143 0
116 133 0
113 130 0
100 117 0
120 139 0
116 135 0
120 138 0
118 136 0
119 138 0
115 133 0
117 136 0
108 126 0
112 129 0
119 136 0
117 135 0
128 146 0
127 146 0
128 145 0
118 136 0
112 130 0
113 132 0
122 141 0
109 127 0
118 136 0
115 133 0
109 128 0
115 133 0
109 127 0
104 122 0
128 148 0
121 140 0
116 134 0
117 135 0
116 134 0
115 134 0
118 137 0
119 137 0
121 141 0
125 144 0
117 136 0
125 144 0
118 138 0
115 132 0
113 131 0
128 147 0
130 150 0
131 150 0
130 149 0
124 144 0
136 155 0
124 144 0
127 146 0
116 136 0
129 147 0
115 134 0
131 150 0
125 144 0
123 143 0
138 158 0
128 147 0
127 146 0
119 137 0
119 139 0
130 150 0
127 147 0
130 148 0
133 151 0
133 153 0
130 149 0
119 139 0
140 159 0
123 141 0
125 144 0
137 157 0
127 147 0
136 157 0
133 152 0
130 150 0
138 157 0
133 155 0
129 150 0
130 149 0
134 154 0
126 146 0
137 156 0
133 154 0
134 155 0
139 158 0
141 161 0
145 166 0
135 154 0
138 159 0
139 160 0
148 169 0
140 161 0
133 153 0
149 170 0
145 165 0
143 164 0
149 169 0
147 168 0
146 168 0
142 162 0
143 164 0
146 166 0
148 168 0
139 158 0
152 172 0
136 157 0
143 165 0
146 167 0
153 173 0
151 171 0
149 170 0
148 169 0
149 170 0
143 163 0
143 164 0
154 175 0
154 176 0
153 174 0
156 177 0
154 174 0
158 180 0
159 181 0
153 174 0
151 171 0
151 174 0
149 170 0
147 167 0
147 167 0
141 163 0
156 178 0
152 174 0
151 173 0
149 171 0
151 173 0
156 176 0
152 173 0
148 168 0
154 173 0
149 169 0
161 183 0
151 171 0
155 177 0
155 177 0
160 179 0
159 180 0
160 181 0
152 175 0
155 174 0
158 180 0
160 180 0
152 174 0
160 183 0
152 173 0
160 181 0
156 176 0
159 180 0
157 177 0
154 175 0
162 183 0
156 178 0
158 179 0
157 179 0
160 182 0
163 185 0
160 180 0
155 177 0
162 184 0
160 180 0
156 178 0
162 183 0
159 181 0
156 178 0
161 182 0
162 182 0
169 190 0
164 185 0
159 179 0
160 181 0
161 181 0
164 185 0
156 177 0
156 176 0
155 176 0
160 182 0
163 183 0
162 184 0
162 183 0
160 181 0
159 179 0
161 182 0
156 176 0
160 181 0
162 182 0
160 182 0
163 186 0
163 184 0
156 177 0
165 187 0
162 183 0
162 185 0
163 184 0
169 191 0
167 190 0
161 183 0
164 185 0
161 183 0
162 184 0
160 181 0
163 185 0
161 180 0
162 183 0
158 181 0
164 184 0
163 183 0
166 188 0
164 185 0
167 190 0
167 190 0
165 186 0
161 182 0
161 183 0
169 191 0
166 189 0
163 184 0
161 182 0
167 188 0
167 189 0
171 193 0
165 188 0
172 195 0
168 190 0
166 189 0
167 188 0
160 181 0
164 186 0
165 186 0
162 184 0
163 185 0
186 209 184
183 206 163
186 208 189
188 210 184
187 210 201
186 209 189
189 212 191
181 204 182
184 207 184
186 209 184
183 206 184
186 209 188
185 209 191
188 211 199
185 209 193
185 208 193
184 207 182
179 202 167
178 203 169
178 202 165
183 207 182
180 204 167
183 208 194
180 204 167
181 205 175
185 209 191
180 203 167
177 201 167
181 205 186
178 201 175
186 210 201
178 202 175
181 206 188
184 208 186
179 204 175
179 203 189
183 207 196
180 205 191
179 203 181
182 207 188
179 204 171
175 200 177
175 199 173
174 198 167
173 197 184
178 201 181
184 208 201
172 195 153
176 200 179
173 197 177
175 199 177
178 202 173
178 202 177
175 199 188
178 201 181
177 200 188
179 204 194
173 196 171
178 201 179
176 199 182
179 203 181
181 205 186
180 202 186
171 194 167
180 203 182
179 202 169
182 205 177
179 202 177
178 201 182
179 202 179
180 203 188
181 203 177
184 206 186
182 205 189
181 204 191
182 205 186
177 199 175
178 200 177
177 199 189
176 197 179
178 199 184
180 201 181
179 199 191
183 204 199
179 200 186
186 207 199
180 200 184
171 192 177
178 198 179
181 200 188
178 199 179
178 197 184
180 200 184
181 200 188
183 202 198
180 199 198
179 198 184
176 194 177
181 201 189
174 194 167
181 199 189
180 198 175
189 207 193
185 203 194
172 190 173
182 199 188
181 199 175
184 202 188
185 203 189
176 193 182
165 183 144
170 187 155
175 193 147
167 185 137
170 189 153
172 191 149
177 195 153
169 187 151
172 189 159
167 185 125
170 188 153
168 187 137
159 175 137
159 178 95
157 179 62
156 178 72
148 169 51
146 166 51
156 176 67
150 170 57
152 174 44
149 170 44
157 180 36
159 181 0
149 169 0
158 178 0
157 177 0
157 178 0
152 173 0
154 174 0
138 158 0
141 161 0
141 161 0
134 156 0
129 149 0
140 160 0
130 150 0
132 152 0
112 130 0
127 146 0
129 148 0
118 137 0
134 153 0
130 149 0
115 134 0
124 143 0
115 134 0
119 137 0
125 143 0
113 132 0
123 141 0
123 142 0
110 128 0
115 134 0
119 137 0
126 144 0
124 143 0
122 141 0
115 134 0
121 140 0
118 137 0
109 128 0
121 139 0
121 140 0
113 130 0
128 145 0
115 133 0
118 135 0
115 134 0
105 122 0
122 140 0
117 136 0
108 127 0
125 145 0
107 125 0
116 134 0
124 143 0
120 139 0
119 138 0
117 135 0
119 137 0
114 132 0
118 136 0
115 133 0
125 143 0
113 131 0
126 144 0
117 137 0
125 144 0
125 144 0
111 129 0
110 128 0
128 147 0
137 156 0
123 142 0
115 133 0
124 143 0
107 125 0
116 135 0
126 145 0
122 141 0
129 148 0
124 143 0
123 143 0
125 145 0
132 152 0
124 144 0
122 140 0
132 153 0
131 151 0
122 142 0
128 146 0
132 151 0
128 146 0
136 157 0
139 159 0
138 157 0
135 156 0
128 148 0
128 149 0
131 151 0
132 152 0
145 165 0
133 152 0
126 148 0
135 155 0
133 154 0
138 158 0
143 163 0
139 160 0
133 153 0
143 163 0
137 157 0
138 160 0
136 155 0
146 167 0
138 158 0
137 157 0
138 158 0
150 169 0
133 153 0
140 161 0
141 162 0
143 163 0
149 170 0
141 162 0
142 162 0
144 164 0
141 162 0
135 153 0
151 172 0
143 164 0
146 167 0
150 172 0
143 164 0
146 168 0
150 170 0
147 167 0
145 165 0
136 155 0
147 168 0
152 172 0
146 167 0
154 176 0
154 175 0
151 172 0
143 166 0
156 178 0
142 163 0
151 172 0
155 177 0
150 170 0
160 180 0
154 175 0
142 164 0
150 171 0
146 168 0
152 173 0
157 179 0
150 170 0
151 172 0
154 175 0
150 172 0
161 182 0
157 177 0
150 168 0
159 182 0
160 181 0
150 171 0
157 179 0
155 176 0
150 172 0
155 177 0
158 180 0
148 169 0
154 175 0
158 179 0
151 172 0
152 173 0
160 182 0
155 176 0
155 175 0
159 180 0
160 183 0
155 176 0
157 178 0
160 182 0
155 176 0
158 179 0
165 186 0
161 182 0
162 183 0
152 173 0
157 179 0
157 177 0
165 187 0
152 172 0
162 183 0
159 179 0
164 186 0
164 185 0
156 176 0
152 172 0
160 182 0
160 182 0
160 182 0
160 181 0
164 185 0
156 175 0
158 179 0
163 185 0
163 185 0
166 187 0
162 184 0
161 183 0
158 179 0
161 182 0
157 179 0
167 188 0
161 183 0
158 177 0
159 179 0
162 185 0
160 181 0
162 184 0
163 184 0
164 184 0
154 175 0
160 182 0
162 184 0
156 175 0
162 185 0
165 187 0
161 181 0
166 188 0
160 181 0
161 181 0
166 187 0
165 185 0
164 185 0
167 190 0
162 182 0
166 188 0
162 184 0
166 188 0
167 189 0
165 186 0
165 185 0
167 188 0
166 188 0
166 188 0
168 188 0
164 185 0
162 183 0
164 186 0
165 187 0
164 185 0
166 187 0
166 187 0
164 186 0
160 179 0
165 187 0
165 188 0
164 184 0
167 190 0
170 192 0
166 186 0
162 184 0
163 183 0
165 186 0
185 208 189
189 211 189
185 207 179
182 205 169
187 210 199
182 204 173
185 208 179
181 204 173
183 206 188
186 209 193
181 204 182
182 204 188
179 202 175
184 206 179
186 210 194
183 206 171
188 212 194
184 208 171
181 204 177
180 203 179
185 208 184
180 204 177
183 207 171
184 208 184
181 205 182
177 201 175
178 202 169
175 199 159
181 205 184
178 202 175
180 204 173
178 202 161
177 202 163
182 206 181
180 204 181
173 197 167
183 207 186
183 208 186
181 205 179
179 203 173
179 204 194
175 199 171
177 201 177
175 199 173
178 203 161
176 200 177
176 201 177
174 198 169
177 202 177
177 201 155
179 202 177
177 201 181
181 205 188
175 200 186
179 203 189
177 200 188
169 193 161
167 190 173
171 194 175
175 198 179
175 198 179
180 202 184
179 202 186
171 194 179
177 200 184
176 199 177
178 201 184
177 200 175
175 197 177
182 205 198
181 203 177
176 199 173
178 201 184
179 201 184
179 201 175
178 200 171
176 199 167
175 197 167
170 192 157
179 200 193
177 198 177
184 204 188
179 199 189
181 202 177
180 200 184
186 207 201
183 204 198
178 198 184
175 196 179
183 203 189
180 200 186
184 204 193
181 201 189
181 200 184
170 189 169
178 198 181
171 190 171
186 205 206
185 204 193
179 198 184
181 200 181
181 200 188
173 192 177
182 200 177
179 198 182
190 208 188
186 203 196
176 193 177
187 204 191
174 190 173
177 195 163
180 196 175
171 190 147
169 187 142
178 195 171
176 194 161
174 191 159
174 192 155
178 196 165
162 179 130
173 190 153
170 188 135
169 188 137
156 177 88
153 173 67
148 169 67
149 170 44
148 169 67
149 170 57
153 176 44
149 171 0
149 170 25
153 174 0
163 187 0
162 184 0
156 178 0
155 177 0
147 169 0
146 167 0
142 163 0
147 169 0
144 165 0
127 147 0
142 163 0
139 157 0
134 153 0
129 147 0
135 155 0
127 148 0
134 155 0
130 150 0
127 146 0
126 145 0
128 148 0
118 137 0
123 142 0
114 132 0
119 137 0
111 130 0
117 136 0
113 131 0
122 140 0
133 151 0
125 144 0
123 141 0
115 133 0
122 140 0
116 134 0
121 138 0
110 129 0
123 142 0
118 137 0
122 139 0
118 137 0
118 136 0
117 135 0
113 131 0
125 145 0
122 142 0
111 129 0
104 122 0
108 125 0
119 138 0
122 139 0
115 133 0
115 135 0
109 127 0
123 141 0
126 146 0
121 140 0
120 138 0
121 139 0
128 147 0
117 136 0
122 142 0
105 122 0
118 136 0
115 135 0
116 135 0
137 158 0
130 149 0
125 143 0
127 146 0
120 138 0
112 131 0
133 152 0
126 144 0
131 149 0
124 144 0
133 152 0
117 136 0
129 148 0
119 139 0
123 142 0
133 153 0
123 142 0
126 145 0
126 146 0
132 150 0
127 146 0
126 145 0
126 146 0
122 141 0
133 153 0
139 160 0
134 153 0
132 151 0
139 159 0
137 156 0
125 144 0
139 159 0
134 154 0
129 149 0
141 161 0
136 155 0
138 158 0
132 152 0
133 152 0
145 165 0
136 156 0
140 162 0
145 166 0
138 157 0
143 164 0
134 154 0
143 164 0
139 159 0
141 162 0
143 165 0
140 159 0
137 159 0
146 168 0
144 166 0
148 169 0
134 154 0
142 162 0
144 164 0
142 162 0
140 161 0
142 163 0
151 170 0
145 167 0
150 173 0
136 157 0
148 169 0
147 168 0
146 167 0
156 178 0
147 167 0
147 167 0
145 164 0
143 164 0
148 168 0
153 174 0
149 170 0
151 172 0
153 175 0
151 172 0
150 169 0
145 167 0
145 166 0
155 178 0
151 172 0
151 172 0
149 172 0
149 170 0
150 171 0
150 171 0
147 165 0
153 172 0
157 179 0
160 182 0
149 169 0
153 174 0
161 183 0
149 169 0
149 170 0
159 181 0
152 175 0
149 168 0
154 175 0
157 181 0
160 181 0
156 177 0
157 177 0
155 177 0
150 168 0
156 179 0
159 180 0
157 177 0
153 173 0
160 179 0
156 178 0
156 176 0
156 177 0
158 178 0
153 175 0
149 170 0
156 179 0
156 176 0
159 181 0
153 175 0
152 174 0
158 179 0
156 175 0
159 181 0
163 186 0
152 173 0
160 180 0
157 178 0
164 186 0
162 183 0
157 178 0
161 183 0
157 178 0
163 185 0
163 185 0
160 180 0
158 180 0
163 185 0
161 182 0
158 180 0
166 189 0
160 181 0
161 182 0
158 178 0
160 181 0
159 182 0
157 179 0
165 186 0
157 177 0
160 181 0
162 184 0
159 181 0
160 180 0
162 183 0
164 185 0
163 184 0
161 182 0
161 184 0
162 183 0
157 180 0
166 187 0
165 187 0
170 191 0
164 186 0
162 183 0
162 183 0
163 184 0
164 186 0
163 187 0
165 186 0
168 190 0
164 187 0
162 184 0
160 181 0
167 187 0
166 187 0
161 181 0
166 189 0
164 186 0
166 188 0
165 185 0
164 185 0
162 184 0
158 179 0
170 193 0
163 185 0
169 191 0
165 187 0
168 188 0
170 191 0
165 186 0
166 187 0
165 187 0
172 193 0
165 187 0
171 192 0
166 189 0
164 185 0
185 208 177
188 210 175
189 212 191
189 211 188
189 212 194
184 207 179
186 209 177
183 206 182
184 207 171
181 203 184
183 207 182
187 209 184
186 209 191
184 207 173
187 211 193
182 206 181
185 209 189
182 205 171
181 205 159
182 206 184
182 206 169
186 209 181
184 208 186
184 208 181
186 210 191
179 202 175
184 208 193
184 207 181
179 203 167
175 198 165
180 204 184
181 206 184
177 200 157
182 206 184
179 203 177
179 203 181
176 201 167
177 202 163
175 200 182
182 206 189
183 208 193
178 202 177
180 205 181
180 205 194
181 204 186
182 206 181
179 203 184
172 195 173
180 204 177
177 202 177
175 199 188
174 198 167
177 200 181
174 198 188
172 195 159
179 203 177
180 203 181
174 197 171
176 199 181
169 192 169
177 200 182
175 199 177
176 199 177
167 190 171
178 201 186
180 203 184
179 201 175
170 192 157
181 204 177
175 197 175
176 199 177
180 203 182
178 200 165
180 203 179
175 197 173
175 197 157
175 196 167
183 205 177
173 195 169
178 200 177
179 200 167
181 201 184
178 199 175
182 203 182
180 201 181
181 201 184
179 198 179
182 202 189
187 206 194
183 204 196
176 196 184
176 197 171
189 208 196
176 195 181
184 203 193
174 193 175
178 197 191
180 199 198
178 198 181
192 210 207
175 193 177
189 207 189
189 208 194
180 197 189
174 192 169
176 193 171
184 201 191
184 201 182
184 201 181
184 202 188
183 201 184
165 183 142
176 194 151
177 196 153
161 179 144
169 188 135
171 189 153
175 193 149
165 183 142
168 186 135
170 188 137
172 188 159
153 174 88
149 170 67
150 171 62
143 163 36
146 166 36
152 174 57
152 172 51
148 170 25
151 172 36
152 173 44
155 176 0
160 182 0
155 179 0
153 174 0
149 169 0
148 170 0
152 174 0
157 179 0
142 163 0
146 167 0
144 164 0
139 160 0
133 152 0
139 159 0
133 154 0
137 158 0
134 154 0
141 162 0
125 144 0
126 145 0
123 142 25
127 148 0
132 151 0
119 139 0
119 139 0
130 150 0
121 141 0
125 144 0
122 140 0
120 139 0
115 134 0
128 146 0
132 151 0
117 137 0
117 136 0
128 147 0
113 131 0
123 142 0
126 145 0
121 139 0
113 131 0
119 138 0
123 141 0
105 124 0
125 143 0
112 131 0
119 138 0
121 140 0
121 140 0
117 136 0
108 127 0
124 143 0
113 131 0
125 144 0
114 133 0
131 151 0
116 135 0
115 133 0
121 139 0
121 140 0
121 140 0
115 133 0
129 149 0
118 136 0
119 138 0
123 143 0
130 150 0
132 151 0
135 154 0
131 151 0
133 153 0
131 151 0
123 142 0
123 144 0
130 150 0
126 146 0
129 148 0
133 153 0
125 144 0
122 142 0
123 142 0
128 147 0
119 138 0
136 156 0
130 149 0
119 138 0
139 159 0
131 152 0
131 150 0
122 142 0
134 155 0
133 153 0
132 151 0
141 162 0
131 152 0
126 146 0
138 158 0
136 156 0
136 156 0
125 144 0
136 158 0
134 153 0
144 163 0
132 153 0
140 161 0
132 151 0
133 153 0
135 156 0
136 155 0
153 173 0
136 156 0
137 156 0
138 159 0
136 156 0
143 163 0
143 164 0
137 158 0
143 163 0
137 158 0
136 156 0
142 163 0
147 166 0
138 157 0
146 167 0
148 169 0
141 163 0
144 163 0
144 165 0
141 160 0
140 161 0
147 168 0
141 162 0
148 169 0
138 159 0
148 168 0
149 170 0
144 165 0
150 169 0
145 166 0
146 166 0
149 170 0
148 169 0
140 159 0
148 168 0
152 173 0
149 169 0
146 167 0
149 169 0
149 170 0
146 168 0
149 169 0
145 165 0
150 173 0
148 169 0
152 172 0
150 173 0
155 176 0
151 172 0
153 175 0
151 171 0
158 178 0
153 172 0
157 179 0
155 176 0
152 171 0
151 171 0
147 167 0
156 177 0
158 180 0
150 169 0
151 171 0
159 181 0
152 174 0
159 181 0
153 173 0
157 180 0
153 174 0
151 173 0
156 176 0
160 181 0
154 175 0
160 182 0
163 185 0
161 183 0
162 183 0
151 172 0
160 181 0
155 175 0
159 180 0
162 185 0
161 182 0
158 180 0
158 181 0
153 175 0
157 179 0
154 175 0
159 181 0
156 178 0
152 172 0
162 183 0
160 181 0
159 181 0
163 186 0
159 179 0
158 180 0
158 179 0
160 180 0
166 188 0
161 183 0
159 181 0
158 177 0
168 188 0
159 181 0
158 180 0
163 185 0
158 179 0
162 183 0
163 185 0
161 181 0
158 180 0
164 185 0
159 182 0
160 180 0
162 182 0
161 183 0
163 185 0
164 185 0
158 180 0
163 185 0
163 184 0
165 187 0
162 184 0
167 188 0
167 188 0
162 182 0
164 184 0
163 184 0
164 184 0
161 182 0
160 182 0
166 188 0
163 183 0
164 187 0
161 181 0
164 185 0
168 190 0
167 190 0
166 188 0
167 189 0
163 185 0
160 182 0
166 188 0
165 188 0
164 185 0
164 185 0
167 189 0
163 185 0
165 187 0
164 185 0
165 188 0
159 181 0
165 185 0
166 187 0
171 192 0
165 186 0
165 187 0
168 190 0
168 190 0
184 206 175
189 211 193
189 211 193
187 210 189
185 208 186
187 210 186
189 212 193
189 212 196
180 203 171
183 206 181
187 210 181
183 205 186
181 204 188
188 211 189
181 205 167
181 204 182
177 201 173
184 208 179
180 203 169
183 207 182
181 204 188
186 210 199
183 207 182
179 203 177
181 205 177
184 207 186
185 208 194
181 205 180
182 206 171
182 206 186
180 204 171
183 207 186
179 203 155
181 205 175
178 202 171
181 205 184
179 204 184
182 205 173
181 205 181
178 203 182
174 198 167
178 203 173
178 203 186
177 201 182
176 200 165
177 202 175
175 199 169
177 201 181
177 200 175
177 201 181
183 207 186
173 197 173
176 200 163
178 202 175
176 200 167
178 202 191
172 197 173
170 193 165
175 199 186
177 200 182
176 199 191
175 198 181
177 200 188
170 192 159
182 205 188
177 199 171
179 202 189
176 199 171
180 203 177
178 200 175
179 202 175
181 204 182
176 198 179
178 200 182
178 200 171
183 205 179
178 200 175
178 200 179
174 195 167
172 194 171
182 204 198
181 202 182
172 192 177
190 211 206
178 199 177
177 198 188
181 202 184
184 204 191
178 198 181
185 205 191
179 200 186
172 192 167
179 198 181
185 205 196
181 201 184
180 199 188
181 200 186
183 202 184
183 202 179
184 204 181
181 199 184
184 203 181
170 188 177
188 206 196
187 206 194
190 207 203
188 205 188
183 200 188
186 202 193
178 195 169
182 198 173
180 200 157
184 202 179
173 191 155
180 197 169
175 194 159
174 192 147
165 184 128
173 192 151
162 179 147
167 186 137
167 187 125
150 171 57
166 187 67
158 180 51
158 179 72
155 176 57
165 187 80
155 176 51
148 169 36
157 179 51
152 173 51
150 171 36
159 181 0
158 180 0
156 178 0
160 182 0
156 177 0
146 167 0
147 169 0
151 172 0
137 157 0
142 163 0
142 163 0
139 160 0
130 150 0
128 149 0
144 166 0
130 149 0
129 150 0
127 147 0
139 158 25
136 156 25
140 161 0
113 133 0
122 142 0
113 131 0
126 144 0
118 137 0
117 136 0
123 142 0
128 148 0
118 136 0
119 137 0
127 145 0
124 142 0
117 137 0
124 144 0
119 139 0
121 139 0
122 141 0
105 124 0
129 148 0
121 140 0
121 139 0
121 139 0
117 135 0
131 150 0
121 140 0
128 148 0
125 145 0
127 147 0
111 129 0
124 143 0
114 133 0
120 139 0
123 142 0
124 143 0
121 140 0
135 155 0
128 148 0
132 151 0
119 138 0
134 154 0
129 148 0
131 151 0
129 148 0
116 136 0
124 145 0
119 138 0
125 146 0
129 149 0
117 136 0
119 139 0
130 149 0
128 148 0
133 153 0
130 149 0
130 150 0
136 155 0
136 156 0
128 149 0
121 141 0
132 152 0
133 152 0
130 150 0
130 150 0
124 143 0
144 165 0
130 150 0
137 157 0
130 150 0
124 145 0
128 148 0
137 158 0
136 156 0
138 158 0
124 144 0
133 152 0
139 159 0
143 163 0
141 162 0
131 151 0
141 160 0
134 154 0
137 157 0
137 157 0
138 158 0
133 153 0
143 163 0
142 163 0
141 161 0
140 161 0
149 170 0
123 143 0
144 165 0
146 168 0
144 164 0
138 158 0
141 163 0
141 161 0
142 162 0
140 159 0
144 166 0
137 157 0
152 172 0
146 167 0
142 162 0
142 163 0
143 163 0
145 164 0
144 166 0
149 170 0
145 166 0
148 170 0
145 166 0
149 170 0
147 168 0
144 167 0
143 163 0
150 171 0
154 175 0
146 168 0
153 174 0
153 174 0
145 166 0
148 169 0
149 169 0
150 173 0
147 169 0
152 175 0
154 175 0
151 173 0
156 177 0
155 176 0
143 162 0
151 171 0
152 173 0
150 171 0
160 182 0
153 173 0
149 169 0
153 174 0
147 168 0
150 172 0
159 179 0
153 173 0
158 178 0
158 180 0
153 175 0
158 179 0
151 173 0
158 180 0
156 176 0
154 175 0
153 175 0
157 179 0
154 175 0
160 182 0
162 183 0
153 174 0
161 183 0
155 177 0
155 176 0
158 179 0
165 187 0
160 182 0
158 181 0
156 177 0
158 178 0
160 180 0
160 182 0
158 179 0
158 180 0
155 175 0
159 180 0
162 183 0
159 179 0
162 184 0
162 183 0
159 182 0
162 184 0
160 181 0
161 182 0
161 184 0
155 176 0
158 179 0
166 188 0
160 181 0
162 185 0
159 180 0
161 183 0
162 182 0
161 182 0
166 187 0
163 185 0
158 179 0
162 183 0
168 190 0
161 182 0
164 186 0
163 185 0
161 184 0
167 188 0
160 180 0
167 188 0
157 179 0
157 179 0
164 187 0
164 187 0
163 186 0
163 184 0
161 184 0
161 182 0
159 181 0
163 185 0
164 186 0
163 186 0
161 183 0
166 188 0
160 181 0
167 189 0
165 186 0
165 187 0
164 186 0
166 186 0
162 184 0
162 184 0
160 181 0
165 186 0
166 188 0
166 189 0
162 184 0
163 186 0
167 190 0
163 184 0
168 191 0
160 179 0
168 191 0
166 188 0
171 194 0
165 188 0
166 188 0
165 186 0
163 184 0
165 186 0
165 187 0
166 188 0
163 186 0
163 184 0
190 213 194
190 213 193
191 214 201
184 207 181
187 210 193
190 212 193
182 204 163
184 206 188
188 211 191
183 205 181
183 206 179
183 205 177
180 202 163
185 208 182
184 208 190
185 209 188
183 207 194
185 209 194
183 206 177
183 207 176
179 203 171
182 206 175
183 206 179
174 198 167
182 206 171
178 202 167
184 208 184
175 199 184
179 203 177
184 208 184
184 209 190
180 204 182
176 200 167
177 200 167
179 203 171
177 201 171
179 203 181
177 202 165
177 202 186
180 204 179
181 205 188
177 201 165
177 202 182
177 201 169
181 205 188
173 198 184
177 200 179
178 202 173
171 194 151
172 196 169
172 196 177
179 202 184
180 203 167
177 201 184
174 198 169
174 198 173
173 196 167
177 199 181
176 199 173
175 198 169
180 204 196
178 201 184
176 199 177
182 205 184
181 205 179
173 196 167
177 200 189
178 201 191
179 202 184
182 205 186
180 202 181
177 200 163
178 201 171
176 198 171
178 200 184
180 202 179
174 195 155
179 200 169
175 198 179
171 192 173
175 195 175
177 198 193
182 204 189
181 202 184
179 199 181
179 200 188
175 195 179
188 208 186
187 207 207
184 203 184
180 200 181
185 205 196
175 195 184
190 210 199
175 194 171
181 200 182
185 205 191
190 208 206
182 202 181
180 198 184
174 192 167
186 204 194
192 210 203
184 202 186
185 203 191
188 205 184
178 196 177
181 199 186
178 195 182
189 205 189
180 198 181
169 187 149
176 194 167
170 189 147
172 190 142
170 188 144
172 190 130
166 185 130
174 192 157
164 183 122
166 185 133
163 185 76
159 181 76
163 185 76
169 190 95
151 172 57
150 171 44
152 173 51
157 179 51
156 175 51
154 176 67
145 167 36
156 178 0
159 181 0
157 180 0
157 179 0
154 175 0
155 176 0
151 173 0
141 162 0
146 166 0
141 162 0
149 169 0
133 154 0
129 149 0
146 167 0
129 150 0
136 158 0
139 159 0
136 155 0
130 150 0
138 157 0
136 157 25
129 149 0
140 161 25
123 142 0
123 143 0
120 139 0
122 141 0
129 149 0
125 145 0
133 152 0
115 134 0
127 147 0
130 148 0
123 143 0
113 132 0
108 126 0
116 134 0
127 146 0
115 134 0
124 143 0
121 140 0
121 140 0
115 133 0
121 140 0
132 151 0
118 136 0
135 155 0
120 139 0
116 136 0
116 136 0
123 142 0
137 157 0
118 136 0
125 145 0
122 143 0
127 147 0
128 148 0
124 144 0
128 147 0
129 149 0
131 150 0
127 146 0
130 148 0
120 140 0
114 134 0
130 151 0
134 154 0
126 146 0
122 141 0
123 143 0
139 158 0
128 146 0
127 147 0
133 153 0
126 146 0
120 139 0
124 144 0
132 151 0
127 146 0
129 150 0
131 152 0
136 156 0
133 152 0
130 150 0
130 150 0
124 144 0
131 151 0
132 153 0
132 152 0
136 157 0
136 156 0
142 163 0
142 163 0
125 144 0
133 152 0
133 153 0
140 161 0
143 164 0
134 155 0
126 146 0
140 161 0
139 159 0
143 163 0
140 162 0
134 156 0
131 152 0
146 165 0
145 166 0
133 153 0
137 157 0
140 160 0
138 160 0
146 168 0
145 165 0
143 163 0
141 162 0
144 165 0
136 155 0
142 163 0
150 171 0
139 159 0
145 167 0
140 161 0
143 163 0
148 168 0
144 165 0
142 163 0
145 167 0
140 161 0
146 167 0
138 158 0
143 163 0
151 173 0
149 171 0
144 163 0
147 168 0
150 172 0
152 172 0
148 168 0
149 168 0
155 177 0
147 167 0
158 180 0
150 169 0
154 176 0
148 167 0
151 173 0
148 170 0
155 175 0
153 175 0
156 177 0
153 176 0
154 175 0
156 176 0
152 173 0
148 170 0
153 173 0
154 176 0
150 171 0
152 173 0
160 181 0
151 173 0
148 169 0
156 178 0
153 175 0
158 180 0
153 174 0
152 174 0
163 184 0
150 171 0
148 169 0
156 177 0
154 174 0
153 175 0
160 181 0
155 176 0
158 181 0
154 175 0
157 177 0
158 179 0
153 175 0
158 181 0
154 175 0
154 175 0
157 177 0
160 181 0
155 176 0
159 182 0
159 180 0
153 173 0
160 182 0
158 178 0
159 180 0
160 182 0
161 182 0
157 177 0
162 184 0
158 178 0
162 184 0
159 180 0
158 180 0
167 188 0
157 178 0
158 181 0
159 181 0
163 184 0
158 179 0
160 182 0
158 178 0
164 184 0
155 175 0
161 183 0
164 185 0
162 183 0
164 184 0
163 186 0
164 185 0
163 186 0
163 186 0
162 184 0
164 186 0
164 186 0
165 186 0
166 188 0
163 184 0
159 178 0
163 185 0
164 185 0
163 183 0
165 185 0
161 182 0
161 183 0
165 188 0
157 178 0
159 181 0
161 181 0
165 186 0
165 186 0
165 187 0
165 187 0
165 187 0
162 184 0
165 187 0
157 177 0
166 187 0
164 185 0
166 187 0
163 186 0
163 185 0
168 190 0
166 188 0
162 183 0
165 187 0
167 188 0
165 185 0
169 192 0
156 177 0
165 187 0
161 181 0
165 186 0
161 182 0
169 192 0
164 185 0
166 188 0
167 187 0
168 190 0
165 186 0
163 185 0
188 210 184
192 214 201
188 210 184
188 210 189
190 212 191
186 209 177
188 210 189
182 205 181
188 210 189
187 210 189
180 203 175
184 206 193
183 206 179
179 202 170
181 205 176
183 207 182
178 202 172
182 205 167
181 204 171
183 206 188
179 203 167
183 206 169
186 210 181
185 208 184
181 204 173
183 208 171
184 207 175
179 202 181
180 204 175
178 201 179
178 201 178
179 203 177
182 206 182
180 204 179
177 200 173
180 204 177
184 209 191
183 207 191
184 208 186
180 204 175
180 204 189
173 197 163
172 195 169
174 198 188
176 200 169
178 202 167
179 203 167
174 197 177
176 201 193
177 200 182
176 200 182
179 203 171
174 199 179
175 198 169
172 196 169
177 201 181
179 202 184
178 201 169
179 203 181
177 200 177
182 206 199
168 191 155
176 199 177
180 204 193
178 201 186
177 200 184
174 196 163
179 201 182
177 199 177
177 200 181
180 202 182
182 204 191
172 195 167
173 195 165
177 199 184
177 199 167
177 199 179
181 203 181
178 200 177
173 194 157
176 197 173
181 202 189
185 205 182
181 202 181
173 193 173
183 203 196
182 203 181
181 201 193
185 205 191
183 203 184
177 196 189
179 199 182
178 198 184
182 202 179
178 197 179
184 203 191
188 207 189
180 198 189
180 199 184
186 204 191
180 198 177
180 199 181
185 203 186
181 200 181
185 203 191
188 206 193
186 204 188
189 206 198
179 196 179
186 204 181
177 195 171
178 196 161
178 198 157
171 189 153
176 194 149
171 189 140
181 199 163
185 202 163
165 183 140
173 192 140
168 190 92
157 179 62
156 178 67
157 179 62
152 173 62
154 176 36
148 170 67
143 164 44
149 171 51
156 177 44
154 176 44
146 168 44
162 185 25
154 175 0
155 177 0
157 179 0
149 170 0
150 170 0
153 174 0
142 164 0
144 166 0
152 173 0
137 157 0
150 171 0
137 158 0
145 167 0
132 152 0
134 154 0
131 151 0
128 150 0
141 160 0
137 156 0
135 155 0
115 134 0
132 151 0
126 145 0
121 140 0
131 150 0
121 140 0
121 141 0
123 143 0
114 134 0
120 140 0
133 152 0
123 143 0
132 151 0
135 155 0
127 147 0
118 137 0
131 151 0
126 146 0
116 134 0
131 151 0
122 141 0
126 145 0
122 141 0
116 134 0
126 145 0
128 147 0
126 146 0
135 153 0
109 129 0
121 140 0
133 154 0
113 132 0
120 139 0
125 143 0
127 146 0
131 150 0
130 149 0
114 134 0
131 150 0
130 151 0
130 149 0
120 140 0
112 131 0
132 150 0
122 141 0
130 148 0
139 159 0
138 158 0
125 143 0
133 151 0
126 146 0
135 154 0
118 138 0
134 154 0
133 153 0
127 147 0
135 155 0
128 149 0
126 146 0
129 149 0
130 151 0
125 144 0
133 154 0
131 150 0
127 147 0
126 146 0
143 164 0
136 157 0
139 159 0
146 167 0
133 152 0
133 153 0
130 152 0
135 155 0
131 152 0
134 154 0
147 167 0
144 164 0
136 156 0
142 164 0
142 163 0
139 160 0
132 152 0
140 161 0
136 156 0
137 157 0
144 165 0
139 160 0
153 174 0
136 156 0
141 163 0
139 160 0
143 163 0
140 162 0
148 167 0
140 160 0
150 172 0
147 169 0
137 158 0
144 164 0
144 163 0
142 163 0
136 158 0
144 165 0
143 164 0
137 157 0
143 164 0
143 164 0
148 170 0
148 169 0
146 167 0
150 171 0
144 165 0
151 173 0
146 169 0
147 169 0
142 162 0
155 177 0
148 169 0
151 172 0
152 174 0
148 169 0
146 168 0
150 170 0
150 170 0
154 173 0
148 170 0
146 167 0
148 170 0
144 165 0
150 172 0
144 166 0
156 179 0
150 169 0
147 168 0
150 172 0
152 171 0
153 173 0
148 169 0
157 178 0
150 169 0
159 180 0
157 177 0
151 174 0
156 178 0
151 173 0
149 170 0
155 177 0
159 179 0
154 176 0
160 181 0
153 173 0
150 171 0
155 177 0
158 180 0
157 178 0
157 179 0
153 173 0
158 179 0
155 176 0
155 177 0
156 178 0
161 182 0
157 178 0
159 180 0
156 177 0
155 177 0
162 185 0
159 180 0
158 179 0
157 179 0
164 186 0
160 181 0
161 182 0
158 180 0
150 170 0
159 181 0
160 182 0
158 180 0
160 180 0
161 182 0
156 178 0
163 184 0
164 187 0
160 181 0
164 185 0
159 181 0
156 175 0
163 184 0
162 183 0
160 182 0
160 182 0
162 183 0
159 179 0
160 181 0
158 179 0
167 188 0
159 182 0
161 185 0
159 181 0
164 184 0
159 180 0
161 182 0
165 186 0
165 186 0
163 186 0
159 180 0
165 187 0
161 183 0
163 185 0
167 190 0
162 184 0
168 189 0
160 182 0
163 186 0
165 187 0
167 189 0
166 189 0
166 188 0
161 182 0
167 190 0
168 190 0
165 188 0
163 183 0
163 184 0
164 185 0
168 191 0
163 184 0
166 188 0
169 192 0
169 191 0
162 184 0
165 185 0
163 185 0
160 182 0
167 190 0
168 191 0
166 188 0
165 187 0
169 191 0
169 190 0
164 186 0
167 189 0
163 183 0
166 188 0
166 186 0
162 184 0
190 211 191
189 212 186
190 212 198
190 212 193
185 207 181
188 210 191
190 212 194
178 201 179
187 210 196
185 208 186
190 212 207
187 210 191
185 208 181
180 203 175
184 207 196
180 204 191
183 206 194
179 202 175
183 207 188
182 205 195
181 205 179
181 204 186
180 204 181
186 210 191
183 206 171
186 210 198
182 205 175
181 205 181
181 205 167
182 205 169
177 201 175
181 204 165
182 206 184
181 204 181
176 200 165
181 206 191
174 198 169
180 204 188
178 202 177
182 207 191
178 201 165
178 201 177
181 205 189
185 209 199
181 205 181
181 205 182
175 199 167
176 199 169
183 206 199
181 205 191
180 203 171
175 198 184
177 200 181
175 198 165
176 199 179
179 202 186
174 196 181
178 201 188
178 200 184
182 205 184
179 204 188
184 207 201
177 200 167
178 201 171
177 200 194
180 203 173
182 205 184
173 196 177
181 204 184
178 201 175
181 203 189
181 204 184
169 191 161
177 198 157
177 198 177
167 189 153
178 200 182
174 196 161
177 197 173
182 204 193
179 200 179
182 203 186
185 205 189
185 206 181
181 202 191
183 203 179
181 201 182
174 194 181
177 198 169
184 204 186
180 200 181
182 201 194
180 199 184
176 195 184
182 201 182
185 204 186
190 210 198
175 193 173
178 197 171
186 204 194
185 203 191
179 197 177
190 208 204
187 204 189
183 201 188
187 204 196
186 203 199
182 199 193
187 204 189
178 196 159
181 199 171
170 189 151
172 191 147
175 194 142
173 191 151
175 193 155
178 197 153
174 192 144
175 193 151
167 186 111
163 185 62
163 183 92
155 176 76
159 180 88
153 174 67
153 174 62
155 177 57
153 174 36
153 175 36
156 178 67
154 174 0
146 167 25
163 186 0
156 178 0
160 183 0
156 177 0
158 178 0
156 178 0
147 167 0
147 167 0
141 162 0
150 172 0
146 166 0
138 159 0
138 158 0
134 154 0
134 155 0
135 153 0
133 152 0
141 161 0
145 165 0
138 159 0
133 153 0
134 154 0
134 153 0
124 143 0
125 144 0
114 134 0
126 146 0
120 140 0
130 149 0
132 153 0
128 148 0
122 142 0
132 151 0
122 142 0
116 134 0
133 152 0
124 143 0
125 144 0
129 149 0
125 143 0
123 142 0
121 142 0
132 151 0
133 153 0
128 148 0
122 141 0
129 148 0
130 149 0
121 141 0
126 145 0
124 143 0
124 143 0
128 148 0
135 155 0
119 138 0
124 144 0
123 143 0
130 150 0
129 148 0
125 144 0
135 156 0
133 153 0
126 147 0
127 146 0
134 154 0
123 143 0
130 150 0
136 155 0
134 154 0
128 147 0
130 148 0
138 156 0
122 141 0
132 152 0
138 159 0
128 148 0
132 151 0
136 156 0
129 149 0
134 155 0
125 146 0
136 156 0
128 148 0
140 161 0
130 150 0
135 155 0
138 158 0
123 143 0
128 148 0
127 148 0
130 150 0
139 160 0
136 155 0
147 167 0
134 155 0
139 159 0
141 164 0
130 149 0
140 161 0
134 156 0
136 155 0
132 152 0
136 156 0
137 154 0
141 161 0
143 164 0
140 161 0
135 156 0
145 165 0
144 165 0
133 155 0
143 163 0
151 172 0
138 158 0
145 163 0
142 163 0
143 165 0
144 165 0
138 158 0
149 171 0
150 171 0
146 166 0
146 167 0
143 163 0
150 172 0
145 165 0
142 163 0
150 171 0
143 164 0
149 168 0
138 159 0
149 170 0
152 172 0
141 163 0
156 175 0
156 177 0
151 172 0
149 170 0
149 171 0
152 173 0
145 167 0
152 173 0
154 176 0
152 174 0
148 168 0
143 165 0
147 167 0
153 175 0
151 172 0
156 178 0
151 172 0
149 169 0
159 180 0
156 179 0
155 177 0
153 175 0
154 175 0
151 172 0
155 178 0
156 177 0
156 178 0
159 181 0
154 175 0
159 180 0
153 174 0
153 174 0
155 176 0
158 180 0
157 178 0
158 180 0
153 173 0
159 180 0
150 172 0
158 179 0
158 179 0
152 173 0
152 175 0
161 182 0
160 183 0
158 180 0
160 182 0
154 177 0
158 181 0
156 176 0
152 173 0
159 180 0
160 182 0
161 183 0
162 183 0
152 174 0
159 181 0
162 183 0
154 177 0
160 181 0
163 185 0
153 175 0
159 180 0
156 177 0
163 184 0
162 184 0
156 178 0
163 186 0
165 187 0
160 183 0
157 177 0
158 180 0
159 181 0
160 182 0
160 180 0
158 181 0
156 178 0
164 186 0
163 183 0
160 182 0
164 187 0
161 182 0
163 185 0
162 183 0
166 187 0
163 185 0
164 185 0
164 185 0
162 184 0
158 179 0
165 187 0
163 184 0
164 187 0
165 187 0
163 184 0
160 182 0
165 187 0
161 183 0
160 179 0
164 186 0
164 186 0
163 184 0
163 185 0
160 182 0
166 187 0
164 186 0
158 180 0
163 185 0
166 189 0
164 185 0
164 187 0
161 184 0
166 188 0
164 187 0
162 182 0
163 184 0
164 186 0
167 189 0
168 191 0
168 190 0
166 187 0
167 188 0
163 184 0
164 186 0
164 184 0
164 186 0
164 186 0
165 188 0
164 186 0
164 186 0
166 187 0
169 192 0
166 187 0
167 190 0
186 208 181
189 211 189
187 209 177
185 207 189
184 207 179
184 207 181
186 208 181
184 206 167
184 207 181
184 206 179
185 207 165
183 206 182
179 201 165
185 208 184
181 204 170
184 208 182
185 208 178
178 201 175
179 203 185
182 206 172
183 207 189
181 205 184
174 198 170
180 203 191
179 202 177
180 203 163
182 206 184
181 205 189
181 205 186
178 202 163
185 209 196
185 209 188
187 211 199
185 210 201
179 202 171
178 202 171
172 196 159
183 208 196
178 202 173
176 200 173
180 204 184
177 200 177
174 198 171
184 208 191
181 205 182
178 201 179
173 196 179
175 198 186
175 199 165
172 196 169
181 204 181
177 200 169
173 197 167
178 202 177
177 201 184
174 197 175
177 201 171
178 201 191
182 206 184
177 200 181
175 198 171
178 200 189
175 198 169
181 203 194
178 201 175
179 201 182
185 207 198
178 201 171
179 202 177
175 198 165
177 199 184
177 198 171
181 203 179
176 197 177
179 201 175
180 203 189
172 193 159
182 204 181
181 202 171
172 194 165
180 201 181
176 196 165
181 202 189
177 197 177
184 204 189
185 205 189
188 209 204
186 206 189
176 196 175
182 202 196
177 196 182
177 197 179
181 199 189
189 209 196
181 200 173
179 198 175
176 196 177
188 208 189
187 207 194
187 205 193
184 201 184
178 197 169
189 207 188
183 202 177
178 196 177
184 201 177
184 200 191
184 202 189
181 199 175
179 197 147
181 198 173
181 199 157
175 194 155
175 194 157
180 199 155
185 202 165
176 194 155
172 190 153
165 184 128
160 182 84
151 172 72
161 184 67
152 172 76
158 180 72
154 177 36
152 173 44
157 179 57
152 173 62
159 180 36
154 176 25
157 179 51
154 175 51
164 186 0
162 185 0
158 179 0
149 171 0
156 177 0
144 166 0
147 167 0
146 167 0
145 167 0
147 167 0
149 171 0
136 155 0
143 165 0
138 158 0
136 156 0
133 153 0
132 152 0
146 167 0
132 153 0
129 149 0
138 158 0
131 151 0
119 139 0
139 158 0
113 133 0
127 146 0
126 147 0
127 146 0
125 144 0
133 152 0
121 142 0
124 145 0
124 142 0
123 143 0
120 140 0
137 156 0
119 139 0
131 151 0
130 149 0
123 142 0
124 144 0
128 147 0
122 142 0
120 140 0
120 137 0
131 150 0
125 146 0
127 146 0
134 153 0
127 147 0
127 147 0
117 137 0
137 157 0
127 146 0
132 152 0
128 147 0
128 148 0
126 146 0
125 144 0
122 140 0
128 147 0
127 146 0
132 152 0
139 160 0
135 155 0
121 139 0
126 147 0
129 150 0
132 151 0
143 163 0
131 152 0
135 156 0
128 148 0
130 151 0
135 154 0
121 141 0
133 154 0
139 160 0
137 158 0
133 153 0
142 162 0
134 154 0
134 155 0
133 154 0
130 150 0
137 157 0
130 151 0
140 161 0
126 147 0
128 150 0
130 149 0
124 145 0
142 165 0
138 158 0
141 162 0
136 157 0
152 174 0
142 162 0
142 165 0
136 158 0
124 145 0
134 153 0
145 165 0
130 150 0
140 161 0
139 161 0
152 174 0
130 150 0
147 169 0
138 161 0
145 165 0
131 152 0
142 162 0
136 157 0
138 159 0
146 167 0
146 168 0
148 168 0
147 168 0
145 166 0
127 147 0
142 164 0
141 163 0
141 161 0
150 172 0
147 168 0
151 172 0
145 167 0
149 170 0
148 168 0
145 167 0
149 170 0
153 174 0
151 173 0
157 179 0
148 170 0
154 176 0
151 173 0
156 177 0
153 175 0
150 171 0
153 174 0
153 175 0
161 183 0
155 175 0
146 168 0
155 178 0
153 173 0
150 172 0
156 178 0
151 173 0
155 177 0
148 169 0
148 170 0
147 168 0
153 175 0
155 176 0
149 170 0
153 174 0
155 176 0
159 180 0
159 182 0
153 174 0
160 182 0
156 178 0
152 174 0
145 165 0
156 177 0
157 179 0
157 178 0
153 174 0
157 176 0
158 179 0
154 175 0
156 176 0
164 185 0
151 172 0
159 181 0
159 179 0
159 181 0
159 180 0
155 175 0
153 174 0
160 182 0
156 178 0
160 183 0
161 182 0
156 176 0
162 184 0
162 184 0
158 179 0
162 184 0
162 183 0
159 181 0
154 174 0
160 181 0
161 184 0
166 187 0
160 182 0
152 172 0
164 187 0
157 179 0
160 182 0
160 182 0
161 182 0
162 184 0
160 183 0
164 186 0
164 188 0
159 180 0
159 179 0
162 184 0
161 184 0
166 188 0
166 188 0
162 184 0
164 186 0
161 182 0
162 183 0
162 183 0
164 186 0
164 186 0
165 186 0
158 178 0
167 189 0
162 184 0
164 187 0
163 186 0
169 192 0
166 189 0
164 186 0
160 181 0
165 186 0
167 189 0
165 187 0
165 188 0
165 187 0
163 185 0
165 187 0
166 188 0
164 183 0
162 185 0
165 186 0
162 183 0
163 186 0
163 185 0
167 188 0
164 186 0
166 189 0
166 187 0
166 188 0
166 188 0
162 186 0
167 188 0
165 186 0
168 190 0
163 185 0
168 191 0
168 190 0
163 185 0
163 184 0
165 186 0
163 184 0
166 188 0
169 191 0
167 189 0
170 192 0
162 184 0
190 212 189
193 215 201
187 209 186
187 209 175
187 210 194
188 210 186
185 207 182
185 207 181
184 207 179
182 204 179
185 207 181
184 207 182
185 208 179
179 202 167
182 205 178
187 210 186
184 207 179
184 207 181
182 206 181
180 203 175
183 206 175
183 206 177
180 203 175
184 208 186
186 210 190
180 203 177
185 209 188
178 202 177
181 204 182
181 205 179
179 202 165
179 202 182
177 201 171
180 204 180
181 205 173
178 202 182
178 202 173
181 204 182
180 205 181
183 207 186
177 201 173
176 200 165
179 203 177
185 208 193
182 205 184
181 205 173
180 204 184
178 202 184
175 198 167
177 200 181
177 202 181
180 203 175
177 201 182
175 199 186
171 194 163
168 191 161
176 199 179
179 203 182
180 203 184
179 201 179
178 201 173
180 203 188
180 202 186
179 201 175
175 197 184
180 203 182
175 198 182
180 202 189
181 204 177
183 205 179
178 199 179
176 198 171
185 208 198
163 184 153
177 198 167
182 204 188
186 207 189
176 198 173
178 199 171
182 203 181
178 199 171
181 202 175
180 201 184
185 205 194
185 205 193
178 198 177
185 205 206
182 202 193
177 197 167
185 204 186
179 199 177
177 197 173
183 203 179
178 198 181
178 197 175
184 204 184
187 206 198
184 203 193
189 207 186
177 195 177
179 197 171
180 199 184
191 209 206
189 206 191
187 203 189
190 208 191
175 192 173
179 198 163
188 206 182
189 206 186
178 196 155
176 194 159
178 196 157
175 193 157
180 198 159
181 200 161
168 187 147
171 189 137
155 177 57
161 183 62
161 183 80
160 182 80
161 182 76
157 178 76
154 175 51
160 182 51
151 172 57
153 176 62
156 177 44
155 175 57
157 178 36
159 181 44
161 182 0
159 181 0
164 186 0
156 177 0
155 178 0
155 177 0
154 176 0
152 174 0
141 163 0
144 166 0
135 155 0
151 172 0
143 164 0
144 165 0
135 156 0
136 156 0
141 161 0
142 162 0
138 159 0
138 158 0
133 154 0
132 153 0
128 147 0
128 147 0
124 144 0
126 146 0
127 147 0
127 146 0
130 149 0
128 149 0
125 145 0
131 150 0
135 155 0
125 144 0
130 150 0
119 139 0
118 137 0
125 146 0
137 158 0
130 150 0
128 148 0
129 147 0
126 146 0
134 154 0
127 146 0
130 149 0
121 140 0
120 139 0
131 150 0
131 151 0
125 144 0
120 140 0
131 151 0
131 149 0
129 148 0
128 148 0
140 160 0
128 148 0
123 144 0
131 152 0
129 147 0
134 155 0
130 149 0
123 143 0
123 142 0
131 152 0
124 145 0
141 161 0
129 149 0
125 145 0
125 146 0
137 157 0
132 152 0
128 148 0
136 157 0
139 160 0
127 145 0
138 159 0
120 140 0
134 154 0
138 159 0
136 157 0
118 139 0
148 168 0
142 163 0
133 154 0
126 146 0
135 156 0
137 158 0
138 160 0
137 157 0
142 163 0
147 168 0
138 159 0
142 163 0
136 158 0
144 165 0
138 159 0
129 150 0
146 166 0
140 161 0
145 167 0
142 165 0
143 164 0
132 152 0
137 156 0
148 169 0
138 159 0
147 169 0
137 157 0
149 172 0
146 167 0
139 160 0
137 159 0
135 156 0
150 171 0
138 158 0
144 165 0
138 160 0
142 164 0
146 166 0
142 162 0
147 170 0
139 160 0
148 168 0
148 169 0
151 173 0
142 163 0
148 169 0
140 161 0
149 170 0
144 164 0
147 168 0
150 170 0
146 167 0
147 169 0
148 169 0
149 170 0
156 176 0
153 175 0
152 175 0
150 171 0
150 172 0
148 168 0
146 167 0
143 164 0
151 172 0
151 173 0
146 167 0
152 174 0
148 168 0
153 174 0
146 166 0
155 176 0
152 173 0
154 174 0
155 177 0
148 170 0
157 180 0
153 175 0
157 179 0
158 181 0
152 173 0
160 181 0
155 177 0
151 171 0
159 181 0
157 178 0
157 178 0
154 176 0
156 178 0
153 175 0
159 181 0
159 181 0
153 175 0
152 173 0
150 171 0
160 181 0
159 181 0
149 172 0
151 172 0
156 178 0
162 183 0
158 179 0
163 185 0
164 184 0
159 181 0
157 178 0
161 182 0
152 173 0
157 178 0
159 180 0
160 182 0
157 179 0
160 181 0
163 183 0
154 177 0
160 183 0
163 185 0
161 184 0
167 189 0
159 182 0
162 184 0
158 180 0
162 184 0
161 182 0
169 189 0
158 181 0
164 186 0
161 182 0
159 179 0
161 184 0
161 182 0
161 183 0
157 179 0
160 184 0
166 189 0
162 184 0
164 186 0
166 188 0
156 178 0
162 184 0
167 189 0
161 182 0
158 180 0
166 188 0
162 182 0
166 189 0
161 183 0
164 186 0
163 184 0
163 185 0
166 187 0
161 183 0
164 187 0
163 186 0
165 186 0
171 192 0
164 186 0
164 186 0
166 189 0
165 187 0
167 190 0
161 183 0
163 184 0
165 187 0
164 186 0
163 184 0
165 185 0
166 187 0
167 190 0
165 185 0
166 187 0
164 187 0
165 186 0
168 189 0
165 187 0
165 186 0
166 188 0
172 195 0
164 187 0
160 182 0
168 189 0
170 193 0
164 184 0
163 184 0
165 187 0
165 186 0
191 213 188
188 210 186
187 210 182
190 212 201
187 209 184
187 209 196
189 212 194
188 209 194
186 209 184
183 205 181
180 203 182
183 205 181
185 208 184
183 205 181
183 206 170
181 204 173
179 203 169
179 202 178
182 206 183
184 207 181
177 201 161
179 202 175
181 205 182
183 207 181
183 206 179
180 203 181
176 200 159
179 203 165
180 203 179
181 205 189
183 206 182
179 203 182
181 205 182
180 204 184
182 206 171
176 199 155
179 203 186
180 204 188
180 204 179
179 203 191
185 208 188
180 203 169
176 200 171
175 198 165
179 202 182
183 207 189
177 201 179
176 199 179
173 196 167
177 200 165
180 205 206
177 200 184
175 199 167
178 201 179
182 205 188
182 206 194
178 201 182
174 197 159
176 199 169
178 201 188
179 202 175
178 202 184
176 199 173
185 208 199
176 198 167
174 197 163
177 200 184
184 207 189
178 201 175
174 196 173
176 198 171
187 210 198
175 196 159
174 196 169
180 201 169
176 197 177
178 199 186
180 202 182
172 194 165
178 200 184
180 200 184
185 205 189
185 205 188
182 202 189
189 209 206
183 203 198
176 196 171
184 204 184
178 198 189
183 203 196
180 200 182
180 199 169
184 203 186
188 207 194
185 204 198
180 199 177
175 194 182
181 200 173
190 208 191
186 205 184
184 203 182
184 201 188
182 199 186
185 202 188
185 202 191
174 193 163
181 199 173
185 203 179
176 195 165
188 205 191
183 200 169
187 205 188
181 199 159
175 192 153
178 196 157
180 199 159
172 191 128
164 186 99
153 175 84
158 179 76
155 177 76
161 182 84
153 174 72
155 176 62
158 179 57
164 185 72
152 172 44
153 176 51
146 167 0
151 173 44
153 174 44
156 177 36
158 180 0
157 180 0
158 180 0
155 178 0
154 176 0
150 172 0
150 171 0
148 169 0
158 180 0
152 174 0
147 167 0
152 172 0
136 156 0
132 154 0
137 157 0
138 160 0
131 152 0
137 158 0
137 158 0
137 156 25
125 145 0
134 154 0
121 140 0
130 148 0
127 146 0
128 148 0
121 139 0
125 145 0
128 147 0
130 150 0
134 154 0
111 130 0
126 146 0
122 142 0
135 154 0
138 157 0
121 141 0
134 153 0
129 149 0
131 151 0
125 144 0
129 149 0
133 154 0
120 140 0
131 152 0
128 149 0
125 145 0
128 148 0
136 156 0
131 150 0
139 159 0
122 141 0
122 142 0
121 141 0
130 150 0
129 149 0
120 139 0
130 149 0
129 149 0
133 154 0
135 155 0
122 142 0
138 158 0
127 147 0
133 153 0
126 146 0
132 151 0
122 141 0
131 151 0
139 159 0
120 140 0
134 155 0
126 146 0
135 156 0
135 156 0
138 160 0
128 149 0
131 151 0
139 160 0
141 163 0
124 145 0
131 152 0
130 149 0
127 147 0
132 152 0
145 166 0
129 150 0
133 153 0
139 159 0
137 157 0
134 156 0
135 155 0
141 162 0
134 154 0
132 154 0
136 155 0
138 157 0
133 153 0
139 160 0
146 167 0
136 158 0
137 158 0
137 158 0
145 167 0
143 164 0
142 161 0
143 164 0
143 162 0
141 160 0
143 164 0
135 155 0
145 167 0
135 156 0
145 168 0
141 163 0
141 163 0
141 162 0
148 170 0
148 170 0
146 166 0
145 166 0
150 172 0
153 175 0
146 168 0
149 171 0
149 170 0
145 165 0
147 168 0
148 170 0
144 166 0
140 161 0
154 174 0
144 166 0
146 168 0
152 174 0
155 177 0
148 170 0
146 168 0
149 170 0
154 176 0
153 173 0
156 177 0
142 162 0
141 161 0
155 176 0
159 180 0
154 176 0
147 168 0
155 176 0
152 175 0
151 173 0
150 171 0
153 175 0
161 183 0
158 179 0
156 177 0
150 172 0
156 176 0
154 174 0
148 168 0
157 181 0
154 175 0
149 170 0
154 177 0
152 174 0
156 177 0
157 178 0
153 174 0
159 181 0
156 176 0
161 183 0
156 177 0
153 176 0
155 176 0
158 179 0
153 174 0
158 180 0
157 178 0
159 180 0
158 179 0
161 182 0
154 175 0
160 181 0
158 179 0
159 181 0
157 178 0
156 177 0
158 178 0
161 182 0
160 182 0
158 180 0
157 179 0
157 178 0
159 180 0
162 183 0
155 177 0
158 180 0
158 180 0
155 178 0
159 182 0
163 185 0
165 186 0
164 186 0
162 182 0
165 188 0
155 175 0
159 181 0
166 189 0
156 177 0
163 185 0
163 185 0
160 181 0
163 185 0
165 187 0
159 180 0
162 183 0
167 190 0
160 182 0
162 185 0
160 184 0
169 192 0
163 184 0
166 187 0
164 185 0
157 178 0
166 188 0
162 184 0
166 187 0
163 184 0
165 187 0
164 185 0
161 182 0
163 184 0
158 180 0
161 182 0
163 185 0
163 185 0
163 185 0
163 184 0
164 186 0
164 185 0
164 185 0
167 190 0
161 182 0
169 192 0
163 184 0
165 186 0
166 187 0
161 183 0
165 188 0
163 183 0
162 184 0
169 192 0
162 183 0
169 192 0
166 188 0
168 189 0
171 193 0
162 184 0
162 182 0
164 185 0
166 188 0
167 188 0
164 187 0
165 188 0
161 183 0
164 185 0
165 187 0
187 210 182
189 210 182
190 212 186
183 205 179
184 207 177
186 208 177
186 209 188
185 207 175
182 204 179
186 207 191
186 208 191
187 209 182
180 203 166
183 207 181
181 204 159
179 203 167
183 206 173
184 207 175
183 206 175
182 206 179
182 205 169
182 206 184
182 205 184
181 205 187
178 202 179
184 207 188
180 203 177
182 206 175
182 205 165
176 200 169
175 198 161
183 207 189
183 207 188
182 206 186
180 204 189
181 205 184
178 201 175
178 201 182
177 201 177
177 201 177
182 205 186
180 203 175
180 203 181
181 206 184
181 204 179
177 200 157
178 202 169
180 204 191
179 202 186
180 203 181
174 199 177
180 203 191
182 206 188
178 202 189
179 203 173
183 206 193
181 203 182
176 199 175
180 202 191
180 203 199
178 201 175
178 202 188
179 202 173
181 204 194
180 203 173
176 198 167
178 200 169
183 205 191
178 200 181
174 196 173
183 205 189
177 198 163
183 204 184
180 202 198
182 203 184
177 198 167
174 196 167
173 195 165
177 198 177
182 204 184
175 196 173
181 200 173
179 199 179
181 201 186
185 205 198
182 202 184
185 205 175
184 204 181
174 194 171
189 208 191
180 199 189
181 200 191
180 199 182
180 198 188
184 203 188
186 205 194
181 200 181
179 198 179
186 204 203
184 201 188
181 200 175
182 200 184
185 202 188
184 201 191
191 208 196
184 202 171
189 207 184
186 202 186
183 200 184
182 200 177
184 201 177
181 199 167
175 195 147
181 200 159
176 194 159
172 191 140
163 184 108
162 184 76
165 187 67
159 181 72
161 184 72
166 188 92
159 180 84
158 180 80
158 179 44
161 182 72
153 175 36
154 176 51
158 180 51
152 175 44
158 179 44
157 178 36
158 180 0
163 186 0
154 175 0
160 182 0
156 178 0
150 172 0
147 167 0
143 165 0
149 172 0
145 166 0
146 169 0
148 169 0
143 166 0
135 157 0
139 159 0
145 166 0
136 156 0
141 162 0
138 158 0
134 154 0
140 159 0
133 153 0
131 152 0
129 148 0
121 141 0
127 145 0
128 148 0
128 147 0
129 150 0
134 154 0
140 161 0
139 159 0
120 139 0
124 143 0
119 138 0
122 142 0
135 156 0
124 145 0
136 157 0
133 153 0
127 147 0
122 142 0
124 144 0
118 139 0
126 145 0
137 157 0
129 150 0
123 142 0
135 154 0
134 153 0
139 160 0
132 151 0
134 154 0
137 157 0
128 148 0
134 154 0
120 139 0
121 141 0
139 159 0
128 149 0
133 154 0
123 144 0
130 150 0
126 146 0
117 136 0
129 151 0
135 156 0
145 164 0
137 157 0
133 153 0
132 152 0
135 156 0
133 152 0
140 159 0
129 151 0
138 158 0
126 146 0
132 153 0
129 149 0
136 158 0
144 164 0
134 154 0
133 155 0
136 156 0
140 161 0
143 165 0
135 155 0
139 160 0
137 157 0
138 159 0
135 156 0
143 164 0
141 160 0
136 157 0
143 165 0
132 153 0
138 160 0
134 155 0
144 165 0
136 157 0
145 166 0
141 162 0
146 168 0
149 170 0
144 164 0
142 163 0
141 162 0
135 155 0
136 158 0
141 162 0
145 166 0
140 161 0
141 162 0
143 163 0
153 174 0
154 176 0
149 170 0
147 165 0
148 169 0
145 166 0
140 162 0
150 172 0
144 165 0
146 167 0
152 171 0
150 170 0
137 159 0
145 166 0
141 161 0
141 162 0
149 171 0
144 164 0
144 166 0
148 170 0
143 164 0
148 169 0
151 173 0
151 172 0
148 168 0
149 169 0
147 167 0
151 172 0
144 165 0
146 168 0
145 166 0
155 177 0
157 177 0
151 173 0
153 175 0
154 176 0
155 177 0
147 170 0
153 174 0
150 172 0
153 176 0
151 172 0
156 178 0
152 172 0
158 179 0
151 172 0
152 173 0
153 174 0
150 171 0
160 182 0
158 180 0
153 174 0
155 177 0
153 174 0
159 181 0
156 178 0
162 185 0
159 179 0
159 182 0
152 174 0
156 178 0
158 180 0
158 180 0
159 182 0
153 173 0
158 180 0
155 176 0
158 179 0
154 175 0
158 180 0
156 178 0
162 184 0
161 183 0
156 178 0
160 182 0
155 177 0
161 181 0
159 179 0
160 181 0
156 177 0
163 183 0
159 181 0
161 183 0
154 174 0
168 192 0
163 184 0
162 185 0
161 183 0
162 184 0
160 182 0
160 182 0
161 182 0
163 183 0
160 183 0
166 188 0
157 178 0
163 184 0
166 189 0
160 182 0
164 186 0
164 186 0
158 180 0
163 184 0
163 185 0
167 188 0
159 179 0
165 187 0
163 184 0
164 187 0
160 182 0
162 182 0
168 190 0
158 180 0
157 178 0
167 189 0
162 182 0
162 185 0
159 181 0
166 188 0
163 185 0
164 184 0
164 187 0
164 187 0
168 191 0
162 184 0
161 183 0
159 181 0
164 185 0
164 187 0
168 190 0
165 185 0
165 187 0
164 186 0
168 191 0
167 189 0
162 185 0
165 188 0
162 183 0
169 192 0
165 187 0
168 191 0
164 186 0
166 188 0
162 184 0
167 187 0
167 188 0
166 189 0
161 182 0
166 187 0
165 187 0
166 187 0
167 190 0
168 190 0
161 184 0
191 212 193
188 210 182
188 210 177
190 212 182
189 212 196
189 211 188
189 211 181
191 213 193
186 208 182
188 210 194
186 208 188
185 208 181
175 197 153
185 207 179
183 206 186
177 200 168
183 206 173
177 200 161
185 208 182
186 209 181
181 204 167
175 198 166
181 204 179
182 206 179
177 200 181
178 202 189
183 206 184
179 202 180
181 204 188
185 208 182
180 203 163
180 204 175
180 204 189
178 201 180
182 205 191
180 204 175
183 207 196
178 201 177
182 206 186
179 203 171
178 202 188
182 206 186
176 199 165
178 203 177
177 200 181
181 204 186
178 201 186
176 199 173
178 201 167
177 201 188
184 207 188
177 201 189
173 198 175
181 203 175
176 199 175
182 205 186
183 207 191
175 198 173
180 203 181
181 204 175
180 203 177
179 202 171
174 196 175
176 199 171
183 205 193
185 208 191
178 199 181
178 200 173
173 194 173
178 200 182
181 203 191
170 192 165
182 204 184
179 200 173
180 201 175
179 200 181
173 194 151
184 205 186
178 199 167
175 197 171
175 196 161
186 206 191
179 199 179
182 203 186
183 203 182
187 207 206
187 207 193
186 205 188
178 197 177
181 200 186
180 199 175
181 200 188
180 199 186
181 200 182
191 210 198
182 201 184
179 198 186
177 196 184
182 200 179
183 201 175
177 194 179
180 198 173
185 204 188
188 205 196
174 193 161
179 198 167
187 205 173
178 196 169
184 202 181
183 201 169
186 203 182
180 198 171
170 189 140
180 198 151
182 199 159
162 181 122
167 189 57
162 184 57
157 180 72
155 176 76
162 183 62
154 176 57
158 179 80
164 185 92
161 183 84
159 180 57
161 183 72
159 180 76
153 175 62
155 176 57
161 183 36
157 178 36
162 185 0
156 178 0
152 174 0
159 181 0
150 172 0
154 176 0
149 172 0
146 169 0
147 170 0
152 174 0
148 168 0
142 163 0
151 173 0
138 158 0
131 151 0
131 152 0
135 154 0
140 161 0
131 152 0
138 158 25
133 153 0
123 142 0
130 150 0
131 151 0
129 148 0
138 159 0
128 148 0
127 148 0
127 147 0
137 157 0
129 149 0
126 145 0
125 144 0
139 159 0
138 157 0
129 149 0
125 145 0
122 141 0
127 147 0
128 147 0
131 151 0
126 146 0
126 146 0
134 155 0
135 156 0
120 140 0
144 165 0
135 154 0
131 151 0
128 147 0
130 150 0
132 153 0
132 152 0
137 157 0
131 151 0
129 149 0
129 151 0
123 144 0
136 157 0
129 149 0
128 149 0
135 156 0
142 163 0
130 150 0
135 156 0
139 159 0
139 159 0
139 159 0
131 152 0
136 157 0
142 162 0
141 161 0
139 160 0
135 156 0
134 155 0
130 150 0
129 149 0
134 154 0
133 152 0
146 166 0
140 161 0
139 158 0
141 162 0
139 161 0
133 154 0
135 157 0
138 159 0
136 157 0
136 156 0
129 148 0
139 161 0
138 159 0
147 168 0
139 160 0
143 164 0
142 165 0
141 162 0
139 161 0
141 163 0
141 161 0
145 166 0
143 164 0
144 166 0
144 166 0
143 163 0
145 166 0
148 169 0
150 172 0
137 157 0
140 160 0
143 165 0
149 169 0
148 167 0
140 160 0
151 171 0
144 165 0
147 168 0
146 167 0
134 154 0
147 168 0
144 165 0
146 168 0
147 167 0
145 166 0
152 174 0
143 165 0
146 168 0
145 166 0
152 174 0
143 165 0
153 175 0
155 176 0
148 171 0
150 171 0
146 168 0
151 173 0
142 163 0
149 172 0
156 178 0
148 170 0
159 180 0
157 180 0
142 162 0
152 173 0
154 175 0
153 174 0
151 173 0
148 168 0
157 178 0
153 174 0
155 177 0
161 182 0
155 177 0
156 176 0
162 182 0
157 178 0
151 171 0
150 172 0
153 174 0
149 171 0
150 171 0
155 176 0
152 173 0
162 184 0
157 177 0
153 173 0
159 181 0
160 181 0
156 178 0
152 173 0
158 179 0
153 176 0
155 176 0
158 179 0
157 178 0
162 184 0
157 179 0
157 179 0
157 177 0
152 172 0
158 180 0
161 183 0
163 186 0
158 181 0
161 183 0
161 182 0
157 178 0
160 180 0
161 184 0
163 185 0
156 178 0
160 181 0
160 182 0
163 185 0
164 186 0
160 183 0
163 184 0
156 177 0
158 179 0
162 187 0
161 182 0
160 180 0
161 183 0
157 179 0
160 182 0
163 186 0
164 185 0
160 181 0
156 178 0
160 182 0
165 187 0
161 182 0
162 184 0
160 181 0
164 186 0
167 189 0
168 189 0
161 181 0
167 189 0
160 182 0
162 184 0
163 186 0
165 188 0
166 187 0
163 185 0
168 190 0
165 188 0
166 188 0
167 187 0
162 184 0
163 185 0
164 186 0
162 184 0
161 185 0
162 183 0
157 179 0
166 186 0
166 189 0
165 186 0
158 179 0
167 189 0
169 192 0
169 191 0
159 181 0
168 189 0
168 189 0
166 188 0
164 186 0
160 180 0
171 192 0
164 186 0
165 188 0
168 190 0
165 188 0
162 182 0
167 189 0
168 189 0
170 191 0
165 187 0
162 185 0
166 188 0
160 181 0
168 189 0
171 193 0
168 191 0
163 186 0
165 188 0
168 189 0
189 210 186
185 207 171
184 206 179
189 211 191
185 207 179
187 209 184
188 209 186
182 205 175
186 208 182
190 211 198
185 207 186
185 207 191
184 206 173
182 205 173
179 202 161
182 206 182
178 202 169
181 204 173
180 203 181
175 198 166
184 208 186
181 205 173
177 200 150
185 208 186
182 205 180
177 200 179
178 201 175
177 201 176
183 207 169
180 203 175
181 206 181
180 203 173
186 209 193
178 200 169
175 199 179
179 203 177
181 205 186
175 200 171
182 206 177
181 204 177
181 204 182
180 203 171
180 204 179
181 204 181
176 199 173
178 201 167
179 202 167
173 196 165
177 200 175
182 205 179
178 202 167
185 208 186
184 208 196
183 206 182
178 200 177
176 199 171
184 206 193
179 201 186
176 198 161
172 196 171
181 204 169
176 198 184
183 205 188
185 207 188
183 206 194
178 200 157
185 207 196
185 207 182
183 205 179
178 201 173
178 200 181
179 201 179
177 199 175
177 198 165
184 204 191
181 203 189
181 202 186
176 197 167
182 203 184
178 199 167
177 199 171
188 208 198
185 205 184
182 201 186
184 204 189
174 193 179
189 208 198
182 200 186
185 205 193
181 201 189
188 207 189
188 207 186
189 208 196
183 202 181
183 201 189
184 202 182
188 207 193
186 205 188
186 204 191
183 202 182
187 205 199
190 208 189
186 204 193
182 200 186
182 201 169
184 202 169
182 201 167
185 203 184
184 202 177
187 204 181
172 190 147
189 206 182
176 194 149
181 200 149
174 194 137
155 177 57
161 184 62
160 181 76
164 187 72
160 181 67
163 185 84
162 183 62
155 176 88
156 177 57
157 179 51
157 178 36
153 175 72
166 187 57
146 167 76
160 182 67
157 179 51
152 175 25
161 183 0
156 179 0
153 176 0
154 176 0
156 178 0
151 173 0
154 177 0
152 174 0
146 167 0
151 173 0
151 173 0
141 163 0
143 163 0
146 166 0
146 166 0
147 168 0
134 155 0
128 149 0
143 165 0
136 156 0
137 159 0
132 152 0
129 149 0
132 152 0
134 154 0
131 152 0
131 150 0
143 164 0
137 157 0
124 144 0
129 149 0
140 159 0
133 153 0
127 147 0
134 155 0
132 151 0
122 142 0
130 149 0
131 151 0
136 155 0
134 154 0
124 143 0
135 155 0
134 154 0
132 153 0
135 156 0
134 154 0
137 158 0
141 162 0
129 148 0
132 152 0
135 155 0
134 154 0
144 164 0
130 149 0
127 148 0
123 142 0
133 154 0
127 146 0
131 151 0
137 158 0
136 156 0
123 144 0
139 161 0
143 163 0
140 161 0
124 144 0
137 157 0
131 152 0
127 148 0
138 158 0
140 160 0
146 167 0
142 162 0
141 161 0
120 141 0
133 152 0
140 159 0
133 154 0
121 141 0
138 159 0
139 159 0
135 157 0
135 156 0
138 161 0
140 161 0
131 151 0
145 165 0
137 156 0
139 160 0
138 159 0
142 163 0
149 169 0
138 159 0
139 160 0
133 155 0
141 162 0
140 162 0
132 152 0
142 163 0
140 160 0
137 158 0
145 167 0
142 161 0
142 164 0
140 160 0
144 165 0
145 167 0
138 160 0
144 165 0
137 157 0
142 163 0
141 162 0
149 169 0
144 164 0
142 163 0
138 159 0
141 163 0
147 168 0
149 170 0
145 166 0
140 161 0
153 175 0
150 171 0
157 179 0
151 173 0
161 182 0
145 165 0
151 171 0
155 177 0
155 177 0
152 174 0
144 165 0
157 177 0
150 171 0
154 176 0
155 176 0
141 164 0
154 175 0
156 177 0
156 178 0
151 174 0
159 180 0
148 169 0
157 176 0
150 171 0
154 176 0
150 172 0
146 166 0
158 179 0
150 171 0
155 177 0
153 173 0
158 179 0
151 174 0
157 178 0
156 179 0
163 184 0
157 179 0
151 173 0
154 175 0
159 180 0
159 182 0
152 171 0
154 177 0
152 174 0
156 177 0
154 176 0
158 179 0
153 175 0
157 179 0
153 175 0
154 176 0
158 180 0
155 177 0
159 180 0
152 174 0
161 183 0
163 185 0
158 178 0
156 177 0
155 176 0
158 179 0
163 184 0
156 177 0
158 180 0
161 182 0
161 183 0
159 181 0
161 181 0
162 183 0
159 180 0
163 184 0
161 182 0
158 180 0
157 178 0
154 177 0
165 187 0
161 182 0
160 181 0
161 184 0
161 183 0
161 183 0
159 181 0
158 181 0
161 182 0
161 182 0
161 183 0
161 182 0
166 189 0
168 189 0
166 188 0
158 180 0
158 180 0
161 182 0
160 182 0
160 183 0
160 182 0
161 181 0
163 185 0
164 186 0
165 187 0
164 186 0
163 185 0
166 187 0
159 182 0
162 184 0
168 190 0
165 186 0
166 188 0
169 191 0
156 178 0
163 185 0
165 187 0
166 188 0
164 185 0
162 185 0
168 190 0
162 184 0
166 188 0
169 188 0
163 184 0
166 187 0
164 186 0
162 184 0
165 187 0
167 189 0
168 190 0
164 188 0
165 187 0
163 184 0
166 187 0
162 183 0
166 189 0
168 189 0
165 188 0
168 190 0
165 186 0
167 190 0
168 190 0
169 191 0
164 186 0
167 188 0
167 189 0
167 189 0
165 186 0
165 187 0
165 186 0
190 212 189
190 212 188
189 211 184
184 206 182
186 207 177
187 209 179
188 210 181
187 209 189
183 205 173
187 209 188
189 211 194
186 207 179
189 212 193
178 201 162
183 206 178
179 202 167
183 205 179
185 208 179
182 205 183
180 203 166
181 203 177
183 206 175
180 203 174
184 208 180
179 202 175
177 200 175
176 201 180
180 204 184
182 205 181
183 207 181
185 208 182
182 206 171
178 201 160
180 204 184
178 201 177
179 203 180
182 205 181
184 208 186
182 205 182
183 207 186
179 202 167
183 206 186
177 200 171
171 193 161
180 203 179
174 197 179
174 197 188
184 206 184
183 206 188
178 202 196
175 198 177
180 203 175
184 207 191
179 202 181
178 201 167
174 197 177
177 200 181
180 203 184
179 201 171
175 198 169
178 200 165
178 201 177
186 207 194
173 195 167
180 201 171
175 197 182
182 203 181
179 201 193
177 200 177
183 205 191
170 192 157
179 200 177
179 200 177
178 200 171
183 203 186
176 198 159
181 201 177
178 200 175
183 203 191
180 201 173
178 199 169
186 206 198
184 204 191
187 207 181
179 199 175
179 198 186
184 203 177
186 206 196
186 205 181
186 205 182
186 205 194
179 198 181
179 198 165
183 202 191
181 200 181
190 208 189
179 198 184
185 202 186
183 200 191
182 200 181
183 201 179
188 206 189
173 192 157
179 198 167
186 205 175
188 206 179
179 197 165
176 193 163
177 196 163
178 195 175
186 205 175
189 206 184
176 194 155
170 189 114
168 190 88
166 188 72
155 177 67
166 189 84
163 186 57
164 186 84
167 189 108
162 184 108
156 178 62
165 186 72
156 176 57
154 175 57
157 177 36
153 175 25
158 180 76
163 184 62
158 181 44
156 176 0
157 179 0
153 175 0
153 176 0
152 175 0
144 167 0
160 182 0
154 176 0
143 166 0
150 171 0
149 170 0
147 168 0
147 169 0
146 168 0
138 159 0
148 169 0
137 158 0
144 165 0
145 167 0
140 161 0
136 156 0
137 158 0
125 144 0
134 155 0
135 155 0
126 147 0
122 143 0
134 154 0
141 161 0
133 153 0
131 152 0
134 155 0
126 146 0
138 157 0
129 148 0
124 144 0
138 158 0
135 155 0
125 144 0
136 157 0
134 155 0
132 152 0
129 149 0
129 149 0
129 149 0
140 160 0
141 161 0
122 142 0
134 154 0
126 146 0
121 141 0
132 151 0
130 150 0
133 154 0
130 151 0
124 144 0
134 154 0
138 159 0
139 159 0
129 148 0
136 157 0
134 155 0
133 153 0
134 156 0
131 152 0
132 152 0
135 156 0
141 162 0
131 151 0
137 158 0
128 149 0
132 152 0
140 161 0
137 158 0
130 150 0
139 160 0
137 157 0
127 146 0
144 165 0
134 155 0
139 160 0
130 150 0
144 164 0
142 162 0
140 159 0
140 161 0
134 154 0
138 158 0
136 157 0
140 161 0
125 145 0
129 150 0
135 156 0
148 170 0
136 157 0
141 163 0
141 162 0
141 162 0
138 161 0
140 161 0
136 157 0
150 171 0
139 160 0
145 167 0
148 171 0
144 166 0
142 163 0
153 174 0
145 167 0
137 158 0
145 167 0
144 166 0
152 173 0
150 170 0
142 163 0
146 167 0
150 171 0
143 164 0
146 167 0
148 168 0
132 153 0
143 164 0
144 167 0
151 173 0
145 167 0
148 168 0
150 172 0
147 168 0
147 170 0
153 175 0
151 173 0
151 172 0
157 178 0
147 168 0
152 175 0
151 172 0
152 173 0
149 171 0
147 167 0
146 168 0
156 178 0
149 171 0
159 181 0
151 172 0
153 174 0
152 173 0
154 177 0
147 169 0
156 177 0
151 173 0
152 173 0
154 176 0
154 177 0
145 166 0
158 179 0
158 178 0
153 173 0
158 180 0
148 170 0
158 180 0
155 178 0
152 174 0
154 175 0
153 175 0
161 182 0
158 181 0
158 179 0
161 184 0
154 176 0
160 181 0
159 179 0
152 173 0
159 181 0
158 181 0
158 180 0
158 180 0
156 177 0
157 178 0
156 177 0
159 182 0
156 178 0
156 178 0
158 180 0
161 181 0
160 182 0
152 174 0
163 185 0
160 183 0
153 174 0
162 184 0
161 184 0
162 183 0
161 183 0
158 179 0
159 180 0
163 184 0
149 169 0
162 185 0
164 185 0
161 184 0
155 177 0
162 184 0
156 178 0
155 176 0
165 188 0
166 186 0
161 184 0
161 183 0
159 180 0
163 185 0
154 175 0
164 185 0
159 181 0
166 188 0
164 187 0
164 185 0
167 190 0
167 189 0
163 185 0
163 186 0
162 182 0
161 184 0
161 183 0
162 184 0
166 188 0
168 190 0
161 184 0
169 191 0
166 187 0
162 184 0
162 183 0
161 183 0
165 187 0
160 182 0
166 188 0
163 186 0
165 188 0
165 187 0
162 184 0
167 189 0
167 189 0
167 189 0
158 180 0
166 189 0
170 191 0
162 184 0
168 190 0
164 186 0
165 189 0
166 188 0
170 193 0
157 179 0
170 192 0
170 191 0
167 188 0
165 187 0
170 192 0
163 185 0
165 188 0
167 190 0
167 189 0
166 189 0
168 191 0
167 190 0
167 189 0
166 189 0
170 191 0
167 189 0
167 189 0
186 208 171
188 210 184
187 209 179
188 210 184
186 208 169
184 207 161
186 209 173
189 211 188
186 208 184
186 208 177
185 206 181
182 203 177
185 207 175
181 203 186
184 207 177
181 204 184
180 203 159
181 204 185
181 203 185
183 207 169
175 198 160
179 203 181
183 207 182
177 200 168
180 204 173
185 208 202
180 202 177
183 206 183
184 207 182
182 206 188
173 196 161
178 201 175
181 205 179
180 203 186
184 207 184
180 202 163
175 198 172
179 202 165
182 205 171
180 204 181
176 199 177
182 206 186
181 205 186
183 207 188
185 208 182
183 206 175
181 204 189
179 202 169
171 194 173
172 195 167
178 201 161
183 206 189
174 198 184
179 202 173
172 195 149
181 203 179
181 204 186
174 196 167
178 201 179
179 201 188
178 201 191
178 200 181
179 201 179
178 200 167
183 205 179
180 202 186
181 202 181
180 202 167
172 193 163
181 201 186
185 206 181
182 204 175
180 202 173
180 202 171
179 201 159
175 197 165
179 201 169
177 197 171
178 199 181
182 202 173
179 201 175
182 202 175
176 196 169
180 200 191
180 200 186
184 203 193
184 204 188
182 201 177
183 202 186
191 210 198
185 205 193
179 197 181
186 205 194
189 207 193
190 208 196
186 205 196
183 201 181
192 210 204
190 208 184
187 205 184
190 208 191
173 192 153
187 206 184
185 204 175
182 200 169
184 203 182
187 205 186
187 205 175
181 198 175
175 193 161
177 195 167
183 200 171
177 196 144
159 181 84
157 179 80
165 188 92
163 185 80
161 183 80
160 182 62
163 185 88
154 175 67
163 183 67
162 184 84
162 183 92
164 185 72
156 178 76
158 179 72
159 180 62
152 173 57
145 168 51
158 180 36
162 185 0
156 178 0
163 186 0
156 177 0
155 176 0
157 180 0
155 176 0
153 175 0
156 176 0
146 168 0
147 168 0
148 171 0
144 166 0
146 168 0
146 168 0
144 165 0
137 158 0
141 162 36
141 162 25
146 167 25
139 158 0
130 150 0
126 147 0
131 152 0
134 155 0
135 155 0
127 148 0
133 154 0
140 160 0
140 160 0
127 148 0
127 148 0
122 143 0
130 151 0
138 159 0
134 155 0
136 155 0
119 139 0
121 141 0
134 155 0
139 160 0
121 142 0
136 158 0
131 150 0
124 145 0
131 150 0
132 154 0
128 148 0
136 157 0
125 145 0
130 150 0
137 157 0
136 156 0
131 152 0
138 158 0
131 151 0
131 151 0
129 150 0
148 169 0
136 155 0
146 167 0
133 153 0
137 157 0
133 154 0
129 149 0
128 149 0
133 154 0
134 155 0
140 161 0
138 159 0
135 156 0
138 159 0
143 164 0
144 165 0
144 164 0
132 152 0
135 155 0
142 164 0
137 159 0
138 158 0
143 164 0
144 165 0
134 155 0
144 164 0
143 164 0
140 161 0
137 158 0
144 165 0
146 167 0
142 164 0
148 169 0
144 166 0
139 159 0
137 158 0
145 167 0
141 162 0
141 160 0
138 160 0
137 158 0
149 170 0
149 169 0
141 163 0
140 162 0
134 154 0
145 166 0
154 175 0
134 155 0
148 171 0
141 161 0
148 170 0
141 161 0
147 167 0
152 174 0
149 170 0
143 164 0
143 165 0
142 164 0
146 167 0
144 166 0
137 160 0
150 171 0
145 167 0
138 158 0
144 166 0
144 166 0
145 167 0
150 172 0
149 170 0
145 166 0
148 170 0
151 173 0
152 174 0
149 170 0
152 175 0
155 175 0
144 165 0
146 167 0
140 160 0
154 176 0
146 169 0
152 173 0
152 174 0
152 174 0
148 170 0
152 175 0
161 181 0
159 180 0
157 178 0
155 176 0
154 176 0
150 172 0
158 180 0
152 174 0
156 178 0
150 172 0
154 175 0
156 178 0
158 181 0
155 176 0
151 174 0
154 175 0
156 177 0
151 172 0
154 176 0
155 178 0
154 177 0
157 178 0
160 181 0
157 179 0
159 180 0
151 173 0
159 181 0
155 175 0
154 174 0
157 180 0
158 180 0
158 179 0
157 179 0
157 179 0
157 179 0
160 182 0
159 181 0
157 179 0
159 182 0
156 177 0
164 187 0
161 182 0
152 174 0
165 187 0
155 177 0
160 184 0
160 182 0
164 185 0
164 185 0
161 182 0
157 178 0
155 177 0
161 183 0
161 183 0
157 179 0
163 186 0
160 181 0
161 183 0
159 181 0
166 187 0
160 181 0
160 180 0
159 181 0
164 187 0
164 185 0
158 180 0
165 187 0
163 184 0
160 182 0
163 186 0
167 189 0
167 188 0
162 183 0
163 186 0
162 182 0
161 182 0
167 187 0
161 184 0
162 184 0
164 187 0
162 184 0
163 186 0
170 193 0
159 180 0
164 186 0
162 184 0
162 185 0
167 189 0
167 190 0
170 193 0
166 188 0
164 186 0
169 192 0
159 181 0
166 189 0
165 185 0
169 190 0
165 188 0
166 188 0
169 191 0
160 181 0
166 187 0
166 188 0
164 187 0
164 186 0
164 186 0
167 189 0
167 189 0
165 188 0
165 188 0
164 186 0
165 188 0
168 191 0
163 184 0
166 189 0
165 186 0
166 188 0
169 191 0
170 192 0
165 187 0
166 189 0
166 189 0
168 191 0
169 191 0
194 215 199
189 211 179
193 214 196
186 208 175
191 213 194
185 206 175
189 211 186
185 206 179
188 210 186
190 212 196
185 207 184
182 204 184
186 208 187
184 206 169
180 203 162
183 206 169
182 204 170
183 206 180
182 205 171
189 212 199
184 207 178
182 205 175
181 205 181
175 199 160
177 200 178
181 204 172
184 207 169
184 207 181
182 204 176
181 204 192
181 204 179
186 209 179
188 211 188
178 201 169
184 207 183
179 202 177
178 202 179
178 201 183
173 195 184
180 204 186
184 208 188
181 204 177
172 195 155
181 202 171
180 203 186
184 207 189
182 206 188
172 194 153
180 203 179
173 195 155
182 204 181
180 202 179
173 196 179
180 201 175
178 201 186
177 200 171
184 206 189
184 207 191
180 202 177
185 207 188
187 209 201
182 205 191
178 199 179
179 200 171
181 203 182
182 204 182
177 199 181
183 205 189
183 204 189
176 198 171
180 201 173
179 202 179
184 205 184
180 202 179
185 206 188
180 201 181
181 202 184
181 202 181
184 204 177
178 199 177
179 199 182
177 197 173
186 206 196
184 203 184
182 202 193
178 198 177
181 201 179
193 212 209
177 197 179
181 200 181
178 197 182
178 197 179
184 203 194
187 206 194
188 207 184
184 203 179
187 204 191
179 197 175
185 203 181
187 205 194
182 199 171
165 184 149
186 203 181
183 202 169
183 201 169
186 204 177
190 208 188
189 207 182
183 201 179
186 204 177
178 195 169
179 196 157
158 180 84
164 186 92
168 190 84
163 185 44
165 187 80
159 181 51
160 183 67
162 184 84
159 182 44
156 178 51
161 182 80
158 180 67
163 185 57
155 177 36
156 178 51
165 186 72
157 179 51
157 179 57
159 181 51
160 182 0
163 185 0
162 185 0
158 180 0
154 177 0
157 180 0
151 173 0
157 179 0
154 176 0
148 170 0
143 165 0
157 179 0
137 158 0
142 164 0
147 169 0
143 163 0
147 168 0
141 163 0
138 159 0
136 157 0
133 154 0
130 152 0
134 154 0
126 147 0
136 156 0
133 154 0
133 154 0
134 155 0
139 161 0
140 160 0
142 163 0
133 152 0
135 155 0
145 166 0
131 151 0
134 154 0
131 151 0
133 152 0
125 146 0
140 162 0
143 165 0
130 149 0
136 156 0
131 152 0
138 158 0
129 150 0
138 158 0
127 148 0
137 157 0
136 156 0
129 150 0
138 158 0
130 151 0
139 160 0
142 163 0
137 158 0
135 156 0
137 158 0
128 149 0
135 154 0
133 152 0
126 146 0
138 158 0
141 161 0
132 152 0
135 155 0
139 162 0
135 156 0
130 150 0
137 159 0
142 162 0
133 153 0
139 161 0
136 156 0
134 156 0
133 154 0
141 162 0
146 167 0
140 160 0
136 157 0
150 170 0
146 167 0
132 154 0
142 164 0
144 167 0
138 160 0
133 155 0
146 166 0
133 154 0
138 159 0
140 161 0
144 164 0
135 157 0
141 161 0
142 163 0
143 163 0
145 166 0
147 168 0
140 162 0
143 163 0
137 157 0
148 171 0
136 158 0
145 166 0
143 165 0
142 162 0
149 170 0
146 169 0
137 157 0
147 168 0
138 160 0
155 176 0
150 170 0
146 167 0
140 161 0
141 163 0
144 165 0
145 167 0
149 171 0
141 160 0
148 170 0
138 158 0
154 174 0
152 174 0
148 169 0
152 173 0
146 167 0
145 167 0
155 176 0
145 168 0
146 167 0
150 172 0
144 165 0
154 175 0
148 170 0
154 176 0
149 170 0
155 176 0
153 175 0
154 176 0
156 177 0
154 176 0
150 173 0
149 169 0
157 178 0
145 165 0
153 175 0
157 179 0
148 170 0
157 178 0
152 172 0
148 168 0
157 178 0
152 174 0
148 168 0
152 173 0
158 180 0
157 179 0
154 175 0
159 180 0
153 176 0
160 183 0
156 177 0
152 175 0
149 170 0
156 177 0
157 179 0
160 182 0
158 180 0
160 182 0
158 179 0
158 179 0
158 179 0
155 176 0
160 183 0
159 180 0
158 179 0
159 182 0
156 177 0
154 177 0
157 180 0
160 182 0
160 182 0
163 185 0
162 185 0
165 188 0
164 185 0
160 181 0
164 187 0
154 176 0
158 179 0
162 185 0
158 179 0
158 180 0
159 180 0
159 181 0
160 182 0
159 179 0
163 186 0
165 186 0
166 187 0
162 185 0
167 190 0
159 181 0
163 184 0
156 178 0
165 187 0
164 185 0
160 182 0
161 183 0
166 188 0
163 185 0
160 182 0
166 189 0
157 180 0
160 180 0
162 184 0
161 184 0
165 187 0
161 185 0
161 183 0
163 184 0
167 188 0
166 188 0
165 186 0
161 184 0
160 183 0
162 185 0
164 187 0
163 185 0
164 185 0
160 183 0
161 181 0
167 190 0
167 188 0
168 190 0
165 187 0
166 187 0
163 185 0
165 186 0
166 187 0
167 189 0
163 186 0
164 185 0
169 190 0
161 183 0
166 188 0
168 190 0
164 186 0
167 189 0
167 189 0
164 185 0
164 186 0
166 188 0
165 187 0
165 189 0
168 189 0
166 189 0
163 186 0
164 186 0
164 185 0
165 187 0
167 190 0
168 190 0
166 189 0
163 185 0
171 194 0
165 188 0
167 189 0
188 210 184
189 210 199
189 210 188
187 209 181
182 204 169
188 210 184
185 206 157
188 210 186
191 212 188
189 210 193
189 210 193
185 208 188
185 207 179
185 207 186
179 201 158
184 207 177
180 203 177
179 201 181
185 207 184
179 202 155
186 209 188
183 206 188
181 204 172
183 206 182
179 202 160
179 202 178
183 206 194
180 203 172
178 201 153
180 203 171
181 205 187
180 204 184
178 201 169
184 208 191
181 204 189
179 202 181
180 202 173
185 209 181
178 201 171
181 203 181
180 203 167
178 200 167
176 199 165
182 205 194
182 205 184
184 208 189
177 199 167
185 207 198
183 205 184
180 202 189
184 207 179
182 205 179
182 204 194
178 201 169
184 207 193
180 202 189
173 196 184
177 200 181
180 202 179
182 204 177
184 206 193
182 203 182
178 200 182
180 202 182
182 203 188
184 205 188
174 195 177
179 201 171
173 194 177
182 204 193
188 209 189
176 197 173
180 201 177
188 209 175
171 192 155
186 206 182
175 197 147
185 204 179
181 202 173
181 201 179
178 199 177
180 201 188
182 201 181
181 201 193
180 198 175
175 194 157
178 198 189
189 207 198
184 203 191
180 200 167
185 203 193
182 201 191
176 196 173
183 202 184
186 204 193
186 205 184
185 203 179
182 201 175
182 200 182
179 196 173
180 200 161
176 194 157
180 199 169
180 199 159
186 204 177
191 208 179
184 202 165
181 197 175
184 202 169
187 204 186
186 202 181
168 188 111
160 182 72
161 182 80
158 180 67
165 188 80
167 188 80
159 181 62
156 179 67
166 189 76
157 179 57
158 180 57
156 177 62
161 182 67
158 179 67
150 172 80
162 184 84
158 179 57
155 177 57
157 178 76
155 178 25
161 184 0
162 184 0
157 180 0
158 180 0
159 181 0
161 183 0
160 184 0
154 176 0
150 171 0
152 174 0
146 168 0
139 160 0
153 174 0
144 165 0
152 173 0
145 166 0
146 167 0
147 168 0
146 167 0
147 169 0
145 166 0
135 155 36
135 155 0
124 144 0
130 149 0
138 158 0
135 156 0
139 159 0
135 155 0
155 175 0
140 161 0
131 151 0
144 165 0
125 145 0
138 157 0
137 157 0
129 151 0
138 158 0
141 161 0
139 159 0
131 150 0
135 156 0
127 148 0
129 150 0
142 163 0
137 158 0
148 168 0
138 159 0
140 160 0
133 154 0
126 147 0
138 160 0
130 151 0
131 152 0
137 156 0
124 144 0
122 142 0
126 146 0
131 152 0
135 156 0
129 149 0
143 163 0
125 146 0
145 166 0
132 152 0
138 159 0
139 160 0
130 151 0
142 162 0
126 147 0
134 155 0
125 146 0
138 157 0
133 154 0
143 164 0
146 166 0
137 158 0
135 155 0
138 160 0
138 159 0
141 162 0
141 164 0
147 168 0
145 166 0
142 163 0
140 162 0
145 164 0
141 163 0
139 160 0
145 165 0
142 163 0
133 154 0
143 164 0
144 165 0
139 161 0
136 157 0
146 167 0
141 162 0
141 162 0
149 171 0
143 165 0
148 169 0
152 171 0
147 169 0
149 170 0
145 167 0
154 175 0
142 163 0
144 167 0
141 163 0
145 167 0
138 159 0
146 166 0
150 172 0
149 169 0
149 171 0
148 171 0
155 176 0
145 167 0
142 163 0
151 173 0
147 169 0
147 168 0
155 177 0
153 175 0
150 171 0
144 166 0
151 174 0
150 171 0
153 174 0
150 172 0
153 175 0
149 171 0
155 177 0
153 174 0
147 169 0
152 174 0
154 176 0
149 171 0
155 178 0
161 184 0
153 174 0
153 176 0
147 168 0
150 172 0
150 171 0
155 176 0
151 174 0
151 173 0
151 172 0
153 174 0
152 175 0
165 186 0
154 174 0
149 170 0
156 177 0
151 174 0
161 184 0
158 179 0
159 181 0
153 175 0
147 169 0
152 174 0
156 178 0
156 177 0
153 174 0
162 183 0
149 170 0
154 174 0
154 174 0
159 181 0
155 177 0
157 179 0
162 186 0
156 179 0
154 176 0
149 170 0
159 180 0
150 173 0
161 182 0
163 185 0
158 180 0
159 180 0
158 179 0
162 185 0
159 181 0
158 180 0
161 182 0
160 182 0
157 178 0
156 178 0
157 179 0
159 181 0
163 184 0
158 180 0
160 182 0
165 186 0
156 179 0
162 183 0
162 183 0
158 180 0
160 181 0
165 187 0
158 178 0
159 180 0
158 179 0
153 175 0
154 175 0
161 184 0
163 184 0
155 177 0
165 187 0
158 178 0
162 184 0
163 186 0
162 184 0
159 180 0
160 181 0
168 190 0
163 187 0
159 181 0
163 185 0
161 183 0
161 183 0
162 183 0
165 187 0
164 185 0
162 184 0
164 187 0
163 185 0
161 182 0
167 189 0
158 179 0
163 185 0
161 183 0
163 185 0
168 191 0
161 182 0
168 189 0
164 186 0
167 189 0
161 182 0
168 190 0
159 180 0
165 187 0
165 187 0
165 188 0
163 185 0
164 187 0
163 185 0
165 187 0
163 186 0
168 190 0
167 189 0
162 185 0
166 189 0
161 183 0
164 187 0
161 184 0
166 188 0
167 189 0
166 190 0
165 186 0
170 192 0
165 187 0
164 187 0
169 190 0
164 187 0
167 189 0
185 206 167
186 207 188
193 213 193
189 211 189
190 211 196
190 211 196
188 210 179
185 206 167
191 212 182
185 208 169
185 207 169
187 209 177
185 207 171
184 206 169
184 206 182
184 206 181
183 205 168
186 209 189
182 204 169
182 206 191
182 204 171
180 203 171
175 198 158
180 203 169
183 205 183
172 195 167
184 208 189
174 197 163
181 204 169
179 202 175
190 212 194
185 208 189
181 204 169
182 204 171
177 200 169
184 206 175
183 206 183
179 202 171
182 205 177
176 199 173
181 204 182
179 201 179
181 205 191
183 207 193
178 201 171
181 205 182
183 205 163
174 196 163
184 206 173
177 199 182
181 203 186
179 203 184
179 202 177
179 201 182
179 201 171
179 201 175
174 197 165
181 204 181
179 202 181
182 204 181
181 202 179
179 201 161
175 197 173
181 203 189
167 188 157
179 202 189
179 200 181
177 198 171
181 202 171
182 204 173
180 201 182
178 198 177
183 203 196
183 203 186
179 201 181
182 203 181
177 198 171
179 200 181
172 194 167
178 198 169
181 201 173
176 195 167
179 197 179
176 196 165
175 195 167
189 208 203
187 206 198
189 208 199
182 201 179
184 203 181
191 209 198
187 205 191
181 200 184
192 209 191
184 201 188
192 210 196
189 207 189
181 201 175
185 203 189
182 200 182
180 198 167
186 204 182
173 191 159
183 202 161
177 196 161
174 193 153
183 200 182
185 203 173
177 195 155
172 190 157
170 191 114
167 188 108
162 184 80
162 184 57
160 183 80
164 186 62
160 183 62
153 175 67
161 183 72
161 183 72
160 182 67
152 174 76
162 184 76
155 177 76
158 179 44
158 180 62
159 181 44
158 179 67
159 181 67
163 184 44
162 185 25
162 185 0
165 188 0
159 182 0
153 176 0
156 178 0
160 183 0
151 174 0
152 173 0
154 176 0
153 177 0
146 167 0
151 172 0
134 156 0
146 166 0
142 164 0
149 171 0
148 169 0
151 173 0
138 160 0
143 163 0
133 153 0
138 158 0
130 151 0
138 158 0
132 153 0
136 156 0
139 160 0
128 148 0
137 157 0
140 161 0
133 154 0
128 149 0
141 162 0
140 160 0
140 161 0
136 157 0
135 157 0
130 151 0
142 162 0
134 155 0
130 151 0
137 156 0
138 159 0
131 150 0
137 159 0
137 157 0
138 159 0
136 156 0
141 162 0
139 160 0
135 155 0
128 148 0
134 155 0
134 154 0
137 157 0
133 152 0
138 159 0
133 153 0
141 163 0
145 165 0
133 153 0
140 162 0
135 154 0
136 157 0
140 161 0
137 157 0
132 151 0
133 153 0
140 160 0
137 158 0
145 166 0
130 150 0
144 166 0
143 164 0
146 167 0
144 164 0
147 168 0
143 164 0
131 153 0
131 151 0
137 158 0
141 162 0
150 171 0
148 169 0
149 169 0
145 167 0
142 163 0
145 166 0
144 165 0
144 166 0
138 159 0
151 174 0
139 161 0
145 166 0
143 164 0
140 162 0
145 166 0
148 169 0
145 167 0
150 172 0
145 167 0
140 162 0
142 164 0
144 165 0
146 168 0
142 165 0
155 177 0
144 165 0
150 172 0
148 169 0
150 171 0
140 161 0
147 169 0
155 178 0
145 166 0
146 167 0
149 170 0
154 176 0
143 165 0
152 174 0
145 166 0
153 176 0
144 165 0
147 169 0
149 170 0
158 180 0
149 171 0
150 173 0
156 178 0
145 166 0
147 169 0
147 169 0
149 170 0
152 175 0
149 170 0
156 179 0
154 175 0
146 167 0
154 176 0
157 180 0
158 180 0
152 174 0
146 169 0
158 180 0
153 176 0
151 174 0
147 170 0
161 181 0
161 182 0
145 167 0
157 179 0
154 176 0
154 176 0
152 172 0
155 177 0
153 176 0
154 174 0
158 180 0
155 176 0
155 175 0
158 179 0
156 175 0
158 180 0
161 183 0
156 177 0
155 176 0
151 173 0
161 183 0
155 177 0
163 186 0
162 185 0
148 170 0
157 179 0
156 179 0
161 183 0
155 177 0
155 178 0
162 183 0
165 188 0
151 173 0
161 182 0
151 173 0
160 183 0
154 176 0
157 179 0
158 178 0
160 182 0
156 178 0
156 180 0
153 174 0
167 189 0
155 177 0
160 184 0
160 181 0
156 178 0
159 180 0
163 185 0
159 183 0
160 181 0
163 184 0
161 183 0
165 187 0
163 185 0
159 182 0
160 181 0
164 187 0
161 183 0
162 184 0
159 182 0
162 185 0
164 187 0
163 184 0
164 186 0
160 181 0
163 185 0
160 181 0
162 184 0
160 180 0
163 184 0
163 185 0
166 187 0
163 187 0
166 188 0
157 180 0
158 179 0
162 183 0
160 182 0
168 190 0
166 189 0
161 184 0
164 187 0
161 184 0
164 186 0
162 183 0
167 189 0
168 189 0
168 190 0
164 185 0
166 187 0
163 185 0
162 184 0
164 186 0
164 186 0
169 191 0
166 188 0
166 187 0
166 188 0
163 186 0
164 187 0
161 182 0
165 187 0
164 188 0
168 190 0
169 191 0
162 185 0
161 183 0
163 186 0
161 184 0
164 186 0
162 183 0
164 185 0
166 189 0
166 187 0
167 189 0
169 190 0
171 192 0
168 190 0
162 185 0
170 193 0
189 210 191
192 214 203
191 213 193
189 210 182
190 212 188
192 213 196
185 206 169
186 208 179
187 209 186
184 206 175
187 208 177
185 207 167
184 207 177
181 203 161
181 203 176
181 204 167
182 206 181
177 199 153
183 206 184
182 205 181
185 207 185
181 204 178
178 200 171
187 210 196
182 205 172
184 207 189
182 205 171
183 206 181
185 208 169
182 204 194
182 205 181
183 206 184
181 204 184
178 201 163
185 208 177
185 209 194
181 204 184
179 202 171
181 204 189
176 199 179
186 209 186
182 205 177
179 202 186
178 201 179
178 201 165
186 209 199
188 210 199
180 202 179
178 199 149
182 205 179
181 204 184
187 209 191
173 195 169
182 205 171
181 204 189
182 204 182
181 203 169
176 197 167
181 203 186
177 198 177
178 201 177
181 203 182
175 196 173
181 202 181
176 197 155
181 202 165
181 203 189
181 203 177
184 205 179
181 202 189
176 196 165
179 201 181
181 201 188
181 202 186
180 201 182
183 203 188
188 209 181
179 199 181
187 207 188
177 197 165
187 207 191
182 202 182
182 200 175
182 202 175
181 200 169
186 205 194
190 209 201
186 204 186
189 208 203
190 209 196
181 200 155
192 210 201
186 205 186
184 203 181
190 208 194
188 207 188
181 199 175
177 195 184
174 194 147
180 199 159
178 197 167
176 195 169
184 203 173
183 201 169
183 202 184
188 206 188
186 204 171
190 208 177
178 197 153
173 193 137
166 187 108
168 188 108
161 183 51
160 181 76
160 182 99
169 192 57
162 184 76
162 184 57
159 181 67
163 184 62
159 181 67
161 183 72
165 186 95
161 184 62
166 188 62
166 188 88
157 179 44
150 173 51
155 176 36
159 181 25
158 181 0
160 182 0
156 178 0
154 176 0
159 181 0
158 181 0
162 185 0
154 177 0
155 176 0
154 176 0
148 169 0
151 172 0
150 172 0
150 171 0
148 170 0
146 167 0
147 168 0
130 151 0
143 165 0
144 166 0
146 166 0
138 158 0
137 157 0
134 155 0
131 151 0
133 153 0
139 159 0
146 167 0
128 150 0
145 167 0
143 164 0
142 162 0
135 156 0
137 158 0
140 160 0
144 164 0
136 157 0
132 152 0
134 155 0
129 148 0
140 163 0
139 160 0
138 159 0
130 150 0
130 151 0
138 159 0
134 155 0
131 150 0
142 163 0
144 165 0
138 159 0
151 173 0
138 160 0
136 157 0
146 168 0
140 160 0
140 162 0
144 165 0
141 163 0
136 156 0
144 164 0
137 159 0
149 170 0
141 162 0
150 171 0
128 149 0
135 155 0
144 165 0
141 161 0
133 154 0
143 166 0
142 163 0
136 157 0
139 160 0
136 156 0
137 159 0
138 160 0
140 162 0
133 154 0
148 169 0
143 164 0
146 167 0
140 162 0
146 167 0
148 169 0
142 164 0
141 161 0
143 163 0
138 159 0
147 169 0
142 165 0
149 170 0
134 155 0
149 170 0
137 157 0
136 158 0
143 164 0
145 167 0
144 166 0
147 168 0
141 163 0
149 170 0
154 175 0
150 172 0
147 167 0
153 173 0
148 169 0
153 175 0
144 165 0
145 167 0
151 173 0
147 170 0
153 175 0
148 170 0
154 175 0
144 166 0
148 170 0
139 161 0
153 173 0
152 171 0
148 169 0
150 172 0
156 178 0
152 173 0
147 169 0
145 167 0
153 175 0
154 177 0
153 174 0
153 175 0
152 173 0
155 176 0
149 172 0
153 176 0
149 171 0
158 179 0
154 175 0
159 181 0
157 178 0
147 170 0
149 171 0
160 182 0
149 171 0
148 170 0
159 182 0
153 174 0
158 180 0
147 169 0
154 177 0
160 181 0
158 180 0
152 174 0
148 170 0
148 170 0
160 182 0
154 177 0
157 179 0
154 176 0
163 185 0
154 176 0
151 173 0
160 182 0
156 178 0
157 178 0
156 178 0
157 179 0
154 175 0
165 187 0
159 181 0
152 175 0
159 181 0
149 171 0
161 183 0
161 183 0
159 182 0
162 184 0
162 184 0
157 179 0
157 179 0
153 172 0
159 181 0
162 184 0
161 184 0
159 181 0
161 182 0
160 182 0
162 185 0
160 184 0
162 183 0
160 182 0
164 186 0
156 177 0
161 182 0
156 179 0
164 186 0
160 182 0
158 180 0
162 184 0
161 182 0
162 183 0
167 188 0
162 184 0
159 182 0
159 182 0
165 186 0
159 180 0
161 183 0
165 189 0
164 187 0
165 189 0
160 182 0
163 185 0
167 189 0
164 187 0
159 180 0
161 184 0
156 177 0
159 180 0
166 188 0
164 186 0
165 186 0
163 186 0
163 185 0
163 185 0
160 183 0
160 182 0
165 187 0
165 187 0
166 189 0
166 186 0
164 186 0
165 187 0
168 189 0
166 189 0
151 173 0
160 183 0
160 183 0
159 181 0
167 189 0
158 181 0
163 186 0
165 187 0
165 186 0
166 187 0
164 185 0
163 185 0
164 186 0
164 186 0
164 187 0
166 188 0
167 188 0
166 188 0
165 187 0
168 189 0
168 191 0
169 190 0
168 192 0
165 187 0
170 192 0
166 190 0
167 190 0
163 184 0
164 185 0
168 190 0
169 191 0
165 187 0
166 189 0
165 188 0
169 192 0
166 189 0
193 214 191
190 211 191
189 209 181
185 207 163
190 212 191
186 208 179
183 205 171
188 209 184
189 211 184
181 203 171
184 207 179
186 208 171
185 207 167
184 207 177
182 204 177
185 208 179
188 211 182
188 210 184
179 202 167
185 208 179
178 200 160
185 207 175
180 203 174
183 206 182
184 207 193
180 202 178
182 204 185
180 203 168
177 200 172
183 206 169
177 200 178
180 203 167
186 209 185
181 204 179
180 202 165
185 209 196
179 202 177
179 202 182
183 207 173
181 204 173
178 201 169
179 200 179
178 200 179
180 204 181
180 203 188
179 201 175
185 207 169
182 205 189
179 201 175
179 201 177
182 203 167
175 198 165
176 199 175
184 207 184
185 208 198
176 199 165
182 203 181
181 202 182
177 199 175
182 204 184
184 205 177
179 200 171
184 205 186
184 205 179
184 206 181
179 200 173
182 204 184
176 198 163
179 201 173
178 199 167
180 201 169
176 197 169
176 197 179
174 194 171
182 203 173
180 201 179
178 198 184
175 194 169
177 198 175
185 204 177
186 205 177
186 206 189
182 202 179
181 199 184
177 197 169
187 206 188
178 196 177
184 203 182
183 201 182
182 200 186
187 205 191
191 210 193
190 208 196
186 205 191
185 204 182
177 196 163
181 200 163
182 202 165
176 196 155
180 198 169
184 203 171
184 203 171
188 207 165
180 197 175
181 199 159
180 198 161
174 192 159
185 204 157
173 194 114
169 190 99
168 188 111
174 196 114
165 187 67
167 188 92
166 188 84
164 186 80
159 182 57
169 190 76
155 177 72
168 189 76
160 182 57
163 184 80
163 186 57
163 185 76
156 179 80
161 183 67
166 188 67
158 181 25
151 173 51
160 182 57
162 184 0
160 183 0
156 177 0
157 179 0
162 185 0
160 182 0
152 174 0
152 173 0
155 177 0
152 175 0
162 184 0
148 170 0
147 168 0
143 165 0
144 165 0
141 164 0
145 165 0
145 165 0
144 165 0
140 161 0
137 156 0
140 162 0
140 161 0
139 160 0
137 157 0
134 154 0
145 166 0
136 156 0
138 160 0
133 153 0
144 164 0
132 153 0
137 158 0
137 157 0
141 162 0
147 168 0
136 156 0
138 159 0
134 155 0
131 152 0
133 153 0
129 150 0
141 162 0
140 162 0
137 157 0
139 160 0
147 169 0
140 160 0
135 156 0
136 156 0
133 153 0
138 159 0
135 156 0
138 158 0
139 159 0
133 154 0
134 155 0
138 158 0
151 172 0
141 162 0
138 160 0
146 168 0
139 160 0
140 161 0
138 159 0
139 160 0
144 164 0
129 149 0
140 162 0
138 158 0
138 159 0
141 162 0
127 149 0
147 168 0
136 157 0
149 170 0
150 173 0
148 169 0
140 160 0
139 160 0
135 157 0
138 159 0
140 162 0
138 160 0
145 167 0
139 161 0
139 160 0
145 166 0
145 167 0
138 157 0
135 156 0
148 168 0
143 165 0
145 167 0
145 166 0
139 162 0
141 161 0
141 163 0
137 158 0
141 161 0
146 168 0
152 173 0
149 169 0
150 173 0
147 170 0
150 172 0
147 170 0
145 167 0
140 162 0
143 164 0
158 178 0
141 164 0
154 176 0
150 172 0
148 169 0
149 171 0
150 172 0
156 177 0
149 171 0
148 168 0
149 171 0
147 169 0
149 171 0
143 164 0
156 179 0
148 170 0
152 172 0
155 178 0
147 169 0
157 178 0
152 174 0
148 168 0
154 176 0
151 174 0
144 167 0
150 171 0
158 180 0
153 175 0
156 178 0
156 178 0
154 177 0
151 173 0
153 176 0
157 179 0
158 178 0
160 182 0
159 182 0
151 172 0
158 180 0
154 176 0
149 171 0
154 176 0
157 178 0
159 181 0
153 175 0
153 175 0
161 184 0
159 181 0
153 177 0
158 179 0
154 175 0
156 178 0
156 178 0
163 185 0
159 181 0
154 177 0
158 180 0
156 177 0
155 177 0
161 183 0
152 174 0
158 180 0
158 179 0
156 178 0
163 186 0
153 176 0
156 178 0
160 183 0
161 182 0
161 184 0
157 178 0
162 185 0
169 191 0
165 187 0
162 183 0
162 184 0
156 178 0
159 182 0
166 189 0
159 181 0
159 179 0
159 182 0
157 177 0
160 183 0
158 180 0
167 188 0
162 185 0
167 189 0
161 183 0
163 186 0
158 179 0
160 181 0
158 180 0
160 182 0
160 182 0
166 189 0
156 179 0
164 186 0
161 183 0
163 185 0
163 185 0
160 183 0
164 186 0
166 188 0
165 189 0
164 188 0
160 181 0
163 183 0
165 187 0
159 182 0
163 186 0
165 188 0
166 187 0
164 186 0
163 186 0
167 189 0
160 183 0
160 182 0
164 186 0
167 189 0
164 187 0
158 180 0
166 189 0
163 185 0
167 190 0
163 185 0
164 185 0
162 183 0
168 190 0
161 183 0
164 187 0
166 188 0
165 188 0
163 185 0
167 189 0
165 186 0
166 189 0
167 190 0
168 190 0
171 193 0
167 190 0
166 188 0
166 190 0
162 184 0
169 190 0
166 188 0
168 189 0
161 183 0
169 191 0
166 188 0
171 193 0
168 190 0
170 192 0
163 184 0
167 190 0
166 189 0
162 184 0
168 191 0
169 191 0
163 185 0
190 211 182
189 210 184
191 213 194
184 205 159
190 212 189
190 212 196
191 213 194
189 211 186
190 212 184
190 212 194
189 211 188
190 211 191
188 210 189
183 205 172
187 208 184
184 207 182
183 205 165
185 207 180
184 207 181
182 205 171
182 205 179
179 202 165
182 205 169
184 206 180
180 202 168
187 210 179
184 208 200
176 198 161
184 208 193
179 201 174
182 203 177
174 197 162
177 200 165
181 203 176
186 208 191
183 206 189
186 208 193
179 201 169
185 208 188
180 203 175
175 197 169
177 200 179
183 205 173
183 205 193
181 203 181
181 204 188
182 204 173
181 203 169
184 207 173
181 203 171
180 202 173
185 207 173
182 204 182
179 200 167
182 203 181
176 197 165
175 195 181
183 205 181
182 205 186
178 200 175
179 201 175
182 204 179
191 212 203
177 198 175
173 195 165
183 205 184
180 202 171
180 201 173
179 200 182
181 202 167
180 201 177
188 209 194
174 195 167
186 206 184
185 206 182
179 199 179
176 196 177
182 203 179
185 206 189
183 202 194
181 200 189
187 206 193
186 205 188
190 209 203
182 202 177
182 201 179
182 201 186
189 208 188
188 207 194
188 206 186
183 201 181
184 202 177
184 203 177
180 199 173
182 201 171
187 205 186
181 200 173
182 201 175
180 198 175
182 201 181
185 203 175
186 205 173
184 202 179
181 199 165
184 203 171
187 206 175
177 196 155
165 185 105
171 192 117
170 189 111
176 197 122
158 180 67
165 187 80
165 187 76
165 186 92
167 188 72
159 182 80
160 181 51
155 177 62
166 188 80
160 182 80
156 177 62
159 181 67
160 182 67
158 180 67
160 181 51
160 182 51
161 183 72
163 185 51
157 179 44
166 190 0
158 181 0
162 185 0
160 183 0
163 184 0
164 187 0
160 184 0
153 174 0
153 174 0
158 181 0
151 174 0
153 175 0
152 175 0
142 164 0
151 172 0
145 167 0
139 160 0
142 162 0
144 165 0
146 166 0
150 171 0
148 169 0
137 157 0
135 156 0
147 168 0
130 150 0
137 158 0
146 167 0
141 161 0
142 163 0
141 163 0
137 157 0
131 152 0
142 162 0
151 172 0
140 160 0
143 163 0
144 164 0
134 155 0
136 157 0
144 165 0
144 166 0
138 159 0
143 164 0
135 155 0
143 165 0
142 163 0
140 160 0
119 140 0
133 154 0
141 161 0
137 158 0
138 159 0
148 170 0
147 170 0
141 162 0
141 163 0
134 155 0
144 165 0
144 166 0
140 161 0
135 156 0
141 162 0
133 154 0
130 151 0
140 162 0
140 161 0
139 161 0
136 157 0
141 162 0
140 161 0
149 170 0
140 161 0
135 156 0
136 157 0
147 168 0
145 166 0
140 161 0
143 164 0
142 162 0
142 163 0
135 155 0
139 160 0
143 164 0
145 166 0
138 160 0
146 167 0
145 166 0
149 171 0
157 179 0
137 158 0
136 156 0
146 168 0
141 163 0
137 159 0
141 162 0
144 167 0
140 161 0
149 170 0
149 170 0
147 168 0
143 164 0
147 168 0
143 164 0
149 170 0
140 162 0
149 170 0
141 163 0
148 169 0
142 164 0
145 166 0
152 174 0
144 167 0
148 170 0
142 163 0
149 170 0
149 170 0
146 167 0
145 166 0
146 169 0
152 174 0
148 170 0
155 176 0
150 172 0
146 168 0
147 169 0
151 172 0
149 170 0
151 172 0
151 172 0
150 174 0
156 176 0
151 174 0
156 178 0
145 165 0
155 178 0
158 180 0
156 178 0
150 172 0
153 176 0
155 177 0
157 180 0
154 176 0
152 174 0
161 182 0
148 170 0
156 178 0
153 175 0
155 179 0
157 177 0
156 178 0
157 178 0
159 182 0
154 176 0
157 179 0
154 175 0
152 175 0
157 180 0
157 180 0
151 173 0
157 178 0
158 179 0
159 181 0
159 181 0
156 178 0
161 183 0
158 179 0
155 176 0
162 184 0
156 177 0
164 186 0
152 173 0
161 181 0
158 181 0
159 180 0
159 180 0
163 184 0
155 178 0
159 182 0
158 179 0
167 190 0
158 180 0
165 187 0
150 171 0
161 184 0
164 185 0
161 183 0
159 181 0
162 183 0
158 181 0
160 181 0
164 187 0
160 183 0
162 184 0
161 184 0
164 186 0
159 183 0
160 182 0
162 185 0
163 183 0
162 184 0
168 190 0
164 187 0
166 188 0
162 184 0
160 182 0
162 184 0
161 183 0
161 183 0
164 184 0
166 188 0
160 183 0
157 179 0
165 187 0
160 180 0
161 185 0
159 180 0
159 182 0
161 184 0
162 184 0
164 186 0
158 179 0
166 188 0
163 186 0
162 184 0
164 186 0
163 185 0
161 184 0
168 190 0
167 189 0
156 177 0
160 184 0
163 185 0
165 186 0
168 189 0
162 185 0
163 186 0
162 185 0
161 184 0
163 185 0
167 190 0
167 189 0
163 184 0
169 192 0
167 190 0
165 187 0
165 187 0
165 188 0
165 188 0
165 187 0
166 189 0
165 187 0
168 192 0
165 188 0
161 183 0
168 190 0
165 188 0
167 191 0
171 194 0
164 186 0
165 187 0
168 189 0
168 191 0
167 189 0
168 190 0
167 189 0
167 189 0
170 193 0
167 190 0
169 191 0
