P3
400 225
255
204 226 255
204 226 255
204 226 255
204 226 255
204 226 255
204 226 255
204 226 255
204 226 255
204 226 255
204 226 255
204 226 255
204 226 255
204 226 255
204 226 255
204 226 255
203 226 255
203 226 255
203 226 255
203 226 255
203 226 255
203 226 255
203 226 255
203 226 255
203 225 255
203 225 255
203 225 255
203 225 255
203 225 255
203 225 255
203 225 255
203 225 255
203 225 255
202 225 255
202 225 255
202 225 255
202 225 255
202 225 255
202 225 255
202 225 255
202 225 255
202 225 255
202 225 255
202 225 255
202 225 255
202 225 255
202 225 255
202 225 255
202 225 255
201 225 255
201 225 255
201 225 255
201 225 255
201 225 255
201 224 255
201 224 255
201 224 255
201 224 255
201 224 255
201 224 255
201 224 255
201 224 255
201 224 255
201 224 255
200 224 255
200 224 255
200 224 255
200 224 255
200 224 255
200 224 255
200 224 255
200 224 255
200 224 255
200 224 255
200 224 255
200 224 255
200 224 255
200 224 255
200 224 255
199 224 255
199 224 255
199 223 255
199 223 255
199 223 255
199 223 255
199 223 255
199 223 255
199 223 255
199 223 255
199 223 255
199 223 255
199 223 255
199 223 255
198 223 255
198 223 255
198 223 255
198 223 255
198 223 255
198 223 255
198 223 255
198 223 255
198 223 255
198 223 255
198 223 255
198 223 255
198 223 255
198 223 255
197 223 255
197 222 255
197 222 255
197 222 255
197 222 255
197 222 255
197 222 255
197 222 255
197 222 255
197 222 255
197 222 255
197 222 255
197 222 255
197 222 255
197 222 255
196 222 255
196 222 255
196 222 255
196 222 255
196 222 255
196 222 255
196 222 255
196 222 255
196 222 255
196 222 255
196 222 255
196 222 255
196 222 255
196 222 255
196 221 255
196 221 255
195 221 255
195 221 255
195 221 255
195 221 255
195 221 255
195 221 255
195 221 255
195 221 255
195 221 255
195 221 255
195 221 255
195 221 255
195 221 255
195 221 255
195 221 255
195 221 255
195 221 255
195 221 255
194 221 255
194 221 255
194 221 255
194 221 255
194 221 255
194 221 255
194 221 255
194 221 255
194 221 255
194 221 255
194 221 255
194 221 255
194 221 255
194 221 255
194 221 255
194 221 255
194 221 255
194 221 255
194 221 255
194 221 255
194 221 255
194 221 255
194 220 255
194 220 255
194 220 255
194 220 255
194 220 255
194 220 255
194 220 255
194 220 255
194 220 255
193 220 255
193 220 255
193 220 255
193 220 255
193 220 255
193 220 255
193 220 255
193 220 255
193 220 255
193 220 255
193 220 255
193 220 255
193 220 255
193 220 255
193 220 255
193 220 255
193 220 255
193 220 255
193 220 255
193 220 255
193 220 255
193 220 255
193 220 255
193 220 255
193 220 255
193 220 255
193 220 255
193 220 255
194 220 255
194 220 255
194 220 255
194 220 255
194 220 255
194 220 255
194 220 255
194 220 255
194 220 255
194 221 255
194 221 255
194 221 255
194 221 255
194 221 255
194 221 255
194 221 255
194 221 255
194 221 255
194 221 255
194 221 255
194 221 255
194 221 255
194 221 255
194 221 255
194 221 255
194 221 255
194 221 255
194 221 255
194 221 255
194 221 255
194 221 255
195 221 255
195 221 255
195 221 255
195 221 255
195 221 255
195 221 255
195 221 255
195 221 255
195 221 255
195 221 255
195 221 255
195 221 255
195 221 255
195 221 255
195 221 255
195 221 255
195 221 255
195 221 255
196 221 255
196 221 255
196 222 255
196 222 255
196 222 255
196 222 255
196 222 255
196 222 255
196 222 255
196 222 255
196 222 255
196 222 255
196 222 255
196 222 255
196 222 255
196 222 255
197 222 255
197 222 255
197 222 255
197 222 255
197 222 255
197 222 255
197 222 255
197 222 255
197 222 255
197 222 255
197 222 255
197 222 255
197 222 255
197 222 255
197 222 255
198 223 255
198 223 255
198 223 255
198 223 255
198 223 255
198 223 255
198 223 255
198 223 255
198 223 255
198 223 255
198 223 255
198 223 255
198 223 255
198 223 255
199 223 255
199 223 255
199 223 255
199 223 255
199 223 255
199 223 255
199 223 255
199 223 255
199 223 255
199 223 255
199 223 255
199 223 255
199 224 255
199 224 255
200 224 255
200 224 255
200 224 255
200 224 255
200 224 255
200 224 255
200 224 255
200 224 255
200 224 255
200 224 255
200 224 255
200 224 255
200 224 255
200 224 255
200 224 255
201 224 255
201 224 255
201 224 255
201 224 255
201 224 255
201 224 255
201 224 255
201 224 255
201 224 255
201 224 255
201 225 255
201 225 255
201 225 255
201 225 255
201 225 255
202 225 255
202 225 255
202 225 255
202 225 255
202 225 255
202 225 255
202 225 255
202 225 255
202 225 255
202 225 255
202 225 255
202 225 255
202 225 255
202 225 255
202 225 255
202 225 255
203 225 255
203 225 255
203 225 255
203 225 255
203 225 255
203 225 255
203 225 255
203 225 255
203 225 255
203 226 255
203 226 255
203 226 255
203 226 255
203 226 255
203 226 255
203 226 255
203 226 255
204 226 255
204 226 255
204 226 255
204 226 255
204 226 255
204 226 255
204 226 255
204 226 255
204 226 255
204 226 255
204 226 255
204 226 255
204 226 255
204 226 255
204 226 255
204 226 255
204 226 255
204 226 255
204 226 255
204 226 255
204 226 255
204 226 255
204 226 255
204 226 255
204 226 255
204 226 255
204 226 255
204 226 255
204 226 255
204 226 255
204 226 255
204 226 255
204 226 255
203 226 255
203 226 255
203 226 255
203 226 255
203 226 255
203 226 255
203 226 255
203 225 255
203 225 255
203 225 255
203 225 255
203 225 255
203 225 255
203 225 255
203 225 255
203 225 255
202 225 255
202 225 255
202 225 255
202 225 255
202 225 255
202 225 255
202 225 255
202 225 255
202 225 255
202 225 255
202 225 255
202 225 255
202 225 255
202 225 255
202 225 255
202 225 255
201 225 255
201 225 255
201 225 255
201 225 255
201 225 255
201 224 255
201 224 255
201 224 255
201 224 255
201 224 255
201 224 255
201 224 255
201 224 255
201 224 255
201 224 255
200 224 255
200 224 255
200 224 255
200 224 255
200 224 255
200 224 255
200 224 255
200 224 255
200 224 255
200 224 255
200 224 255
200 224 255
200 224 255
200 224 255
199 224 255
199 224 255
199 224 255
199 223 255
199 223 255
199 223 255
199 223 255
199 223 255
199 223 255
199 223 255
199 223 255
199 223 255
199 223 255
199 223 255
199 223 255
198 223 255
198 223 255
198 223 255
198 223 255
198 223 255
198 223 255
198 223 255
198 223 255
198 223 255
198 223 255
198 223 255
198 223 255
198 223 255
198 223 255
197 223 255
197 222 255
197 222 255
197 222 255
197 222 255
197 222 255
197 222 255
197 222 255
197 222 255
197 222 255
197 222 255
197 222 255
197 222 255
197 222 255
197 222 255
196 222 255
196 222 255
196 222 255
196 222 255
196 222 255
196 222 255
196 222 255
196 222 255
196 222 255
196 222 255
196 222 255
196 222 255
196 222 255
196 222 255
196 222 255
196 221 255
195 221 255
195 221 255
195 221 255
195 221 255
195 221 255
195 221 255
195 221 255
195 221 255
195 221 255
195 221 255
195 221 255
195 221 255
195 221 255
195 221 255
195 221 255
195 221 255
195 221 255
195 221 255
195 221 255
194 221 255
194 221 255
194 221 255
194 221 255
194 221 255
194 221 255
194 221 255
194 221 255
194 221 255
194 221 255
194 221 255
194 221 255
194 221 255
194 221 255
194 221 255
194 221 255
194 221 255
194 221 255
194 221 255
194 221 255
194 221 255
194 221 255
194 221 255
194 221 255
194 221 255
194 220 255
194 220 255
194 220 255
194 220 255
194 220 255
194 220 255
194 220 255
194 220 255
194 220 255
194 220 255
194 220 255
194 220 255
194 220 255
194 220 255
194 220 255
194 220 255
194 220 255
194 220 255
194 220 255
194 220 255
194 220 255
194 220 255
194 220 255
194 220 255
194 220 255
194 220 255
194 220 255
194 220 255
194 220 255
194 220 255
194 220 255
194 220 255
194 220 255
194 220 255
194 221 255
194 221 255
194 221 255
194 221 255
194 221 255
194 221 255
194 221 255
194 221 255
194 221 255
194 221 255
194 221 255
194 221 255
194 221 255
194 221 255
194 221 255
194 221 255
194 221 255
194 221 255
194 221 255
194 221 255
194 221 255
194 221 255
194 221 255
194 221 255
194 221 255
195 221 255
195 221 255
195 221 255
195 221 255
195 221 255
195 221 255
195 221 255
195 221 255
195 221 255
195 221 255
195 221 255
195 221 255
195 221 255
195 221 255
195 221 255
195 221 255
195 221 255
195 221 255
195 221 255
196 221 255
196 222 255
196 222 255
196 222 255
196 222 255
196 222 255
196 222 255
196 222 255
196 222 255
196 222 255
196 222 255
196 222 255
196 222 255
196 222 255
196 222 255
196 222 255
197 222 255
197 222 255
197 222 255
197 222 255
197 222 255
197 222 255
197 222 255
197 222 255
197 222 255
197 222 255
197 222 255
197 222 255
197 222 255
197 222 255
197 223 255
198 223 255
198 223 255
198 223 255
198 223 255
198 223 255
198 223 255
198 223 255
198 223 255
198 223 255
198 223 255
198 223 255
198 223 255
198 223 255
198 223 255
199 223 255
199 223 255
199 223 255
199 223 255
199 223 255
199 223 255
199 223 255
199 223 255
199 223 255
199 223 255
199 223 255
199 223 255
199 224 255
199 224 255
200 224 255
200 224 255
200 224 255
200 224 255
200 224 255
200 224 255
200 224 255
200 224 255
200 224 255
200 224 255
200 224 255
200 224 255
200 224 255
200 224 255
200 224 255
201 224 255
201 224 255
201 224 255
201 224 255
201 224 255
201 224 255
201 224 255
201 224 255
201 224 255
201 224 255
201 225 255
201 225 255
201 225 255
201 225 255
201 225 255
202 225 255
202 225 255
202 225 255
202 225 255
202 225 255
202 225 255
202 225 255
202 225 255
202 225 255
202 225 255
202 225 255
202 225 255
202 225 255
202 225 255
202 225 255
202 225 255
203 225 255
203 225 255
203 225 255
203 225 255
203 225 255
203 225 255
203 225 255
203 225 255
203 225 255
203 226 255
203 226 255
203 226 255
203 226 255
203 226 255
203 226 255
203 226 255
203 226 255
204 226 255
204 226 255
204 226 255
204 226 255
204 226 255
204 226 255
204 226 255
204 226 255
204 226 255
204 226 255
204 226 255
204 226 255
204 226 255
204 226 255
204 226 255
204 226 255
204 226 255
205 226 255
205 226 255
204 226 255
204 226 255
204 226 255
204 226 255
204 226 255
204 226 255
204 226 255
204 226 255
204 226 255
204 226 255
204 226 255
204 226 255
204 226 255
204 226 255
204 226 255
204 226 255
204 226 255
204 226 255
203 226 255
203 226 255
203 226 255
203 226 255
203 226 255
203 226 255
203 226 255
203 225 255
203 225 255
203 225 255
203 225 255
203 225 255
203 225 255
203 225 255
203 225 255
203 225 255
203 225 255
202 225 255
202 225 255
202 225 255
202 225 255
202 225 255
202 225 255
202 225 255
202 225 255
202 225 255
202 225 255
202 225 255
202 225 255
202 225 255
202 225 255
202 225 255
201 225 255
201 225 255
201 225 255
201 225 255
201 225 255
201 224 255
201 224 255
201 224 255
201 224 255
201 224 255
201 224 255
201 224 255
201 224 255
201 224 255
201 224 255
200 224 255
200 224 255
200 224 255
200 224 255
200 224 255
200 224 255
200 224 255
200 224 255
200 224 255
200 224 255
200 224 255
200 224 255
200 224 255
200 224 255
200 224 255
199 224 255
199 224 255
199 223 255
199 223 255
199 223 255
199 223 255
199 223 255
199 223 255
199 223 255
199 223 255
199 223 255
199 223 255
199 223 255
199 223 255
198 223 255
198 223 255
198 223 255
198 223 255
198 223 255
198 223 255
198 223 255
198 223 255
198 223 255
198 223 255
198 223 255
198 223 255
198 223 255
198 223 255
197 223 255
197 222 255
197 222 255
197 222 255
197 222 255
197 222 255
197 222 255
197 222 255
197 222 255
197 222 255
197 222 255
197 222 255
197 222 255
197 222 255
197 222 255
196 222 255
196 222 255
196 222 255
196 222 255
196 222 255
196 222 255
196 222 255
196 222 255
196 222 255
196 222 255
196 222 255
196 222 255
196 222 255
196 222 255
196 222 255
196 221 255
196 221 255
195 221 255
195 221 255
195 221 255
195 221 255
195 221 255
195 221 255
195 221 255
195 221 255
195 221 255
195 221 255
195 221 255
195 221 255
195 221 255
195 221 255
195 221 255
195 221 255
195 221 255
195 221 255
195 221 255
195 221 255
194 221 255
194 221 255
194 221 255
194 221 255
194 221 255
194 221 255
194 221 255
194 221 255
194 221 255
194 221 255
194 221 255
194 221 255
194 221 255
194 221 255
194 221 255
194 221 255
194 221 255
194 221 255
194 221 255
194 221 255
194 221 255
194 221 255
194 221 255
194 221 255
194 221 255
194 221 255
194 221 255
194 221 255
194 221 255
194 221 255
194 221 255
194 220 255
194 220 255
194 220 255
194 220 255
194 220 255
194 220 255
194 220 255
194 220 255
194 220 255
194 220 255
194 220 255
194 220 255
194 220 255
194 221 255
194 221 255
194 221 255
194 221 255
194 221 255
194 221 255
194 221 255
194 221 255
194 221 255
194 221 255
194 221 255
194 221 255
194 221 255
194 221 255
194 221 255
194 221 255
194 221 255
194 221 255
194 221 255
194 221 255
194 221 255
194 221 255
194 221 255
194 221 255
194 221 255
194 221 255
194 221 255
194 221 255
194 221 255
194 221 255
194 221 255
194 221 255
194 221 255
195 221 255
195 221 255
195 221 255
195 221 255
195 221 255
195 221 255
195 221 255
195 221 255
195 221 255
195 221 255
195 221 255
195 221 255
195 221 255
195 221 255
195 221 255
195 221 255
195 221 255
195 221 255
195 221 255
196 221 255
196 221 255
196 222 255
196 222 255
196 222 255
196 222 255
196 222 255
196 222 255
196 222 255
196 222 255
196 222 255
196 222 255
196 222 255
196 222 255
196 222 255
196 222 255
196 222 255
197 222 255
197 222 255
197 222 255
197 222 255
197 222 255
197 222 255
197 222 255
197 222 255
197 222 255
197 222 255
197 222 255
197 222 255
197 222 255
197 222 255
197 223 255
198 223 255
198 223 255
198 223 255
198 223 255
198 223 255
198 223 255
198 223 255
198 223 255
198 223 255
198 223 255
198 223 255
198 223 255
198 223 255
198 223 255
199 223 255
199 223 255
199 223 255
199 223 255
199 223 255
199 223 255
199 223 255
199 223 255
199 223 255
199 223 255
199 223 255
199 223 255
199 224 255
199 224 255
200 224 255
200 224 255
200 224 255
200 224 255
200 224 255
200 224 255
200 224 255
200 224 255
200 224 255
200 224 255
200 224 255
200 224 255
200 224 255
200 224 255
200 224 255
201 224 255
201 224 255
201 224 255
201 224 255
201 224 255
201 224 255
201 224 255
201 224 255
201 224 255
201 224 255
201 225 255
201 225 255
201 225 255
201 225 255
201 225 255
202 225 255
202 225 255
202 225 255
202 225 255
202 225 255
202 225 255
202 225 255
202 225 255
202 225 255
202 225 255
202 225 255
202 225 255
202 225 255
202 225 255
202 225 255
202 225 255
203 225 255
203 225 255
203 225 255
203 225 255
203 225 255
203 225 255
203 225 255
203 225 255
203 225 255
203 226 255
203 226 255
203 226 255
203 226 255
203 226 255
203 226 255
203 226 255
204 226 255
204 226 255
204 226 255
204 226 255
204 226 255
204 226 255
204 226 255
204 226 255
204 226 255
204 226 255
204 226 255
204 226 255
204 226 255
204 226 255
204 226 255
204 226 255
204 226 255
204 226 255
205 226 255
205 226 255
205 226 255
205 226 255
205 226 255
205 226 255
205 226 255
204 226 255
204 226 255
204 226 255
204 226 255
204 226 255
204 226 255
204 226 255
204 226 255
204 226 255
204 226 255
204 226 255
204 226 255
204 226 255
204 226 255
204 226 255
204 226 255
204 226 255
203 226 255
203 226 255
203 226 255
203 226 255
203 226 255
203 226 255
203 226 255
203 226 255
203 225 255
203 225 255
203 225 255
203 225 255
203 225 255
203 225 255
203 225 255
203 225 255
203 225 255
202 225 255
202 225 255
202 225 255
202 225 255
202 225 255
202 225 255
202 225 255
202 225 255
202 225 255
202 225 255
202 225 255
202 225 255
202 225 255
202 225 255
202 225 255
201 225 255
201 225 255
201 225 255
201 225 255
201 225 255
201 224 255
201 224 255
201 224 255
201 224 255
201 224 255
201 224 255
201 224 255
201 224 255
201 224 255
201 224 255
200 224 255
200 224 255
200 224 255
200 224 255
200 224 255
200 224 255
200 224 255
200 224 255
200 224 255
200 224 255
200 224 255
200 224 255
200 224 255
200 224 255
200 224 255
199 224 255
199 224 255
199 223 255
199 223 255
199 223 255
199 223 255
199 223 255
199 223 255
199 223 255
199 223 255
199 223 255
199 223 255
199 223 255
199 223 255
198 223 255
198 223 255
198 223 255
198 223 255
198 223 255
198 223 255
198 223 255
198 223 255
198 223 255
198 223 255
198 223 255
198 223 255
198 223 255
198 223 255
197 223 255
197 222 255
197 222 255
197 222 255
197 222 255
197 222 255
197 222 255
197 222 255
197 222 255
197 222 255
197 222 255
197 222 255
197 222 255
197 222 255
197 222 255
196 222 255
196 222 255
196 222 255
196 222 255
196 222 255
196 222 255
196 222 255
196 222 255
196 222 255
196 222 255
196 222 255
196 222 255
196 222 255
196 222 255
196 222 255
196 221 255
196 221 255
195 221 255
195 221 255
195 221 255
195 221 255
195 221 255
195 221 255
195 221 255
195 221 255
195 221 255
195 221 255
195 221 255
195 221 255
195 221 255
195 221 255
195 221 255
195 221 255
195 221 255
195 221 255
195 221 255
195 221 255
195 221 255
194 221 255
194 221 255
194 221 255
194 221 255
194 221 255
194 221 255
194 221 255
194 221 255
194 221 255
194 221 255
194 221 255
194 221 255
194 221 255
194 221 255
194 221 255
194 221 255
194 221 255
194 221 255
194 221 255
194 221 255
194 221 255
194 221 255
194 221 255
194 221 255
194 221 255
194 221 255
194 221 255
194 221 255
194 221 255
194 221 255
194 221 255
194 221 255
194 221 255
194 221 255
194 221 255
194 221 255
194 221 255
194 221 255
194 221 255
194 221 255
194 221 255
194 221 255
194 221 255
194 221 255
194 221 255
194 221 255
194 221 255
194 221 255
194 221 255
194 221 255
194 221 255
194 221 255
194 221 255
194 221 255
194 221 255
194 221 255
194 221 255
194 221 255
194 221 255
194 221 255
194 221 255
194 221 255
194 221 255
194 221 255
194 221 255
194 221 255
194 221 255
194 221 255
194 221 255
194 221 255
195 221 255
195 221 255
195 221 255
195 221 255
195 221 255
195 221 255
195 221 255
195 221 255
195 221 255
195 221 255
195 221 255
195 221 255
195 221 255
195 221 255
195 221 255
195 221 255
195 221 255
195 221 255
195 221 255
195 221 255
195 221 255
196 221 255
196 221 255
196 222 255
196 222 255
196 222 255
196 222 255
196 222 255
196 222 255
196 222 255
196 222 255
196 222 255
196 222 255
196 222 255
196 222 255
196 222 255
196 222 255
196 222 255
197 222 255
197 222 255
197 222 255
197 222 255
197 222 255
197 222 255
197 222 255
197 222 255
197 222 255
197 222 255
197 222 255
197 222 255
197 222 255
197 222 255
197 223 255
198 223 255
198 223 255
198 223 255
198 223 255
198 223 255
198 223 255
198 223 255
198 223 255
198 223 255
198 223 255
198 223 255
198 223 255
198 223 255
198 223 255
199 223 255
199 223 255
199 223 255
199 223 255
199 223 255
199 223 255
199 223 255
199 223 255
199 223 255
199 223 255
199 223 255
199 223 255
199 224 255
199 224 255
200 224 255
200 224 255
200 224 255
200 224 255
200 224 255
200 224 255
200 224 255
200 224 255
200 224 255
200 224 255
200 224 255
200 224 255
200 224 255
200 224 255
200 224 255
201 224 255
201 224 255
201 224 255
201 224 255
201 224 255
201 224 255
201 224 255
201 224 255
201 224 255
201 224 255
201 225 255
201 225 255
201 225 255
201 225 255
201 225 255
202 225 255
202 225 255
202 225 255
202 225 255
202 225 255
202 225 255
202 225 255
202 225 255
202 225 255
202 225 255
202 225 255
202 225 255
202 225 255
202 225 255
202 225 255
203 225 255
203 225 255
203 225 255
203 225 255
203 225 255
203 225 255
203 225 255
203 225 255
203 225 255
203 226 255
203 226 255
203 226 255
203 226 255
203 226 255
203 226 255
203 226 255
203 226 255
204 226 255
204 226 255
204 226 255
204 226 255
204 226 255
204 226 255
204 226 255
204 226 255
204 226 255
204 226 255
204 226 255
204 226 255
204 226 255
204 226 255
204 226 255
204 226 255
204 226 255
204 226 255
205 226 255
205 226 255
205 226 255
205 226 255
205 226 255
205 226 255
205 226 255
205 226 255
205 226 255
205 226 255
205 226 255
204 226 255
204 226 255
204 226 255
204 226 255
204 226 255
204 226 255
204 226 255
204 226 255
204 226 255
204 226 255
204 226 255
204 226 255
204 226 255
204 226 255
204 226 255
204 226 255
204 226 255
203 226 255
203 226 255
203 226 255
203 226 255
203 226 255
203 226 255
203 226 255
203 226 255
203 225 255
203 225 255
203 225 255
203 225 255
203 225 255
203 225 255
203 225 255
203 225 255
203 225 255
202 225 255
202 225 255
202 225 255
202 225 255
202 225 255
202 225 255
202 225 255
202 225 255
202 225 255
202 225 255
202 225 255
202 225 255
202 225 255
202 225 255
202 225 255
202 225 255
201 225 255
201 225 255
201 225 255
201 225 255
201 224 255
201 224 255
201 224 255
201 224 255
201 224 255
201 224 255
201 224 255
201 224 255
201 224 255
201 224 255
200 224 255
200 224 255
200 224 255
200 224 255
200 224 255
200 224 255
200 224 255
200 224 255
200 224 255
200 224 255
200 224 255
200 224 255
200 224 255
200 224 255
200 224 255
199 224 255
199 224 255
199 223 255
199 223 255
199 223 255
199 223 255
199 223 255
199 223 255
199 223 255
199 223 255
199 223 255
199 223 255
199 223 255
199 223 255
198 223 255
198 223 255
198 223 255
198 223 255
198 223 255
198 223 255
198 223 255
198 223 255
198 223 255
198 223 255
198 223 255
198 223 255
198 223 255
198 223 255
197 223 255
197 222 255
197 222 255
197 222 255
197 222 255
197 222 255
197 222 255
197 222 255
197 222 255
197 222 255
197 222 255
197 222 255
197 222 255
197 222 255
197 222 255
197 222 255
196 222 255
196 222 255
196 222 255
196 222 255
196 222 255
196 222 255
196 222 255
196 222 255
196 222 255
196 222 255
196 222 255
196 222 255
196 222 255
196 222 255
196 222 255
196 221 255
196 221 255
195 221 255
195 221 255
195 221 255
195 221 255
195 221 255
195 221 255
195 221 255
195 221 255
195 221 255
195 221 255
195 221 255
195 221 255
195 221 255
195 221 255
195 221 255
195 221 255
195 221 255
195 221 255
195 221 255
195 221 255
195 221 255
195 221 255
194 221 255
194 221 255
194 221 255
194 221 255
194 221 255
194 221 255
194 221 255
194 221 255
194 221 255
194 221 255
194 221 255
194 221 255
194 221 255
194 221 255
194 221 255
194 221 255
194 221 255
194 221 255
194 221 255
194 221 255
194 221 255
194 221 255
194 221 255
194 221 255
194 221 255
194 221 255
194 221 255
194 221 255
194 221 255
194 221 255
194 221 255
194 221 255
194 221 255
194 221 255
194 221 255
194 221 255
194 221 255
194 221 255
194 221 255
194 221 255
194 221 255
194 221 255
194 221 255
194 221 255
194 221 255
194 221 255
194 221 255
194 221 255
194 221 255
194 221 255
194 221 255
194 221 255
194 221 255
194 221 255
194 221 255
194 221 255
194 221 255
194 221 255
194 221 255
194 221 255
194 221 255
194 221 255
195 221 255
195 221 255
195 221 255
195 221 255
195 221 255
195 221 255
195 221 255
195 221 255
195 221 255
195 221 255
195 221 255
195 221 255
195 221 255
195 221 255
195 221 255
195 221 255
195 221 255
195 221 255
195 221 255
195 221 255
195 221 255
195 221 255
196 221 255
196 221 255
196 222 255
196 222 255
196 222 255
196 222 255
196 222 255
196 222 255
196 222 255
196 222 255
196 222 255
196 222 255
196 222 255
196 222 255
196 222 255
196 222 255
196 222 255
197 222 255
197 222 255
197 222 255
197 222 255
197 222 255
197 222 255
197 222 255
197 222 255
197 222 255
197 222 255
197 222 255
197 222 255
197 222 255
197 222 255
197 222 255
197 223 255
198 223 255
198 223 255
198 223 255
198 223 255
198 223 255
198 223 255
198 223 255
198 223 255
198 223 255
198 223 255
198 223 255
198 223 255
198 223 255
198 223 255
199 223 255
199 223 255
199 223 255
199 223 255
199 223 255
199 223 255
199 223 255
199 223 255
199 223 255
199 223 255
199 223 255
199 223 255
199 224 255
199 224 255
200 224 255
200 224 255
200 224 255
200 224 255
200 224 255
200 224 255
200 224 255
200 224 255
200 224 255
200 224 255
200 224 255
200 224 255
200 224 255
200 224 255
200 224 255
201 224 255
201 224 255
201 224 255
201 224 255
201 224 255
201 224 255
201 224 255
201 224 255
201 224 255
201 224 255
201 225 255
201 225 255
201 225 255
201 225 255
201 225 255
202 225 255
202 225 255
202 225 255
202 225 255
202 225 255
202 225 255
202 225 255
202 225 255
202 225 255
202 225 255
202 225 255
202 225 255
202 225 255
202 225 255
202 225 255
203 225 255
203 225 255
203 225 255
203 225 255
203 225 255
203 225 255
203 225 255
203 225 255
203 225 255
203 226 255
203 226 255
203 226 255
203 226 255
203 226 255
203 226 255
203 226 255
203 226 255
204 226 255
204 226 255
204 226 255
204 226 255
204 226 255
204 226 255
204 226 255
204 226 255
204 226 255
204 226 255
204 226 255
204 226 255
204 226 255
204 226 255
204 226 255
204 226 255
204 226 255
205 226 255
205 226 255
205 226 255
205 226 255
205 226 255
205 226 255
205 226 255
205 227 255
205 227 255
205 226 255
205 226 255
205 226 255
205 226 255
205 226 255
205 226 255
205 226 255
204 226 255
204 226 255
204 226 255
204 226 255
204 226 255
204 226 255
204 226 255
204 226 255
204 226 255
204 226 255
204 226 255
204 226 255
204 226 255
204 226 255
204 226 255
204 226 255
204 226 255
204 226 255
203 226 255
203 226 255
203 226 255
203 226 255
203 226 255
203 226 255
203 226 255
203 225 255
203 225 255
203 225 255
203 225 255
203 225 255
203 225 255
203 225 255
203 225 255
203 225 255
202 225 255
202 225 255
202 225 255
202 225 255
202 225 255
202 225 255
202 225 255
202 225 255
202 225 255
202 225 255
202 225 255
202 225 255
202 225 255
202 225 255
202 225 255
202 225 255
201 225 255
201 225 255
201 225 255
201 225 255
201 224 255
201 224 255
201 224 255
201 224 255
201 224 255
201 224 255
201 224 255
201 224 255
201 224 255
201 224 255
201 224 255
200 224 255
200 224 255
200 224 255
200 224 255
200 224 255
200 224 255
200 224 255
200 224 255
200 224 255
200 224 255
200 224 255
200 224 255
200 224 255
200 224 255
199 224 255
199 224 255
199 223 255
199 223 255
199 223 255
199 223 255
199 223 255
199 223 255
199 223 255
199 223 255
199 223 255
199 223 255
199 223 255
199 223 255
198 223 255
198 223 255
198 223 255
198 223 255
198 223 255
198 223 255
198 223 255
198 223 255
198 223 255
198 223 255
198 223 255
198 223 255
198 223 255
198 223 255
198 223 255
197 222 255
197 222 255
197 222 255
197 222 255
197 222 255
197 222 255
197 222 255
197 222 255
197 222 255
197 222 255
197 222 255
197 222 255
197 222 255
197 222 255
197 222 255
196 222 255
196 222 255
196 222 255
196 222 255
196 222 255
196 222 255
196 222 255
196 222 255
196 222 255
196 222 255
196 222 255
196 222 255
196 222 255
196 222 255
196 222 255
196 222 255
196 221 255
196 221 255
195 221 255
195 221 255
195 221 255
195 221 255
195 221 255
195 221 255
195 221 255
195 221 255
195 221 255
195 221 255
195 221 255
195 221 255
195 221 255
195 221 255
195 221 255
195 221 255
195 221 255
195 221 255
195 221 255
195 221 255
195 221 255
195 221 255
195 221 255
194 221 255
194 221 255
194 221 255
194 221 255
194 221 255
194 221 255
194 221 255
194 221 255
194 221 255
194 221 255
194 221 255
194 221 255
194 221 255
194 221 255
194 221 255
194 221 255
194 221 255
194 221 255
194 221 255
194 221 255
194 221 255
194 221 255
194 221 255
194 221 255
194 221 255
194 221 255
194 221 255
194 221 255
194 221 255
194 221 255
194 221 255
194 221 255
194 221 255
194 221 255
194 221 255
194 221 255
194 221 255
194 221 255
194 221 255
194 221 255
194 221 255
194 221 255
194 221 255
194 221 255
194 221 255
194 221 255
194 221 255
194 221 255
194 221 255
194 221 255
194 221 255
194 221 255
194 221 255
194 221 255
195 221 255
195 221 255
195 221 255
195 221 255
195 221 255
195 221 255
195 221 255
195 221 255
195 221 255
195 221 255
195 221 255
195 221 255
195 221 255
195 221 255
195 221 255
195 221 255
195 221 255
195 221 255
195 221 255
195 221 255
195 221 255
195 221 255
195 221 255
195 221 255
196 221 255
196 222 255
196 222 255
196 222 255
196 222 255
196 222 255
196 222 255
196 222 255
196 222 255
196 222 255
196 222 255
196 222 255
196 222 255
196 222 255
196 222 255
196 222 255
196 222 255
197 222 255
197 222 255
197 222 255
197 222 255
197 222 255
197 222 255
197 222 255
197 222 255
197 222 255
197 222 255
197 222 255
197 222 255
197 222 255
197 222 255
197 222 255
198 223 255
198 223 255
198 223 255
198 223 255
198 223 255
198 223 255
198 223 255
198 223 255
198 223 255
198 223 255
198 223 255
198 223 255
198 223 255
198 223 255
198 223 255
199 223 255
199 223 255
199 223 255
199 223 255
199 223 255
199 223 255
199 223 255
199 223 255
199 223 255
199 223 255
199 223 255
199 223 255
199 224 255
199 224 255
200 224 255
200 224 255
200 224 255
200 224 255
200 224 255
200 224 255
200 224 255
200 224 255
200 224 255
200 224 255
200 224 255
200 224 255
200 224 255
200 224 255
200 224 255
201 224 255
201 224 255
201 224 255
201 224 255
201 224 255
201 224 255
201 224 255
201 224 255
201 224 255
201 224 255
201 225 255
201 225 255
201 225 255
201 225 255
202 225 255
202 225 255
202 225 255
202 225 255
202 225 255
202 225 255
202 225 255
202 225 255
202 225 255
202 225 255
202 225 255
202 225 255
202 225 255
202 225 255
202 225 255
202 225 255
203 225 255
203 225 255
203 225 255
203 225 255
203 225 255
203 225 255
203 225 255
203 225 255
203 225 255
203 226 255
203 226 255
203 226 255
203 226 255
203 226 255
203 226 255
203 226 255
204 226 255
204 226 255
204 226 255
204 226 255
204 226 255
204 226 255
204 226 255
204 226 255
204 226 255
204 226 255
204 226 255
204 226 255
204 226 255
204 226 255
204 226 255
204 226 255
204 226 255
204 226 255
205 226 255
205 226 255
205 226 255
205 226 255
205 226 255
205 226 255
205 226 255
205 227 255
205 227 255
205 227 255
205 227 255
205 227 255
205 227 255
205 226 255
205 226 255
205 226 255
205 226 255
205 226 255
205 226 255
205 226 255
205 226 255
204 226 255
204 226 255
204 226 255
204 226 255
204 226 255
204 226 255
204 226 255
204 226 255
204 226 255
204 226 255
204 226 255
204 226 255
204 226 255
204 226 255
204 226 255
204 226 255
204 226 255
203 226 255
203 226 255
203 226 255
203 226 255
203 226 255
203 226 255
203 226 255
203 225 255
203 225 255
203 225 255
203 225 255
203 225 255
203 225 255
203 225 255
203 225 255
203 225 255
202 225 255
202 225 255
202 225 255
202 225 255
202 225 255
202 225 255
202 225 255
202 225 255
202 225 255
202 225 255
202 225 255
202 225 255
202 225 255
202 225 255
202 225 255
202 225 255
201 225 255
201 225 255
201 225 255
201 225 255
201 224 255
201 224 255
201 224 255
201 224 255
201 224 255
201 224 255
201 224 255
201 224 255
201 224 255
201 224 255
201 224 255
200 224 255
200 224 255
200 224 255
200 224 255
200 224 255
200 224 255
200 224 255
200 224 255
200 224 255
200 224 255
200 224 255
200 224 255
200 224 255
200 224 255
199 224 255
199 224 255
199 223 255
199 223 255
199 223 255
199 223 255
199 223 255
199 223 255
199 223 255
199 223 255
199 223 255
199 223 255
199 223 255
199 223 255
198 223 255
198 223 255
198 223 255
198 223 255
198 223 255
198 223 255
198 223 255
198 223 255
198 223 255
198 223 255
198 223 255
198 223 255
198 223 255
198 223 255
198 223 255
197 222 255
197 222 255
197 222 255
197 222 255
197 222 255
197 222 255
197 222 255
197 222 255
197 222 255
197 222 255
197 222 255
197 222 255
197 222 255
197 222 255
197 222 255
196 222 255
196 222 255
196 222 255
196 222 255
196 222 255
196 222 255
196 222 255
196 222 255
196 222 255
196 222 255
196 222 255
196 222 255
196 222 255
196 222 255
196 222 255
196 222 255
196 222 255
196 221 255
195 221 255
195 221 255
195 221 255
195 221 255
195 221 255
195 221 255
195 221 255
195 221 255
195 221 255
195 221 255
195 221 255
195 221 255
195 221 255
195 221 255
195 221 255
195 221 255
195 221 255
195 221 255
195 221 255
195 221 255
195 221 255
195 221 255
195 221 255
195 221 255
195 221 255
195 221 255
194 221 255
194 221 255
194 221 255
194 221 255
194 221 255
194 221 255
194 221 255
194 221 255
194 221 255
194 221 255
194 221 255
194 221 255
194 221 255
194 221 255
194 221 255
194 221 255
194 221 255
194 221 255
194 221 255
194 221 255
194 221 255
194 221 255
194 221 255
194 221 255
194 221 255
194 221 255
194 221 255
194 221 255
194 221 255
194 221 255
194 221 255
194 221 255
194 221 255
194 221 255
194 221 255
194 221 255
194 221 255
194 221 255
194 221 255
194 221 255
194 221 255
194 221 255
194 221 255
194 221 255
195 221 255
195 221 255
195 221 255
195 221 255
195 221 255
195 221 255
195 221 255
195 221 255
195 221 255
195 221 255
195 221 255
195 221 255
195 221 255
195 221 255
195 221 255
195 221 255
195 221 255
195 221 255
195 221 255
195 221 255
195 221 255
195 221 255
195 221 255
195 221 255
195 221 255
195 221 255
196 221 255
196 222 255
196 222 255
196 222 255
196 222 255
196 222 255
196 222 255
196 222 255
196 222 255
196 222 255
196 222 255
196 222 255
196 222 255
196 222 255
196 222 255
196 222 255
196 222 255
196 222 255
197 222 255
197 222 255
197 222 255
197 222 255
197 222 255
197 222 255
197 222 255
197 222 255
197 222 255
197 222 255
197 222 255
197 222 255
197 222 255
197 222 255
197 222 255
198 223 255
198 223 255
198 223 255
198 223 255
198 223 255
198 223 255
198 223 255
198 223 255
198 223 255
198 223 255
198 223 255
198 223 255
198 223 255
198 223 255
198 223 255
199 223 255
199 223 255
199 223 255
199 223 255
199 223 255
199 223 255
199 223 255
199 223 255
199 223 255
199 223 255
199 223 255
199 223 255
199 224 255
199 224 255
200 224 255
200 224 255
200 224 255
200 224 255
200 224 255
200 224 255
200 224 255
200 224 255
200 224 255
200 224 255
200 224 255
200 224 255
200 224 255
200 224 255
200 224 255
201 224 255
201 224 255
201 224 255
201 224 255
201 224 255
201 224 255
201 224 255
201 224 255
201 224 255
201 224 255
201 225 255
201 225 255
201 225 255
201 225 255
202 225 255
202 225 255
202 225 255
202 225 255
202 225 255
202 225 255
202 225 255
202 225 255
202 225 255
202 225 255
202 225 255
202 225 255
202 225 255
202 225 255
202 225 255
202 225 255
203 225 255
203 225 255
203 225 255
203 225 255
203 225 255
203 225 255
203 225 255
203 225 255
203 225 255
203 226 255
203 226 255
203 226 255
203 226 255
203 226 255
203 226 255
203 226 255
204 226 255
204 226 255
204 226 255
204 226 255
204 226 255
204 226 255
204 226 255
204 226 255
204 226 255
204 226 255
204 226 255
204 226 255
204 226 255
204 226 255
204 226 255
204 226 255
204 226 255
205 226 255
205 226 255
205 226 255
205 226 255
205 226 255
205 226 255
205 226 255
205 226 255
205 227 255
205 227 255
205 227 255
205 227 255
205 227 255
205 227 255
205 227 255
205 227 255
205 227 255
205 227 255
205 227 255
205 226 255
205 226 255
205 226 255
205 226 255
205 226 255
205 226 255
205 226 255
204 226 255
204 226 255
204 226 255
204 226 255
204 226 255
204 226 255
204 226 255
204 226 255
204 226 255
204 226 255
204 226 255
204 226 255
204 226 255
204 226 255
204 226 255
204 226 255
204 226 255
203 226 255
203 226 255
203 226 255
203 226 255
203 226 255
203 226 255
203 226 255
203 226 255
203 225 255
203 225 255
203 225 255
203 225 255
203 225 255
203 225 255
203 225 255
203 225 255
203 225 255
202 225 255
202 225 255
202 225 255
202 225 255
202 225 255
202 225 255
202 225 255
202 225 255
202 225 255
202 225 255
202 225 255
202 225 255
202 225 255
202 225 255
202 225 255
201 225 255
201 225 255
201 225 255
201 225 255
201 225 255
201 224 255
201 224 255
201 224 255
201 224 255
201 224 255
201 224 255
201 224 255
201 224 255
201 224 255
201 224 255
200 224 255
200 224 255
200 224 255
200 224 255
200 224 255
200 224 255
200 224 255
200 224 255
200 224 255
200 224 255
200 224 255
200 224 255
200 224 255
200 224 255
199 224 255
199 224 255
199 223 255
199 223 255
199 223 255
199 223 255
199 223 255
199 223 255
199 223 255
199 223 255
199 223 255
199 223 255
199 223 255
199 223 255
198 223 255
198 223 255
198 223 255
198 223 255
198 223 255
198 223 255
198 223 255
198 223 255
198 223 255
198 223 255
198 223 255
198 223 255
198 223 255
198 223 255
198 223 255
197 223 255
197 222 255
197 222 255
197 222 255
197 222 255
197 222 255
197 222 255
197 222 255
197 222 255
197 222 255
197 222 255
197 222 255
197 222 255
197 222 255
197 222 255
197 222 255
196 222 255
196 222 255
196 222 255
196 222 255
196 222 255
196 222 255
196 222 255
196 222 255
196 222 255
196 222 255
196 222 255
196 222 255
196 222 255
196 222 255
196 222 255
196 222 255
196 222 255
196 221 255
195 221 255
195 221 255
195 221 255
195 221 255
195 221 255
195 221 255
195 221 255
195 221 255
195 221 255
195 221 255
195 221 255
195 221 255
195 221 255
195 221 255
195 221 255
195 221 255
195 221 255
195 221 255
195 221 255
195 221 255
195 221 255
195 221 255
195 221 255
195 221 255
195 221 255
195 221 255
195 221 255
195 221 255
195 221 255
195 221 255
194 221 255
194 221 255
194 221 255
194 221 255
194 221 255
194 221 255
194 221 255
194 221 255
194 221 255
194 221 255
194 221 255
194 221 255
194 221 255
194 221 255
194 221 255
194 221 255
194 221 255
194 221 255
194 221 255
194 221 255
194 221 255
194 221 255
194 221 255
194 221 255
194 221 255
194 221 255
194 221 255
194 221 255
194 221 255
194 221 255
195 221 255
195 221 255
195 221 255
195 221 255
195 221 255
195 221 255
195 221 255
195 221 255
195 221 255
195 221 255
195 221 255
195 221 255
195 221 255
195 221 255
195 221 255
195 221 255
195 221 255
195 221 255
195 221 255
195 221 255
195 221 255
195 221 255
195 221 255
195 221 255
195 221 255
195 221 255
195 221 255
195 221 255
195 221 255
195 221 255
196 221 255
196 222 255
196 222 255
196 222 255
196 222 255
196 222 255
196 222 255
196 222 255
196 222 255
196 222 255
196 222 255
196 222 255
196 222 255
196 222 255
196 222 255
196 222 255
196 222 255
196 222 255
197 222 255
197 222 255
197 222 255
197 222 255
197 222 255
197 222 255
197 222 255
197 222 255
197 222 255
197 222 255
197 222 255
197 222 255
197 222 255
197 222 255
197 222 255
197 223 255
198 223 255
198 223 255
198 223 255
198 223 255
198 223 255
198 223 255
198 223 255
198 223 255
198 223 255
198 223 255
198 223 255
198 223 255
198 223 255
198 223 255
198 223 255
199 223 255
199 223 255
199 223 255
199 223 255
199 223 255
199 223 255
199 223 255
199 223 255
199 223 255
199 223 255
199 223 255
199 223 255
199 224 255
199 224 255
200 224 255
200 224 255
200 224 255
200 224 255
200 224 255
200 224 255
200 224 255
200 224 255
200 224 255
200 224 255
200 224 255
200 224 255
200 224 255
200 224 255
201 224 255
201 224 255
201 224 255
201 224 255
201 224 255
201 224 255
201 224 255
201 224 255
201 224 255
201 224 255
201 224 255
201 225 255
201 225 255
201 225 255
201 225 255
202 225 255
202 225 255
202 225 255
202 225 255
202 225 255
202 225 255
202 225 255
202 225 255
202 225 255
202 225 255
202 225 255
202 225 255
202 225 255
202 225 255
202 225 255
203 225 255
203 225 255
203 225 255
203 225 255
203 225 255
203 225 255
203 225 255
203 225 255
203 225 255
203 226 255
203 226 255
203 226 255
203 226 255
203 226 255
203 226 255
203 226 255
203 226 255
204 226 255
204 226 255
204 226 255
204 226 255
204 226 255
204 226 255
204 226 255
204 226 255
204 226 255
204 226 255
204 226 255
204 226 255
204 226 255
204 226 255
204 226 255
204 226 255
204 226 255
205 226 255
205 226 255
205 226 255
205 226 255
205 226 255
205 226 255
205 226 255
205 227 255
205 227 255
205 227 255
205 227 255
205 227 255
205 227 255
205 227 255
205 227 255
205 227 255
205 227 255
205 227 255
205 227 255
205 227 255
205 227 255
205 227 255
205 227 255
205 226 255
205 226 255
205 226 255
205 226 255
205 226 255
205 226 255
205 226 255
204 226 255
204 226 255
204 226 255
204 226 255
204 226 255
204 226 255
204 226 255
204 226 255
204 226 255
204 226 255
204 226 255
204 226 255
204 226 255
204 226 255
204 226 255
204 226 255
204 226 255
204 226 255
203 226 255
203 226 255
203 226 255
203 226 255
203 226 255
203 226 255
203 226 255
203 225 255
203 225 255
203 225 255
203 225 255
203 225 255
203 225 255
203 225 255
203 225 255
203 225 255
202 225 255
202 225 255
202 225 255
202 225 255
202 225 255
202 225 255
202 225 255
202 225 255
202 225 255
202 225 255
202 225 255
202 225 255
202 225 255
202 225 255
202 225 255
201 225 255
201 225 255
201 225 255
201 225 255
201 225 255
201 224 255
201 224 255
201 224 255
201 224 255
201 224 255
201 224 255
201 224 255
201 224 255
201 224 255
201 224 255
200 224 255
200 224 255
200 224 255
200 224 255
200 224 255
200 224 255
200 224 255
200 224 255
200 224 255
200 224 255
200 224 255
200 224 255
200 224 255
200 224 255
199 224 255
199 224 255
199 223 255
199 223 255
199 223 255
199 223 255
199 223 255
199 223 255
199 223 255
199 223 255
199 223 255
199 223 255
199 223 255
199 223 255
199 223 255
198 223 255
198 223 255
198 223 255
198 223 255
198 223 255
198 223 255
198 223 255
198 223 255
198 223 255
198 223 255
198 223 255
198 223 255
198 223 255
198 223 255
197 223 255
197 222 255
197 222 255
197 222 255
197 222 255
197 222 255
197 222 255
197 222 255
197 222 255
197 222 255
197 222 255
197 222 255
197 222 255
197 222 255
197 222 255
197 222 255
196 222 255
196 222 255
196 222 255
196 222 255
196 222 255
196 222 255
196 222 255
196 222 255
196 222 255
196 222 255
196 222 255
196 222 255
196 222 255
196 222 255
196 222 255
196 222 255
196 222 255
196 222 255
196 221 255
196 221 255
195 221 255
195 221 255
195 221 255
195 221 255
195 221 255
195 221 255
195 221 255
195 221 255
195 221 255
195 221 255
195 221 255
195 221 255
195 221 255
195 221 255
195 221 255
195 221 255
195 221 255
195 221 255
195 221 255
195 221 255
195 221 255
195 221 255
195 221 255
195 221 255
195 221 255
195 221 255
195 221 255
195 221 255
195 221 255
195 221 255
195 221 255
195 221 255
195 221 255
195 221 255
195 221 255
195 221 255
195 221 255
195 221 255
195 221 255
195 221 255
195 221 255
195 221 255
195 221 255
195 221 255
195 221 255
195 221 255
195 221 255
195 221 255
195 221 255
195 221 255
195 221 255
195 221 255
195 221 255
195 221 255
195 221 255
195 221 255
195 221 255
195 221 255
195 221 255
195 221 255
195 221 255
195 221 255
195 221 255
195 221 255
195 221 255
195 221 255
195 221 255
195 221 255
195 221 255
195 221 255
195 221 255
195 221 255
195 221 255
195 221 255
195 221 255
195 221 255
195 221 255
195 221 255
195 221 255
195 221 255
195 221 255
195 221 255
195 221 255
196 221 255
196 222 255
196 222 255
196 222 255
196 222 255
196 222 255
196 222 255
196 222 255
196 222 255
196 222 255
196 222 255
196 222 255
196 222 255
196 222 255
196 222 255
196 222 255
196 222 255
196 222 255
196 222 255
197 222 255
197 222 255
197 222 255
197 222 255
197 222 255
197 222 255
197 222 255
197 222 255
197 222 255
197 222 255
197 222 255
197 222 255
197 222 255
197 222 255
197 222 255
197 223 255
198 223 255
198 223 255
198 223 255
198 223 255
198 223 255
198 223 255
198 223 255
198 223 255
198 223 255
198 223 255
198 223 255
198 223 255
198 223 255
198 223 255
199 223 255
199 223 255
199 223 255
199 223 255
199 223 255
199 223 255
199 223 255
199 223 255
199 223 255
199 223 255
199 223 255
199 223 255
199 223 255
199 224 255
199 224 255
200 224 255
200 224 255
200 224 255
200 224 255
200 224 255
200 224 255
200 224 255
200 224 255
200 224 255
200 224 255
200 224 255
200 224 255
200 224 255
200 224 255
201 224 255
201 224 255
201 224 255
201 224 255
201 224 255
201 224 255
201 224 255
201 224 255
201 224 255
201 224 255
201 225 255
201 225 255
201 225 255
201 225 255
201 225 255
202 225 255
202 225 255
202 225 255
202 225 255
202 225 255
202 225 255
202 225 255
202 225 255
202 225 255
202 225 255
202 225 255
202 225 255
202 225 255
202 225 255
202 225 255
203 225 255
203 225 255
203 225 255
203 225 255
203 225 255
203 225 255
203 225 255
203 225 255
203 225 255
203 226 255
203 226 255
203 226 255
203 226 255
203 226 255
203 226 255
203 226 255
204 226 255
204 226 255
204 226 255
204 226 255
204 226 255
204 226 255
204 226 255
204 226 255
204 226 255
204 226 255
204 226 255
204 226 255
204 226 255
204 226 255
204 226 255
204 226 255
204 226 255
204 226 255
205 226 255
205 226 255
205 226 255
205 226 255
205 226 255
205 226 255
205 226 255
205 227 255
205 227 255
205 227 255
205 227 255
205 227 255
205 227 255
205 227 255
205 227 255
205 227 255
205 227 255
205 227 255
205 227 255
205 227 255
205 227 255
205 227 255
205 227 255
205 227 255
205 227 255
205 227 255
205 227 255
205 227 255
205 226 255
205 226 255
205 226 255
205 226 255
205 226 255
205 226 255
205 226 255
204 226 255
204 226 255
204 226 255
204 226 255
204 226 255
204 226 255
204 226 255
204 226 255
204 226 255
204 226 255
204 226 255
204 226 255
204 226 255
204 226 255
204 226 255
204 226 255
204 226 255
203 226 255
203 226 255
203 226 255
203 226 255
203 226 255
203 226 255
203 226 255
203 225 255
203 225 255
203 225 255
203 225 255
203 225 255
203 225 255
203 225 255
203 225 255
203 225 255
202 225 255
202 225 255
202 225 255
202 225 255
202 225 255
202 225 255
202 225 255
202 225 255
202 225 255
202 225 255
202 225 255
202 225 255
202 225 255
202 225 255
202 225 255
201 225 255
201 225 255
201 225 255
201 225 255
201 225 255
201 224 255
201 224 255
201 224 255
201 224 255
201 224 255
201 224 255
201 224 255
201 224 255
201 224 255
201 224 255
200 224 255
200 224 255
200 224 255
200 224 255
200 224 255
200 224 255
200 224 255
200 224 255
200 224 255
200 224 255
200 224 255
200 224 255
200 224 255
200 224 255
199 224 255
199 224 255
199 224 255
199 223 255
199 223 255
199 223 255
199 223 255
199 223 255
199 223 255
199 223 255
199 223 255
199 223 255
199 223 255
199 223 255
199 223 255
198 223 255
198 223 255
198 223 255
198 223 255
198 223 255
198 223 255
198 223 255
198 223 255
198 223 255
198 223 255
198 223 255
198 223 255
198 223 255
198 223 255
198 223 255
197 222 255
197 222 255
197 222 255
197 222 255
197 222 255
197 222 255
197 222 255
197 222 255
197 222 255
197 222 255
197 222 255
197 222 255
197 222 255
197 222 255
197 222 255
197 222 255
196 222 255
196 222 255
196 222 255
196 222 255
196 222 255
196 222 255
196 222 255
196 222 255
196 222 255
196 222 255
196 222 255
196 222 255
196 222 255
196 222 255
196 222 255
196 222 255
196 222 255
196 222 255
196 221 255
196 221 255
195 221 255
195 221 255
195 221 255
195 221 255
195 221 255
195 221 255
195 221 255
195 221 255
195 221 255
195 221 255
195 221 255
195 221 255
195 221 255
195 221 255
195 221 255
195 221 255
195 221 255
195 221 255
195 221 255
195 221 255
195 221 255
195 221 255
195 221 255
195 221 255
195 221 255
195 221 255
195 221 255
195 221 255
195 221 255
195 221 255
195 221 255
195 221 255
195 221 255
195 221 255
195 221 255
195 221 255
195 221 255
195 221 255
195 221 255
195 221 255
195 221 255
195 221 255
195 221 255
195 221 255
195 221 255
195 221 255
195 221 255
195 221 255
195 221 255
195 221 255
195 221 255
195 221 255
195 221 255
195 221 255
195 221 255
195 221 255
195 221 255
195 221 255
195 221 255
195 221 255
195 221 255
195 221 255
195 221 255
195 221 255
195 221 255
195 221 255
195 221 255
195 221 255
195 221 255
195 221 255
195 221 255
195 221 255
195 221 255
195 221 255
195 221 255
195 221 255
196 221 255
196 221 255
196 222 255
196 222 255
196 222 255
196 222 255
196 222 255
196 222 255
196 222 255
196 222 255
196 222 255
196 222 255
196 222 255
196 222 255
196 222 255
196 222 255
196 222 255
196 222 255
196 222 255
196 222 255
197 222 255
197 222 255
197 222 255
197 222 255
197 222 255
197 222 255
197 222 255
197 222 255
197 222 255
197 222 255
197 222 255
197 222 255
197 222 255
197 222 255
197 222 255
197 222 255
198 223 255
198 223 255
198 223 255
198 223 255
198 223 255
198 223 255
198 223 255
198 223 255
198 223 255
198 223 255
198 223 255
198 223 255
198 223 255
198 223 255
198 223 255
199 223 255
199 223 255
199 223 255
199 223 255
199 223 255
199 223 255
199 223 255
199 223 255
199 223 255
199 223 255
199 223 255
199 223 255
199 224 255
199 224 255
199 224 255
200 224 255
200 224 255
200 224 255
200 224 255
200 224 255
200 224 255
200 224 255
200 224 255
200 224 255
200 224 255
200 224 255
200 224 255
200 224 255
200 224 255
201 224 255
201 224 255
201 224 255
201 224 255
201 224 255
201 224 255
201 224 255
201 224 255
201 224 255
201 224 255
201 225 255
201 225 255
201 225 255
201 225 255
201 225 255
202 225 255
202 225 255
202 225 255
202 225 255
202 225 255
202 225 255
202 225 255
202 225 255
202 225 255
202 225 255
202 225 255
202 225 255
202 225 255
202 225 255
202 225 255
203 225 255
203 225 255
203 225 255
203 225 255
203 225 255
203 225 255
203 225 255
203 225 255
203 225 255
203 226 255
203 226 255
203 226 255
203 226 255
203 226 255
203 226 255
203 226 255
204 226 255
204 226 255
204 226 255
204 226 255
204 226 255
204 226 255
204 226 255
204 226 255
204 226 255
204 226 255
204 226 255
204 226 255
204 226 255
204 226 255
204 226 255
204 226 255
204 226 255
205 226 255
205 226 255
205 226 255
205 226 255
205 226 255
205 226 255
205 226 255
205 227 255
205 227 255
205 227 255
205 227 255
205 227 255
205 227 255
205 227 255
205 227 255
205 227 255
205 227 255
205 227 255
205 227 255
206 227 255
206 227 255
206 227 255
205 227 255
205 227 255
205 227 255
205 227 255
205 227 255
205 227 255
205 227 255
205 227 255
205 227 255
205 227 255
205 227 255
205 226 255
205 226 255
205 226 255
205 226 255
205 226 255
205 226 255
205 226 255
204 226 255
204 226 255
204 226 255
204 226 255
204 226 255
204 226 255
204 226 255
204 226 255
204 226 255
204 226 255
204 226 255
204 226 255
204 226 255
204 226 255
204 226 255
204 226 255
204 226 255
203 226 255
203 226 255
203 226 255
203 226 255
203 226 255
203 226 255
203 226 255
203 226 255
203 225 255
203 225 255
203 225 255
203 225 255
203 225 255
203 225 255
203 225 255
203 225 255
202 225 255
202 225 255
202 225 255
202 225 255
202 225 255
202 225 255
202 225 255
202 225 255
202 225 255
202 225 255
202 225 255
202 225 255
202 225 255
202 225 255
202 225 255
202 225 255
201 225 255
201 225 255
201 225 255
201 225 255
201 224 255
201 224 255
201 224 255
201 224 255
201 224 255
201 224 255
201 224 255
201 224 255
201 224 255
201 224 255
200 224 255
200 224 255
200 224 255
200 224 255
200 224 255
200 224 255
200 224 255
200 224 255
200 224 255
200 224 255
200 224 255
200 224 255
200 224 255
200 224 255
200 224 255
199 224 255
199 224 255
199 223 255
199 223 255
199 223 255
199 223 255
199 223 255
199 223 255
199 223 255
199 223 255
199 223 255
199 223 255
199 223 255
199 223 255
198 223 255
198 223 255
198 223 255
198 223 255
198 223 255
198 223 255
198 223 255
198 223 255
198 223 255
198 223 255
198 223 255
198 223 255
198 223 255
198 223 255
198 223 255
197 223 255
197 222 255
197 222 255
197 222 255
197 222 255
197 222 255
197 222 255
197 222 255
197 222 255
197 222 255
197 222 255
197 222 255
197 222 255
197 222 255
197 222 255
197 222 255
197 222 255
196 222 255
196 222 255
196 222 255
196 222 255
196 222 255
196 222 255
196 222 255
196 222 255
196 222 255
196 222 255
196 222 255
196 222 255
196 222 255
196 222 255
196 222 255
196 222 255
196 222 255
196 222 255
196 222 255
196 221 255
196 221 255
195 221 255
195 221 255
195 221 255
195 221 255
195 221 255
195 221 255
195 221 255
195 221 255
195 221 255
195 221 255
195 221 255
195 221 255
195 221 255
195 221 255
195 221 255
195 221 255
195 221 255
195 221 255
195 221 255
195 221 255
195 221 255
195 221 255
195 221 255
195 221 255
195 221 255
195 221 255
195 221 255
195 221 255
195 221 255
195 221 255
195 221 255
195 221 255
195 221 255
195 221 255
195 221 255
195 221 255
195 221 255
195 221 255
195 221 255
195 221 255
195 221 255
195 221 255
195 221 255
195 221 255
195 221 255
195 221 255
195 221 255
195 221 255
195 221 255
195 221 255
195 221 255
195 221 255
195 221 255
195 221 255
195 221 255
195 221 255
195 221 255
195 221 255
195 221 255
195 221 255
195 221 255
195 221 255
195 221 255
195 221 255
195 221 255
195 221 255
195 221 255
195 221 255
196 221 255
196 221 255
196 222 255
196 222 255
196 222 255
196 222 255
196 222 255
196 222 255
196 222 255
196 222 255
196 222 255
196 222 255
196 222 255
196 222 255
196 222 255
196 222 255
196 222 255
196 222 255
196 222 255
196 222 255
196 222 255
197 222 255
197 222 255
197 222 255
197 222 255
197 222 255
197 222 255
197 222 255
197 222 255
197 222 255
197 222 255
197 222 255
197 222 255
197 222 255
197 222 255
197 222 255
197 222 255
197 223 255
198 223 255
198 223 255
198 223 255
198 223 255
198 223 255
198 223 255
198 223 255
198 223 255
198 223 255
198 223 255
198 223 255
198 223 255
198 223 255
198 223 255
198 223 255
199 223 255
199 223 255
199 223 255
199 223 255
199 223 255
199 223 255
199 223 255
199 223 255
199 223 255
199 223 255
199 223 255
199 223 255
199 224 255
199 224 255
199 224 255
200 224 255
200 224 255
200 224 255
200 224 255
200 224 255
200 224 255
200 224 255
200 224 255
200 224 255
200 224 255
200 224 255
200 224 255
200 224 255
200 224 255
201 224 255
201 224 255
201 224 255
201 224 255
201 224 255
201 224 255
201 224 255
201 224 255
201 224 255
201 224 255
201 225 255
201 225 255
201 225 255
201 225 255
202 225 255
202 225 255
202 225 255
202 225 255
202 225 255
202 225 255
202 225 255
202 225 255
202 225 255
202 225 255
202 225 255
202 225 255
202 225 255
202 225 255
202 225 255
202 225 255
203 225 255
203 225 255
203 225 255
203 225 255
203 225 255
203 225 255
203 225 255
203 225 255
203 226 255
203 226 255
203 226 255
203 226 255
203 226 255
203 226 255
203 226 255
203 226 255
204 226 255
204 226 255
204 226 255
204 226 255
204 226 255
204 226 255
204 226 255
204 226 255
204 226 255
204 226 255
204 226 255
204 226 255
204 226 255
204 226 255
204 226 255
204 226 255
204 226 255
205 226 255
205 226 255
205 226 255
205 226 255
205 226 255
205 226 255
205 226 255
205 227 255
205 227 255
205 227 255
205 227 255
205 227 255
205 227 255
205 227 255
205 227 255
205 227 255
205 227 255
205 227 255
206 227 255
206 227 255
206 227 255
206 227 255
206 227 255
206 227 255
206 227 255
206 227 255
205 227 255
205 227 255
205 227 255
205 227 255
205 227 255
205 227 255
205 227 255
205 227 255
205 227 255
205 227 255
205 227 255
205 226 255
205 226 255
205 226 255
205 226 255
205 226 255
205 226 255
205 226 255
205 226 255
204 226 255
204 226 255
204 226 255
204 226 255
204 226 255
204 226 255
204 226 255
204 226 255
204 226 255
204 226 255
204 226 255
204 226 255
204 226 255
204 226 255
204 226 255
204 226 255
204 226 255
203 226 255
203 226 255
203 226 255
203 226 255
203 226 255
203 226 255
203 226 255
203 225 255
203 225 255
203 225 255
203 225 255
203 225 255
203 225 255
203 225 255
203 225 255
203 225 255
202 225 255
202 225 255
202 225 255
202 225 255
202 225 255
202 225 255
202 225 255
202 225 255
202 225 255
202 225 255
202 225 255
202 225 255
202 225 255
202 225 255
202 225 255
201 225 255
201 225 255
201 225 255
201 225 255
201 224 255
201 224 255
201 224 255
201 224 255
201 224 255
201 224 255
201 224 255
201 224 255
201 224 255
201 224 255
200 224 255
200 224 255
200 224 255
200 224 255
200 224 255
200 224 255
200 224 255
200 224 255
200 224 255
200 224 255
200 224 255
200 224 255
200 224 255
200 224 255
200 224 255
199 224 255
199 224 255
199 223 255
199 223 255
199 223 255
199 223 255
199 223 255
199 223 255
199 223 255
199 223 255
199 223 255
199 223 255
199 223 255
199 223 255
198 223 255
198 223 255
198 223 255
198 223 255
198 223 255
198 223 255
198 223 255
198 223 255
198 223 255
198 223 255
198 223 255
198 223 255
198 223 255
198 223 255
198 223 255
198 223 255
197 222 255
197 222 255
197 222 255
197 222 255
197 222 255
197 222 255
197 222 255
197 222 255
197 222 255
197 222 255
197 222 255
197 222 255
197 222 255
197 222 255
197 222 255
197 222 255
197 222 255
196 222 255
196 222 255
196 222 255
196 222 255
196 222 255
196 222 255
196 222 255
196 222 255
196 222 255
196 222 255
196 222 255
196 222 255
196 222 255
196 222 255
196 222 255
196 222 255
196 222 255
196 222 255
196 222 255
196 222 255
196 221 255
196 221 255
195 221 255
195 221 255
195 221 255
195 221 255
195 221 255
195 221 255
195 221 255
195 221 255
195 221 255
195 221 255
195 221 255
195 221 255
195 221 255
195 221 255
195 221 255
195 221 255
195 221 255
195 221 255
195 221 255
195 221 255
195 221 255
195 221 255
195 221 255
195 221 255
195 221 255
195 221 255
195 221 255
195 221 255
195 221 255
195 221 255
195 221 255
195 221 255
195 221 255
195 221 255
195 221 255
195 221 255
195 221 255
195 221 255
195 221 255
195 221 255
195 221 255
195 221 255
195 221 255
195 221 255
195 221 255
195 221 255
195 221 255
195 221 255
195 221 255
195 221 255
195 221 255
195 221 255
195 221 255
195 221 255
195 221 255
195 221 255
195 221 255
195 221 255
195 221 255
195 221 255
196 221 255
196 221 255
196 222 255
196 222 255
196 222 255
196 222 255
196 222 255
196 222 255
196 222 255
196 222 255
196 222 255
196 222 255
196 222 255
196 222 255
196 222 255
196 222 255
196 222 255
196 222 255
196 222 255
196 222 255
196 222 255
196 222 255
197 222 255
197 222 255
197 222 255
197 222 255
197 222 255
197 222 255
197 222 255
197 222 255
197 222 255
197 222 255
197 222 255
197 222 255
197 222 255
197 222 255
197 222 255
197 222 255
197 222 255
198 223 255
198 223 255
198 223 255
198 223 255
198 223 255
198 223 255
198 223 255
198 223 255
198 223 255
198 223 255
198 223 255
198 223 255
198 223 255
198 223 255
198 223 255
198 223 255
199 223 255
199 223 255
199 223 255
199 223 255
199 223 255
199 223 255
199 223 255
199 223 255
199 223 255
199 223 255
199 223 255
199 223 255
199 224 255
199 224 255
200 224 255
200 224 255
200 224 255
200 224 255
200 224 255
200 224 255
200 224 255
200 224 255
200 224 255
200 224 255
200 224 255
200 224 255
200 224 255
200 224 255
201 224 255
201 224 255
201 224 255
201 224 255
201 224 255
201 224 255
201 224 255
201 224 255
201 224 255
201 224 255
201 224 255
201 225 255
201 225 255
201 225 255
201 225 255
202 225 255
202 225 255
202 225 255
202 225 255
202 225 255
202 225 255
202 225 255
202 225 255
202 225 255
202 225 255
202 225 255
202 225 255
202 225 255
202 225 255
202 225 255
203 225 255
203 225 255
203 225 255
203 225 255
203 225 255
203 225 255
203 225 255
203 225 255
203 225 255
203 226 255
203 226 255
203 226 255
203 226 255
203 226 255
203 226 255
203 226 255
204 226 255
204 226 255
204 226 255
204 226 255
204 226 255
204 226 255
204 226 255
204 226 255
204 226 255
204 226 255
204 226 255
204 226 255
204 226 255
204 226 255
204 226 255
204 226 255
204 226 255
205 226 255
205 226 255
205 226 255
205 226 255
205 226 255
205 226 255
205 226 255
205 226 255
205 227 255
205 227 255
205 227 255
205 227 255
205 227 255
205 227 255
205 227 255
205 227 255
205 227 255
205 227 255
205 227 255
206 227 255
206 227 255
206 227 255
206 227 255
206 227 255
206 227 255
206 227 255
206 227 255
206 227 255
206 227 255
206 227 255
206 227 255
206 227 255
205 227 255
205 227 255
205 227 255
205 227 255
205 227 255
205 227 255
205 227 255
205 227 255
205 227 255
205 227 255
205 227 255
205 226 255
205 226 255
205 226 255
205 226 255
205 226 255
205 226 255
205 226 255
204 226 255
204 226 255
204 226 255
204 226 255
204 226 255
204 226 255
204 226 255
204 226 255
204 226 255
204 226 255
204 226 255
204 226 255
204 226 255
204 226 255
204 226 255
204 226 255
204 226 255
203 226 255
203 226 255
203 226 255
203 226 255
203 226 255
203 226 255
203 226 255
203 225 255
203 225 255
203 225 255
203 225 255
203 225 255
203 225 255
203 225 255
203 225 255
203 225 255
202 225 255
202 225 255
202 225 255
202 225 255
202 225 255
202 225 255
202 225 255
202 225 255
202 225 255
202 225 255
202 225 255
202 225 255
202 225 255
202 225 255
202 225 255
201 225 255
201 225 255
201 225 255
201 225 255
201 224 255
201 224 255
201 224 255
201 224 255
201 224 255
201 224 255
201 224 255
201 224 255
201 224 255
201 224 255
201 224 255
200 224 255
200 224 255
200 224 255
200 224 255
200 224 255
200 224 255
200 224 255
200 224 255
200 224 255
200 224 255
200 224 255
200 224 255
200 224 255
200 224 255
199 224 255
199 224 255
199 223 255
199 223 255
199 223 255
199 223 255
199 223 255
199 223 255
199 223 255
199 223 255
199 223 255
199 223 255
199 223 255
199 223 255
199 223 255
198 223 255
198 223 255
198 223 255
198 223 255
198 223 255
198 223 255
198 223 255
198 223 255
198 223 255
198 223 255
198 223 255
198 223 255
198 223 255
198 223 255
198 223 255
197 223 255
197 222 255
197 222 255
197 222 255
197 222 255
197 222 255
197 222 255
197 222 255
197 222 255
197 222 255
197 222 255
197 222 255
197 222 255
197 222 255
197 222 255
197 222 255
197 222 255
197 222 255
196 222 255
196 222 255
196 222 255
196 222 255
196 222 255
196 222 255
196 222 255
196 222 255
196 222 255
196 222 255
196 222 255
196 222 255
196 222 255
196 222 255
196 222 255
196 222 255
196 222 255
196 222 255
196 222 255
196 222 255
196 222 255
196 221 255
196 221 255
196 221 255
195 221 255
195 221 255
195 221 255
195 221 255
195 221 255
195 221 255
195 221 255
195 221 255
195 221 255
195 221 255
195 221 255
195 221 255
195 221 255
195 221 255
195 221 255
195 221 255
195 221 255
195 221 255
195 221 255
195 221 255
195 221 255
195 221 255
195 221 255
195 221 255
195 221 255
195 221 255
195 221 255
195 221 255
195 221 255
195 221 255
195 221 255
195 221 255
195 221 255
195 221 255
195 221 255
195 221 255
195 221 255
195 221 255
195 221 255
195 221 255
195 221 255
195 221 255
195 221 255
195 221 255
195 221 255
195 221 255
195 221 255
195 221 255
195 221 255
195 221 255
196 221 255
196 221 255
196 221 255
196 222 255
196 222 255
196 222 255
196 222 255
196 222 255
196 222 255
196 222 255
196 222 255
196 222 255
196 222 255
196 222 255
196 222 255
196 222 255
196 222 255
196 222 255
196 222 255
196 222 255
196 222 255
196 222 255
196 222 255
196 222 255
197 222 255
197 222 255
197 222 255
197 222 255
197 222 255
197 222 255
197 222 255
197 222 255
197 222 255
197 222 255
197 222 255
197 222 255
197 222 255
197 222 255
197 222 255
197 222 255
197 222 255
197 223 255
198 223 255
198 223 255
198 223 255
198 223 255
198 223 255
198 223 255
198 223 255
198 223 255
198 223 255
198 223 255
198 223 255
198 223 255
198 223 255
198 223 255
198 223 255
199 223 255
199 223 255
199 223 255
199 223 255
199 223 255
199 223 255
199 223 255
199 223 255
199 223 255
199 223 255
199 223 255
199 223 255
199 223 255
199 224 255
199 224 255
200 224 255
200 224 255
200 224 255
200 224 255
200 224 255
200 224 255
200 224 255
200 224 255
200 224 255
200 224 255
200 224 255
200 224 255
200 224 255
200 224 255
201 224 255
201 224 255
201 224 255
201 224 255
201 224 255
201 224 255
201 224 255
201 224 255
201 224 255
201 224 255
201 224 255
201 225 255
201 225 255
201 225 255
201 225 255
202 225 255
202 225 255
202 225 255
202 225 255
202 225 255
202 225 255
202 225 255
202 225 255
202 225 255
202 225 255
202 225 255
202 225 255
202 225 255
202 225 255
202 225 255
203 225 255
203 225 255
203 225 255
203 225 255
203 225 255
203 225 255
203 225 255
203 225 255
203 225 255
203 226 255
203 226 255
203 226 255
203 226 255
203 226 255
203 226 255
203 226 255
204 226 255
204 226 255
204 226 255
204 226 255
204 226 255
204 226 255
204 226 255
204 226 255
204 226 255
204 226 255
204 226 255
204 226 255
204 226 255
204 226 255
204 226 255
204 226 255
204 226 255
205 226 255
205 226 255
205 226 255
205 226 255
205 226 255
205 226 255
205 226 255
205 227 255
205 227 255
205 227 255
205 227 255
205 227 255
205 227 255
205 227 255
205 227 255
205 227 255
205 227 255
205 227 255
206 227 255
206 227 255
206 227 255
206 227 255
206 227 255
206 227 255
206 227 255
206 227 255
206 227 255
206 227 255
206 227 255
206 227 255
206 227 255
206 227 255
206 227 255
206 227 255
206 227 255
206 227 255
206 227 255
205 227 255
205 227 255
205 227 255
205 227 255
205 227 255
205 227 255
205 227 255
205 227 255
205 227 255
205 227 255
205 227 255
205 226 255
205 226 255
205 226 255
205 226 255
205 226 255
205 226 255
205 226 255
204 226 255
204 226 255
204 226 255
204 226 255
204 226 255
204 226 255
204 226 255
204 226 255
204 226 255
204 226 255
204 226 255
204 226 255
204 226 255
204 226 255
204 226 255
204 226 255
203 226 255
203 226 255
203 226 255
203 226 255
203 226 255
203 226 255
203 226 255
203 226 255
203 225 255
203 225 255
203 225 255
203 225 255
203 225 255
203 225 255
203 225 255
203 225 255
202 225 255
202 225 255
202 225 255
202 225 255
202 225 255
202 225 255
202 225 255
202 225 255
202 225 255
202 225 255
202 225 255
202 225 255
202 225 255
202 225 255
202 225 255
201 225 255
201 225 255
201 225 255
201 225 255
201 225 255
201 224 255
201 224 255
201 224 255
201 224 255
201 224 255
201 224 255
201 224 255
201 224 255
201 224 255
201 224 255
200 224 255
200 224 255
200 224 255
200 224 255
200 224 255
200 224 255
200 224 255
200 224 255
200 224 255
200 224 255
200 224 255
200 224 255
200 224 255
200 224 255
199 224 255
199 224 255
199 224 255
199 223 255
199 223 255
199 223 255
199 223 255
199 223 255
199 223 255
199 223 255
199 223 255
199 223 255
199 223 255
199 223 255
199 223 255
198 223 255
198 223 255
198 223 255
198 223 255
198 223 255
198 223 255
198 223 255
198 223 255
198 223 255
198 223 255
198 223 255
198 223 255
198 223 255
198 223 255
198 223 255
198 223 255
197 222 255
197 222 255
197 222 255
197 222 255
197 222 255
197 222 255
197 222 255
197 222 255
197 222 255
197 222 255
197 222 255
197 222 255
197 222 255
197 222 255
197 222 255
197 222 255
197 222 255
197 222 255
196 222 255
196 222 255
196 222 255
196 222 255
196 222 255
196 222 255
196 222 255
196 222 255
196 222 255
196 222 255
196 222 255
196 222 255
196 222 255
196 222 255
196 222 255
196 222 255
196 222 255
196 222 255
196 222 255
196 222 255
196 222 255
196 222 255
196 222 255
196 221 255
196 221 255
196 221 255
196 221 255
195 221 255
195 221 255
195 221 255
195 221 255
195 221 255
195 221 255
195 221 255
195 221 255
195 221 255
195 221 255
195 221 255
195 221 255
195 221 255
195 221 255
195 221 255
195 221 255
195 221 255
195 221 255
195 221 255
195 221 255
195 221 255
195 221 255
195 221 255
195 221 255
195 221 255
195 221 255
195 221 255
195 221 255
195 221 255
195 221 255
195 221 255
195 221 255
195 221 255
195 221 255
195 221 255
195 221 255
195 221 255
195 221 255
196 221 255
196 221 255
196 221 255
196 222 255
196 222 255
196 222 255
196 222 255
196 222 255
196 222 255
196 222 255
196 222 255
196 222 255
196 222 255
196 222 255
196 222 255
196 222 255
196 222 255
196 222 255
196 222 255
196 222 255
196 222 255
196 222 255
196 222 255
196 222 255
196 222 255
196 222 255
196 222 255
197 222 255
197 222 255
197 222 255
197 222 255
197 222 255
197 222 255
197 222 255
197 222 255
197 222 255
197 222 255
197 222 255
197 222 255
197 222 255
197 222 255
197 222 255
197 222 255
197 222 255
197 222 255
198 223 255
198 223 255
198 223 255
198 223 255
198 223 255
198 223 255
198 223 255
198 223 255
198 223 255
198 223 255
198 223 255
198 223 255
198 223 255
198 223 255
198 223 255
198 223 255
199 223 255
199 223 255
199 223 255
199 223 255
199 223 255
199 223 255
199 223 255
199 223 255
199 223 255
199 223 255
199 223 255
199 223 255
199 224 255
199 224 255
199 224 255
200 224 255
200 224 255
200 224 255
200 224 255
200 224 255
200 224 255
200 224 255
200 224 255
200 224 255
200 224 255
200 224 255
200 224 255
200 224 255
200 224 255
201 224 255
201 224 255
201 224 255
201 224 255
201 224 255
201 224 255
201 224 255
201 224 255
201 224 255
201 224 255
201 225 255
201 225 255
201 225 255
201 225 255
201 225 255
202 225 255
202 225 255
202 225 255
202 225 255
202 225 255
202 225 255
202 225 255
202 225 255
202 225 255
202 225 255
202 225 255
202 225 255
202 225 255
202 225 255
202 225 255
203 225 255
203 225 255
203 225 255
203 225 255
203 225 255
203 225 255
203 225 255
203 225 255
203 226 255
203 226 255
203 226 255
203 226 255
203 226 255
203 226 255
203 226 255
203 226 255
204 226 255
204 226 255
204 226 255
204 226 255
204 226 255
204 226 255
204 226 255
204 226 255
204 226 255
204 226 255
204 226 255
204 226 255
204 226 255
204 226 255
204 226 255
204 226 255
205 226 255
205 226 255
205 226 255
205 226 255
205 226 255
205 226 255
205 226 255
205 227 255
205 227 255
205 227 255
205 227 255
205 227 255
205 227 255
205 227 255
205 227 255
205 227 255
205 227 255
205 227 255
206 227 255
206 227 255
206 227 255
206 227 255
206 227 255
206 227 255
206 227 255
206 227 255
206 227 255
206 227 255
206 227 255
206 227 255
206 227 255
206 227 255
206 227 255
206 227 255
206 227 255
206 227 255
206 227 255
206 227 255
206 227 255
206 227 255
206 227 255
206 227 255
205 227 255
205 227 255
205 227 255
205 227 255
205 227 255
205 227 255
205 227 255
205 227 255
205 227 255
205 227 255
205 227 255
205 226 255
205 226 255
205 226 255
205 226 255
205 226 255
205 226 255
205 226 255
204 226 255
204 226 255
204 226 255
204 226 255
204 226 255
204 226 255
204 226 255
204 226 255
204 226 255
204 226 255
204 226 255
204 226 255
204 226 255
204 226 255
204 226 255
204 226 255
204 226 255
203 226 255
203 226 255
203 226 255
203 226 255
203 226 255
203 226 255
203 226 255
203 225 255
203 225 255
203 225 255
203 225 255
203 225 255
203 225 255
203 225 255
203 225 255
203 225 255
202 225 255
202 225 255
202 225 255
202 225 255
202 225 255
202 225 255
202 225 255
202 225 255
202 225 255
202 225 255
202 225 255
202 225 255
202 225 255
202 225 255
202 225 255
201 225 255
201 225 255
201 225 255
201 225 255
201 224 255
201 224 255
201 224 255
201 224 255
201 224 255
201 224 255
201 224 255
201 224 255
201 224 255
201 224 255
200 224 255
200 224 255
200 224 255
200 224 255
200 224 255
200 224 255
200 224 255
200 224 255
200 224 255
200 224 255
200 224 255
200 224 255
200 224 255
200 224 255
200 224 255
199 224 255
199 224 255
199 223 255
199 223 255
199 223 255
199 223 255
199 223 255
199 223 255
199 223 255
199 223 255
199 223 255
199 223 255
199 223 255
199 223 255
198 223 255
198 223 255
198 223 255
198 223 255
198 223 255
198 223 255
198 223 255
198 223 255
198 223 255
198 223 255
198 223 255
198 223 255
198 223 255
198 223 255
198 223 255
198 223 255
197 223 255
197 222 255
197 222 255
197 222 255
197 222 255
197 222 255
197 222 255
197 222 255
197 222 255
197 222 255
197 222 255
197 222 255
197 222 255
197 222 255
197 222 255
197 222 255
197 222 255
197 222 255
197 222 255
196 222 255
196 222 255
196 222 255
196 222 255
196 222 255
196 222 255
196 222 255
196 222 255
196 222 255
196 222 255
196 222 255
196 222 255
196 222 255
196 222 255
196 222 255
196 222 255
196 222 255
196 222 255
196 222 255
196 222 255
196 222 255
196 222 255
196 222 255
196 222 255
196 222 255
196 222 255
196 222 255
196 221 255
196 221 255
196 221 255
196 221 255
196 221 255
196 221 255
195 221 255
195 221 255
195 221 255
195 221 255
195 221 255
195 221 255
195 221 255
195 221 255
195 221 255
195 221 255
195 221 255
195 221 255
195 221 255
195 221 255
195 221 255
195 221 255
195 221 255
195 221 255
195 221 255
195 221 255
195 221 255
196 221 255
196 221 255
196 221 255
196 221 255
196 221 255
196 222 255
196 222 255
196 222 255
196 222 255
196 222 255
196 222 255
196 222 255
196 222 255
196 222 255
196 222 255
196 222 255
196 222 255
196 222 255
196 222 255
196 222 255
196 222 255
196 222 255
196 222 255
196 222 255
196 222 255
196 222 255
196 222 255
196 222 255
196 222 255
196 222 255
196 222 255
196 222 255
197 222 255
197 222 255
197 222 255
197 222 255
197 222 255
197 222 255
197 222 255
197 222 255
197 222 255
197 222 255
197 222 255
197 222 255
197 222 255
197 222 255
197 222 255
197 222 255
197 222 255
197 222 255
198 223 255
198 223 255
198 223 255
198 223 255
198 223 255
198 223 255
198 223 255
198 223 255
198 223 255
198 223 255
198 223 255
198 223 255
198 223 255
198 223 255
198 223 255
198 223 255
199 223 255
199 223 255
199 223 255
199 223 255
199 223 255
199 223 255
199 223 255
199 223 255
199 223 255
199 223 255
199 223 255
199 223 255
199 223 255
199 224 255
199 224 255
200 224 255
200 224 255
200 224 255
200 224 255
200 224 255
200 224 255
200 224 255
200 224 255
200 224 255
200 224 255
200 224 255
200 224 255
200 224 255
200 224 255
200 224 255
201 224 255
201 224 255
201 224 255
201 224 255
201 224 255
201 224 255
201 224 255
201 224 255
201 224 255
201 224 255
201 225 255
201 225 255
201 225 255
201 225 255
202 225 255
202 225 255
202 225 255
202 225 255
202 225 255
202 225 255
202 225 255
202 225 255
202 225 255
202 225 255
202 225 255
202 225 255
202 225 255
202 225 255
202 225 255
203 225 255
203 225 255
203 225 255
203 225 255
203 225 255
203 225 255
203 225 255
203 225 255
203 225 255
203 226 255
203 226 255
203 226 255
203 226 255
203 226 255
203 226 255
203 226 255
204 226 255
204 226 255
204 226 255
204 226 255
204 226 255
204 226 255
204 226 255
204 226 255
204 226 255
204 226 255
204 226 255
204 226 255
204 226 255
204 226 255
204 226 255
204 226 255
204 226 255
205 226 255
205 226 255
205 226 255
205 226 255
205 226 255
205 226 255
205 226 255
205 227 255
205 227 255
205 227 255
205 227 255
205 227 255
205 227 255
205 227 255
205 227 255
205 227 255
205 227 255
205 227 255
206 227 255
206 227 255
206 227 255
206 227 255
206 227 255
206 227 255
206 227 255
206 227 255
206 227 255
206 227 255
206 227 255
206 227 255
206 227 255
206 227 255
206 227 255
206 227 255
206 227 255
206 227 255
206 227 255
206 227 255
206 227 255
206 227 255
206 227 255
206 227 255
206 227 255
206 227 255
206 227 255
206 227 255
206 227 255
205 227 255
205 227 255
205 227 255
205 227 255
205 227 255
205 227 255
205 227 255
205 227 255
205 227 255
205 227 255
205 227 255
205 226 255
205 226 255
205 226 255
205 226 255
205 226 255
205 226 255
205 226 255
204 226 255
204 226 255
204 226 255
204 226 255
204 226 255
204 226 255
204 226 255
204 226 255
204 226 255
204 226 255
204 226 255
204 226 255
204 226 255
204 226 255
204 226 255
204 226 255
203 226 255
203 226 255
203 226 255
203 226 255
203 226 255
203 226 255
203 226 255
203 225 255
203 225 255
203 225 255
203 225 255
203 225 255
203 225 255
203 225 255
203 225 255
203 225 255
202 225 255
202 225 255
202 225 255
202 225 255
202 225 255
202 225 255
202 225 255
202 225 255
202 225 255
202 225 255
202 225 255
202 225 255
202 225 255
202 225 255
202 225 255
201 225 255
201 225 255
201 225 255
201 225 255
201 224 255
201 224 255
201 224 255
201 224 255
201 224 255
201 224 255
201 224 255
201 224 255
201 224 255
201 224 255
200 224 255
200 224 255
200 224 255
200 224 255
200 224 255
200 224 255
200 224 255
200 224 255
200 224 255
200 224 255
200 224 255
200 224 255
200 224 255
200 224 255
200 224 255
199 224 255
199 224 255
199 223 255
199 223 255
199 223 255
199 223 255
199 223 255
199 223 255
199 223 255
199 223 255
199 223 255
199 223 255
199 223 255
199 223 255
199 223 255
198 223 255
198 223 255
198 223 255
198 223 255
198 223 255
198 223 255
198 223 255
198 223 255
198 223 255
198 223 255
198 223 255
198 223 255
198 223 255
198 223 255
198 223 255
198 223 255
197 223 255
197 222 255
197 222 255
197 222 255
197 222 255
197 222 255
197 222 255
197 222 255
197 222 255
197 222 255
197 222 255
197 222 255
197 222 255
197 222 255
197 222 255
197 222 255
197 222 255
197 222 255
197 222 255
197 222 255
196 222 255
196 222 255
196 222 255
196 222 255
196 222 255
196 222 255
196 222 255
196 222 255
196 222 255
196 222 255
196 222 255
196 222 255
196 222 255
196 222 255
196 222 255
196 222 255
196 222 255
196 222 255
196 222 255
196 222 255
196 222 255
196 222 255
196 222 255
196 222 255
196 222 255
196 222 255
196 222 255
196 222 255
196 222 255
196 222 255
196 222 255
196 222 255
196 222 255
196 222 255
196 222 255
196 222 255
196 222 255
196 222 255
196 222 255
196 222 255
196 222 255
196 222 255
196 222 255
196 222 255
196 222 255
196 222 255
196 222 255
196 222 255
196 222 255
196 222 255
196 222 255
196 222 255
196 222 255
196 222 255
196 222 255
196 222 255
196 222 255
196 222 255
196 222 255
196 222 255
196 222 255
196 222 255
196 222 255
196 222 255
196 222 255
196 222 255
196 222 255
196 222 255
196 222 255
196 222 255
196 222 255
196 222 255
196 222 255
196 222 255
196 222 255
196 222 255
196 222 255
196 222 255
197 222 255
197 222 255
197 222 255
197 222 255
197 222 255
197 222 255
197 222 255
197 222 255
197 222 255
197 222 255
197 222 255
197 222 255
197 222 255
197 222 255
197 222 255
197 222 255
197 222 255
197 222 255
197 222 255
197 223 255
198 223 255
198 223 255
198 223 255
198 223 255
198 223 255
198 223 255
198 223 255
198 223 255
198 223 255
198 223 255
198 223 255
198 223 255
198 223 255
198 223 255
198 223 255
198 223 255
199 223 255
199 223 255
199 223 255
199 223 255
199 223 255
199 223 255
199 223 255
199 223 255
199 223 255
199 223 255
199 223 255
199 223 255
199 223 255
199 224 255
199 224 255
200 224 255
200 224 255
200 224 255
200 224 255
200 224 255
200 224 255
200 224 255
200 224 255
200 224 255
200 224 255
200 224 255
200 224 255
200 224 255
200 224 255
201 224 255
201 224 255
201 224 255
201 224 255
201 224 255
201 224 255
201 224 255
201 224 255
201 224 255
201 224 255
201 224 255
201 225 255
201 225 255
201 225 255
201 225 255
202 225 255
202 225 255
202 225 255
202 225 255
202 225 255
202 225 255
202 225 255
202 225 255
202 225 255
202 225 255
202 225 255
202 225 255
202 225 255
202 225 255
202 225 255
203 225 255
203 225 255
203 225 255
203 225 255
203 225 255
203 225 255
203 225 255
203 225 255
203 225 255
203 226 255
203 226 255
203 226 255
203 226 255
203 226 255
203 226 255
203 226 255
204 226 255
204 226 255
204 226 255
204 226 255
204 226 255
204 226 255
204 226 255
204 226 255
204 226 255
204 226 255
204 226 255
204 226 255
204 226 255
204 226 255
204 226 255
204 226 255
205 226 255
205 226 255
205 226 255
205 226 255
205 226 255
205 226 255
205 226 255
205 227 255
205 227 255
205 227 255
205 227 255
205 227 255
205 227 255
205 227 255
205 227 255
205 227 255
205 227 255
205 227 255
206 227 255
206 227 255
206 227 255
206 227 255
206 227 255
206 227 255
206 227 255
206 227 255
206 227 255
206 227 255
206 227 255
206 227 255
206 227 255
206 227 255
206 227 255
206 227 255
206 227 255
206 227 255
206 227 255
206 227 255
206 227 255
206 227 255
206 227 255
206 227 255
206 227 255
206 227 255
206 227 255
206 227 255
206 227 255
206 227 255
206 227 255
206 227 255
206 227 255
206 227 255
206 227 255
205 227 255
205 227 255
205 227 255
205 227 255
205 227 255
205 227 255
205 227 255
205 227 255
205 227 255
205 227 255
205 226 255
205 226 255
205 226 255
205 226 255
205 226 255
205 226 255
205 226 255
204 226 255
204 226 255
204 226 255
204 226 255
204 226 255
204 226 255
204 226 255
204 226 255
204 226 255
204 226 255
204 226 255
204 226 255
204 226 255
204 226 255
204 226 255
204 226 255
204 226 255
203 226 255
203 226 255
203 226 255
203 226 255
203 226 255
203 226 255
203 226 255
203 225 255
203 225 255
203 225 255
203 225 255
203 225 255
203 225 255
203 225 255
203 225 255
202 225 255
202 225 255
202 225 255
202 225 255
202 225 255
202 225 255
202 225 255
202 225 255
202 225 255
202 225 255
202 225 255
202 225 255
202 225 255
202 225 255
202 225 255
201 225 255
201 225 255
201 225 255
201 225 255
201 225 255
201 224 255
201 224 255
201 224 255
201 224 255
201 224 255
201 224 255
201 224 255
201 224 255
201 224 255
201 224 255
200 224 255
200 224 255
200 224 255
200 224 255
200 224 255
200 224 255
200 224 255
200 224 255
200 224 255
200 224 255
200 224 255
200 224 255
200 224 255
200 224 255
199 224 255
199 224 255
199 224 255
199 223 255
199 223 255
199 223 255
199 223 255
199 223 255
199 223 255
199 223 255
199 223 255
199 223 255
199 223 255
199 223 255
199 223 255
199 223 255
198 223 255
198 223 255
198 223 255
198 223 255
198 223 255
198 223 255
198 223 255
198 223 255
198 223 255
198 223 255
198 223 255
198 223 255
198 223 255
198 223 255
198 223 255
198 223 255
197 223 255
197 222 255
197 222 255
197 222 255
197 222 255
197 222 255
197 222 255
197 222 255
197 222 255
197 222 255
197 222 255
197 222 255
197 222 255
197 222 255
197 222 255
197 222 255
197 222 255
197 222 255
197 222 255
197 222 255
197 222 255
196 222 255
196 222 255
196 222 255
196 222 255
196 222 255
196 222 255
196 222 255
196 222 255
196 222 255
196 222 255
196 222 255
196 222 255
196 222 255
196 222 255
196 222 255
196 222 255
196 222 255
196 222 255
196 222 255
196 222 255
196 222 255
196 222 255
196 222 255
196 222 255
196 222 255
196 222 255
196 222 255
196 222 255
196 222 255
196 222 255
196 222 255
196 222 255
196 222 255
196 222 255
196 222 255
196 222 255
196 222 255
196 222 255
196 222 255
196 222 255
196 222 255
196 222 255
196 222 255
196 222 255
196 222 255
196 222 255
196 222 255
196 222 255
196 222 255
196 222 255
196 222 255
196 222 255
196 222 255
196 222 255
196 222 255
196 222 255
196 222 255
196 222 255
196 222 255
196 222 255
196 222 255
196 222 255
196 222 255
196 222 255
196 222 255
196 222 255
196 222 255
196 222 255
196 222 255
196 222 255
197 222 255
197 222 255
197 222 255
197 222 255
197 222 255
197 222 255
197 222 255
197 222 255
197 222 255
197 222 255
197 222 255
197 222 255
197 222 255
197 222 255
197 222 255
197 222 255
197 222 255
197 222 255
197 222 255
197 222 255
197 223 255
198 223 255
198 223 255
198 223 255
198 223 255
198 223 255
198 223 255
198 223 255
198 223 255
198 223 255
198 223 255
198 223 255
198 223 255
198 223 255
198 223 255
198 223 255
198 223 255
199 223 255
199 223 255
199 223 255
199 223 255
199 223 255
199 223 255
199 223 255
199 223 255
199 223 255
199 223 255
199 223 255
199 223 255
199 223 255
199 224 255
199 224 255
200 224 255
200 224 255
200 224 255
200 224 255
200 224 255
200 224 255
200 224 255
200 224 255
200 224 255
200 224 255
200 224 255
200 224 255
200 224 255
200 224 255
200 224 255
201 224 255
201 224 255
201 224 255
201 224 255
201 224 255
201 224 255
201 224 255
201 224 255
201 224 255
201 224 255
201 225 255
201 225 255
201 225 255
201 225 255
201 225 255
202 225 255
202 225 255
202 225 255
202 225 255
202 225 255
202 225 255
202 225 255
202 225 255
202 225 255
202 225 255
202 225 255
202 225 255
202 225 255
202 225 255
202 225 255
203 225 255
203 225 255
203 225 255
203 225 255
203 225 255
203 225 255
203 225 255
203 225 255
203 226 255
203 226 255
203 226 255
203 226 255
203 226 255
203 226 255
203 226 255
204 226 255
204 226 255
204 226 255
204 226 255
204 226 255
204 226 255
204 226 255
204 226 255
204 226 255
204 226 255
204 226 255
204 226 255
204 226 255
204 226 255
204 226 255
204 226 255
204 226 255
205 226 255
205 226 255
205 226 255
205 226 255
205 226 255
205 226 255
205 226 255
205 227 255
205 227 255
205 227 255
205 227 255
205 227 255
205 227 255
205 227 255
205 227 255
205 227 255
205 227 255
205 227 255
206 227 255
206 227 255
206 227 255
206 227 255
206 227 255
206 227 255
206 227 255
206 227 255
206 227 255
206 227 255
206 227 255
206 227 255
206 227 255
206 227 255
206 227 255
206 227 255
206 227 255
206 227 255
207 227 255
207 227 255
206 227 255
206 227 255
206 227 255
206 227 255
206 227 255
206 227 255
206 227 255
206 227 255
206 227 255
206 227 255
206 227 255
206 227 255
206 227 255
206 227 255
206 227 255
206 227 255
206 227 255
206 227 255
206 227 255
205 227 255
205 227 255
205 227 255
205 227 255
205 227 255
205 227 255
205 227 255
205 227 255
205 227 255
205 227 255
205 227 255
205 226 255
205 226 255
205 226 255
205 226 255
205 226 255
205 226 255
205 226 255
204 226 255
204 226 255
204 226 255
204 226 255
204 226 255
204 226 255
204 226 255
204 226 255
204 226 255
204 226 255
204 226 255
204 226 255
204 226 255
204 226 255
204 226 255
204 226 255
203 226 255
203 226 255
203 226 255
203 226 255
203 226 255
203 226 255
203 226 255
203 225 255
203 225 255
203 225 255
203 225 255
203 225 255
203 225 255
203 225 255
203 225 255
203 225 255
202 225 255
202 225 255
202 225 255
202 225 255
202 225 255
202 225 255
202 225 255
202 225 255
202 225 255
202 225 255
202 225 255
202 225 255
202 225 255
202 225 255
202 225 255
201 225 255
201 225 255
201 225 255
201 225 255
201 224 255
201 224 255
201 224 255
201 224 255
201 224 255
201 224 255
201 224 255
201 224 255
201 224 255
201 224 255
200 224 255
200 224 255
200 224 255
200 224 255
200 224 255
200 224 255
200 224 255
200 224 255
200 224 255
200 224 255
200 224 255
200 224 255
200 224 255
200 224 255
200 224 255
199 224 255
199 224 255
199 223 255
199 223 255
199 223 255
199 223 255
199 223 255
199 223 255
199 223 255
199 223 255
199 223 255
199 223 255
199 223 255
199 223 255
199 223 255
198 223 255
198 223 255
198 223 255
198 223 255
198 223 255
198 223 255
198 223 255
198 223 255
198 223 255
198 223 255
198 223 255
198 223 255
198 223 255
198 223 255
198 223 255
198 223 255
198 223 255
197 223 255
197 222 255
197 222 255
197 222 255
197 222 255
197 222 255
197 222 255
197 222 255
197 222 255
197 222 255
197 222 255
197 222 255
197 222 255
197 222 255
197 222 255
197 222 255
197 222 255
197 222 255
197 222 255
197 222 255
197 222 255
197 222 255
196 222 255
196 222 255
196 222 255
196 222 255
196 222 255
196 222 255
196 222 255
196 222 255
196 222 255
196 222 255
196 222 255
196 222 255
196 222 255
196 222 255
196 222 255
196 222 255
196 222 255
196 222 255
196 222 255
196 222 255
196 222 255
196 222 255
196 222 255
196 222 255
196 222 255
196 222 255
196 222 255
196 222 255
196 222 255
196 222 255
196 222 255
196 222 255
196 222 255
196 222 255
196 222 255
196 222 255
196 222 255
196 222 255
196 222 255
196 222 255
196 222 255
196 222 255
196 222 255
196 222 255
196 222 255
196 222 255
196 222 255
196 222 255
196 222 255
196 222 255
196 222 255
196 222 255
196 222 255
196 222 255
196 222 255
196 222 255
196 222 255
196 222 255
196 222 255
196 222 255
196 222 255
196 222 255
197 222 255
197 222 255
197 222 255
197 222 255
197 222 255
197 222 255
197 222 255
197 222 255
197 222 255
197 222 255
197 222 255
197 222 255
197 222 255
197 222 255
197 222 255
197 222 255
197 222 255
197 222 255
197 222 255
197 222 255
197 222 255
197 223 255
198 223 255
198 223 255
198 223 255
198 223 255
198 223 255
198 223 255
198 223 255
198 223 255
198 223 255
198 223 255
198 223 255
198 223 255
198 223 255
198 223 255
198 223 255
198 223 255
198 223 255
199 223 255
199 223 255
199 223 255
199 223 255
199 223 255
199 223 255
199 223 255
199 223 255
199 223 255
199 223 255
199 223 255
199 223 255
199 223 255
199 224 255
199 224 255
200 224 255
200 224 255
200 224 255
200 224 255
200 224 255
200 224 255
200 224 255
200 224 255
200 224 255
200 224 255
200 224 255
200 224 255
200 224 255
200 224 255
200 224 255
201 224 255
201 224 255
201 224 255
201 224 255
201 224 255
201 224 255
201 224 255
201 224 255
201 224 255
201 224 255
201 225 255
201 225 255
201 225 255
201 225 255
202 225 255
202 225 255
202 225 255
202 225 255
202 225 255
202 225 255
202 225 255
202 225 255
202 225 255
202 225 255
202 225 255
202 225 255
202 225 255
202 225 255
202 225 255
203 225 255
203 225 255
203 225 255
203 225 255
203 225 255
203 225 255
203 225 255
203 225 255
203 225 255
203 226 255
203 226 255
203 226 255
203 226 255
203 226 255
203 226 255
203 226 255
204 226 255
204 226 255
204 226 255
204 226 255
204 226 255
204 226 255
204 226 255
204 226 255
204 226 255
204 226 255
204 226 255
204 226 255
204 226 255
204 226 255
204 226 255
204 226 255
205 226 255
205 226 255
205 226 255
205 226 255
205 226 255
205 226 255
205 226 255
205 227 255
205 227 255
205 227 255
205 227 255
205 227 255
205 227 255
205 227 255
205 227 255
205 227 255
205 227 255
205 227 255
206 227 255
206 227 255
206 227 255
206 227 255
206 227 255
206 227 255
206 227 255
206 227 255
206 227 255
206 227 255
206 227 255
206 227 255
206 227 255
206 227 255
206 227 255
206 227 255
206 227 255
206 227 255
206 227 255
207 227 255
207 227 255
207 227 255
207 227 255
207 227 255
207 227 255
207 227 255
206 227 255
206 227 255
206 227 255
206 227 255
206 227 255
206 227 255
206 227 255
206 227 255
206 227 255
206 227 255
206 227 255
206 227 255
206 227 255
206 227 255
206 227 255
206 227 255
206 227 255
206 227 255
206 227 255
205 227 255
205 227 255
205 227 255
205 227 255
205 227 255
205 227 255
205 227 255
205 227 255
205 227 255
205 227 255
205 226 255
205 226 255
205 226 255
205 226 255
205 226 255
205 226 255
205 226 255
204 226 255
204 226 255
204 226 255
204 226 255
204 226 255
204 226 255
204 226 255
204 226 255
204 226 255
204 226 255
204 226 255
204 226 255
204 226 255
204 226 255
204 226 255
204 226 255
203 226 255
203 226 255
203 226 255
203 226 255
203 226 255
203 226 255
203 226 255
203 225 255
203 225 255
203 225 255
203 225 255
203 225 255
203 225 255
203 225 255
203 225 255
203 225 255
202 225 255
202 225 255
202 225 255
202 225 255
202 225 255
202 225 255
202 225 255
202 225 255
202 225 255
202 225 255
202 225 255
202 225 255
202 225 255
202 225 255
202 225 255
201 225 255
201 225 255
201 225 255
201 225 255
201 224 255
201 224 255
201 224 255
201 224 255
201 224 255
201 224 255
201 224 255
201 224 255
201 224 255
201 224 255
201 224 255
200 224 255
200 224 255
200 224 255
200 224 255
200 224 255
200 224 255
200 224 255
200 224 255
200 224 255
200 224 255
200 224 255
200 224 255
200 224 255
200 224 255
199 224 255
199 224 255
199 224 255
199 223 255
199 223 255
199 223 255
199 223 255
199 223 255
199 223 255
199 223 255
199 223 255
199 223 255
199 223 255
199 223 255
199 223 255
199 223 255
198 223 255
198 223 255
198 223 255
198 223 255
198 223 255
198 223 255
198 223 255
198 223 255
198 223 255
198 223 255
198 223 255
198 223 255
198 223 255
198 223 255
198 223 255
198 223 255
198 223 255
197 223 255
197 222 255
197 222 255
197 222 255
197 222 255
197 222 255
197 222 255
197 222 255
197 222 255
197 222 255
197 222 255
197 222 255
197 222 255
197 222 255
197 222 255
197 222 255
197 222 255
197 222 255
197 222 255
197 222 255
197 222 255
197 222 255
197 222 255
197 222 255
196 222 255
196 222 255
196 222 255
196 222 255
196 222 255
196 222 255
196 222 255
196 222 255
196 222 255
196 222 255
196 222 255
196 222 255
196 222 255
196 222 255
196 222 255
196 222 255
196 222 255
196 222 255
196 222 255
196 222 255
196 222 255
196 222 255
196 222 255
196 222 255
196 222 255
196 222 255
196 222 255
196 222 255
196 222 255
196 222 255
196 222 255
196 222 255
196 222 255
196 222 255
196 222 255
196 222 255
196 222 255
196 222 255
196 222 255
196 222 255
196 222 255
196 222 255
196 222 255
196 222 255
196 222 255
196 222 255
196 222 255
196 222 255
196 222 255
196 222 255
196 222 255
196 222 255
197 222 255
197 222 255
197 222 255
197 222 255
197 222 255
197 222 255
197 222 255
197 222 255
197 222 255
197 222 255
197 222 255
197 222 255
197 222 255
197 222 255
197 222 255
197 222 255
197 222 255
197 222 255
197 222 255
197 222 255
197 222 255
197 222 255
197 222 255
197 223 255
198 223 255
198 223 255
198 223 255
198 223 255
198 223 255
198 223 255
198 223 255
198 223 255
198 223 255
198 223 255
198 223 255
198 223 255
198 223 255
198 223 255
198 223 255
198 223 255
198 223 255
199 223 255
199 223 255
199 223 255
199 223 255
199 223 255
199 223 255
199 223 255
199 223 255
199 223 255
199 223 255
199 223 255
199 223 255
199 223 255
199 224 255
199 224 255
199 224 255
200 224 255
200 224 255
200 224 255
200 224 255
200 224 255
200 224 255
200 224 255
200 224 255
200 224 255
200 224 255
200 224 255
200 224 255
200 224 255
200 224 255
200 224 255
201 224 255
201 224 255
201 224 255
201 224 255
201 224 255
201 224 255
201 224 255
201 224 255
201 224 255
201 224 255
201 225 255
201 225 255
201 225 255
201 225 255
202 225 255
202 225 255
202 225 255
202 225 255
202 225 255
202 225 255
202 225 255
202 225 255
202 225 255
202 225 255
202 225 255
202 225 255
202 225 255
202 225 255
202 225 255
203 225 255
203 225 255
203 225 255
203 225 255
203 225 255
203 225 255
203 225 255
203 225 255
203 226 255
203 226 255
203 226 255
203 226 255
203 226 255
203 226 255
203 226 255
204 226 255
204 226 255
204 226 255
204 226 255
204 226 255
204 226 255
204 226 255
204 226 255
204 226 255
204 226 255
204 226 255
204 226 255
204 226 255
204 226 255
204 226 255
204 226 255
204 226 255
205 226 255
205 226 255
205 226 255
205 226 255
205 226 255
205 226 255
205 226 255
205 227 255
205 227 255
205 227 255
205 227 255
205 227 255
205 227 255
205 227 255
205 227 255
205 227 255
205 227 255
206 227 255
206 227 255
206 227 255
206 227 255
206 227 255
206 227 255
206 227 255
206 227 255
206 227 255
206 227 255
206 227 255
206 227 255
206 227 255
206 227 255
206 227 255
206 227 255
206 227 255
206 227 255
206 227 255
207 227 255
207 227 255
207 227 255
207 227 255
207 227 255
207 228 255
207 228 255
207 227 255
207 227 255
207 227 255
207 227 255
207 227 255
206 227 255
206 227 255
206 227 255
206 227 255
206 227 255
206 227 255
206 227 255
206 227 255
206 227 255
206 227 255
206 227 255
206 227 255
206 227 255
206 227 255
206 227 255
206 227 255
206 227 255
206 227 255
206 227 255
205 227 255
205 227 255
205 227 255
205 227 255
205 227 255
205 227 255
205 227 255
205 227 255
205 227 255
205 227 255
205 227 255
205 226 255
205 226 255
205 226 255
205 226 255
205 226 255
205 226 255
205 226 255
204 226 255
204 226 255
204 226 255
204 226 255
204 226 255
204 226 255
204 226 255
204 226 255
204 226 255
204 226 255
204 226 255
204 226 255
204 226 255
204 226 255
204 226 255
204 226 255
203 226 255
203 226 255
203 226 255
203 226 255
203 226 255
203 226 255
203 226 255
203 225 255
203 225 255
203 225 255
203 225 255
203 225 255
203 225 255
203 225 255
203 225 255
202 225 255
202 225 255
202 225 255
202 225 255
202 225 255
202 225 255
202 225 255
202 225 255
202 225 255
202 225 255
202 225 255
202 225 255
202 225 255
202 225 255
202 225 255
202 225 255
201 225 255
201 225 255
201 225 255
201 225 255
201 224 255
201 224 255
201 224 255
201 224 255
201 224 255
201 224 255
201 224 255
201 224 255
201 224 255
201 224 255
200 224 255
200 224 255
200 224 255
200 224 255
200 224 255
200 224 255
200 224 255
200 224 255
200 224 255
200 224 255
200 224 255
200 224 255
200 224 255
200 224 255
200 224 255
199 224 255
199 224 255
199 223 255
199 223 255
199 223 255
199 223 255
199 223 255
199 223 255
199 223 255
199 223 255
199 223 255
199 223 255
199 223 255
199 223 255
199 223 255
199 223 255
198 223 255
198 223 255
198 223 255
198 223 255
198 223 255
198 223 255
198 223 255
198 223 255
198 223 255
198 223 255
198 223 255
198 223 255
198 223 255
198 223 255
198 223 255
198 223 255
198 223 255
197 223 255
197 222 255
197 222 255
197 222 255
197 222 255
197 222 255
197 222 255
197 222 255
197 222 255
197 222 255
197 222 255
197 222 255
197 222 255
197 222 255
197 222 255
197 222 255
197 222 255
197 222 255
197 222 255
197 222 255
197 222 255
197 222 255
197 222 255
197 222 255
197 222 255
197 222 255
197 222 255
196 222 255
196 222 255
196 222 255
196 222 255
196 222 255
196 222 255
196 222 255
196 222 255
196 222 255
196 222 255
196 222 255
196 222 255
196 222 255
196 222 255
196 222 255
196 222 255
196 222 255
196 222 255
196 222 255
196 222 255
196 222 255
196 222 255
196 222 255
196 222 255
196 222 255
196 222 255
196 222 255
196 222 255
196 222 255
196 222 255
196 222 255
196 222 255
196 222 255
196 222 255
196 222 255
196 222 255
196 222 255
196 222 255
196 222 255
196 222 255
197 222 255
197 222 255
197 222 255
197 222 255
197 222 255
197 222 255
197 222 255
197 222 255
197 222 255
197 222 255
197 222 255
197 222 255
197 222 255
197 222 255
197 222 255
197 222 255
197 222 255
197 222 255
197 222 255
197 222 255
197 222 255
197 222 255
197 222 255
197 222 255
197 222 255
197 222 255
197 223 255
198 223 255
198 223 255
198 223 255
198 223 255
198 223 255
198 223 255
198 223 255
198 223 255
198 223 255
198 223 255
198 223 255
198 223 255
198 223 255
198 223 255
198 223 255
198 223 255
198 223 255
199 223 255
199 223 255
199 223 255
199 223 255
199 223 255
199 223 255
199 223 255
199 223 255
199 223 255
199 223 255
199 223 255
199 223 255
199 223 255
199 223 255
199 224 255
199 224 255
200 224 255
200 224 255
200 224 255
200 224 255
200 224 255
200 224 255
200 224 255
200 224 255
200 224 255
200 224 255
200 224 255
200 224 255
200 224 255
200 224 255
200 224 255
201 224 255
201 224 255
201 224 255
201 224 255
201 224 255
201 224 255
201 224 255
201 224 255
201 224 255
201 224 255
201 225 255
201 225 255
201 225 255
201 225 255
201 225 255
202 225 255
202 225 255
202 225 255
202 225 255
202 225 255
202 225 255
202 225 255
202 225 255
202 225 255
202 225 255
202 225 255
202 225 255
202 225 255
202 225 255
202 225 255
203 225 255
203 225 255
203 225 255
203 225 255
203 225 255
203 225 255
203 225 255
203 225 255
203 226 255
203 226 255
203 226 255
203 226 255
203 226 255
203 226 255
203 226 255
204 226 255
204 226 255
204 226 255
204 226 255
204 226 255
204 226 255
204 226 255
204 226 255
204 226 255
204 226 255
204 226 255
204 226 255
204 226 255
204 226 255
204 226 255
204 226 255
205 226 255
205 226 255
205 226 255
205 226 255
205 226 255
205 226 255
205 226 255
205 227 255
205 227 255
205 227 255
205 227 255
205 227 255
205 227 255
205 227 255
205 227 255
205 227 255
205 227 255
205 227 255
206 227 255
206 227 255
206 227 255
206 227 255
206 227 255
206 227 255
206 227 255
206 227 255
206 227 255
206 227 255
206 227 255
206 227 255
206 227 255
206 227 255
206 227 255
206 227 255
206 227 255
206 227 255
206 227 255
207 227 255
207 227 255
207 227 255
207 227 255
207 227 255
207 228 255
207 228 255
207 228 255
207 228 255
207 228 255
207 228 255
207 228 255
207 227 255
207 227 255
207 227 255
207 227 255
207 227 255
206 227 255
206 227 255
206 227 255
206 227 255
206 227 255
206 227 255
206 227 255
206 227 255
206 227 255
206 227 255
206 227 255
206 227 255
206 227 255
206 227 255
206 227 255
206 227 255
206 227 255
206 227 255
206 227 255
205 227 255
205 227 255
205 227 255
205 227 255
205 227 255
205 227 255
205 227 255
205 227 255
205 227 255
205 227 255
205 226 255
205 226 255
205 226 255
205 226 255
205 226 255
205 226 255
205 226 255
204 226 255
204 226 255
204 226 255
204 226 255
204 226 255
204 226 255
204 226 255
204 226 255
204 226 255
204 226 255
204 226 255
204 226 255
204 226 255
204 226 255
204 226 255
204 226 255
204 226 255
203 226 255
203 226 255
203 226 255
203 226 255
203 226 255
203 226 255
203 225 255
203 225 255
203 225 255
203 225 255
203 225 255
203 225 255
203 225 255
203 225 255
203 225 255
202 225 255
202 225 255
202 225 255
202 225 255
202 225 255
202 225 255
202 225 255
202 225 255
202 225 255
202 225 255
202 225 255
202 225 255
202 225 255
202 225 255
202 225 255
201 225 255
201 225 255
201 225 255
201 225 255
201 224 255
201 224 255
201 224 255
201 224 255
201 224 255
201 224 255
201 224 255
201 224 255
201 224 255
201 224 255
201 224 255
200 224 255
200 224 255
200 224 255
200 224 255
200 224 255
200 224 255
200 224 255
200 224 255
200 224 255
200 224 255
200 224 255
200 224 255
200 224 255
200 224 255
200 224 255
199 224 255
199 224 255
199 223 255
199 223 255
199 223 255
199 223 255
199 223 255
199 223 255
199 223 255
199 223 255
199 223 255
199 223 255
199 223 255
199 223 255
199 223 255
199 223 255
198 223 255
198 223 255
198 223 255
198 223 255
198 223 255
198 223 255
198 223 255
198 223 255
198 223 255
198 223 255
198 223 255
198 223 255
198 223 255
198 223 255
198 223 255
198 223 255
198 223 255
198 223 255
197 223 255
197 222 255
197 222 255
197 222 255
197 222 255
197 222 255
197 222 255
197 222 255
197 222 255
197 222 255
197 222 255
197 222 255
197 222 255
197 222 255
197 222 255
197 222 255
197 222 255
197 222 255
197 222 255
197 222 255
197 222 255
197 222 255
197 222 255
197 222 255
197 222 255
197 222 255
197 222 255
197 222 255
197 222 255
197 222 255
197 222 255
197 222 255
196 222 255
196 222 255
196 222 255
196 222 255
196 222 255
196 222 255
196 222 255
196 222 255
196 222 255
196 222 255
196 222 255
196 222 255
196 222 255
196 222 255
196 222 255
196 222 255
196 222 255
196 222 255
196 222 255
196 222 255
196 222 255
196 222 255
197 222 255
197 222 255
197 222 255
197 222 255
197 222 255
197 222 255
197 222 255
197 222 255
197 222 255
197 222 255
197 222 255
197 222 255
197 222 255
197 222 255
197 222 255
197 222 255
197 222 255
197 222 255
197 222 255
197 222 255
197 222 255
197 222 255
197 222 255
197 222 255
197 222 255
197 222 255
197 222 255
197 222 255
197 222 255
197 222 255
197 222 255
197 223 255
198 223 255
198 223 255
198 223 255
198 223 255
198 223 255
198 223 255
198 223 255
198 223 255
198 223 255
198 223 255
198 223 255
198 223 255
198 223 255
198 223 255
198 223 255
198 223 255
198 223 255
198 223 255
198 223 255
199 223 255
199 223 255
199 223 255
199 223 255
199 223 255
199 223 255
199 223 255
199 223 255
199 223 255
199 223 255
199 223 255
199 223 255
199 223 255
199 224 255
199 224 255
200 224 255
200 224 255
200 224 255
200 224 255
200 224 255
200 224 255
200 224 255
200 224 255
200 224 255
200 224 255
200 224 255
200 224 255
200 224 255
200 224 255
200 224 255
200 224 255
201 224 255
201 224 255
201 224 255
201 224 255
201 224 255
201 224 255
201 224 255
201 224 255
201 224 255
201 224 255
201 225 255
201 225 255
201 225 255
201 225 255
202 225 255
202 225 255
202 225 255
202 225 255
202 225 255
202 225 255
202 225 255
202 225 255
202 225 255
202 225 255
202 225 255
202 225 255
202 225 255
202 225 255
202 225 255
203 225 255
203 225 255
203 225 255
203 225 255
203 225 255
203 225 255
203 225 255
203 225 255
203 225 255
203 226 255
203 226 255
203 226 255
203 226 255
203 226 255
203 226 255
204 226 255
204 226 255
204 226 255
204 226 255
204 226 255
204 226 255
204 226 255
204 226 255
204 226 255
204 226 255
204 226 255
204 226 255
204 226 255
204 226 255
204 226 255
204 226 255
204 226 255
205 226 255
205 226 255
205 226 255
205 226 255
205 226 255
205 226 255
205 226 255
205 227 255
205 227 255
205 227 255
205 227 255
205 227 255
205 227 255
205 227 255
205 227 255
205 227 255
205 227 255
206 227 255
206 227 255
206 227 255
206 227 255
206 227 255
206 227 255
206 227 255
206 227 255
206 227 255
206 227 255
206 227 255
206 227 255
206 227 255
206 227 255
206 227 255
206 227 255
206 227 255
206 227 255
206 227 255
207 227 255
207 227 255
207 227 255
207 227 255
207 227 255
207 228 255
207 228 255
207 228 255
207 228 255
207 228 255
207 228 255
207 228 255
207 228 255
207 228 255
207 228 255
207 228 255
207 228 255
207 228 255
207 227 255
207 227 255
207 227 255
207 227 255
207 227 255
206 227 255
206 227 255
206 227 255
206 227 255
206 227 255
206 227 255
206 227 255
206 227 255
206 227 255
206 227 255
206 227 255
206 227 255
206 227 255
206 227 255
206 227 255
206 227 255
206 227 255
206 227 255
206 227 255
205 227 255
205 227 255
205 227 255
205 227 255
205 227 255
205 227 255
205 227 255
205 227 255
205 227 255
205 227 255
205 226 255
205 226 255
205 226 255
205 226 255
205 226 255
205 226 255
205 226 255
204 226 255
204 226 255
204 226 255
204 226 255
204 226 255
204 226 255
204 226 255
204 226 255
204 226 255
204 226 255
204 226 255
204 226 255
204 226 255
204 226 255
204 226 255
204 226 255
203 226 255
203 226 255
203 226 255
203 226 255
203 226 255
203 226 255
203 226 255
203 225 255
203 225 255
203 225 255
203 225 255
203 225 255
203 225 255
203 225 255
203 225 255
202 225 255
202 225 255
202 225 255
202 225 255
202 225 255
202 225 255
202 225 255
202 225 255
202 225 255
202 225 255
202 225 255
202 225 255
202 225 255
202 225 255
202 225 255
201 225 255
201 225 255
201 225 255
201 225 255
201 225 255
201 224 255
201 224 255
201 224 255
201 224 255
201 224 255
201 224 255
201 224 255
201 224 255
201 224 255
201 224 255
200 224 255
200 224 255
200 224 255
200 224 255
200 224 255
200 224 255
200 224 255
200 224 255
200 224 255
200 224 255
200 224 255
200 224 255
200 224 255
200 224 255
200 224 255
199 224 255
199 224 255
199 224 255
199 223 255
199 223 255
199 223 255
199 223 255
199 223 255
199 223 255
199 223 255
199 223 255
199 223 255
199 223 255
199 223 255
199 223 255
199 223 255
199 223 255
198 223 255
198 223 255
198 223 255
198 223 255
198 223 255
198 223 255
198 223 255
198 223 255
198 223 255
198 223 255
198 223 255
198 223 255
198 223 255
198 223 255
198 223 255
198 223 255
198 223 255
198 223 255
198 223 255
197 223 255
197 222 255
197 222 255
197 222 255
197 222 255
197 222 255
197 222 255
197 222 255
197 222 255
197 222 255
197 222 255
197 222 255
197 222 255
197 222 255
197 222 255
197 222 255
197 222 255
197 222 255
197 222 255
197 222 255
197 222 255
197 222 255
197 222 255
197 222 255
197 222 255
197 222 255
197 222 255
197 222 255
197 222 255
197 222 255
197 222 255
197 222 255
197 222 255
197 222 255
197 222 255
197 222 255
197 222 255
197 222 255
197 222 255
197 222 255
197 222 255
197 222 255
197 222 255
197 222 255
197 222 255
197 222 255
197 222 255
197 222 255
197 222 255
197 222 255
197 222 255
197 222 255
197 222 255
197 222 255
197 222 255
197 222 255
197 222 255
197 222 255
197 222 255
197 222 255
197 222 255
197 222 255
197 222 255
197 222 255
197 222 255
197 222 255
197 222 255
197 222 255
197 222 255
197 222 255
197 222 255
197 222 255
197 222 255
197 222 255
197 222 255
197 222 255
197 222 255
197 223 255
198 223 255
198 223 255
198 223 255
198 223 255
198 223 255
198 223 255
198 223 255
198 223 255
198 223 255
198 223 255
198 223 255
198 223 255
198 223 255
198 223 255
198 223 255
198 223 255
198 223 255
198 223 255
198 223 255
198 223 255
199 223 255
199 223 255
199 223 255
199 223 255
199 223 255
199 223 255
199 223 255
199 223 255
199 223 255
199 223 255
199 223 255
199 223 255
199 223 255
199 224 255
199 224 255
199 224 255
200 224 255
200 224 255
200 224 255
200 224 255
200 224 255
200 224 255
200 224 255
200 224 255
200 224 255
200 224 255
200 224 255
200 224 255
200 224 255
200 224 255
200 224 255
201 224 255
201 224 255
201 224 255
201 224 255
201 224 255
201 224 255
201 224 255
201 224 255
201 224 255
201 224 255
201 225 255
201 225 255
201 225 255
201 225 255
201 225 255
202 225 255
202 225 255
202 225 255
202 225 255
202 225 255
202 225 255
202 225 255
202 225 255
202 225 255
202 225 255
202 225 255
202 225 255
202 225 255
202 225 255
202 225 255
203 225 255
203 225 255
203 225 255
203 225 255
203 225 255
203 225 255
203 225 255
203 225 255
203 226 255
203 226 255
203 226 255
203 226 255
203 226 255
203 226 255
203 226 255
204 226 255
204 226 255
204 226 255
204 226 255
204 226 255
204 226 255
204 226 255
204 226 255
204 226 255
204 226 255
204 226 255
204 226 255
204 226 255
204 226 255
204 226 255
204 226 255
205 226 255
205 226 255
205 226 255
205 226 255
205 226 255
205 226 255
205 226 255
205 227 255
205 227 255
205 227 255
205 227 255
205 227 255
205 227 255
205 227 255
205 227 255
205 227 255
205 227 255
206 227 255
206 227 255
206 227 255
206 227 255
206 227 255
206 227 255
206 227 255
206 227 255
206 227 255
206 227 255
206 227 255
206 227 255
206 227 255
206 227 255
206 227 255
206 227 255
206 227 255
206 227 255
206 227 255
207 227 255
207 227 255
207 227 255
207 227 255
207 227 255
207 228 255
207 228 255
207 228 255
207 228 255
207 228 255
207 228 255
207 228 255
207 228 255
207 228 255
207 228 255
207 228 255
207 228 255
207 228 255
207 228 255
207 228 255
207 228 255
207 228 255
207 228 255
207 228 255
207 227 255
207 227 255
207 227 255
207 227 255
207 227 255
206 227 255
206 227 255
206 227 255
206 227 255
206 227 255
206 227 255
206 227 255
206 227 255
206 227 255
206 227 255
206 227 255
206 227 255
206 227 255
206 227 255
206 227 255
206 227 255
206 227 255
206 227 255
205 227 255
205 227 255
205 227 255
205 227 255
205 227 255
205 227 255
205 227 255
205 227 255
205 227 255
205 227 255
205 227 255
205 226 255
205 226 255
205 226 255
205 226 255
205 226 255
205 226 255
205 226 255
204 226 255
204 226 255
204 226 255
204 226 255
204 226 255
204 226 255
204 226 255
204 226 255
204 226 255
204 226 255
204 226 255
204 226 255
204 226 255
204 226 255
204 226 255
204 226 255
203 226 255
203 226 255
203 226 255
203 226 255
203 226 255
203 226 255
203 226 255
203 225 255
203 225 255
203 225 255
203 225 255
203 225 255
203 225 255
203 225 255
203 225 255
202 225 255
202 225 255
202 225 255
202 225 255
202 225 255
202 225 255
202 225 255
202 225 255
202 225 255
202 225 255
202 225 255
202 225 255
202 225 255
202 225 255
202 225 255
201 225 255
201 225 255
201 225 255
201 225 255
201 224 255
201 224 255
201 224 255
201 224 255
201 224 255
201 224 255
201 224 255
201 224 255
201 224 255
201 224 255
201 224 255
200 224 255
200 224 255
200 224 255
200 224 255
200 224 255
200 224 255
200 224 255
200 224 255
200 224 255
200 224 255
200 224 255
200 224 255
200 224 255
200 224 255
200 224 255
199 224 255
199 224 255
199 223 255
199 223 255
199 223 255
199 223 255
199 223 255
199 223 255
199 223 255
199 223 255
199 223 255
199 223 255
199 223 255
199 223 255
199 223 255
199 223 255
198 223 255
198 223 255
198 223 255
198 223 255
198 223 255
198 223 255
198 223 255
198 223 255
198 223 255
198 223 255
198 223 255
198 223 255
198 223 255
198 223 255
198 223 255
198 223 255
198 223 255
198 223 255
198 223 255
198 223 255
198 223 255
197 223 255
197 222 255
197 222 255
197 222 255
197 222 255
197 222 255
197 222 255
197 222 255
197 222 255
197 222 255
197 222 255
197 222 255
197 222 255
197 222 255
197 222 255
197 222 255
197 222 255
197 222 255
197 222 255
197 222 255
197 222 255
197 222 255
197 222 255
197 222 255
197 222 255
197 222 255
197 222 255
197 222 255
197 222 255
197 222 255
197 222 255
197 222 255
197 222 255
197 222 255
197 222 255
197 222 255
197 222 255
197 222 255
197 222 255
197 222 255
197 222 255
197 222 255
197 222 255
197 222 255
197 222 255
197 222 255
197 222 255
197 222 255
197 222 255
197 222 255
197 222 255
197 222 255
197 222 255
197 222 255
197 222 255
197 222 255
197 222 255
197 222 255
197 222 255
197 222 255
197 222 255
197 222 255
197 222 255
197 222 255
197 222 255
197 222 255
197 222 255
197 222 255
197 222 255
197 223 255
198 223 255
198 223 255
198 223 255
198 223 255
198 223 255
198 223 255
198 223 255
198 223 255
198 223 255
198 223 255
198 223 255
198 223 255
198 223 255
198 223 255
198 223 255
198 223 255
198 223 255
198 223 255
198 223 255
198 223 255
199 223 255
199 223 255
199 223 255
199 223 255
199 223 255
199 223 255
199 223 255
199 223 255
199 223 255
199 223 255
199 223 255
199 223 255
199 223 255
199 223 255
199 223 255
199 224 255
199 224 255
200 224 255
200 224 255
200 224 255
200 224 255
200 224 255
200 224 255
200 224 255
200 224 255
200 224 255
200 224 255
200 224 255
200 224 255
200 224 255
200 224 255
200 224 255
201 224 255
201 224 255
201 224 255
201 224 255
201 224 255
201 224 255
201 224 255
201 224 255
201 224 255
201 224 255
201 224 255
201 225 255
201 225 255
201 225 255
201 225 255
202 225 255
202 225 255
202 225 255
202 225 255
202 225 255
202 225 255
202 225 255
202 225 255
202 225 255
202 225 255
202 225 255
202 225 255
202 225 255
202 225 255
202 225 255
203 225 255
203 225 255
203 225 255
203 225 255
203 225 255
203 225 255
203 225 255
203 225 255
203 225 255
203 226 255
203 226 255
203 226 255
203 226 255
203 226 255
203 226 255
204 226 255
204 226 255
204 226 255
204 226 255
204 226 255
204 226 255
204 226 255
204 226 255
204 226 255
204 226 255
204 226 255
204 226 255
204 226 255
204 226 255
204 226 255
204 226 255
204 226 255
205 226 255
205 226 255
205 226 255
205 226 255
205 226 255
205 226 255
205 227 255
205 227 255
205 227 255
205 227 255
205 227 255
205 227 255
205 227 255
205 227 255
205 227 255
205 227 255
205 227 255
206 227 255
206 227 255
206 227 255
206 227 255
206 227 255
206 227 255
206 227 255
206 227 255
206 227 255
206 227 255
206 227 255
206 227 255
206 227 255
206 227 255
206 227 255
206 227 255
206 227 255
206 227 255
207 227 255
207 227 255
207 227 255
207 227 255
207 227 255
207 228 255
207 228 255
207 228 255
207 228 255
207 228 255
207 228 255
207 228 255
207 228 255
207 228 255
207 228 255
207 228 255
207 228 255
207 228 255
207 228 255
207 228 255
207 228 255
207 228 255
207 228 255
207 228 255
207 228 255
207 228 255
207 228 255
207 228 255
207 228 255
207 228 255
207 227 255
207 227 255
207 227 255
207 227 255
206 227 255
206 227 255
206 227 255
206 227 255
206 227 255
206 227 255
206 227 255
206 227 255
206 227 255
206 227 255
206 227 255
206 227 255
206 227 255
206 227 255
206 227 255
206 227 255
206 227 255
206 227 255
206 227 255
205 227 255
205 227 255
205 227 255
205 227 255
205 227 255
205 227 255
205 227 255
205 227 255
205 227 255
205 227 255
205 226 255
205 226 255
205 226 255
205 226 255
205 226 255
205 226 255
205 226 255
204 226 255
204 226 255
204 226 255
204 226 255
204 226 255
204 226 255
204 226 255
204 226 255
204 226 255
204 226 255
204 226 255
204 226 255
204 226 255
204 226 255
204 226 255
204 226 255
203 226 255
203 226 255
203 226 255
203 226 255
203 226 255
203 226 255
203 226 255
203 225 255
203 225 255
203 225 255
203 225 255
203 225 255
203 225 255
203 225 255
203 225 255
202 225 255
202 225 255
202 225 255
202 225 255
202 225 255
202 225 255
202 225 255
202 225 255
202 225 255
202 225 255
202 225 255
202 225 255
202 225 255
202 225 255
202 225 255
201 225 255
201 225 255
201 225 255
201 225 255
201 225 255
201 224 255
201 224 255
201 224 255
201 224 255
201 224 255
201 224 255
201 224 255
201 224 255
201 224 255
201 224 255
200 224 255
200 224 255
200 224 255
200 224 255
200 224 255
200 224 255
200 224 255
200 224 255
200 224 255
200 224 255
200 224 255
200 224 255
200 224 255
200 224 255
200 224 255
200 224 255
199 224 255
199 224 255
199 223 255
199 223 255
199 223 255
199 223 255
199 223 255
199 223 255
199 223 255
199 223 255
199 223 255
199 223 255
199 223 255
199 223 255
199 223 255
199 223 255
199 223 255
198 223 255
198 223 255
198 223 255
198 223 255
198 223 255
198 223 255
198 223 255
198 223 255
198 223 255
198 223 255
198 223 255
198 223 255
198 223 255
198 223 255
198 223 255
198 223 255
198 223 255
198 223 255
198 223 255
198 223 255
198 223 255
198 223 255
197 223 255
197 222 255
197 222 255
197 222 255
197 222 255
197 222 255
197 222 255
197 222 255
197 222 255
197 222 255
197 222 255
197 222 255
197 222 255
197 222 255
197 222 255
197 222 255
197 222 255
197 222 255
197 222 255
197 222 255
197 222 255
197 222 255
197 222 255
197 222 255
197 222 255
197 222 255
197 222 255
197 222 255
197 222 255
197 222 255
197 222 255
197 222 255
197 222 255
197 222 255
197 222 255
197 222 255
197 222 255
197 222 255
197 222 255
197 222 255
197 222 255
197 222 255
197 222 255
197 222 255
197 222 255
197 222 255
197 222 255
197 222 255
197 222 255
197 222 255
197 222 255
197 222 255
197 222 255
197 222 255
197 222 255
197 222 255
197 222 255
197 222 255
197 222 255
197 223 255
198 223 255
198 223 255
198 223 255
198 223 255
198 223 255
198 223 255
198 223 255
198 223 255
198 223 255
198 223 255
198 223 255
198 223 255
198 223 255
198 223 255
198 223 255
198 223 255
198 223 255
198 223 255
198 223 255
198 223 255
198 223 255
198 223 255
199 223 255
199 223 255
199 223 255
199 223 255
199 223 255
199 223 255
199 223 255
199 223 255
199 223 255
199 223 255
199 223 255
199 223 255
199 223 255
199 223 255
199 223 255
199 224 255
199 224 255
200 224 255
200 224 255
200 224 255
200 224 255
200 224 255
200 224 255
200 224 255
200 224 255
200 224 255
200 224 255
200 224 255
200 224 255
200 224 255
200 224 255
200 224 255
200 224 255
201 224 255
201 224 255
201 224 255
201 224 255
201 224 255
201 224 255
201 224 255
201 224 255
201 224 255
201 224 255
201 225 255
201 225 255
201 225 255
201 225 255
201 225 255
202 225 255
202 225 255
202 225 255
202 225 255
202 225 255
202 225 255
202 225 255
202 225 255
202 225 255
202 225 255
202 225 255
202 225 255
202 225 255
202 225 255
202 225 255
203 225 255
203 225 255
203 225 255
203 225 255
203 225 255
203 225 255
203 225 255
203 225 255
203 226 255
203 226 255
203 226 255
203 226 255
203 226 255
203 226 255
203 226 255
204 226 255
204 226 255
204 226 255
204 226 255
204 226 255
204 226 255
204 226 255
204 226 255
204 226 255
204 226 255
204 226 255
204 226 255
204 226 255
204 226 255
204 226 255
204 226 255
205 226 255
205 226 255
205 226 255
205 226 255
205 226 255
205 226 255
205 226 255
205 227 255
205 227 255
205 227 255
205 227 255
205 227 255
205 227 255
205 227 255
205 227 255
205 227 255
205 227 255
206 227 255
206 227 255
206 227 255
206 227 255
206 227 255
206 227 255
206 227 255
206 227 255
206 227 255
206 227 255
206 227 255
206 227 255
206 227 255
206 227 255
206 227 255
206 227 255
206 227 255
206 227 255
207 227 255
207 227 255
207 227 255
207 227 255
207 227 255
207 228 255
207 228 255
207 228 255
207 228 255
207 228 255
207 228 255
207 228 255
207 228 255
207 228 255
207 228 255
207 228 255
207 228 255
207 228 255
207 228 255
208 228 255
207 228 255
207 228 255
207 228 255
207 228 255
207 228 255
207 228 255
207 228 255
207 228 255
207 228 255
207 228 255
207 228 255
207 228 255
207 228 255
207 228 255
207 228 255
207 228 255
207 227 255
207 227 255
207 227 255
207 227 255
206 227 255
206 227 255
206 227 255
206 227 255
206 227 255
206 227 255
206 227 255
206 227 255
206 227 255
206 227 255
206 227 255
206 227 255
206 227 255
206 227 255
206 227 255
206 227 255
206 227 255
206 227 255
206 227 255
205 227 255
205 227 255
205 227 255
205 227 255
205 227 255
205 227 255
205 227 255
205 227 255
205 227 255
205 227 255
205 226 255
205 226 255
205 226 255
205 226 255
205 226 255
205 226 255
205 226 255
204 226 255
204 226 255
204 226 255
204 226 255
204 226 255
204 226 255
204 226 255
204 226 255
204 226 255
204 226 255
204 226 255
204 226 255
204 226 255
204 226 255
204 226 255
204 226 255
203 226 255
203 226 255
203 226 255
203 226 255
203 226 255
203 226 255
203 226 255
203 225 255
203 225 255
203 225 255
203 225 255
203 225 255
203 225 255
203 225 255
203 225 255
202 225 255
202 225 255
202 225 255
202 225 255
202 225 255
202 225 255
202 225 255
202 225 255
202 225 255
202 225 255
202 225 255
202 225 255
202 225 255
202 225 255
202 225 255
201 225 255
201 225 255
201 225 255
201 225 255
201 224 255
201 224 255
201 224 255
201 224 255
201 224 255
201 224 255
201 224 255
201 224 255
201 224 255
201 224 255
201 224 255
200 224 255
200 224 255
200 224 255
200 224 255
200 224 255
200 224 255
200 224 255
200 224 255
200 224 255
200 224 255
200 224 255
200 224 255
200 224 255
200 224 255
200 224 255
200 224 255
199 224 255
199 224 255
199 223 255
199 223 255
199 223 255
199 223 255
199 223 255
199 223 255
199 223 255
199 223 255
199 223 255
199 223 255
199 223 255
199 223 255
199 223 255
199 223 255
199 223 255
198 223 255
198 223 255
198 223 255
198 223 255
198 223 255
198 223 255
198 223 255
198 223 255
198 223 255
198 223 255
198 223 255
198 223 255
198 223 255
198 223 255
198 223 255
198 223 255
198 223 255
198 223 255
198 223 255
198 223 255
198 223 255
198 223 255
198 223 255
198 223 255
197 223 255
197 223 255
197 222 255
197 222 255
197 222 255
197 222 255
197 222 255
197 222 255
197 222 255
197 222 255
197 222 255
197 222 255
197 222 255
197 222 255
197 222 255
197 222 255
197 222 255
197 222 255
197 222 255
197 222 255
197 222 255
197 222 255
197 222 255
197 222 255
197 222 255
197 222 255
197 222 255
197 222 255
197 222 255
197 222 255
197 222 255
197 222 255
197 222 255
197 222 255
197 222 255
197 222 255
197 222 255
197 222 255
197 222 255
197 222 255
197 222 255
197 222 255
197 222 255
197 222 255
197 222 255
197 222 255
197 222 255
197 222 255
197 223 255
197 223 255
198 223 255
198 223 255
198 223 255
198 223 255
198 223 255
198 223 255
198 223 255
198 223 255
198 223 255
198 223 255
198 223 255
198 223 255
198 223 255
198 223 255
198 223 255
198 223 255
198 223 255
198 223 255
198 223 255
198 223 255
198 223 255
198 223 255
198 223 255
198 223 255
199 223 255
199 223 255
199 223 255
199 223 255
199 223 255
199 223 255
199 223 255
199 223 255
199 223 255
199 223 255
199 223 255
199 223 255
199 223 255
199 223 255
199 223 255
199 224 255
199 224 255
199 224 255
200 224 255
200 224 255
200 224 255
200 224 255
200 224 255
200 224 255
200 224 255
200 224 255
200 224 255
200 224 255
200 224 255
200 224 255
200 224 255
200 224 255
200 224 255
201 224 255
201 224 255
201 224 255
201 224 255
201 224 255
201 224 255
201 224 255
201 224 255
201 224 255
201 224 255
201 224 255
201 225 255
201 225 255
201 225 255
201 225 255
202 225 255
202 225 255
202 225 255
202 225 255
202 225 255
202 225 255
202 225 255
202 225 255
202 225 255
202 225 255
202 225 255
202 225 255
202 225 255
202 225 255
202 225 255
203 225 255
203 225 255
203 225 255
203 225 255
203 225 255
203 225 255
203 225 255
203 225 255
203 226 255
203 226 255
203 226 255
203 226 255
203 226 255
203 226 255
203 226 255
204 226 255
204 226 255
204 226 255
204 226 255
204 226 255
204 226 255
204 226 255
204 226 255
204 226 255
204 226 255
204 226 255
204 226 255
204 226 255
204 226 255
204 226 255
204 226 255
205 226 255
205 226 255
205 226 255
205 226 255
205 226 255
205 226 255
205 226 255
205 227 255
205 227 255
205 227 255
205 227 255
205 227 255
205 227 255
205 227 255
205 227 255
205 227 255
205 227 255
206 227 255
206 227 255
206 227 255
206 227 255
206 227 255
206 227 255
206 227 255
206 227 255
206 227 255
206 227 255
206 227 255
206 227 255
206 227 255
206 227 255
206 227 255
206 227 255
206 227 255
206 227 255
206 227 255
207 227 255
207 227 255
207 227 255
207 227 255
207 228 255
207 228 255
207 228 255
207 228 255
207 228 255
207 228 255
207 228 255
207 228 255
207 228 255
207 228 255
207 228 255
207 228 255
207 228 255
207 228 255
207 228 255
207 228 255
208 228 255
208 228 255
208 228 255
208 228 255
208 228 255
207 228 255
207 228 255
207 228 255
207 228 255
207 228 255
207 228 255
207 228 255
207 228 255
207 228 255
207 228 255
207 228 255
207 228 255
207 228 255
207 228 255
207 228 255
207 227 255
207 227 255
207 227 255
207 227 255
207 227 255
206 227 255
206 227 255
206 227 255
206 227 255
206 227 255
206 227 255
206 227 255
206 227 255
206 227 255
206 227 255
206 227 255
206 227 255
206 227 255
206 227 255
206 227 255
206 227 255
206 227 255
206 227 255
205 227 255
205 227 255
205 227 255
205 227 255
205 227 255
205 227 255
205 227 255
205 227 255
205 227 255
205 227 255
205 227 255
205 226 255
205 226 255
205 226 255
205 226 255
205 226 255
205 226 255
204 226 255
204 226 255
204 226 255
204 226 255
204 226 255
204 226 255
204 226 255
204 226 255
204 226 255
204 226 255
204 226 255
204 226 255
204 226 255
204 226 255
204 226 255
204 226 255
203 226 255
203 226 255
203 226 255
203 226 255
203 226 255
203 226 255
203 226 255
203 225 255
203 225 255
203 225 255
203 225 255
203 225 255
203 225 255
203 225 255
203 225 255
202 225 255
202 225 255
202 225 255
202 225 255
202 225 255
202 225 255
202 225 255
202 225 255
202 225 255
202 225 255
202 225 255
202 225 255
202 225 255
202 225 255
202 225 255
202 225 255
201 225 255
201 225 255
201 225 255
201 225 255
201 224 255
201 224 255
201 224 255
201 224 255
201 224 255
201 224 255
201 224 255
201 224 255
201 224 255
201 224 255
201 224 255
200 224 255
200 224 255
200 224 255
200 224 255
200 224 255
200 224 255
200 224 255
200 224 255
200 224 255
200 224 255
200 224 255
200 224 255
200 224 255
200 224 255
200 224 255
200 224 255
199 224 255
199 224 255
199 223 255
199 223 255
199 223 255
199 223 255
199 223 255
199 223 255
199 223 255
199 223 255
199 223 255
199 223 255
199 223 255
199 223 255
199 223 255
199 223 255
199 223 255
199 223 255
198 223 255
198 223 255
198 223 255
198 223 255
198 223 255
198 223 255
198 223 255
198 223 255
198 223 255
198 223 255
198 223 255
198 223 255
198 223 255
198 223 255
198 223 255
198 223 255
198 223 255
198 223 255
198 223 255
198 223 255
198 223 255
198 223 255
198 223 255
198 223 255
198 223 255
198 223 255
198 223 255
198 223 255
197 223 255
197 222 255
197 222 255
197 222 255
197 222 255
197 222 255
197 222 255
197 222 255
197 222 255
197 222 255
197 222 255
197 222 255
197 222 255
197 222 255
197 222 255
197 222 255
197 222 255
197 222 255
197 222 255
197 222 255
197 222 255
197 222 255
197 222 255
197 222 255
197 222 255
197 222 255
197 222 255
197 222 255
197 222 255
197 222 255
197 222 255
197 222 255
197 222 255
197 223 255
197 223 255
198 223 255
198 223 255
198 223 255
198 223 255
198 223 255
198 223 255
198 223 255
198 223 255
198 223 255
198 223 255
198 223 255
198 223 255
198 223 255
198 223 255
198 223 255
198 223 255
198 223 255
198 223 255
198 223 255
198 223 255
198 223 255
198 223 255
198 223 255
198 223 255
198 223 255
198 223 255
198 223 255
199 223 255
199 223 255
199 223 255
199 223 255
199 223 255
199 223 255
199 223 255
199 223 255
199 223 255
199 223 255
199 223 255
199 223 255
199 223 255
199 223 255
199 223 255
199 223 255
199 224 255
199 224 255
200 224 255
200 224 255
200 224 255
200 224 255
200 224 255
200 224 255
200 224 255
200 224 255
200 224 255
200 224 255
200 224 255
200 224 255
200 224 255
200 224 255
200 224 255
200 224 255
201 224 255
201 224 255
201 224 255
201 224 255
201 224 255
201 224 255
201 224 255
201 224 255
201 224 255
201 224 255
201 224 255
201 225 255
201 225 255
201 225 255
201 225 255
202 225 255
202 225 255
202 225 255
202 225 255
202 225 255
202 225 255
202 225 255
202 225 255
202 225 255
202 225 255
202 225 255
202 225 255
202 225 255
202 225 255
202 225 255
203 225 255
203 225 255
203 225 255
203 225 255
203 225 255
203 225 255
203 225 255
203 225 255
203 225 255
203 226 255
203 226 255
203 226 255
203 226 255
203 226 255
203 226 255
204 226 255
204 226 255
204 226 255
204 226 255
204 226 255
204 226 255
204 226 255
204 226 255
204 226 255
204 226 255
204 226 255
204 226 255
204 226 255
204 226 255
204 226 255
204 226 255
204 226 255
205 226 255
205 226 255
205 226 255
205 226 255
205 226 255
205 226 255
205 227 255
205 227 255
205 227 255
205 227 255
205 227 255
205 227 255
205 227 255
205 227 255
205 227 255
205 227 255
205 227 255
206 227 255
206 227 255
206 227 255
206 227 255
206 227 255
206 227 255
206 227 255
206 227 255
206 227 255
206 227 255
206 227 255
206 227 255
206 227 255
206 227 255
206 227 255
206 227 255
206 227 255
206 227 255
207 227 255
207 227 255
207 227 255
207 227 255
207 227 255
207 228 255
207 228 255
207 228 255
207 228 255
207 228 255
207 228 255
207 228 255
207 228 255
207 228 255
207 228 255
207 228 255
207 228 255
207 228 255
207 228 255
207 228 255
208 228 255
208 228 255
208 228 255
208 228 255
208 228 255
208 228 255
208 228 255
208 228 255
208 228 255
208 228 255
208 228 255
207 228 255
207 228 255
207 228 255
207 228 255
207 228 255
207 228 255
207 228 255
207 228 255
207 228 255
207 228 255
207 228 255
207 228 255
207 228 255
207 228 255
207 228 255
207 228 255
207 227 255
207 227 255
207 227 255
207 227 255
206 227 255
206 227 255
206 227 255
206 227 255
206 227 255
206 227 255
206 227 255
206 227 255
206 227 255
206 227 255
206 227 255
206 227 255
206 227 255
206 227 255
206 227 255
206 227 255
206 227 255
206 227 255
205 227 255
205 227 255
205 227 255
205 227 255
205 227 255
205 227 255
205 227 255
205 227 255
205 227 255
205 227 255
205 226 255
205 226 255
205 226 255
205 226 255
205 226 255
205 226 255
205 226 255
204 226 255
204 226 255
204 226 255
204 226 255
204 226 255
204 226 255
204 226 255
204 226 255
204 226 255
204 226 255
204 226 255
204 226 255
204 226 255
204 226 255
204 226 255
204 226 255
203 226 255
203 226 255
203 226 255
203 226 255
203 226 255
203 226 255
203 226 255
203 225 255
203 225 255
203 225 255
203 225 255
203 225 255
203 225 255
203 225 255
203 225 255
202 225 255
202 225 255
202 225 255
202 225 255
202 225 255
202 225 255
202 225 255
202 225 255
202 225 255
202 225 255
202 225 255
202 225 255
202 225 255
202 225 255
202 225 255
201 225 255
201 225 255
201 225 255
201 225 255
201 225 255
201 224 255
201 224 255
201 224 255
201 224 255
201 224 255
201 224 255
201 224 255
201 224 255
201 224 255
201 224 255
200 224 255
200 224 255
200 224 255
200 224 255
200 224 255
200 224 255
200 224 255
200 224 255
200 224 255
200 224 255
200 224 255
200 224 255
200 224 255
200 224 255
200 224 255
200 224 255
200 224 255
199 224 255
199 224 255
199 223 255
199 223 255
199 223 255
199 223 255
199 223 255
199 223 255
199 223 255
199 223 255
199 223 255
199 223 255
199 223 255
199 223 255
199 223 255
199 223 255
199 223 255
199 223 255
198 223 255
198 223 255
198 223 255
198 223 255
198 223 255
198 223 255
198 223 255
198 223 255
198 223 255
198 223 255
198 223 255
198 223 255
198 223 255
198 223 255
198 223 255
198 223 255
198 223 255
198 223 255
198 223 255
198 223 255
198 223 255
198 223 255
198 223 255
198 223 255
198 223 255
198 223 255
198 223 255
198 223 255
198 223 255
198 223 255
198 223 255
198 223 255
198 223 255
198 223 255
198 223 255
198 223 255
198 223 255
198 223 255
197 223 255
198 223 255
198 223 255
197 223 255
197 223 255
197 223 255
197 223 255
197 223 255
198 223 255
198 223 255
198 223 255
198 223 255
198 223 255
198 223 255
198 223 255
198 223 255
198 223 255
198 223 255
198 223 255
198 223 255
198 223 255
198 223 255
198 223 255
198 223 255
198 223 255
198 223 255
198 223 255
198 223 255
198 223 255
198 223 255
198 223 255
198 223 255
198 223 255
198 223 255
198 223 255
198 223 255
198 223 255
198 223 255
198 223 255
198 223 255
198 223 255
198 223 255
198 223 255
198 223 255
198 223 255
199 223 255
199 223 255
199 223 255
199 223 255
199 223 255
199 223 255
199 223 255
199 223 255
199 223 255
199 223 255
199 223 255
199 223 255
199 223 255
199 223 255
199 223 255
199 223 255
199 223 255
199 224 255
199 224 255
200 224 255
200 224 255
200 224 255
200 224 255
200 224 255
200 224 255
200 224 255
200 224 255
200 224 255
200 224 255
200 224 255
200 224 255
200 224 255
200 224 255
200 224 255
200 224 255
200 224 255
201 224 255
201 224 255
201 224 255
201 224 255
201 224 255
201 224 255
201 224 255
201 224 255
201 224 255
201 224 255
201 225 255
201 225 255
201 225 255
201 225 255
201 225 255
202 225 255
202 225 255
202 225 255
202 225 255
202 225 255
202 225 255
202 225 255
202 225 255
202 225 255
202 225 255
202 225 255
202 225 255
202 225 255
202 225 255
202 225 255
203 225 255
203 225 255
203 225 255
203 225 255
203 225 255
203 225 255
203 225 255
203 225 255
203 226 255
203 226 255
203 226 255
203 226 255
203 226 255
203 226 255
203 226 255
204 226 255
204 226 255
204 226 255
204 226 255
204 226 255
204 226 255
204 226 255
204 226 255
204 226 255
204 226 255
204 226 255
204 226 255
204 226 255
204 226 255
204 226 255
204 226 255
205 226 255
205 226 255
205 226 255
205 226 255
205 226 255
205 226 255
205 226 255
205 227 255
205 227 255
205 227 255
205 227 255
205 227 255
205 227 255
205 227 255
205 227 255
205 227 255
205 227 255
206 227 255
206 227 255
206 227 255
206 227 255
206 227 255
206 227 255
206 227 255
206 227 255
206 227 255
206 227 255
206 227 255
206 227 255
206 227 255
206 227 255
206 227 255
206 227 255
206 227 255
206 227 255
207 227 255
207 227 255
207 227 255
207 227 255
207 227 255
207 228 255
207 228 255
207 228 255
207 228 255
207 228 255
207 228 255
207 228 255
207 228 255
207 228 255
207 228 255
207 228 255
207 228 255
207 228 255
207 228 255
207 228 255
208 228 255
208 228 255
208 228 255
208 228 255
208 228 255
208 228 255
208 228 255
208 228 255
208 228 255
208 228 255
208 228 255
208 228 255
208 228 255
208 228 255
208 228 255
208 228 255
208 228 255
207 228 255
207 228 255
207 228 255
207 228 255
207 228 255
207 228 255
207 228 255
207 228 255
207 228 255
207 228 255
207 228 255
207 228 255
207 228 255
207 228 255
207 228 255
207 227 255
207 227 255
207 227 255
207 227 255
207 227 255
206 227 255
206 227 255
206 227 255
206 227 255
206 227 255
206 227 255
206 227 255
206 227 255
206 227 255
206 227 255
206 227 255
206 227 255
206 227 255
206 227 255
206 227 255
206 227 255
206 227 255
206 227 255
205 227 255
205 227 255
205 227 255
205 227 255
205 227 255
205 227 255
205 227 255
205 227 255
205 227 255
205 227 255
205 226 255
205 226 255
205 226 255
205 226 255
205 226 255
205 226 255
205 226 255
204 226 255
204 226 255
204 226 255
204 226 255
204 226 255
204 226 255
204 226 255
204 226 255
204 226 255
204 226 255
204 226 255
204 226 255
204 226 255
204 226 255
204 226 255
203 226 255
203 226 255
203 226 255
203 226 255
203 226 255
203 226 255
203 226 255
203 225 255
203 225 255
203 225 255
203 225 255
203 225 255
203 225 255
203 225 255
203 225 255
203 225 255
202 225 255
202 225 255
202 225 255
202 225 255
202 225 255
202 225 255
202 225 255
202 225 255
202 225 255
202 225 255
202 225 255
202 225 255
202 225 255
202 225 255
202 225 255
201 225 255
201 225 255
201 225 255
201 225 255
201 224 255
201 224 255
201 224 255
201 224 255
201 224 255
201 224 255
201 224 255
201 224 255
201 224 255
201 224 255
201 224 255
200 224 255
200 224 255
200 224 255
200 224 255
200 224 255
200 224 255
200 224 255
200 224 255
200 224 255
200 224 255
200 224 255
200 224 255
200 224 255
200 224 255
200 224 255
200 224 255
200 224 255
199 224 255
199 224 255
199 224 255
199 223 255
199 223 255
199 223 255
199 223 255
199 223 255
199 223 255
199 223 255
199 223 255
199 223 255
199 223 255
199 223 255
199 223 255
199 223 255
199 223 255
199 223 255
199 223 255
199 223 255
198 223 255
198 223 255
198 223 255
198 223 255
198 223 255
198 223 255
198 223 255
198 223 255
198 223 255
198 223 255
198 223 255
198 223 255
198 223 255
198 223 255
198 223 255
198 223 255
198 223 255
198 223 255
198 223 255
198 223 255
198 223 255
198 223 255
198 223 255
198 223 255
198 223 255
198 223 255
198 223 255
198 223 255
198 223 255
198 223 255
198 223 255
198 223 255
198 223 255
198 223 255
198 223 255
198 223 255
198 223 255
198 223 255
198 223 255
198 223 255
198 223 255
198 223 255
198 223 255
198 223 255
198 223 255
198 223 255
198 223 255
198 223 255
198 223 255
198 223 255
198 223 255
198 223 255
198 223 255
198 223 255
198 223 255
198 223 255
198 223 255
198 223 255
198 223 255
198 223 255
198 223 255
198 223 255
198 223 255
198 223 255
198 223 255
198 223 255
198 223 255
198 223 255
198 223 255
198 223 255
198 223 255
198 223 255
198 223 255
198 223 255
199 223 255
199 223 255
199 223 255
199 223 255
199 223 255
199 223 255
199 223 255
199 223 255
199 223 255
199 223 255
199 223 255
199 223 255
199 223 255
199 223 255
199 223 255
199 223 255
199 223 255
199 224 255
199 224 255
199 224 255
200 224 255
200 224 255
200 224 255
200 224 255
200 224 255
200 224 255
200 224 255
200 224 255
200 224 255
200 224 255
200 224 255
200 224 255
200 224 255
200 224 255
200 224 255
200 224 255
200 224 255
201 224 255
201 224 255
201 224 255
201 224 255
201 224 255
201 224 255
201 224 255
201 224 255
201 224 255
201 224 255
201 225 255
201 225 255
201 225 255
201 225 255
201 225 255
202 225 255
202 225 255
202 225 255
202 225 255
202 225 255
202 225 255
202 225 255
202 225 255
202 225 255
202 225 255
202 225 255
202 225 255
202 225 255
202 225 255
202 225 255
203 225 255
203 225 255
203 225 255
203 225 255
203 225 255
203 225 255
203 225 255
203 225 255
203 225 255
203 226 255
203 226 255
203 226 255
203 226 255
203 226 255
203 226 255
203 226 255
204 226 255
204 226 255
204 226 255
204 226 255
204 226 255
204 226 255
204 226 255
204 226 255
204 226 255
204 226 255
204 226 255
204 226 255
204 226 255
204 226 255
204 226 255
205 226 255
205 226 255
205 226 255
205 226 255
205 226 255
205 226 255
205 226 255
205 227 255
205 227 255
205 227 255
205 227 255
205 227 255
205 227 255
205 227 255
205 227 255
205 227 255
205 227 255
206 227 255
206 227 255
206 227 255
206 227 255
206 227 255
206 227 255
206 227 255
206 227 255
206 227 255
206 227 255
206 227 255
206 227 255
206 227 255
206 227 255
206 227 255
206 227 255
206 227 255
206 227 255
207 227 255
207 227 255
207 227 255
207 227 255
207 227 255
207 228 255
207 228 255
207 228 255
207 228 255
207 228 255
207 228 255
207 228 255
207 228 255
207 228 255
207 228 255
207 228 255
207 228 255
207 228 255
207 228 255
207 228 255
208 228 255
208 228 255
208 228 255
208 228 255
208 228 255
208 228 255
208 228 255
208 228 255
208 228 255
208 228 255
208 228 255
208 228 255
208 228 255
208 228 255
208 228 255
208 228 255
208 228 255
208 228 255
208 228 255
208 228 255
208 228 255
208 228 255
208 228 255
207 228 255
207 228 255
207 228 255
207 228 255
207 228 255
207 228 255
207 228 255
207 228 255
207 228 255
207 228 255
207 228 255
207 228 255
207 228 255
207 228 255
207 228 255
207 227 255
207 227 255
207 227 255
207 227 255
207 227 255
206 227 255
206 227 255
206 227 255
206 227 255
206 227 255
206 227 255
206 227 255
206 227 255
206 227 255
206 227 255
206 227 255
206 227 255
206 227 255
206 227 255
206 227 255
206 227 255
206 227 255
206 227 255
205 227 255
205 227 255
205 227 255
205 227 255
205 227 255
205 227 255
205 227 255
205 227 255
205 227 255
205 227 255
205 226 255
205 226 255
205 226 255
205 226 255
205 226 255
205 226 255
204 226 255
204 226 255
204 226 255
204 226 255
204 226 255
204 226 255
204 226 255
204 226 255
204 226 255
204 226 255
204 226 255
204 226 255
204 226 255
204 226 255
204 226 255
204 226 255
203 226 255
203 226 255
203 226 255
203 226 255
203 226 255
203 226 255
203 226 255
203 225 255
203 225 255
203 225 255
203 225 255
203 225 255
203 225 255
203 225 255
203 225 255
202 225 255
202 225 255
202 225 255
202 225 255
202 225 255
202 225 255
202 225 255
202 225 255
202 225 255
202 225 255
202 225 255
202 225 255
202 225 255
202 225 255
202 225 255
202 225 255
201 225 255
201 225 255
201 225 255
201 225 255
201 224 255
201 224 255
201 224 255
201 224 255
201 224 255
201 224 255
201 224 255
201 224 255
201 224 255
201 224 255
201 224 255
200 224 255
200 224 255
200 224 255
200 224 255
200 224 255
200 224 255
200 224 255
200 224 255
200 224 255
200 224 255
200 224 255
200 224 255
200 224 255
200 224 255
200 224 255
200 224 255
200 224 255
199 224 255
199 224 255
199 224 255
199 223 255
199 223 255
199 223 255
199 223 255
199 223 255
199 223 255
199 223 255
199 223 255
199 223 255
199 223 255
199 223 255
199 223 255
199 223 255
199 223 255
199 223 255
199 223 255
199 223 255
199 223 255
198 223 255
198 223 255
198 223 255
198 223 255
198 223 255
198 223 255
198 223 255
198 223 255
198 223 255
198 223 255
198 223 255
198 223 255
198 223 255
198 223 255
198 223 255
198 223 255
198 223 255
198 223 255
198 223 255
198 223 255
198 223 255
198 223 255
198 223 255
198 223 255
198 223 255
198 223 255
198 223 255
198 223 255
198 223 255
198 223 255
198 223 255
198 223 255
198 223 255
198 223 255
198 223 255
198 223 255
198 223 255
198 223 255
198 223 255
198 223 255
198 223 255
198 223 255
198 223 255
198 223 255
198 223 255
198 223 255
198 223 255
198 223 255
198 223 255
198 223 255
198 223 255
198 223 255
198 223 255
198 223 255
198 223 255
198 223 255
198 223 255
198 223 255
198 223 255
198 223 255
198 223 255
198 223 255
198 223 255
198 223 255
198 223 255
199 223 255
199 223 255
199 223 255
199 223 255
199 223 255
199 223 255
199 223 255
199 223 255
199 223 255
199 223 255
199 223 255
199 223 255
199 223 255
199 223 255
199 223 255
199 223 255
199 223 255
199 223 255
199 223 255
199 224 255
199 224 255
199 224 255
200 224 255
200 224 255
200 224 255
200 224 255
200 224 255
200 224 255
200 224 255
200 224 255
200 224 255
200 224 255
200 224 255
200 224 255
200 224 255
200 224 255
200 224 255
200 224 255
200 224 255
201 224 255
201 224 255
201 224 255
201 224 255
201 224 255
201 224 255
201 224 255
201 224 255
201 224 255
201 224 255
201 224 255
201 225 255
201 225 255
201 225 255
201 225 255
201 225 255
202 225 255
202 225 255
202 225 255
202 225 255
202 225 255
202 225 255
202 225 255
202 225 255
202 225 255
202 225 255
202 225 255
202 225 255
202 225 255
202 225 255
202 225 255
203 225 255
203 225 255
203 225 255
203 225 255
203 225 255
203 225 255
203 225 255
203 225 255
203 226 255
203 226 255
203 226 255
203 226 255
203 226 255
203 226 255
203 226 255
204 226 255
204 226 255
204 226 255
204 226 255
204 226 255
204 226 255
204 226 255
204 226 255
204 226 255
204 226 255
204 226 255
204 226 255
204 226 255
204 226 255
204 226 255
205 226 255
205 226 255
205 226 255
205 226 255
205 226 255
205 226 255
205 226 255
205 227 255
205 227 255
205 227 255
205 227 255
205 227 255
205 227 255
205 227 255
205 227 255
205 227 255
205 227 255
206 227 255
206 227 255
206 227 255
206 227 255
206 227 255
206 227 255
206 227 255
206 227 255
206 227 255
206 227 255
206 227 255
206 227 255
206 227 255
206 227 255
206 227 255
206 227 255
206 227 255
206 227 255
207 227 255
207 227 255
207 227 255
207 227 255
207 227 255
207 228 255
207 228 255
207 228 255
207 228 255
207 228 255
207 228 255
207 228 255
207 228 255
207 228 255
207 228 255
207 228 255
207 228 255
207 228 255
207 228 255
207 228 255
208 228 255
208 228 255
208 228 255
208 228 255
208 228 255
208 228 255
208 228 255
208 228 255
208 228 255
208 228 255
208 228 255
208 228 255
208 228 255
208 228 255
208 228 255
208 228 255
208 228 255
208 228 255
208 228 255
208 228 255
208 228 255
208 228 255
208 228 255
208 228 255
208 228 255
208 228 255
208 228 255
208 228 255
208 228 255
207 228 255
207 228 255
207 228 255
207 228 255
207 228 255
207 228 255
207 228 255
207 228 255
207 228 255
207 228 255
207 228 255
207 228 255
207 228 255
207 228 255
207 228 255
207 227 255
207 227 255
207 227 255
207 227 255
207 227 255
206 227 255
206 227 255
206 227 255
206 227 255
206 227 255
206 227 255
206 227 255
206 227 255
206 227 255
206 227 255
206 227 255
206 227 255
206 227 255
206 227 255
206 227 255
206 227 255
206 227 255
205 227 255
205 227 255
205 227 255
205 227 255
205 227 255
205 227 255
205 227 255
205 227 255
205 227 255
205 227 255
205 227 255
205 226 255
205 226 255
205 226 255
205 226 255
205 226 255
205 226 255
204 226 255
204 226 255
204 226 255
204 226 255
204 226 255
204 226 255
204 226 255
204 226 255
204 226 255
204 226 255
204 226 255
204 226 255
204 226 255
204 226 255
204 226 255
204 226 255
203 226 255
203 226 255
203 226 255
203 226 255
203 226 255
203 226 255
203 226 255
203 225 255
203 225 255
203 225 255
203 225 255
203 225 255
203 225 255
203 225 255
203 225 255
202 225 255
202 225 255
202 225 255
202 225 255
202 225 255
202 225 255
202 225 255
202 225 255
202 225 255
202 225 255
202 225 255
202 225 255
202 225 255
202 225 255
202 225 255
201 225 255
201 225 255
201 225 255
201 225 255
201 225 255
201 224 255
201 224 255
201 224 255
201 224 255
201 224 255
201 224 255
201 224 255
201 224 255
201 224 255
201 224 255
201 224 255
200 224 255
200 224 255
200 224 255
200 224 255
200 224 255
200 224 255
200 224 255
200 224 255
200 224 255
200 224 255
200 224 255
200 224 255
200 224 255
200 224 255
200 224 255
200 224 255
200 224 255
200 224 255
199 224 255
199 224 255
199 224 255
199 223 255
199 223 255
199 223 255
199 223 255
199 223 255
199 223 255
199 223 255
199 223 255
199 223 255
199 223 255
199 223 255
199 223 255
199 223 255
199 223 255
199 223 255
199 223 255
199 223 255
199 223 255
199 223 255
199 223 255
198 223 255
198 223 255
198 223 255
198 223 255
198 223 255
198 223 255
198 223 255
198 223 255
198 223 255
198 223 255
198 223 255
198 223 255
198 223 255
198 223 255
198 223 255
198 223 255
198 223 255
198 223 255
198 223 255
198 223 255
198 223 255
198 223 255
198 223 255
198 223 255
198 223 255
198 223 255
198 223 255
198 223 255
198 223 255
198 223 255
198 223 255
198 223 255
198 223 255
198 223 255
198 223 255
198 223 255
198 223 255
198 223 255
198 223 255
198 223 255
198 223 255
198 223 255
198 223 255
198 223 255
198 223 255
198 223 255
198 223 255
198 223 255
198 223 255
198 223 255
198 223 255
198 223 255
198 223 255
198 223 255
199 223 255
199 223 255
199 223 255
199 223 255
199 223 255
199 223 255
199 223 255
199 223 255
199 223 255
199 223 255
199 223 255
199 223 255
199 223 255
199 223 255
199 223 255
199 223 255
199 223 255
199 223 255
199 223 255
199 223 255
199 224 255
199 224 255
199 224 255
200 224 255
200 224 255
200 224 255
200 224 255
200 224 255
200 224 255
200 224 255
200 224 255
200 224 255
200 224 255
200 224 255
200 224 255
200 224 255
200 224 255
200 224 255
200 224 255
200 224 255
200 224 255
201 224 255
201 224 255
201 224 255
201 224 255
201 224 255
201 224 255
201 224 255
201 224 255
201 224 255
201 224 255
201 224 255
201 225 255
201 225 255
201 225 255
201 225 255
201 225 255
202 225 255
202 225 255
202 225 255
202 225 255
202 225 255
202 225 255
202 225 255
202 225 255
202 225 255
202 225 255
202 225 255
202 225 255
202 225 255
202 225 255
202 225 255
203 225 255
203 225 255
203 225 255
203 225 255
203 225 255
203 225 255
203 225 255
203 225 255
203 226 255
203 226 255
203 226 255
203 226 255
203 226 255
203 226 255
203 226 255
204 226 255
204 226 255
204 226 255
204 226 255
204 226 255
204 226 255
204 226 255
204 226 255
204 226 255
204 226 255
204 226 255
204 226 255
204 226 255
204 226 255
204 226 255
204 226 255
205 226 255
205 226 255
205 226 255
205 226 255
205 226 255
205 226 255
205 227 255
205 227 255
205 227 255
205 227 255
205 227 255
205 227 255
205 227 255
205 227 255
205 227 255
205 227 255
205 227 255
206 227 255
206 227 255
206 227 255
206 227 255
206 227 255
206 227 255
206 227 255
206 227 255
206 227 255
206 227 255
206 227 255
206 227 255
206 227 255
206 227 255
206 227 255
206 227 255
206 227 255
207 227 255
207 227 255
207 227 255
207 227 255
207 227 255
207 228 255
207 228 255
207 228 255
207 228 255
207 228 255
207 228 255
207 228 255
207 228 255
207 228 255
207 228 255
207 228 255
207 228 255
207 228 255
207 228 255
207 228 255
208 228 255
208 228 255
208 228 255
208 228 255
208 228 255
208 228 255
208 228 255
208 228 255
208 228 255
208 228 255
208 228 255
208 228 255
208 228 255
208 228 255
208 228 255
208 228 255
208 228 255
208 228 255
208 228 255
208 228 255
208 228 255
208 228 255
208 228 255
208 228 255
208 228 255
208 228 255
208 228 255
208 228 255
208 228 255
208 228 255
208 228 255
208 228 255
208 228 255
208 228 255
208 228 255
207 228 255
207 228 255
207 228 255
207 228 255
207 228 255
207 228 255
207 228 255
207 228 255
207 228 255
207 228 255
207 228 255
207 228 255
207 228 255
207 228 255
207 228 255
207 227 255
207 227 255
207 227 255
207 227 255
207 227 255
206 227 255
206 227 255
206 227 255
206 227 255
206 227 255
206 227 255
206 227 255
206 227 255
206 227 255
206 227 255
206 227 255
206 227 255
206 227 255
206 227 255
206 227 255
206 227 255
206 227 255
206 227 255
205 227 255
205 227 255
205 227 255
205 227 255
205 227 255
205 227 255
205 227 255
205 227 255
205 227 255
205 226 255
205 226 255
205 226 255
205 226 255
205 226 255
205 226 255
205 226 255
204 226 255
204 226 255
204 226 255
204 226 255
204 226 255
204 226 255
204 226 255
204 226 255
204 226 255
204 226 255
204 226 255
204 226 255
204 226 255
204 226 255
204 226 255
204 226 255
203 226 255
203 226 255
203 226 255
203 226 255
203 226 255
203 226 255
203 226 255
203 225 255
203 225 255
203 225 255
203 225 255
203 225 255
203 225 255
203 225 255
203 225 255
202 225 255
202 225 255
202 225 255
202 225 255
202 225 255
202 225 255
202 225 255
202 225 255
202 225 255
202 225 255
202 225 255
202 225 255
202 225 255
202 225 255
202 225 255
201 225 255
201 225 255
201 225 255
201 225 255
201 225 255
201 224 255
201 224 255
201 224 255
201 224 255
201 224 255
201 224 255
201 224 255
201 224 255
201 224 255
201 224 255
201 224 255
200 224 255
200 224 255
200 224 255
200 224 255
200 224 255
200 224 255
200 224 255
200 224 255
200 224 255
200 224 255
200 224 255
200 224 255
200 224 255
200 224 255
200 224 255
200 224 255
200 224 255
200 224 255
200 224 255
199 224 255
199 224 255
199 224 255
199 223 255
199 223 255
199 223 255
199 223 255
199 223 255
199 223 255
199 223 255
199 223 255
199 223 255
199 223 255
199 223 255
199 223 255
199 223 255
199 223 255
199 223 255
199 223 255
199 223 255
199 223 255
199 223 255
199 223 255
199 223 255
199 223 255
199 223 255
198 223 255
198 223 255
198 223 255
198 223 255
198 223 255
198 223 255
198 223 255
198 223 255
198 223 255
198 223 255
198 223 255
198 223 255
198 223 255
198 223 255
198 223 255
198 223 255
198 223 255
198 223 255
198 223 255
198 223 255
198 223 255
198 223 255
198 223 255
198 223 255
198 223 255
198 223 255
198 223 255
198 223 255
198 223 255
198 223 255
198 223 255
198 223 255
198 223 255
198 223 255
198 223 255
198 223 255
198 223 255
198 223 255
198 223 255
198 223 255
199 223 255
199 223 255
199 223 255
199 223 255
199 223 255
199 223 255
199 223 255
199 223 255
199 223 255
199 223 255
199 223 255
199 223 255
199 223 255
199 223 255
199 223 255
199 223 255
199 223 255
199 223 255
199 223 255
199 223 255
199 223 255
199 223 255
199 223 255
199 224 255
199 224 255
199 224 255
199 224 255
200 224 255
200 224 255
200 224 255
200 224 255
200 224 255
200 224 255
200 224 255
200 224 255
200 224 255
200 224 255
200 224 255
200 224 255
200 224 255
200 224 255
200 224 255
200 224 255
200 224 255
200 224 255
201 224 255
201 224 255
201 224 255
201 224 255
201 224 255
201 224 255
201 224 255
201 224 255
201 224 255
201 224 255
201 224 255
201 225 255
201 225 255
201 225 255
201 225 255
201 225 255
202 225 255
202 225 255
202 225 255
202 225 255
202 225 255
202 225 255
202 225 255
202 225 255
202 225 255
202 225 255
202 225 255
202 225 255
202 225 255
202 225 255
202 225 255
203 225 255
203 225 255
203 225 255
203 225 255
203 225 255
203 225 255
203 225 255
203 225 255
203 225 255
203 226 255
203 226 255
203 226 255
203 226 255
203 226 255
203 226 255
204 226 255
204 226 255
204 226 255
204 226 255
204 226 255
204 226 255
204 226 255
204 226 255
204 226 255
204 226 255
204 226 255
204 226 255
204 226 255
204 226 255
204 226 255
204 226 255
205 226 255
205 226 255
205 226 255
205 226 255
205 226 255
205 226 255
205 226 255
205 227 255
205 227 255
205 227 255
205 227 255
205 227 255
205 227 255
205 227 255
205 227 255
205 227 255
205 227 255
206 227 255
206 227 255
206 227 255
206 227 255
206 227 255
206 227 255
206 227 255
206 227 255
206 227 255
206 227 255
206 227 255
206 227 255
206 227 255
206 227 255
206 227 255
206 227 255
206 227 255
207 227 255
207 227 255
207 227 255
207 227 255
207 227 255
207 228 255
207 228 255
207 228 255
207 228 255
207 228 255
207 228 255
207 228 255
207 228 255
207 228 255
207 228 255
207 228 255
207 228 255
207 228 255
207 228 255
207 228 255
208 228 255
208 228 255
208 228 255
208 228 255
208 228 255
208 228 255
208 228 255
208 228 255
208 228 255
208 228 255
208 228 255
208 228 255
208 228 255
208 228 255
208 228 255
208 228 255
208 228 255
208 228 255
208 228 255
209 228 255
208 228 255
208 228 255
208 228 255
208 228 255
208 228 255
208 228 255
208 228 255
208 228 255
208 228 255
208 228 255
208 228 255
208 228 255
208 228 255
208 228 255
208 228 255
208 228 255
208 228 255
208 228 255
208 228 255
208 228 255
208 228 255
207 228 255
207 228 255
207 228 255
207 228 255
207 228 255
207 228 255
207 228 255
207 228 255
207 228 255
207 228 255
207 228 255
207 228 255
207 228 255
207 228 255
207 228 255
207 227 255
207 227 255
207 227 255
207 227 255
206 227 255
206 227 255
206 227 255
206 227 255
206 227 255
206 227 255
206 227 255
206 227 255
206 227 255
206 227 255
206 227 255
206 227 255
206 227 255
206 227 255
206 227 255
206 227 255
206 227 255
206 227 255
205 227 255
205 227 255
205 227 255
205 227 255
205 227 255
205 227 255
205 227 255
205 227 255
205 227 255
205 227 255
205 226 255
205 226 255
205 226 255
205 226 255
205 226 255
205 226 255
205 226 255
204 226 255
204 226 255
204 226 255
204 226 255
204 226 255
204 226 255
204 226 255
204 226 255
204 226 255
204 226 255
204 226 255
204 226 255
204 226 255
204 226 255
204 226 255
203 226 255
203 226 255
203 226 255
203 226 255
203 226 255
203 226 255
203 226 255
203 225 255
203 225 255
203 225 255
203 225 255
203 225 255
203 225 255
203 225 255
203 225 255
203 225 255
202 225 255
202 225 255
202 225 255
202 225 255
202 225 255
202 225 255
202 225 255
202 225 255
202 225 255
202 225 255
202 225 255
202 225 255
202 225 255
202 225 255
202 225 255
201 225 255
201 225 255
201 225 255
201 225 255
201 225 255
201 224 255
201 224 255
201 224 255
201 224 255
201 224 255
201 224 255
201 224 255
201 224 255
201 224 255
201 224 255
201 224 255
201 224 255
200 224 255
200 224 255
200 224 255
200 224 255
200 224 255
200 224 255
200 224 255
200 224 255
200 224 255
200 224 255
200 224 255
200 224 255
200 224 255
200 224 255
200 224 255
200 224 255
200 224 255
200 224 255
199 224 255
199 224 255
199 224 255
199 224 255
199 223 255
199 223 255
199 223 255
199 223 255
199 223 255
199 223 255
199 223 255
199 223 255
199 223 255
199 223 255
199 223 255
199 223 255
199 223 255
199 223 255
199 223 255
199 223 255
199 223 255
199 223 255
199 223 255
199 223 255
199 223 255
199 223 255
199 223 255
199 223 255
199 223 255
199 223 255
199 223 255
199 223 255
199 223 255
199 223 255
198 223 255
198 223 255
198 223 255
198 223 255
198 223 255
198 223 255
198 223 255
198 223 255
198 223 255
198 223 255
198 223 255
198 223 255
198 223 255
198 223 255
198 223 255
198 223 255
198 223 255
198 223 255
198 223 255
199 223 255
199 223 255
199 223 255
199 223 255
199 223 255
199 223 255
199 223 255
199 223 255
199 223 255
199 223 255
199 223 255
199 223 255
199 223 255
199 223 255
199 223 255
199 223 255
199 223 255
199 223 255
199 223 255
199 223 255
199 223 255
199 223 255
199 223 255
199 223 255
199 223 255
199 223 255
199 223 255
199 223 255
199 223 255
199 224 255
199 224 255
199 224 255
199 224 255
200 224 255
200 224 255
200 224 255
200 224 255
200 224 255
200 224 255
200 224 255
200 224 255
200 224 255
200 224 255
200 224 255
200 224 255
200 224 255
200 224 255
200 224 255
200 224 255
200 224 255
200 224 255
200 224 255
201 224 255
201 224 255
201 224 255
201 224 255
201 224 255
201 224 255
201 224 255
201 224 255
201 224 255
201 224 255
201 224 255
201 225 255
201 225 255
201 225 255
201 225 255
201 225 255
202 225 255
202 225 255
202 225 255
202 225 255
202 225 255
202 225 255
202 225 255
202 225 255
202 225 255
202 225 255
202 225 255
202 225 255
202 225 255
202 225 255
202 225 255
203 225 255
203 225 255
203 225 255
203 225 255
203 225 255
203 225 255
203 225 255
203 225 255
203 225 255
203 226 255
203 226 255
203 226 255
203 226 255
203 226 255
203 226 255
203 226 255
204 226 255
204 226 255
204 226 255
204 226 255
204 226 255
204 226 255
204 226 255
204 226 255
204 226 255
204 226 255
204 226 255
204 226 255
204 226 255
204 226 255
204 226 255
205 226 255
205 226 255
205 226 255
205 226 255
205 226 255
205 226 255
205 226 255
205 227 255
205 227 255
205 227 255
205 227 255
205 227 255
205 227 255
205 227 255
205 227 255
205 227 255
205 227 255
206 227 255
206 227 255
206 227 255
206 227 255
206 227 255
206 227 255
206 227 255
206 227 255
206 227 255
206 227 255
206 227 255
206 227 255
206 227 255
206 227 255
206 227 255
206 227 255
206 227 255
206 227 255
207 227 255
207 227 255
207 227 255
207 227 255
207 228 255
207 228 255
207 228 255
207 228 255
207 228 255
207 228 255
207 228 255
207 228 255
207 228 255
207 228 255
207 228 255
207 228 255
207 228 255
207 228 255
207 228 255
208 228 255
208 228 255
208 228 255
208 228 255
208 228 255
208 228 255
208 228 255
208 228 255
208 228 255
208 228 255
208 228 255
208 228 255
208 228 255
208 228 255
208 228 255
208 228 255
208 228 255
208 228 255
208 228 255
208 228 255
208 228 255
209 228 255
209 229 255
209 229 255
209 229 255
209 228 255
208 228 255
208 228 255
208 228 255
208 228 255
208 228 255
208 228 255
208 228 255
208 228 255
208 228 255
208 228 255
208 228 255
208 228 255
208 228 255
208 228 255
208 228 255
208 228 255
208 228 255
208 228 255
208 228 255
208 228 255
208 228 255
207 228 255
207 228 255
207 228 255
207 228 255
207 228 255
207 228 255
207 228 255
207 228 255
207 228 255
207 228 255
207 228 255
207 228 255
207 228 255
207 228 255
207 228 255
207 227 255
207 227 255
207 227 255
207 227 255
207 227 255
206 227 255
206 227 255
206 227 255
206 227 255
206 227 255
206 227 255
206 227 255
206 227 255
206 227 255
206 227 255
206 227 255
206 227 255
206 227 255
206 227 255
206 227 255
206 227 255
206 227 255
205 227 255
205 227 255
205 227 255
205 227 255
205 227 255
205 227 255
205 227 255
205 227 255
205 227 255
205 227 255
205 226 255
205 226 255
205 226 255
205 226 255
205 226 255
205 226 255
205 226 255
204 226 255
204 226 255
204 226 255
204 226 255
204 226 255
204 226 255
204 226 255
204 226 255
204 226 255
204 226 255
204 226 255
204 226 255
204 226 255
204 226 255
204 226 255
203 226 255
203 226 255
203 226 255
203 226 255
203 226 255
203 226 255
203 226 255
203 225 255
203 225 255
203 225 255
203 225 255
203 225 255
203 225 255
203 225 255
203 225 255
203 225 255
202 225 255
202 225 255
202 225 255
202 225 255
202 225 255
202 225 255
202 225 255
202 225 255
202 225 255
202 225 255
202 225 255
202 225 255
202 225 255
202 225 255
202 225 255
201 225 255
201 225 255
201 225 255
201 225 255
201 225 255
201 224 255
201 224 255
201 224 255
201 224 255
201 224 255
201 224 255
201 224 255
201 224 255
201 224 255
201 224 255
201 224 255
201 224 255
200 224 255
200 224 255
200 224 255
200 224 255
200 224 255
200 224 255
200 224 255
200 224 255
200 224 255
200 224 255
200 224 255
200 224 255
200 224 255
200 224 255
200 224 255
200 224 255
200 224 255
200 224 255
200 224 255
200 224 255
199 224 255
199 224 255
199 224 255
199 224 255
199 223 255
199 223 255
199 223 255
199 223 255
199 223 255
199 223 255
199 223 255
199 223 255
199 223 255
199 223 255
199 223 255
199 223 255
199 223 255
199 223 255
199 223 255
199 223 255
199 223 255
199 223 255
199 223 255
199 223 255
199 223 255
199 223 255
199 223 255
199 223 255
199 223 255
199 223 255
199 223 255
199 223 255
199 223 255
199 223 255
199 223 255
199 223 255
199 223 255
199 223 255
199 223 255
199 223 255
199 223 255
199 223 255
199 223 255
199 223 255
199 223 255
199 223 255
199 223 255
199 223 255
199 223 255
199 223 255
199 223 255
199 223 255
199 223 255
199 223 255
199 223 255
199 223 255
199 223 255
199 223 255
199 223 255
199 223 255
199 223 255
199 223 255
199 223 255
199 223 255
199 223 255
199 223 255
199 223 255
199 223 255
199 223 255
199 223 255
199 223 255
199 223 255
199 224 255
199 224 255
199 224 255
199 224 255
200 224 255
200 224 255
200 224 255
200 224 255
200 224 255
200 224 255
200 224 255
200 224 255
200 224 255
200 224 255
200 224 255
200 224 255
200 224 255
200 224 255
200 224 255
200 224 255
200 224 255
200 224 255
200 224 255
200 224 255
201 224 255
201 224 255
201 224 255
201 224 255
201 224 255
201 224 255
201 224 255
201 224 255
201 224 255
201 224 255
201 224 255
201 224 255
201 225 255
201 225 255
201 225 255
201 225 255
201 225 255
202 225 255
202 225 255
202 225 255
202 225 255
202 225 255
202 225 255
202 225 255
202 225 255
202 225 255
202 225 255
202 225 255
202 225 255
202 225 255
202 225 255
202 225 255
203 225 255
203 225 255
203 225 255
203 225 255
203 225 255
203 225 255
203 225 255
203 225 255
203 225 255
203 226 255
203 226 255
203 226 255
203 226 255
203 226 255
203 226 255
203 226 255
204 226 255
204 226 255
204 226 255
204 226 255
204 226 255
204 226 255
204 226 255
204 226 255
204 226 255
204 226 255
204 226 255
204 226 255
204 226 255
204 226 255
204 226 255
204 226 255
205 226 255
205 226 255
205 226 255
205 226 255
205 226 255
205 226 255
205 227 255
205 227 255
205 227 255
205 227 255
205 227 255
205 227 255
205 227 255
205 227 255
205 227 255
205 227 255
206 227 255
206 227 255
206 227 255
206 227 255
206 227 255
206 227 255
206 227 255
206 227 255
206 227 255
206 227 255
206 227 255
206 227 255
206 227 255
206 227 255
206 227 255
206 227 255
206 227 255
206 227 255
207 227 255
207 227 255
207 227 255
207 227 255
207 228 255
207 228 255
207 228 255
207 228 255
207 228 255
207 228 255
207 228 255
207 228 255
207 228 255
207 228 255
207 228 255
207 228 255
207 228 255
207 228 255
207 228 255
208 228 255
208 228 255
208 228 255
208 228 255
208 228 255
208 228 255
208 228 255
208 228 255
208 228 255
208 228 255
208 228 255
208 228 255
208 228 255
208 228 255
208 228 255
208 228 255
208 228 255
208 228 255
208 228 255
208 228 255
208 228 255
209 228 255
209 228 255
209 229 255
209 229 255
209 229 255
209 229 255
209 229 255
209 229 255
209 229 255
209 229 255
209 228 255
208 228 255
208 228 255
208 228 255
208 228 255
208 228 255
208 228 255
208 228 255
208 228 255
208 228 255
208 228 255
208 228 255
208 228 255
208 228 255
208 228 255
208 228 255
208 228 255
208 228 255
208 228 255
208 228 255
208 228 255
208 228 255
207 228 255
207 228 255
207 228 255
207 228 255
207 228 255
207 228 255
207 228 255
207 228 255
207 228 255
207 228 255
207 228 255
207 228 255
207 228 255
207 228 255
207 228 255
207 227 255
207 227 255
207 227 255
207 227 255
207 227 255
206 227 255
206 227 255
206 227 255
206 227 255
206 227 255
206 227 255
206 227 255
206 227 255
206 227 255
206 227 255
206 227 255
206 227 255
206 227 255
206 227 255
206 227 255
206 227 255
206 227 255
205 227 255
205 227 255
205 227 255
205 227 255
205 227 255
205 227 255
205 227 255
205 227 255
205 227 255
205 227 255
205 226 255
205 226 255
205 226 255
205 226 255
205 226 255
205 226 255
204 226 255
204 226 255
204 226 255
204 226 255
204 226 255
204 226 255
204 226 255
204 226 255
204 226 255
204 226 255
204 226 255
204 226 255
204 226 255
204 226 255
204 226 255
204 226 255
203 226 255
203 226 255
203 226 255
203 226 255
203 226 255
203 226 255
203 226 255
203 225 255
203 225 255
203 225 255
203 225 255
203 225 255
203 225 255
203 225 255
203 225 255
203 225 255
202 225 255
202 225 255
202 225 255
202 225 255
202 225 255
202 225 255
202 225 255
202 225 255
202 225 255
202 225 255
202 225 255
202 225 255
202 225 255
202 225 255
202 225 255
201 225 255
201 225 255
201 225 255
201 225 255
201 225 255
201 224 255
201 224 255
201 224 255
201 224 255
201 224 255
201 224 255
201 224 255
201 224 255
201 224 255
201 224 255
201 224 255
201 224 255
201 224 255
200 224 255
200 224 255
200 224 255
200 224 255
200 224 255
200 224 255
200 224 255
200 224 255
200 224 255
200 224 255
200 224 255
200 224 255
200 224 255
200 224 255
200 224 255
200 224 255
200 224 255
200 224 255
200 224 255
200 224 255
200 224 255
199 224 255
199 224 255
199 224 255
199 224 255
199 223 255
199 223 255
199 223 255
199 223 255
199 223 255
199 223 255
199 223 255
199 223 255
199 223 255
199 223 255
199 223 255
199 223 255
199 223 255
199 223 255
199 223 255
199 223 255
199 223 255
199 223 255
199 223 255
199 223 255
199 223 255
199 223 255
199 223 255
199 223 255
199 223 255
199 223 255
199 223 255
199 223 255
199 223 255
199 223 255
199 223 255
199 223 255
199 223 255
199 223 255
199 223 255
199 223 255
199 223 255
199 223 255
199 223 255
199 223 255
199 223 255
199 223 255
199 223 255
199 223 255
199 223 255
199 223 255
199 223 255
199 223 255
199 223 255
199 223 255
199 223 255
199 223 255
199 223 255
199 223 255
199 223 255
199 223 255
199 223 255
199 223 255
199 224 255
199 224 255
199 224 255
199 224 255
200 224 255
200 224 255
200 224 255
200 224 255
200 224 255
200 224 255
200 224 255
200 224 255
200 224 255
200 224 255
200 224 255
200 224 255
200 224 255
200 224 255
200 224 255
200 224 255
200 224 255
200 224 255
200 224 255
200 224 255
200 224 255
200 224 255
201 224 255
201 224 255
201 224 255
201 224 255
201 224 255
201 224 255
201 224 255
201 224 255
201 224 255
201 224 255
201 224 255
201 224 255
201 225 255
201 225 255
201 225 255
201 225 255
201 225 255
202 225 255
202 225 255
202 225 255
202 225 255
202 225 255
202 225 255
202 225 255
202 225 255
202 225 255
202 225 255
202 225 255
202 225 255
202 225 255
202 225 255
202 225 255
203 225 255
203 225 255
203 225 255
203 225 255
203 225 255
203 225 255
203 225 255
203 225 255
203 225 255
203 226 255
203 226 255
203 226 255
203 226 255
203 226 255
203 226 255
203 226 255
204 226 255
204 226 255
204 226 255
204 226 255
204 226 255
204 226 255
204 226 255
204 226 255
204 226 255
204 226 255
204 226 255
204 226 255
204 226 255
204 226 255
204 226 255
204 226 255
205 226 255
205 226 255
205 226 255
205 226 255
205 226 255
205 226 255
205 227 255
205 227 255
205 227 255
205 227 255
205 227 255
205 227 255
205 227 255
205 227 255
205 227 255
205 227 255
206 227 255
206 227 255
206 227 255
206 227 255
206 227 255
206 227 255
206 227 255
206 227 255
206 227 255
206 227 255
206 227 255
206 227 255
206 227 255
206 227 255
206 227 255
206 227 255
206 227 255
207 227 255
207 227 255
207 227 255
207 227 255
207 227 255
207 228 255
207 228 255
207 228 255
207 228 255
207 228 255
207 228 255
207 228 255
207 228 255
207 228 255
207 228 255
207 228 255
207 228 255
207 228 255
207 228 255
207 228 255
208 228 255
208 228 255
208 228 255
208 228 255
208 228 255
208 228 255
208 228 255
208 228 255
208 228 255
208 228 255
208 228 255
208 228 255
208 228 255
208 228 255
208 228 255
208 228 255
208 228 255
208 228 255
208 228 255
208 228 255
208 228 255
209 228 255
209 229 255
209 229 255
209 229 255
209 229 255
209 229 255
209 229 255
209 229 255
209 229 255
209 229 255
209 229 255
209 229 255
209 229 255
209 229 255
209 229 255
209 229 255
209 228 255
209 228 255
208 228 255
208 228 255
208 228 255
208 228 255
208 228 255
208 228 255
208 228 255
208 228 255
208 228 255
208 228 255
208 228 255
208 228 255
208 228 255
208 228 255
208 228 255
208 228 255
208 228 255
208 228 255
208 228 255
208 228 255
208 228 255
207 228 255
207 228 255
207 228 255
207 228 255
207 228 255
207 228 255
207 228 255
207 228 255
207 228 255
207 228 255
207 228 255
207 228 255
207 228 255
207 228 255
207 227 255
207 227 255
207 227 255
207 227 255
206 227 255
206 227 255
206 227 255
206 227 255
206 227 255
206 227 255
206 227 255
206 227 255
206 227 255
206 227 255
206 227 255
206 227 255
206 227 255
206 227 255
206 227 255
206 227 255
206 227 255
206 227 255
205 227 255
205 227 255
205 227 255
205 227 255
205 227 255
205 227 255
205 227 255
205 227 255
205 227 255
205 227 255
205 226 255
205 226 255
205 226 255
205 226 255
205 226 255
205 226 255
204 226 255
204 226 255
204 226 255
204 226 255
204 226 255
204 226 255
204 226 255
204 226 255
204 226 255
204 226 255
204 226 255
204 226 255
204 226 255
204 226 255
204 226 255
204 226 255
203 226 255
203 226 255
203 226 255
203 226 255
203 226 255
203 226 255
203 226 255
203 225 255
203 225 255
203 225 255
203 225 255
203 225 255
203 225 255
203 225 255
203 225 255
203 225 255
202 225 255
202 225 255
202 225 255
202 225 255
202 225 255
202 225 255
202 225 255
202 225 255
202 225 255
202 225 255
202 225 255
202 225 255
202 225 255
202 225 255
202 225 255
202 225 255
201 225 255
201 225 255
201 225 255
201 225 255
201 225 255
201 224 255
201 224 255
201 224 255
201 224 255
201 224 255
201 224 255
201 224 255
201 224 255
201 224 255
201 224 255
201 224 255
201 224 255
200 224 255
200 224 255
200 224 255
200 224 255
200 224 255
200 224 255
200 224 255
200 224 255
200 224 255
200 224 255
200 224 255
200 224 255
200 224 255
200 224 255
200 224 255
200 224 255
200 224 255
200 224 255
200 224 255
200 224 255
200 224 255
200 224 255
200 224 255
199 224 255
199 224 255
199 224 255
199 224 255
199 224 255
199 224 255
199 223 255
199 223 255
199 223 255
199 223 255
199 223 255
199 223 255
199 223 255
199 223 255
199 223 255
199 223 255
199 223 255
199 223 255
199 223 255
199 223 255
199 223 255
199 223 255
199 223 255
199 223 255
199 223 255
199 223 255
199 223 255
199 223 255
199 223 255
199 223 255
199 223 255
199 223 255
199 223 255
199 223 255
199 223 255
199 223 255
199 223 255
199 223 255
199 223 255
199 223 255
199 223 255
199 223 255
199 223 255
199 223 255
199 223 255
199 223 255
199 223 255
199 223 255
199 223 255
199 223 255
199 224 255
199 224 255
199 224 255
199 224 255
199 224 255
200 224 255
200 224 255
200 224 255
200 224 255
200 224 255
200 224 255
200 224 255
200 224 255
200 224 255
200 224 255
200 224 255
200 224 255
200 224 255
200 224 255
200 224 255
200 224 255
200 224 255
200 224 255
200 224 255
200 224 255
200 224 255
200 224 255
200 224 255
200 224 255
201 224 255
201 224 255
201 224 255
201 224 255
201 224 255
201 224 255
201 224 255
201 224 255
201 224 255
201 224 255
201 224 255
201 224 255
201 224 255
201 225 255
201 225 255
201 225 255
201 225 255
201 225 255
202 225 255
202 225 255
202 225 255
202 225 255
202 225 255
202 225 255
202 225 255
202 225 255
202 225 255
202 225 255
202 225 255
202 225 255
202 225 255
202 225 255
202 225 255
203 225 255
203 225 255
203 225 255
203 225 255
203 225 255
203 225 255
203 225 255
203 225 255
203 225 255
203 226 255
203 226 255
203 226 255
203 226 255
203 226 255
203 226 255
203 226 255
204 226 255
204 226 255
204 226 255
204 226 255
204 226 255
204 226 255
204 226 255
204 226 255
204 226 255
204 226 255
204 226 255
204 226 255
204 226 255
204 226 255
204 226 255
204 226 255
205 226 255
205 226 255
205 226 255
205 226 255
205 226 255
205 226 255
205 227 255
205 227 255
205 227 255
205 227 255
205 227 255
205 227 255
205 227 255
205 227 255
205 227 255
205 227 255
206 227 255
206 227 255
206 227 255
206 227 255
206 227 255
206 227 255
206 227 255
206 227 255
206 227 255
206 227 255
206 227 255
206 227 255
206 227 255
206 227 255
206 227 255
206 227 255
206 227 255
206 227 255
207 227 255
207 227 255
207 227 255
207 227 255
207 228 255
207 228 255
207 228 255
207 228 255
207 228 255
207 228 255
207 228 255
207 228 255
207 228 255
207 228 255
207 228 255
207 228 255
207 228 255
207 228 255
208 228 255
208 228 255
208 228 255
208 228 255
208 228 255
208 228 255
208 228 255
208 228 255
208 228 255
208 228 255
208 228 255
208 228 255
208 228 255
208 228 255
208 228 255
208 228 255
208 228 255
208 228 255
208 228 255
208 228 255
208 228 255
209 228 255
209 228 255
209 229 255
209 229 255
209 229 255
209 229 255
209 229 255
209 229 255
209 229 255
209 229 255
209 229 255
209 229 255
209 229 255
209 229 255
209 229 255
209 229 255
209 229 255
209 229 255
209 229 255
209 229 255
209 229 255
209 229 255
209 229 255
209 228 255
209 228 255
208 228 255
208 228 255
208 228 255
208 228 255
208 228 255
208 228 255
208 228 255
208 228 255
208 228 255
208 228 255
208 228 255
208 228 255
208 228 255
208 228 255
208 228 255
208 228 255
208 228 255
208 228 255
208 228 255
208 228 255
208 228 255
207 228 255
207 228 255
207 228 255
207 228 255
207 228 255
207 228 255
207 228 255
207 228 255
207 228 255
207 228 255
207 228 255
207 228 255
207 228 255
207 228 255
207 227 255
207 227 255
207 227 255
207 227 255
207 227 255
206 227 255
206 227 255
206 227 255
206 227 255
206 227 255
206 227 255
206 227 255
206 227 255
206 227 255
206 227 255
206 227 255
206 227 255
206 227 255
206 227 255
206 227 255
206 227 255
206 227 255
205 227 255
205 227 255
205 227 255
205 227 255
205 227 255
205 227 255
205 227 255
205 227 255
205 227 255
205 227 255
205 226 255
205 226 255
205 226 255
205 226 255
205 226 255
205 226 255
204 226 255
204 226 255
204 226 255
204 226 255
204 226 255
204 226 255
204 226 255
204 226 255
204 226 255
204 226 255
204 226 255
204 226 255
204 226 255
204 226 255
204 226 255
204 226 255
203 226 255
203 226 255
203 226 255
203 226 255
203 226 255
203 226 255
203 226 255
203 225 255
203 225 255
203 225 255
203 225 255
203 225 255
203 225 255
203 225 255
203 225 255
203 225 255
202 225 255
202 225 255
202 225 255
202 225 255
202 225 255
202 225 255
202 225 255
202 225 255
202 225 255
202 225 255
202 225 255
202 225 255
202 225 255
202 225 255
202 225 255
202 225 255
201 225 255
201 225 255
201 225 255
201 225 255
201 225 255
201 224 255
201 224 255
201 224 255
201 224 255
201 224 255
201 224 255
201 224 255
201 224 255
201 224 255
201 224 255
201 224 255
201 224 255
201 224 255
200 224 255
200 224 255
200 224 255
200 224 255
200 224 255
200 224 255
200 224 255
200 224 255
200 224 255
200 224 255
200 224 255
200 224 255
200 224 255
200 224 255
200 224 255
200 224 255
200 224 255
200 224 255
200 224 255
200 224 255
200 224 255
200 224 255
200 224 255
200 224 255
200 224 255
200 224 255
199 224 255
199 224 255
199 224 255
199 224 255
199 224 255
199 224 255
199 224 255
199 224 255
199 224 255
199 223 255
199 223 255
199 223 255
199 223 255
199 223 255
199 223 255
199 223 255
199 223 255
199 223 255
199 223 255
199 223 255
199 223 255
199 223 255
199 223 255
199 223 255
199 223 255
199 223 255
199 223 255
199 223 255
199 223 255
199 223 255
199 223 255
199 223 255
199 223 255
199 223 255
199 224 255
199 224 255
199 224 255
199 224 255
199 224 255
199 224 255
199 224 255
199 224 255
200 224 255
200 224 255
200 224 255
200 224 255
200 224 255
200 224 255
200 224 255
200 224 255
200 224 255
200 224 255
200 224 255
200 224 255
200 224 255
200 224 255
200 224 255
200 224 255
200 224 255
200 224 255
200 224 255
200 224 255
200 224 255
200 224 255
200 224 255
200 224 255
200 224 255
200 224 255
201 224 255
201 224 255
201 224 255
201 224 255
201 224 255
201 224 255
201 224 255
201 224 255
201 224 255
201 224 255
201 224 255
201 224 255
201 224 255
201 225 255
201 225 255
201 225 255
201 225 255
201 225 255
202 225 255
202 225 255
202 225 255
202 225 255
202 225 255
202 225 255
202 225 255
202 225 255
202 225 255
202 225 255
202 225 255
202 225 255
202 225 255
202 225 255
202 225 255
202 225 255
202 225 255
203 225 255
203 225 255
203 225 255
203 225 255
203 225 255
203 225 255
203 225 255
203 225 255
203 226 255
203 226 255
203 226 255
203 226 255
203 226 255
203 226 255
203 226 255
204 226 255
204 226 255
204 226 255
204 226 255
204 226 255
204 226 255
204 226 255
204 226 255
204 226 255
204 226 255
204 226 255
204 226 255
204 226 255
204 226 255
204 226 255
204 226 255
205 226 255
205 226 255
205 226 255
205 226 255
205 226 255
205 226 255
205 226 255
205 227 255
205 227 255
205 227 255
205 227 255
205 227 255
205 227 255
205 227 255
205 227 255
205 227 255
206 227 255
206 227 255
206 227 255
206 227 255
206 227 255
206 227 255
206 227 255
206 227 255
206 227 255
206 227 255
206 227 255
206 227 255
206 227 255
206 227 255
206 227 255
206 227 255
206 227 255
206 227 255
207 227 255
207 227 255
207 227 255
207 227 255
207 228 255
207 228 255
207 228 255
207 228 255
207 228 255
207 228 255
207 228 255
207 228 255
207 228 255
207 228 255
207 228 255
207 228 255
207 228 255
207 228 255
208 228 255
208 228 255
208 228 255
208 228 255
208 228 255
208 228 255
208 228 255
208 228 255
208 228 255
208 228 255
208 228 255
208 228 255
208 228 255
208 228 255
208 228 255
208 228 255
208 228 255
208 228 255
208 228 255
208 228 255
208 228 255
209 228 255
209 229 255
209 229 255
209 229 255
209 229 255
209 229 255
209 229 255
209 229 255
209 229 255
209 229 255
209 229 255
209 229 255
209 229 255
209 229 255
209 229 255
209 229 255
209 229 255
209 229 255
209 229 255
209 229 255
209 229 255
209 229 255
209 229 255
209 229 255
209 229 255
209 229 255
209 229 255
209 229 255
209 229 255
209 229 255
209 228 255
208 228 255
208 228 255
208 228 255
208 228 255
208 228 255
208 228 255
208 228 255
208 228 255
208 228 255
208 228 255
208 228 255
208 228 255
208 228 255
208 228 255
208 228 255
208 228 255
208 228 255
208 228 255
208 228 255
208 228 255
208 228 255
207 228 255
207 228 255
207 228 255
207 228 255
207 228 255
207 228 255
207 228 255
207 228 255
207 228 255
207 228 255
207 228 255
207 228 255
207 228 255
207 228 255
207 227 255
207 227 255
207 227 255
207 227 255
207 227 255
206 227 255
206 227 255
206 227 255
206 227 255
206 227 255
206 227 255
206 227 255
206 227 255
206 227 255
206 227 255
206 227 255
206 227 255
206 227 255
206 227 255
206 227 255
206 227 255
206 227 255
205 227 255
205 227 255
205 227 255
205 227 255
205 227 255
205 227 255
205 227 255
205 227 255
205 227 255
205 227 255
205 226 255
205 226 255
205 226 255
205 226 255
205 226 255
205 226 255
204 226 255
204 226 255
204 226 255
204 226 255
204 226 255
204 226 255
204 226 255
204 226 255
204 226 255
204 226 255
204 226 255
204 226 255
204 226 255
204 226 255
204 226 255
204 226 255
203 226 255
203 226 255
203 226 255
203 226 255
203 226 255
203 226 255
203 226 255
203 225 255
203 225 255
203 225 255
203 225 255
203 225 255
203 225 255
203 225 255
203 225 255
203 225 255
202 225 255
202 225 255
202 225 255
202 225 255
202 225 255
202 225 255
202 225 255
202 225 255
202 225 255
202 225 255
202 225 255
202 225 255
202 225 255
202 225 255
202 225 255
202 225 255
201 225 255
201 225 255
201 225 255
201 225 255
201 225 255
201 225 255
201 224 255
201 224 255
201 224 255
201 224 255
201 224 255
201 224 255
201 224 255
201 224 255
201 224 255
201 224 255
201 224 255
201 224 255
201 224 255
200 224 255
200 224 255
200 224 255
200 224 255
200 224 255
200 224 255
200 224 255
200 224 255
200 224 255
200 224 255
200 224 255
200 224 255
200 224 255
200 224 255
200 224 255
200 224 255
200 224 255
200 224 255
200 224 255
200 224 255
200 224 255
200 224 255
200 224 255
200 224 255
200 224 255
200 224 255
200 224 255
200 224 255
200 224 255
200 224 255
200 224 255
200 224 255
200 224 255
200 224 255
200 224 255
199 224 255
199 224 255
199 224 255
199 224 255
199 224 255
199 224 255
199 224 255
199 224 255
199 224 255
199 224 255
199 224 255
199 224 255
199 224 255
199 224 255
199 224 255
199 224 255
199 224 255
200 224 255
200 224 255
200 224 255
200 224 255
200 224 255
200 224 255
200 224 255
200 224 255
200 224 255
200 224 255
200 224 255
200 224 255
200 224 255
200 224 255
200 224 255
200 224 255
200 224 255
200 224 255
200 224 255
200 224 255
200 224 255
200 224 255
200 224 255
200 224 255
200 224 255
200 224 255
200 224 255
200 224 255
200 224 255
200 224 255
200 224 255
200 224 255
200 224 255
200 224 255
201 224 255
201 224 255
201 224 255
201 224 255
201 224 255
201 224 255
201 224 255
201 224 255
201 224 255
201 224 255
201 224 255
201 224 255
201 224 255
201 225 255
201 225 255
201 225 255
201 225 255
201 225 255
201 225 255
202 225 255
202 225 255
202 225 255
202 225 255
202 225 255
202 225 255
202 225 255
202 225 255
202 225 255
202 225 255
202 225 255
202 225 255
202 225 255
202 225 255
202 225 255
202 225 255
203 225 255
203 225 255
203 225 255
203 225 255
203 225 255
203 225 255
203 225 255
203 225 255
203 225 255
203 226 255
203 226 255
203 226 255
203 226 255
203 226 255
203 226 255
203 226 255
204 226 255
204 226 255
204 226 255
204 226 255
204 226 255
204 226 255
204 226 255
204 226 255
204 226 255
204 226 255
204 226 255
204 226 255
204 226 255
204 226 255
204 226 255
204 226 255
205 226 255
205 226 255
205 226 255
205 226 255
205 226 255
205 226 255
205 226 255
205 227 255
205 227 255
205 227 255
205 227 255
205 227 255
205 227 255
205 227 255
205 227 255
205 227 255
206 227 255
206 227 255
206 227 255
206 227 255
206 227 255
206 227 255
206 227 255
206 227 255
206 227 255
206 227 255
206 227 255
206 227 255
206 227 255
206 227 255
206 227 255
206 227 255
206 227 255
207 227 255
207 227 255
207 227 255
207 227 255
207 227 255
207 228 255
207 228 255
207 228 255
207 228 255
207 228 255
207 228 255
207 228 255
207 228 255
207 228 255
207 228 255
207 228 255
207 228 255
207 228 255
207 228 255
208 228 255
208 228 255
208 228 255
208 228 255
208 228 255
208 228 255
208 228 255
208 228 255
208 228 255
208 228 255
208 228 255
208 228 255
208 228 255
208 228 255
208 228 255
208 228 255
208 228 255
208 228 255
208 228 255
208 228 255
208 228 255
209 228 255
209 229 255
209 229 255
209 229 255
209 229 255
209 229 255
209 229 255
209 229 255
209 229 255
209 229 255
209 229 255
209 229 255
209 229 255
209 229 255
209 229 255
209 229 255
209 229 255
209 229 255
209 229 255
209 229 255
209 229 255
209 229 255
209 229 255
209 229 255
209 229 255
209 229 255
209 229 255
209 229 255
209 229 255
209 229 255
209 229 255
209 229 255
209 229 255
209 229 255
209 229 255
209 229 255
209 228 255
209 228 255
208 228 255
208 228 255
208 228 255
208 228 255
208 228 255
208 228 255
208 228 255
208 228 255
208 228 255
208 228 255
208 228 255
208 228 255
208 228 255
208 228 255
208 228 255
208 228 255
208 228 255
208 228 255
208 228 255
208 228 255
207 228 255
207 228 255
207 228 255
207 228 255
207 228 255
207 228 255
207 228 255
207 228 255
207 228 255
207 228 255
207 228 255
207 228 255
207 228 255
207 228 255
207 227 255
207 227 255
207 227 255
207 227 255
207 227 255
206 227 255
206 227 255
206 227 255
206 227 255
206 227 255
206 227 255
206 227 255
206 227 255
206 227 255
206 227 255
206 227 255
206 227 255
206 227 255
206 227 255
206 227 255
206 227 255
206 227 255
205 227 255
205 227 255
205 227 255
205 227 255
205 227 255
205 227 255
205 227 255
205 227 255
205 227 255
205 227 255
205 226 255
205 226 255
205 226 255
205 226 255
205 226 255
205 226 255
204 226 255
204 226 255
204 226 255
204 226 255
204 226 255
204 226 255
204 226 255
204 226 255
204 226 255
204 226 255
204 226 255
204 226 255
204 226 255
204 226 255
204 226 255
204 226 255
203 226 255
203 226 255
203 226 255
203 226 255
203 226 255
203 226 255
203 226 255
203 225 255
203 225 255
203 225 255
203 225 255
203 225 255
203 225 255
203 225 255
203 225 255
203 225 255
202 225 255
202 225 255
202 225 255
202 225 255
202 225 255
202 225 255
202 225 255
202 225 255
202 225 255
202 225 255
202 225 255
202 225 255
202 225 255
202 225 255
202 225 255
202 225 255
202 225 255
201 225 255
201 225 255
201 225 255
201 225 255
201 225 255
201 224 255
201 224 255
201 224 255
201 224 255
201 224 255
201 224 255
201 224 255
201 224 255
201 224 255
201 224 255
201 224 255
201 224 255
201 224 255
201 224 255
201 224 255
200 224 255
200 224 255
200 224 255
200 224 255
200 224 255
200 224 255
200 224 255
200 224 255
200 224 255
200 224 255
200 224 255
200 224 255
200 224 255
200 224 255
200 224 255
200 224 255
200 224 255
200 224 255
200 224 255
200 224 255
200 224 255
200 224 255
200 224 255
200 224 255
200 224 255
200 224 255
200 224 255
200 224 255
200 224 255
200 224 255
200 224 255
200 224 255
200 224 255
200 224 255
200 224 255
200 224 255
200 224 255
200 224 255
200 224 255
200 224 255
200 224 255
200 224 255
200 224 255
200 224 255
200 224 255
200 224 255
200 224 255
200 224 255
200 224 255
200 224 255
200 224 255
200 224 255
200 224 255
200 224 255
200 224 255
200 224 255
200 224 255
200 224 255
200 224 255
200 224 255
200 224 255
200 224 255
200 224 255
200 224 255
200 224 255
200 224 255
200 224 255
200 224 255
200 224 255
200 224 255
200 224 255
200 224 255
200 224 255
200 224 255
200 224 255
200 224 255
201 224 255
201 224 255
201 224 255
201 224 255
201 224 255
201 224 255
201 224 255
201 224 255
201 224 255
201 224 255
201 224 255
201 224 255
201 224 255
201 224 255
201 224 255
201 225 255
201 225 255
201 225 255
201 225 255
201 225 255
202 225 255
202 225 255
202 225 255
202 225 255
202 225 255
202 225 255
202 225 255
202 225 255
202 225 255
202 225 255
202 225 255
202 225 255
202 225 255
202 225 255
202 225 255
202 225 255
202 225 255
203 225 255
203 225 255
203 225 255
203 225 255
203 225 255
203 225 255
203 225 255
203 225 255
203 225 255
203 226 255
203 226 255
203 226 255
203 226 255
203 226 255
203 226 255
203 226 255
204 226 255
204 226 255
204 226 255
204 226 255
204 226 255
204 226 255
204 226 255
204 226 255
204 226 255
204 226 255
204 226 255
204 226 255
204 226 255
204 226 255
204 226 255
204 226 255
205 226 255
205 226 255
205 226 255
205 226 255
205 226 255
205 226 255
205 226 255
205 227 255
205 227 255
205 227 255
205 227 255
205 227 255
205 227 255
205 227 255
205 227 255
205 227 255
206 227 255
206 227 255
206 227 255
206 227 255
206 227 255
206 227 255
206 227 255
206 227 255
206 227 255
206 227 255
206 227 255
206 227 255
206 227 255
206 227 255
206 227 255
206 227 255
206 227 255
207 227 255
207 227 255
207 227 255
207 227 255
207 227 255
207 228 255
207 228 255
207 228 255
207 228 255
207 228 255
207 228 255
207 228 255
207 228 255
207 228 255
207 228 255
207 228 255
207 228 255
207 228 255
207 228 255
208 228 255
208 228 255
208 228 255
208 228 255
208 228 255
208 228 255
208 228 255
208 228 255
208 228 255
208 228 255
208 228 255
208 228 255
208 228 255
208 228 255
208 228 255
208 228 255
208 228 255
208 228 255
208 228 255
208 228 255
209 228 255
209 228 255
209 229 255
209 229 255
209 229 255
209 229 255
209 229 255
209 229 255
209 229 255
209 229 255
209 229 255
209 229 255
209 229 255
209 229 255
209 229 255
209 229 255
209 229 255
209 229 255
209 229 255
209 229 255
209 229 255
210 229 255
209 229 255
209 229 255
209 229 255
209 229 255
209 229 255
209 229 255
209 229 255
209 229 255
209 229 255
209 229 255
209 229 255
209 229 255
209 229 255
209 229 255
209 229 255
209 229 255
209 229 255
209 229 255
209 229 255
209 229 255
209 229 255
209 228 255
209 228 255
208 228 255
208 228 255
208 228 255
208 228 255
208 228 255
208 228 255
208 228 255
208 228 255
208 228 255
208 228 255
208 228 255
208 228 255
208 228 255
208 228 255
208 228 255
208 228 255
208 228 255
208 228 255
208 228 255
208 228 255
207 228 255
207 228 255
207 228 255
207 228 255
207 228 255
207 228 255
207 228 255
207 228 255
207 228 255
207 228 255
207 228 255
207 228 255
207 228 255
207 228 255
207 227 255
207 227 255
207 227 255
207 227 255
207 227 255
206 227 255
206 227 255
206 227 255
206 227 255
206 227 255
206 227 255
206 227 255
206 227 255
206 227 255
206 227 255
206 227 255
206 227 255
206 227 255
206 227 255
206 227 255
206 227 255
206 227 255
205 227 255
205 227 255
205 227 255
205 227 255
205 227 255
205 227 255
205 227 255
205 227 255
205 227 255
205 227 255
205 226 255
205 226 255
205 226 255
205 226 255
205 226 255
205 226 255
204 226 255
204 226 255
204 226 255
204 226 255
204 226 255
204 226 255
204 226 255
204 226 255
204 226 255
204 226 255
204 226 255
204 226 255
204 226 255
204 226 255
204 226 255
204 226 255
203 226 255
203 226 255
203 226 255
203 226 255
203 226 255
203 226 255
203 226 255
203 225 255
203 225 255
203 225 255
203 225 255
203 225 255
203 225 255
203 225 255
203 225 255
203 225 255
202 225 255
202 225 255
202 225 255
202 225 255
202 225 255
202 225 255
202 225 255
202 225 255
202 225 255
202 225 255
202 225 255
202 225 255
202 225 255
202 225 255
202 225 255
202 225 255
202 225 255
202 225 255
201 225 255
201 225 255
201 225 255
201 225 255
201 225 255
201 224 255
201 224 255
201 224 255
201 224 255
201 224 255
201 224 255
201 224 255
201 224 255
201 224 255
201 224 255
201 224 255
201 224 255
201 224 255
201 224 255
201 224 255
201 224 255
200 224 255
200 224 255
200 224 255
200 224 255
200 224 255
200 224 255
200 224 255
200 224 255
200 224 255
200 224 255
200 224 255
200 224 255
200 224 255
200 224 255
200 224 255
200 224 255
200 224 255
200 224 255
200 224 255
200 224 255
200 224 255
200 224 255
200 224 255
200 224 255
200 224 255
200 224 255
200 224 255
200 224 255
200 224 255
200 224 255
200 224 255
200 224 255
200 224 255
200 224 255
200 224 255
200 224 255
200 224 255
200 224 255
200 224 255
200 224 255
200 224 255
200 224 255
200 224 255
200 224 255
200 224 255
200 224 255
200 224 255
200 224 255
200 224 255
200 224 255
200 224 255
200 224 255
200 224 255
200 224 255
200 224 255
200 224 255
200 224 255
200 224 255
200 224 255
200 224 255
200 224 255
200 224 255
200 224 255
200 224 255
200 224 255
200 224 255
201 224 255
201 224 255
201 224 255
201 224 255
201 224 255
201 224 255
201 224 255
201 224 255
201 224 255
201 224 255
201 224 255
201 224 255
201 224 255
201 224 255
201 224 255
201 224 255
201 225 255
201 225 255
201 225 255
201 225 255
201 225 255
201 225 255
202 225 255
202 225 255
202 225 255
202 225 255
202 225 255
202 225 255
202 225 255
202 225 255
202 225 255
202 225 255
202 225 255
202 225 255
202 225 255
202 225 255
202 225 255
202 225 255
202 225 255
203 225 255
203 225 255
203 225 255
203 225 255
203 225 255
203 225 255
203 225 255
203 225 255
203 225 255
203 226 255
203 226 255
203 226 255
203 226 255
203 226 255
203 226 255
203 226 255
204 226 255
204 226 255
204 226 255
204 226 255
204 226 255
204 226 255
204 226 255
204 226 255
204 226 255
204 226 255
204 226 255
204 226 255
204 226 255
204 226 255
204 226 255
204 226 255
205 226 255
205 226 255
205 226 255
205 226 255
205 226 255
205 226 255
205 227 255
205 227 255
205 227 255
205 227 255
205 227 255
205 227 255
205 227 255
205 227 255
205 227 255
205 227 255
206 227 255
206 227 255
206 227 255
206 227 255
206 227 255
206 227 255
206 227 255
206 227 255
206 227 255
206 227 255
206 227 255
206 227 255
206 227 255
206 227 255
206 227 255
206 227 255
206 227 255
207 227 255
207 227 255
207 227 255
207 227 255
207 227 255
207 228 255
207 228 255
207 228 255
207 228 255
207 228 255
207 228 255
207 228 255
207 228 255
207 228 255
207 228 255
207 228 255
207 228 255
207 228 255
207 228 255
208 228 255
208 228 255
208 228 255
208 228 255
208 228 255
208 228 255
208 228 255
208 228 255
208 228 255
208 228 255
208 228 255
208 228 255
208 228 255
208 228 255
208 228 255
208 228 255
208 228 255
208 228 255
208 228 255
208 228 255
209 228 255
209 228 255
209 229 255
209 229 255
209 229 255
209 229 255
209 229 255
209 229 255
209 229 255
209 229 255
209 229 255
209 229 255
209 229 255
209 229 255
209 229 255
209 229 255
209 229 255
209 229 255
209 229 255
209 229 255
209 229 255
209 229 255
209 229 255
210 229 255
210 229 255
210 229 255
210 229 255
210 229 255
210 229 255
209 229 255
209 229 255
209 229 255
209 229 255
209 229 255
209 229 255
209 229 255
209 229 255
209 229 255
209 229 255
209 229 255
209 229 255
209 229 255
209 229 255
209 229 255
209 229 255
209 229 255
209 229 255
209 229 255
209 229 255
209 229 255
209 228 255
209 228 255
208 228 255
208 228 255
208 228 255
208 228 255
208 228 255
208 228 255
208 228 255
208 228 255
208 228 255
208 228 255
208 228 255
208 228 255
208 228 255
208 228 255
208 228 255
208 228 255
208 228 255
208 228 255
208 228 255
207 228 255
207 228 255
207 228 255
207 228 255
207 228 255
207 228 255
207 228 255
207 228 255
207 228 255
207 228 255
207 228 255
207 228 255
207 228 255
207 228 255
207 227 255
207 227 255
207 227 255
207 227 255
206 227 255
206 227 255
206 227 255
206 227 255
206 227 255
206 227 255
206 227 255
206 227 255
206 227 255
206 227 255
206 227 255
206 227 255
206 227 255
206 227 255
206 227 255
206 227 255
206 227 255
206 227 255
205 227 255
205 227 255
205 227 255
205 227 255
205 227 255
205 227 255
205 227 255
205 227 255
205 227 255
205 227 255
205 226 255
205 226 255
205 226 255
205 226 255
205 226 255
205 226 255
204 226 255
204 226 255
204 226 255
204 226 255
204 226 255
204 226 255
204 226 255
204 226 255
204 226 255
204 226 255
204 226 255
204 226 255
204 226 255
204 226 255
204 226 255
204 226 255
203 226 255
203 226 255
203 226 255
203 226 255
203 226 255
203 226 255
203 226 255
203 225 255
203 225 255
203 225 255
203 225 255
203 225 255
203 225 255
203 225 255
203 225 255
203 225 255
203 225 255
202 225 255
202 225 255
202 225 255
202 225 255
202 225 255
202 225 255
202 225 255
202 225 255
202 225 255
202 225 255
202 225 255
202 225 255
202 225 255
202 225 255
202 225 255
202 225 255
202 225 255
201 225 255
201 225 255
201 225 255
201 225 255
201 225 255
201 225 255
201 225 255
201 224 255
201 224 255
201 224 255
201 224 255
201 224 255
201 224 255
201 224 255
201 224 255
201 224 255
201 224 255
201 224 255
201 224 255
201 224 255
201 224 255
201 224 255
201 224 255
201 224 255
201 224 255
200 224 255
200 224 255
200 224 255
200 224 255
200 224 255
200 224 255
200 224 255
200 224 255
200 224 255
200 224 255
200 224 255
200 224 255
200 224 255
200 224 255
200 224 255
200 224 255
200 224 255
200 224 255
200 224 255
200 224 255
200 224 255
200 224 255
200 224 255
200 224 255
200 224 255
200 224 255
200 224 255
200 224 255
200 224 255
200 224 255
200 224 255
200 224 255
200 224 255
200 224 255
200 224 255
200 224 255
200 224 255
200 224 255
200 224 255
200 224 255
200 224 255
200 224 255
200 224 255
200 224 255
200 224 255
200 224 255
200 224 255
200 224 255
200 224 255
200 224 255
200 224 255
200 224 255
201 224 255
201 224 255
201 224 255
201 224 255
201 224 255
201 224 255
201 224 255
201 224 255
201 224 255
201 224 255
201 224 255
201 224 255
201 224 255
201 224 255
201 224 255
201 224 255
201 224 255
201 224 255
201 225 255
201 225 255
201 225 255
201 225 255
201 225 255
201 225 255
202 225 255
202 225 255
202 225 255
202 225 255
202 225 255
202 225 255
202 225 255
202 225 255
202 225 255
202 225 255
202 225 255
202 225 255
202 225 255
202 225 255
202 225 255
202 225 255
202 225 255
202 225 255
203 225 255
203 225 255
203 225 255
203 225 255
203 225 255
203 225 255
203 225 255
203 225 255
203 225 255
203 225 255
203 226 255
203 226 255
203 226 255
203 226 255
203 226 255
203 226 255
203 226 255
204 226 255
204 226 255
204 226 255
204 226 255
204 226 255
204 226 255
204 226 255
204 226 255
204 226 255
204 226 255
204 226 255
204 226 255
204 226 255
204 226 255
204 226 255
204 226 255
205 226 255
205 226 255
205 226 255
205 226 255
205 226 255
205 226 255
205 227 255
205 227 255
205 227 255
205 227 255
205 227 255
205 227 255
205 227 255
205 227 255
205 227 255
205 227 255
206 227 255
206 227 255
206 227 255
206 227 255
206 227 255
206 227 255
206 227 255
206 227 255
206 227 255
206 227 255
206 227 255
206 227 255
206 227 255
206 227 255
206 227 255
206 227 255
206 227 255
207 227 255
207 227 255
207 227 255
207 227 255
207 228 255
207 228 255
207 228 255
207 228 255
207 228 255
207 228 255
207 228 255
207 228 255
207 228 255
207 228 255
207 228 255
207 228 255
207 228 255
207 228 255
208 228 255
208 228 255
208 228 255
208 228 255
208 228 255
208 228 255
208 228 255
208 228 255
208 228 255
208 228 255
208 228 255
208 228 255
208 228 255
208 228 255
208 228 255
208 228 255
208 228 255
208 228 255
208 228 255
208 228 255
208 228 255
209 228 255
209 229 255
209 229 255
209 229 255
209 229 255
209 229 255
209 229 255
209 229 255
209 229 255
209 229 255
209 229 255
209 229 255
209 229 255
209 229 255
209 229 255
209 229 255
209 229 255
209 229 255
209 229 255
209 229 255
209 229 255
209 229 255
210 229 255
210 229 255
210 229 255
210 229 255
210 229 255
210 229 255
210 229 255
210 229 255
210 229 255
210 229 255
210 229 255
210 229 255
210 229 255
210 229 255
209 229 255
209 229 255
209 229 255
209 229 255
209 229 255
209 229 255
209 229 255
209 229 255
209 229 255
209 229 255
209 229 255
209 229 255
209 229 255
209 229 255
209 229 255
209 229 255
209 229 255
209 229 255
209 229 255
209 229 255
209 228 255
209 228 255
208 228 255
208 228 255
208 228 255
208 228 255
208 228 255
208 228 255
208 228 255
208 228 255
208 228 255
208 228 255
208 228 255
208 228 255
208 228 255
208 228 255
208 228 255
208 228 255
208 228 255
208 228 255
208 228 255
208 228 255
207 228 255
207 228 255
207 228 255
207 228 255
207 228 255
207 228 255
207 228 255
207 228 255
207 228 255
207 228 255
207 228 255
207 228 255
207 228 255
207 228 255
207 227 255
207 227 255
207 227 255
207 227 255
206 227 255
206 227 255
206 227 255
206 227 255
206 227 255
206 227 255
206 227 255
206 227 255
206 227 255
206 227 255
206 227 255
206 227 255
206 227 255
206 227 255
206 227 255
206 227 255
206 227 255
205 227 255
205 227 255
205 227 255
205 227 255
205 227 255
205 227 255
205 227 255
205 227 255
205 227 255
205 227 255
205 226 255
205 226 255
205 226 255
205 226 255
205 226 255
205 226 255
205 226 255
204 226 255
204 226 255
204 226 255
204 226 255
204 226 255
204 226 255
204 226 255
204 226 255
204 226 255
204 226 255
204 226 255
204 226 255
204 226 255
204 226 255
204 226 255
203 226 255
203 226 255
203 226 255
203 226 255
203 226 255
203 226 255
203 226 255
203 226 255
203 225 255
203 225 255
203 225 255
203 225 255
203 225 255
203 225 255
203 225 255
203 225 255
203 225 255
202 225 255
202 225 255
202 225 255
202 225 255
202 225 255
202 225 255
202 225 255
202 225 255
202 225 255
202 225 255
202 225 255
202 225 255
202 225 255
202 225 255
202 225 255
202 225 255
202 225 255
202 225 255
202 225 255
201 225 255
201 225 255
201 225 255
201 225 255
201 225 255
201 225 255
201 224 255
201 224 255
201 224 255
201 224 255
201 224 255
201 224 255
201 224 255
201 224 255
201 224 255
201 224 255
201 224 255
201 224 255
201 224 255
201 224 255
201 224 255
201 224 255
201 224 255
201 224 255
201 224 255
201 224 255
201 224 255
200 224 255
200 224 255
200 224 255
200 224 255
200 224 255
200 224 255
200 224 255
200 224 255
200 224 255
200 224 255
200 224 255
200 224 255
200 224 255
200 224 255
200 224 255
200 224 255
200 224 255
200 224 255
200 224 255
200 224 255
200 224 255
200 224 255
200 224 255
200 224 255
200 224 255
200 224 255
200 224 255
200 224 255
200 224 255
200 224 255
200 224 255
200 224 255
200 224 255
200 224 255
200 224 255
200 224 255
200 224 255
201 224 255
201 224 255
201 224 255
201 224 255
201 224 255
201 224 255
201 224 255
201 224 255
201 224 255
201 224 255
201 224 255
201 224 255
201 224 255
201 224 255
201 224 255
201 224 255
201 224 255
201 224 255
201 224 255
201 224 255
201 224 255
201 225 255
201 225 255
201 225 255
201 225 255
201 225 255
201 225 255
201 225 255
202 225 255
202 225 255
202 225 255
202 225 255
202 225 255
202 225 255
202 225 255
202 225 255
202 225 255
202 225 255
202 225 255
202 225 255
202 225 255
202 225 255
202 225 255
202 225 255
202 225 255
202 225 255
202 225 255
203 225 255
203 225 255
203 225 255
203 225 255
203 225 255
203 225 255
203 225 255
203 225 255
203 225 255
203 226 255
203 226 255
203 226 255
203 226 255
203 226 255
203 226 255
203 226 255
203 226 255
204 226 255
204 226 255
204 226 255
204 226 255
204 226 255
204 226 255
204 226 255
204 226 255
204 226 255
204 226 255
204 226 255
204 226 255
204 226 255
204 226 255
204 226 255
204 226 255
205 226 255
205 226 255
205 226 255
205 226 255
205 226 255
205 226 255
205 227 255
205 227 255
205 227 255
205 227 255
205 227 255
205 227 255
205 227 255
205 227 255
205 227 255
205 227 255
206 227 255
206 227 255
206 227 255
206 227 255
206 227 255
206 227 255
206 227 255
206 227 255
206 227 255
206 227 255
206 227 255
206 227 255
206 227 255
206 227 255
206 227 255
206 227 255
206 227 255
207 227 255
207 227 255
207 227 255
207 227 255
207 228 255
207 228 255
207 228 255
207 228 255
207 228 255
207 228 255
207 228 255
207 228 255
207 228 255
207 228 255
207 228 255
207 228 255
207 228 255
207 228 255
208 228 255
208 228 255
208 228 255
208 228 255
208 228 255
208 228 255
208 228 255
208 228 255
208 228 255
208 228 255
208 228 255
208 228 255
208 228 255
208 228 255
208 228 255
208 228 255
208 228 255
208 228 255
208 228 255
208 228 255
209 228 255
209 228 255
209 229 255
209 229 255
209 229 255
209 229 255
209 229 255
209 229 255
209 229 255
209 229 255
209 229 255
209 229 255
209 229 255
209 229 255
209 229 255
209 229 255
209 229 255
209 229 255
209 229 255
209 229 255
209 229 255
209 229 255
210 229 255
210 229 255
210 229 255
210 229 255
210 229 255
210 229 255
210 229 255
210 229 255
210 229 255
210 229 255
210 229 255
210 229 255
210 229 255
210 229 255
210 229 255
210 229 255
210 229 255
210 229 255
210 229 255
210 229 255
210 229 255
209 229 255
209 229 255
209 229 255
209 229 255
209 229 255
209 229 255
209 229 255
209 229 255
209 229 255
209 229 255
209 229 255
209 229 255
209 229 255
209 229 255
209 229 255
209 229 255
209 229 255
209 229 255
209 229 255
209 229 255
209 229 255
209 228 255
208 228 255
208 228 255
208 228 255
208 228 255
208 228 255
208 228 255
208 228 255
208 228 255
208 228 255
208 228 255
208 228 255
208 228 255
208 228 255
208 228 255
208 228 255
208 228 255
208 228 255
208 228 255
208 228 255
208 228 255
207 228 255
207 228 255
207 228 255
207 228 255
207 228 255
207 228 255
207 228 255
207 228 255
207 228 255
207 228 255
207 228 255
207 228 255
207 228 255
207 228 255
207 227 255
207 227 255
207 227 255
207 227 255
206 227 255
206 227 255
206 227 255
206 227 255
206 227 255
206 227 255
206 227 255
206 227 255
206 227 255
206 227 255
206 227 255
206 227 255
206 227 255
206 227 255
206 227 255
206 227 255
206 227 255
205 227 255
205 227 255
205 227 255
205 227 255
205 227 255
205 227 255
205 227 255
205 227 255
205 227 255
205 227 255
205 226 255
205 226 255
205 226 255
205 226 255
205 226 255
205 226 255
204 226 255
204 226 255
204 226 255
204 226 255
204 226 255
204 226 255
204 226 255
204 226 255
204 226 255
204 226 255
204 226 255
204 226 255
204 226 255
204 226 255
204 226 255
204 226 255
204 226 255
203 226 255
203 226 255
203 226 255
203 226 255
203 226 255
203 226 255
203 226 255
203 225 255
203 225 255
203 225 255
203 225 255
203 225 255
203 225 255
203 225 255
203 225 255
203 225 255
203 225 255
202 225 255
202 225 255
202 225 255
202 225 255
202 225 255
202 225 255
202 225 255
202 225 255
202 225 255
202 225 255
202 225 255
202 225 255
202 225 255
202 225 255
202 225 255
202 225 255
202 225 255
202 225 255
202 225 255
202 225 255
201 225 255
201 225 255
201 225 255
201 225 255
201 225 255
201 225 255
201 225 255
201 224 255
201 224 255
201 224 255
201 224 255
201 224 255
201 224 255
201 224 255
201 224 255
201 224 255
201 224 255
201 224 255
201 224 255
201 224 255
201 224 255
201 224 255
201 224 255
201 224 255
201 224 255
201 224 255
201 224 255
201 224 255
201 224 255
201 224 255
201 224 255
201 224 255
201 224 255
201 224 255
201 224 255
201 224 255
201 224 255
201 224 255
201 224 255
201 224 255
201 224 255
201 224 255
201 224 255
201 224 255
201 224 255
201 224 255
201 224 255
201 224 255
201 224 255
201 224 255
201 224 255
201 224 255
201 224 255
201 224 255
201 224 255
201 224 255
201 224 255
201 224 255
201 224 255
201 224 255
201 224 255
201 224 255
201 224 255
201 224 255
201 224 255
201 224 255
201 224 255
201 224 255
201 224 255
201 224 255
201 224 255
201 224 255
201 224 255
201 224 255
201 224 255
201 224 255
201 225 255
201 225 255
201 225 255
201 225 255
201 225 255
201 225 255
201 225 255
202 225 255
202 225 255
202 225 255
202 225 255
202 225 255
202 225 255
202 225 255
202 225 255
202 225 255
202 225 255
202 225 255
202 225 255
202 225 255
202 225 255
202 225 255
202 225 255
202 225 255
202 225 255
202 225 255
203 225 255
203 225 255
203 225 255
203 225 255
203 225 255
203 225 255
203 225 255
203 225 255
203 225 255
203 225 255
203 226 255
203 226 255
203 226 255
203 226 255
203 226 255
203 226 255
203 226 255
204 226 255
204 226 255
204 226 255
204 226 255
204 226 255
204 226 255
204 226 255
204 226 255
204 226 255
204 226 255
204 226 255
204 226 255
204 226 255
204 226 255
204 226 255
204 226 255
204 226 255
205 226 255
205 226 255
205 226 255
205 226 255
205 226 255
205 226 255
205 227 255
205 227 255
205 227 255
205 227 255
205 227 255
205 227 255
205 227 255
205 227 255
205 227 255
205 227 255
206 227 255
206 227 255
206 227 255
206 227 255
206 227 255
206 227 255
206 227 255
206 227 255
206 227 255
206 227 255
206 227 255
206 227 255
206 227 255
206 227 255
206 227 255
206 227 255
206 227 255
207 227 255
207 227 255
207 227 255
207 227 255
207 228 255
207 228 255
207 228 255
207 228 255
207 228 255
207 228 255
207 228 255
207 228 255
207 228 255
207 228 255
207 228 255
207 228 255
207 228 255
207 228 255
208 228 255
208 228 255
208 228 255
208 228 255
208 228 255
208 228 255
208 228 255
208 228 255
208 228 255
208 228 255
208 228 255
208 228 255
208 228 255
208 228 255
208 228 255
208 228 255
208 228 255
208 228 255
208 228 255
208 228 255
209 228 255
209 229 255
209 229 255
209 229 255
209 229 255
209 229 255
209 229 255
209 229 255
209 229 255
209 229 255
209 229 255
209 229 255
209 229 255
209 229 255
209 229 255
209 229 255
209 229 255
209 229 255
209 229 255
209 229 255
209 229 255
209 229 255
210 229 255
210 229 255
210 229 255
210 229 255
210 229 255
210 229 255
210 229 255
210 229 255
210 229 255
210 229 255
210 229 255
210 229 255
210 229 255
210 229 255
210 229 255
210 229 255
210 229 255
210 229 255
210 229 255
210 229 255
210 229 255
210 229 255
210 229 255
210 229 255
210 229 255
210 229 255
210 229 255
210 229 255
209 229 255
209 229 255
209 229 255
209 229 255
209 229 255
209 229 255
209 229 255
209 229 255
209 229 255
209 229 255
209 229 255
209 229 255
209 229 255
209 229 255
209 229 255
209 229 255
209 229 255
209 229 255
209 229 255
209 229 255
209 228 255
209 228 255
208 228 255
208 228 255
208 228 255
208 228 255
208 228 255
208 228 255
208 228 255
208 228 255
208 228 255
208 228 255
208 228 255
208 228 255
208 228 255
208 228 255
208 228 255
208 228 255
208 228 255
208 228 255
208 228 255
207 228 255
207 228 255
207 228 255
207 228 255
207 228 255
207 228 255
207 228 255
207 228 255
207 228 255
207 228 255
207 228 255
207 228 255
207 228 255
207 228 255
207 227 255
207 227 255
207 227 255
207 227 255
206 227 255
206 227 255
206 227 255
206 227 255
206 227 255
206 227 255
206 227 255
206 227 255
206 227 255
206 227 255
206 227 255
206 227 255
206 227 255
206 227 255
206 227 255
206 227 255
206 227 255
205 227 255
205 227 255
205 227 255
205 227 255
205 227 255
205 227 255
205 227 255
205 227 255
205 227 255
205 227 255
205 226 255
205 226 255
205 226 255
205 226 255
205 226 255
205 226 255
205 226 255
204 226 255
204 226 255
204 226 255
204 226 255
204 226 255
204 226 255
204 226 255
204 226 255
204 226 255
204 226 255
204 226 255
204 226 255
204 226 255
204 226 255
204 226 255
204 226 255
203 226 255
203 226 255
203 226 255
203 226 255
203 226 255
203 226 255
203 226 255
203 226 255
203 225 255
203 225 255
203 225 255
203 225 255
203 225 255
203 225 255
203 225 255
203 225 255
203 225 255
203 225 255
202 225 255
202 225 255
202 225 255
202 225 255
202 225 255
202 225 255
202 225 255
202 225 255
202 225 255
202 225 255
202 225 255
202 225 255
202 225 255
202 225 255
202 225 255
202 225 255
202 225 255
202 225 255
202 225 255
202 225 255
202 225 255
201 225 255
201 225 255
201 225 255
201 225 255
201 225 255
201 225 255
201 225 255
201 225 255
201 224 255
201 224 255
201 224 255
201 224 255
201 224 255
201 224 255
201 224 255
201 224 255
201 224 255
201 224 255
201 224 255
201 224 255
201 224 255
201 224 255
201 224 255
201 224 255
201 224 255
201 224 255
201 224 255
201 224 255
201 224 255
201 224 255
201 224 255
201 224 255
201 224 255
201 224 255
201 224 255
201 224 255
201 224 255
201 224 255
201 224 255
201 224 255
201 224 255
201 224 255
201 224 255
201 224 255
201 224 255
201 224 255
201 224 255
201 224 255
201 224 255
201 224 255
201 224 255
201 224 255
201 224 255
201 224 255
201 224 255
201 224 255
201 224 255
201 224 255
201 224 255
201 224 255
201 224 255
201 224 255
201 224 255
201 224 255
201 225 255
201 225 255
201 225 255
201 225 255
201 225 255
201 225 255
201 225 255
201 225 255
202 225 255
202 225 255
202 225 255
202 225 255
202 225 255
202 225 255
202 225 255
202 225 255
202 225 255
202 225 255
202 225 255
202 225 255
202 225 255
202 225 255
202 225 255
202 225 255
202 225 255
202 225 255
202 225 255
202 225 255
202 225 255
203 225 255
203 225 255
203 225 255
203 225 255
203 225 255
203 225 255
203 225 255
203 225 255
203 225 255
203 225 255
203 226 255
203 226 255
203 226 255
203 226 255
203 226 255
203 226 255
203 226 255
203 226 255
204 226 255
204 226 255
204 226 255
204 226 255
204 226 255
204 226 255
204 226 255
204 226 255
204 226 255
204 226 255
204 226 255
204 226 255
204 226 255
204 226 255
204 226 255
204 226 255
205 226 255
205 226 255
205 226 255
205 226 255
205 226 255
205 226 255
205 226 255
205 227 255
205 227 255
205 227 255
205 227 255
205 227 255
205 227 255
205 227 255
205 227 255
205 227 255
205 227 255
206 227 255
206 227 255
206 227 255
206 227 255
206 227 255
206 227 255
206 227 255
206 227 255
206 227 255
206 227 255
206 227 255
206 227 255
206 227 255
206 227 255
206 227 255
206 227 255
206 227 255
207 227 255
207 227 255
207 227 255
207 227 255
207 228 255
207 228 255
207 228 255
207 228 255
207 228 255
207 228 255
207 228 255
207 228 255
207 228 255
207 228 255
207 228 255
207 228 255
207 228 255
207 228 255
208 228 255
208 228 255
208 228 255
208 228 255
208 228 255
208 228 255
208 228 255
208 228 255
208 228 255
208 228 255
208 228 255
208 228 255
208 228 255
208 228 255
208 228 255
208 228 255
208 228 255
208 228 255
208 228 255
209 228 255
209 228 255
209 229 255
209 229 255
209 229 255
209 229 255
209 229 255
209 229 255
209 229 255
209 229 255
209 229 255
209 229 255
209 229 255
209 229 255
209 229 255
209 229 255
209 229 255
209 229 255
209 229 255
209 229 255
209 229 255
209 229 255
210 229 255
210 229 255
210 229 255
210 229 255
210 229 255
210 229 255
210 229 255
210 229 255
210 229 255
210 229 255
210 229 255
210 229 255
210 229 255
210 229 255
210 229 255
210 229 255
210 229 255
210 229 255
210 229 255
210 229 255
210 229 255
210 229 255
210 229 255
210 229 255
210 229 255
210 229 255
210 229 255
210 229 255
210 229 255
210 229 255
210 229 255
210 229 255
210 229 255
210 229 255
210 229 255
209 229 255
209 229 255
209 229 255
209 229 255
209 229 255
209 229 255
209 229 255
209 229 255
209 229 255
209 229 255
209 229 255
209 229 255
209 229 255
209 229 255
209 229 255
209 229 255
209 229 255
209 229 255
209 229 255
209 229 255
209 229 255
209 228 255
208 228 255
208 228 255
208 228 255
208 228 255
208 228 255
208 228 255
208 228 255
208 228 255
208 228 255
208 228 255
208 228 255
208 228 255
208 228 255
208 228 255
208 228 255
208 228 255
208 228 255
208 228 255
208 228 255
207 228 255
207 228 255
207 228 255
207 228 255
207 228 255
207 228 255
207 228 255
207 228 255
207 228 255
207 228 255
207 228 255
207 228 255
207 228 255
207 228 255
207 227 255
207 227 255
207 227 255
207 227 255
207 227 255
206 227 255
206 227 255
206 227 255
206 227 255
206 227 255
206 227 255
206 227 255
206 227 255
206 227 255
206 227 255
206 227 255
206 227 255
206 227 255
206 227 255
206 227 255
206 227 255
205 227 255
205 227 255
205 227 255
205 227 255
205 227 255
205 227 255
205 227 255
205 227 255
205 227 255
205 227 255
205 226 255
205 226 255
205 226 255
205 226 255
205 226 255
205 226 255
205 226 255
204 226 255
204 226 255
204 226 255
204 226 255
204 226 255
204 226 255
204 226 255
204 226 255
204 226 255
204 226 255
204 226 255
204 226 255
204 226 255
204 226 255
204 226 255
204 226 255
204 226 255
203 226 255
203 226 255
203 226 255
203 226 255
203 226 255
203 226 255
203 226 255
203 225 255
203 225 255
203 225 255
203 225 255
203 225 255
203 225 255
203 225 255
203 225 255
203 225 255
203 225 255
203 225 255
202 225 255
202 225 255
202 225 255
202 225 255
202 225 255
202 225 255
202 225 255
202 225 255
202 225 255
202 225 255
202 225 255
202 225 255
202 225 255
202 225 255
202 225 255
202 225 255
202 225 255
202 225 255
202 225 255
202 225 255
202 225 255
202 225 255
202 225 255
201 225 255
201 225 255
201 225 255
201 225 255
201 225 255
201 225 255
201 225 255
201 225 255
201 225 255
201 225 255
201 224 255
201 224 255
201 224 255
201 224 255
201 224 255
201 224 255
201 224 255
201 224 255
201 224 255
201 224 255
201 224 255
201 224 255
201 224 255
201 224 255
201 224 255
201 224 255
201 224 255
201 224 255
201 224 255
201 224 255
201 224 255
201 224 255
201 224 255
201 224 255
201 224 255
201 224 255
201 224 255
201 224 255
201 224 255
201 224 255
201 224 255
201 224 255
201 224 255
201 224 255
201 224 255
201 224 255
201 224 255
201 224 255
201 224 255
201 224 255
201 225 255
201 225 255
201 225 255
201 225 255
201 225 255
201 225 255
201 225 255
201 225 255
201 225 255
201 225 255
202 225 255
202 225 255
202 225 255
202 225 255
202 225 255
202 225 255
202 225 255
202 225 255
202 225 255
202 225 255
202 225 255
202 225 255
202 225 255
202 225 255
202 225 255
202 225 255
202 225 255
202 225 255
202 225 255
202 225 255
202 225 255
202 225 255
202 225 255
203 225 255
203 225 255
203 225 255
203 225 255
203 225 255
203 225 255
203 225 255
203 225 255
203 225 255
203 225 255
203 225 255
203 226 255
203 226 255
203 226 255
203 226 255
203 226 255
203 226 255
203 226 255
204 226 255
204 226 255
204 226 255
204 226 255
204 226 255
204 226 255
204 226 255
204 226 255
204 226 255
204 226 255
204 226 255
204 226 255
204 226 255
204 226 255
204 226 255
204 226 255
204 226 255
205 226 255
205 226 255
205 226 255
205 226 255
205 226 255
205 226 255
205 226 255
205 227 255
205 227 255
205 227 255
205 227 255
205 227 255
205 227 255
205 227 255
205 227 255
205 227 255
205 227 255
206 227 255
206 227 255
206 227 255
206 227 255
206 227 255
206 227 255
206 227 255
206 227 255
206 227 255
206 227 255
206 227 255
206 227 255
206 227 255
206 227 255
206 227 255
206 227 255
207 227 255
207 227 255
207 227 255
207 227 255
207 227 255
207 228 255
207 228 255
207 228 255
207 228 255
207 228 255
207 228 255
207 228 255
207 228 255
207 228 255
207 228 255
207 228 255
207 228 255
207 228 255
208 228 255
208 228 255
208 228 255
208 228 255
208 228 255
208 228 255
208 228 255
208 228 255
208 228 255
208 228 255
208 228 255
208 228 255
208 228 255
208 228 255
208 228 255
208 228 255
208 228 255
208 228 255
208 228 255
208 228 255
209 228 255
209 229 255
209 229 255
209 229 255
209 229 255
209 229 255
209 229 255
209 229 255
209 229 255
209 229 255
209 229 255
209 229 255
209 229 255
209 229 255
209 229 255
209 229 255
209 229 255
209 229 255
209 229 255
209 229 255
209 229 255
209 229 255
210 229 255
210 229 255
210 229 255
210 229 255
210 229 255
210 229 255
210 229 255
210 229 255
210 229 255
210 229 255
210 229 255
210 229 255
210 229 255
210 229 255
210 229 255
210 229 255
210 229 255
210 229 255
210 229 255
210 230 255
210 229 255
210 229 255
210 229 255
210 229 255
210 229 255
210 229 255
210 229 255
210 229 255
210 229 255
210 229 255
210 229 255
210 229 255
210 229 255
210 229 255
210 229 255
210 229 255
210 229 255
210 229 255
210 229 255
210 229 255
210 229 255
210 229 255
209 229 255
209 229 255
209 229 255
209 229 255
209 229 255
209 229 255
209 229 255
209 229 255
209 229 255
209 229 255
209 229 255
209 229 255
209 229 255
209 229 255
209 229 255
209 229 255
209 229 255
209 229 255
209 229 255
209 229 255
209 228 255
208 228 255
208 228 255
208 228 255
208 228 255
208 228 255
208 228 255
208 228 255
208 228 255
208 228 255
208 228 255
208 228 255
208 228 255
208 228 255
208 228 255
208 228 255
208 228 255
208 228 255
208 228 255
208 228 255
208 228 255
207 228 255
207 228 255
207 228 255
207 228 255
207 228 255
207 228 255
207 228 255
207 228 255
207 228 255
207 228 255
207 228 255
207 228 255
207 228 255
207 228 255
207 227 255
207 227 255
207 227 255
207 227 255
206 227 255
206 227 255
206 227 255
206 227 255
206 227 255
206 227 255
206 227 255
206 227 255
206 227 255
206 227 255
206 227 255
206 227 255
206 227 255
206 227 255
206 227 255
206 227 255
206 227 255
205 227 255
205 227 255
205 227 255
205 227 255
205 227 255
205 227 255
205 227 255
205 227 255
205 227 255
205 227 255
205 226 255
205 226 255
205 226 255
205 226 255
205 226 255
205 226 255
204 226 255
204 226 255
204 226 255
204 226 255
204 226 255
204 226 255
204 226 255
204 226 255
204 226 255
204 226 255
204 226 255
204 226 255
204 226 255
204 226 255
204 226 255
204 226 255
204 226 255
203 226 255
203 226 255
203 226 255
203 226 255
203 226 255
203 226 255
203 226 255
203 226 255
203 225 255
203 225 255
203 225 255
203 225 255
203 225 255
203 225 255
203 225 255
203 225 255
203 225 255
203 225 255
203 225 255
202 225 255
202 225 255
202 225 255
202 225 255
202 225 255
202 225 255
202 225 255
202 225 255
202 225 255
202 225 255
202 225 255
202 225 255
202 225 255
202 225 255
202 225 255
202 225 255
202 225 255
202 225 255
202 225 255
202 225 255
202 225 255
202 225 255
202 225 255
202 225 255
202 225 255
202 225 255
202 225 255
201 225 255
201 225 255
201 225 255
201 225 255
201 225 255
201 225 255
201 225 255
201 225 255
201 225 255
201 225 255
201 225 255
201 225 255
201 225 255
201 225 255
201 225 255
201 225 255
201 224 255
201 225 255
201 224 255
201 224 255
201 224 255
201 224 255
201 224 255
201 224 255
201 224 255
201 224 255
201 224 255
201 225 255
201 225 255
201 225 255
201 225 255
201 225 255
201 225 255
201 225 255
201 225 255
201 225 255
201 225 255
201 225 255
201 225 255
201 225 255
201 225 255
201 225 255
201 225 255
201 225 255
201 225 255
202 225 255
202 225 255
202 225 255
202 225 255
202 225 255
202 225 255
202 225 255
202 225 255
202 225 255
202 225 255
202 225 255
202 225 255
202 225 255
202 225 255
202 225 255
202 225 255
202 225 255
202 225 255
202 225 255
202 225 255
202 225 255
202 225 255
202 225 255
202 225 255
202 225 255
202 225 255
203 225 255
203 225 255
203 225 255
203 225 255
203 225 255
203 225 255
203 225 255
203 225 255
203 225 255
203 225 255
203 225 255
203 226 255
203 226 255
203 226 255
203 226 255
203 226 255
203 226 255
203 226 255
203 226 255
204 226 255
204 226 255
204 226 255
204 226 255
204 226 255
204 226 255
204 226 255
204 226 255
204 226 255
204 226 255
204 226 255
204 226 255
204 226 255
204 226 255
204 226 255
204 226 255
204 226 255
205 226 255
205 226 255
205 226 255
205 226 255
205 226 255
205 226 255
205 227 255
205 227 255
205 227 255
205 227 255
205 227 255
205 227 255
205 227 255
205 227 255
205 227 255
205 227 255
206 227 255
206 227 255
206 227 255
206 227 255
206 227 255
206 227 255
206 227 255
206 227 255
206 227 255
206 227 255
206 227 255
206 227 255
206 227 255
206 227 255
206 227 255
206 227 255
206 227 255
207 227 255
207 227 255
207 227 255
207 227 255
207 228 255
207 228 255
207 228 255
207 228 255
207 228 255
207 228 255
207 228 255
207 228 255
207 228 255
207 228 255
207 228 255
207 228 255
207 228 255
207 228 255
208 228 255
208 228 255
208 228 255
208 228 255
208 228 255
208 228 255
208 228 255
208 228 255
208 228 255
208 228 255
208 228 255
208 228 255
208 228 255
208 228 255
208 228 255
208 228 255
208 228 255
208 228 255
208 228 255
209 228 255
209 228 255
209 229 255
209 229 255
209 229 255
209 229 255
209 229 255
209 229 255
209 229 255
209 229 255
209 229 255
209 229 255
209 229 255
209 229 255
209 229 255
209 229 255
209 229 255
209 229 255
209 229 255
209 229 255
209 229 255
209 229 255
210 229 255
210 229 255
210 229 255
210 229 255
210 229 255
210 229 255
210 229 255
210 229 255
210 229 255
210 229 255
210 229 255
210 229 255
210 229 255
210 229 255
210 229 255
210 229 255
210 229 255
210 229 255
210 229 255
210 229 255
210 229 255
210 229 255
210 230 255
211 230 255
211 230 255
210 230 255
210 230 255
210 230 255
210 229 255
210 229 255
210 229 255
210 229 255
210 229 255
210 229 255
210 229 255
210 229 255
210 229 255
210 229 255
210 229 255
210 229 255
210 229 255
210 229 255
210 229 255
210 229 255
210 229 255
210 229 255
210 229 255
210 229 255
210 229 255
210 229 255
209 229 255
209 229 255
209 229 255
209 229 255
209 229 255
209 229 255
209 229 255
209 229 255
209 229 255
209 229 255
209 229 255
209 229 255
209 229 255
209 229 255
209 229 255
209 229 255
209 229 255
209 229 255
209 229 255
209 228 255
209 228 255
208 228 255
208 228 255
208 228 255
208 228 255
208 228 255
208 228 255
208 228 255
208 228 255
208 228 255
208 228 255
208 228 255
208 228 255
208 228 255
208 228 255
208 228 255
208 228 255
208 228 255
208 228 255
208 228 255
207 228 255
207 228 255
207 228 255
207 228 255
207 228 255
207 228 255
207 228 255
207 228 255
207 228 255
207 228 255
207 228 255
207 228 255
207 228 255
207 228 255
207 227 255
207 227 255
207 227 255
207 227 255
206 227 255
206 227 255
206 227 255
206 227 255
206 227 255
206 227 255
206 227 255
206 227 255
206 227 255
206 227 255
206 227 255
206 227 255
206 227 255
206 227 255
206 227 255
206 227 255
206 227 255
205 227 255
205 227 255
205 227 255
205 227 255
205 227 255
205 227 255
205 227 255
205 227 255
205 227 255
205 227 255
205 226 255
205 226 255
205 226 255
205 226 255
205 226 255
205 226 255
205 226 255
204 226 255
204 226 255
204 226 255
204 226 255
204 226 255
204 226 255
204 226 255
204 226 255
204 226 255
204 226 255
204 226 255
204 226 255
204 226 255
204 226 255
204 226 255
204 226 255
204 226 255
203 226 255
203 226 255
203 226 255
203 226 255
203 226 255
203 226 255
203 226 255
203 226 255
203 225 255
203 225 255
203 225 255
203 225 255
203 225 255
203 225 255
203 225 255
203 225 255
203 225 255
203 225 255
203 225 255
203 225 255
202 225 255
202 225 255
202 225 255
202 225 255
202 225 255
202 225 255
202 225 255
202 225 255
202 225 255
202 225 255
202 225 255
202 225 255
202 225 255
202 225 255
202 225 255
202 225 255
202 225 255
202 225 255
202 225 255
202 225 255
202 225 255
202 225 255
202 225 255
202 225 255
202 225 255
202 225 255
202 225 255
202 225 255
202 225 255
202 225 255
202 225 255
202 225 255
201 225 255
201 225 255
201 225 255
201 225 255
201 225 255
201 225 255
201 225 255
201 225 255
201 225 255
201 225 255
201 225 255
201 225 255
201 225 255
201 225 255
201 225 255
201 225 255
201 225 255
201 225 255
201 225 255
201 225 255
201 225 255
201 225 255
201 225 255
201 225 255
201 225 255
202 225 255
202 225 255
202 225 255
202 225 255
202 225 255
202 225 255
202 225 255
202 225 255
202 225 255
202 225 255
202 225 255
202 225 255
202 225 255
202 225 255
202 225 255
202 225 255
202 225 255
202 225 255
202 225 255
202 225 255
202 225 255
202 225 255
202 225 255
202 225 255
202 225 255
202 225 255
202 225 255
202 225 255
202 225 255
202 225 255
202 225 255
203 225 255
203 225 255
203 225 255
203 225 255
203 225 255
203 225 255
203 225 255
203 225 255
203 225 255
203 225 255
203 225 255
203 225 255
203 226 255
203 226 255
203 226 255
203 226 255
203 226 255
203 226 255
203 226 255
203 226 255
204 226 255
204 226 255
204 226 255
204 226 255
204 226 255
204 226 255
204 226 255
204 226 255
204 226 255
204 226 255
204 226 255
204 226 255
204 226 255
204 226 255
204 226 255
204 226 255
204 226 255
205 226 255
205 226 255
205 226 255
205 226 255
205 226 255
205 226 255
205 226 255
205 227 255
205 227 255
205 227 255
205 227 255
205 227 255
205 227 255
205 227 255
205 227 255
205 227 255
205 227 255
206 227 255
206 227 255
206 227 255
206 227 255
206 227 255
206 227 255
206 227 255
206 227 255
206 227 255
206 227 255
206 227 255
206 227 255
206 227 255
206 227 255
206 227 255
206 227 255
206 227 255
207 227 255
207 227 255
207 227 255
207 227 255
207 228 255
207 228 255
207 228 255
207 228 255
207 228 255
207 228 255
207 228 255
207 228 255
207 228 255
207 228 255
207 228 255
207 228 255
207 228 255
207 228 255
208 228 255
208 228 255
208 228 255
208 228 255
208 228 255
208 228 255
208 228 255
208 228 255
208 228 255
208 228 255
208 228 255
208 228 255
208 228 255
208 228 255
208 228 255
208 228 255
208 228 255
208 228 255
208 228 255
209 228 255
209 229 255
209 229 255
209 229 255
209 229 255
209 229 255
209 229 255
209 229 255
209 229 255
209 229 255
209 229 255
209 229 255
209 229 255
209 229 255
209 229 255
209 229 255
209 229 255
209 229 255
209 229 255
209 229 255
209 229 255
210 229 255
210 229 255
210 229 255
210 229 255
210 229 255
210 229 255
210 229 255
210 229 255
210 229 255
210 229 255
210 229 255
210 229 255
210 229 255
210 229 255
210 229 255
210 229 255
210 229 255
210 229 255
210 229 255
210 229 255
210 229 255
210 229 255
210 230 255
210 230 255
210 230 255
211 230 255
211 230 255
211 230 255
211 230 255
211 230 255
211 230 255
211 230 255
211 230 255
210 230 255
210 230 255
210 230 255
210 229 255
210 229 255
210 229 255
210 229 255
210 229 255
210 229 255
210 229 255
210 229 255
210 229 255
210 229 255
210 229 255
210 229 255
210 229 255
210 229 255
210 229 255
210 229 255
210 229 255
210 229 255
210 229 255
210 229 255
210 229 255
209 229 255
209 229 255
209 229 255
209 229 255
209 229 255
209 229 255
209 229 255
209 229 255
209 229 255
209 229 255
209 229 255
209 229 255
209 229 255
209 229 255
209 229 255
209 229 255
209 229 255
209 229 255
209 229 255
209 229 255
209 228 255
209 228 255
208 228 255
208 228 255
208 228 255
208 228 255
208 228 255
208 228 255
208 228 255
208 228 255
208 228 255
208 228 255
208 228 255
208 228 255
208 228 255
208 228 255
208 228 255
208 228 255
208 228 255
208 228 255
208 228 255
207 228 255
207 228 255
207 228 255
207 228 255
207 228 255
207 228 255
207 228 255
207 228 255
207 228 255
207 228 255
207 228 255
207 228 255
207 228 255
207 227 255
207 227 255
207 227 255
207 227 255
206 227 255
206 227 255
206 227 255
206 227 255
206 227 255
206 227 255
206 227 255
206 227 255
206 227 255
206 227 255
206 227 255
206 227 255
206 227 255
206 227 255
206 227 255
206 227 255
206 227 255
205 227 255
205 227 255
205 227 255
205 227 255
205 227 255
205 227 255
205 227 255
205 227 255
205 227 255
205 227 255
205 227 255
205 226 255
205 226 255
205 226 255
205 226 255
205 226 255
205 226 255
204 226 255
204 226 255
204 226 255
204 226 255
204 226 255
204 226 255
204 226 255
204 226 255
204 226 255
204 226 255
204 226 255
204 226 255
204 226 255
204 226 255
204 226 255
204 226 255
204 226 255
204 226 255
203 226 255
203 226 255
203 226 255
203 226 255
203 226 255
203 226 255
203 226 255
203 226 255
203 226 255
203 225 255
203 225 255
203 225 255
203 225 255
203 225 255
203 225 255
203 225 255
203 225 255
203 225 255
203 225 255
203 225 255
203 225 255
202 225 255
202 225 255
202 225 255
202 225 255
202 225 255
202 225 255
202 225 255
202 225 255
202 225 255
202 225 255
202 225 255
202 225 255
202 225 255
202 225 255
202 225 255
202 225 255
202 225 255
202 225 255
202 225 255
202 225 255
202 225 255
202 225 255
202 225 255
202 225 255
202 225 255
202 225 255
202 225 255
202 225 255
202 225 255
202 225 255
202 225 255
202 225 255
202 225 255
202 225 255
202 225 255
202 225 255
202 225 255
202 225 255
202 225 255
202 225 255
202 225 255
202 225 255
202 225 255
202 225 255
202 225 255
202 225 255
202 225 255
202 225 255
202 225 255
202 225 255
202 225 255
202 225 255
202 225 255
202 225 255
202 225 255
202 225 255
202 225 255
202 225 255
202 225 255
202 225 255
202 225 255
202 225 255
202 225 255
202 225 255
202 225 255
202 225 255
202 225 255
202 225 255
202 225 255
202 225 255
202 225 255
202 225 255
202 225 255
202 225 255
202 225 255
202 225 255
202 225 255
202 225 255
203 225 255
203 225 255
203 225 255
203 225 255
203 225 255
203 225 255
203 225 255
203 225 255
203 225 255
203 225 255
203 225 255
203 225 255
203 226 255
203 226 255
203 226 255
203 226 255
203 226 255
203 226 255
203 226 255
203 226 255
203 226 255
204 226 255
204 226 255
204 226 255
204 226 255
204 226 255
204 226 255
204 226 255
204 226 255
204 226 255
204 226 255
204 226 255
204 226 255
204 226 255
204 226 255
204 226 255
204 226 255
204 226 255
204 226 255
205 226 255
205 226 255
205 226 255
205 226 255
205 226 255
205 226 255
205 227 255
205 227 255
205 227 255
205 227 255
205 227 255
205 227 255
205 227 255
205 227 255
205 227 255
205 227 255
206 227 255
206 227 255
206 227 255
206 227 255
206 227 255
206 227 255
206 227 255
206 227 255
206 227 255
206 227 255
206 227 255
206 227 255
206 227 255
206 227 255
206 227 255
206 227 255
206 227 255
207 227 255
207 227 255
207 227 255
207 227 255
207 227 255
207 228 255
207 228 255
207 228 255
207 228 255
207 228 255
207 228 255
207 228 255
207 228 255
207 228 255
207 228 255
207 228 255
207 228 255
207 228 255
208 228 255
208 228 255
208 228 255
208 228 255
208 228 255
208 228 255
208 228 255
208 228 255
208 228 255
208 228 255
208 228 255
208 228 255
208 228 255
208 228 255
208 228 255
208 228 255
208 228 255
208 228 255
208 228 255
209 228 255
209 228 255
209 229 255
209 229 255
209 229 255
209 229 255
209 229 255
209 229 255
209 229 255
209 229 255
209 229 255
209 229 255
209 229 255
209 229 255
209 229 255
209 229 255
209 229 255
209 229 255
209 229 255
209 229 255
209 229 255
209 229 255
210 229 255
210 229 255
210 229 255
210 229 255
210 229 255
210 229 255
210 229 255
210 229 255
210 229 255
210 229 255
210 229 255
210 229 255
210 229 255
210 229 255
210 229 255
210 229 255
210 229 255
210 229 255
210 229 255
210 229 255
210 229 255
210 230 255
210 230 255
211 230 255
211 230 255
211 230 255
211 230 255
211 230 255
211 230 255
211 230 255
211 230 255
211 230 255
211 230 255
211 230 255
211 230 255
211 230 255
211 230 255
211 230 255
211 230 255
211 230 255
210 230 255
210 230 255
210 230 255
210 229 255
210 229 255
210 229 255
210 229 255
210 229 255
210 229 255
210 229 255
210 229 255
210 229 255
210 229 255
210 229 255
210 229 255
210 229 255
210 229 255
210 229 255
210 229 255
210 229 255
210 229 255
210 229 255
210 229 255
210 229 255
209 229 255
209 229 255
209 229 255
209 229 255
209 229 255
209 229 255
209 229 255
209 229 255
208 228 254
209 229 255
208 228 254
208 228 255
207 228 253
208 228 255
208 228 254
208 228 254
209 229 255
208 228 254
208 228 253
208 228 252
208 228 254
208 228 255
208 228 254
208 228 255
208 228 255
208 228 255
208 228 255
208 228 254
208 228 255
208 228 255
208 228 255
208 228 255
208 228 255
208 228 255
208 228 255
208 228 255
208 228 255
208 228 255
208 228 255
208 228 255
207 228 255
207 228 255
207 228 255
207 228 255
207 228 255
207 228 255
207 228 255
207 228 255
207 228 255
207 228 255
207 228 255
207 228 255
207 228 255
207 228 255
207 227 255
207 227 255
207 227 255
207 227 255
206 227 255
206 227 255
206 227 255
206 227 255
206 227 255
206 227 255
206 227 255
206 227 255
206 227 255
206 227 255
206 227 255
206 227 255
206 227 255
206 227 255
206 227 255
206 227 255
206 227 255
205 227 255
205 227 255
205 227 255
205 227 255
205 227 255
205 227 255
205 227 255
205 227 255
205 227 255
205 227 255
205 226 255
205 226 255
205 226 255
205 226 255
205 226 255
205 226 255
205 226 255
204 226 255
204 226 255
204 226 255
204 226 255
204 226 255
204 226 255
204 226 255
204 226 255
204 226 255
204 226 255
204 226 255
204 226 255
204 226 255
204 226 255
204 226 255
204 226 255
204 226 255
204 226 255
204 226 255
203 226 255
203 226 255
203 226 255
203 226 255
203 226 255
203 226 255
203 226 255
203 226 255
203 225 255
203 225 255
203 225 255
203 225 255
203 225 255
203 225 255
203 225 255
203 225 255
203 225 255
203 225 255
203 225 255
203 225 255
203 225 255
203 225 255
202 225 255
202 225 255
202 225 255
202 225 255
202 225 255
202 225 255
202 225 255
202 225 255
202 225 255
202 225 255
202 225 255
202 225 255
202 225 255
202 225 255
202 225 255
202 225 255
202 225 255
202 225 255
202 225 255
202 225 255
202 225 255
202 225 255
202 225 255
202 225 255
202 225 255
202 225 255
202 225 255
202 225 255
202 225 255
202 225 255
202 225 255
202 225 255
202 225 255
202 225 255
202 225 255
202 225 255
202 225 255
202 225 255
202 225 255
202 225 255
202 225 255
202 225 255
202 225 255
202 225 255
202 225 255
202 225 255
202 225 255
202 225 255
202 225 255
202 225 255
202 225 255
202 225 255
202 225 255
202 225 255
202 225 255
202 225 255
202 225 255
202 225 255
202 225 255
202 225 255
202 225 255
202 225 255
202 225 255
202 225 255
202 225 255
202 225 255
203 225 255
203 225 255
203 225 255
203 225 255
203 225 255
203 225 255
203 225 255
203 225 255
203 225 255
203 225 255
203 225 255
203 225 255
203 225 255
203 225 255
203 226 255
203 226 255
203 226 255
203 226 255
203 226 255
203 226 255
203 226 255
203 226 255
204 226 255
204 226 255
204 226 255
204 226 255
204 226 255
204 226 255
204 226 255
204 226 255
204 226 255
204 226 255
204 226 255
204 226 255
204 226 255
204 226 255
204 226 255
204 226 255
204 226 255
204 226 255
204 226 255
205 226 255
205 226 255
205 226 255
205 226 255
205 226 255
205 226 255
205 226 255
205 227 255
205 227 255
205 227 255
205 227 255
205 227 255
205 227 255
205 227 255
205 227 255
205 227 255
205 227 255
206 227 255
206 227 255
206 227 255
206 227 255
206 227 255
206 227 255
206 227 255
206 227 255
206 227 255
206 227 255
206 227 255
206 227 255
206 227 255
206 227 255
206 227 255
206 227 255
206 227 255
207 227 255
207 227 255
207 227 255
207 227 255
207 228 255
207 228 255
207 228 255
207 228 255
207 228 255
207 228 255
207 228 255
207 228 255
207 228 255
207 228 255
207 228 255
207 228 255
207 228 255
207 228 255
208 228 255
208 228 255
208 228 255
208 228 255
208 228 255
208 228 255
208 228 255
208 228 255
208 228 255
208 228 255
208 228 255
208 228 255
207 227 253
198 216 239
196 213 234
195 212 230
189 204 221
186 202 220
178 192 207
179 192 201
173 185 193
166 178 187
176 189 200
185 198 206
173 185 195
182 195 203
171 184 196
180 193 203
175 188 199
184 198 212
186 200 216
187 202 218
193 208 225
202 219 240
206 225 249
207 226 252
209 229 255
209 229 255
209 229 255
209 229 255
210 229 255
210 229 255
210 229 255
210 229 255
210 229 255
210 229 255
210 229 255
210 229 255
210 229 255
210 229 255
210 229 255
210 229 255
210 229 255
210 229 255
210 229 255
210 229 255
210 229 255
210 229 255
210 229 255
210 229 255
210 229 255
210 230 255
210 230 255
210 230 255
211 230 255
211 230 255
211 230 255
211 230 255
211 230 255
211 230 255
211 230 255
211 230 255
211 230 255
211 230 255
211 230 255
211 230 255
211 230 255
211 230 255
211 230 255
211 230 255
211 230 255
211 230 255
211 230 255
211 230 255
211 230 255
211 230 255
211 230 255
211 230 255
210 230 255
210 230 255
210 230 255
210 229 255
210 229 255
210 229 255
210 229 255
210 229 255
210 229 255
210 229 255
210 229 255
210 229 255
210 229 255
210 229 255
210 229 255
209 229 254
210 229 255
209 229 254
209 229 254
210 229 254
209 228 254
207 227 254
207 228 253
207 227 253
207 228 253
204 225 245
206 226 250
206 227 253
206 227 252
206 227 253
205 226 250
207 227 252
205 227 254
205 226 250
206 227 252
205 226 252
204 225 246
205 226 250
203 225 248
206 227 252
205 226 252
203 225 249
204 225 248
205 226 250
205 226 246
204 225 246
205 226 250
207 227 252
206 226 249
206 227 252
207 228 254
207 227 255
206 227 253
207 227 254
208 228 255
208 228 254
208 228 255
208 228 255
208 228 255
208 228 255
208 228 255
208 228 255
208 228 255
208 228 255
207 228 255
207 228 255
207 228 255
207 228 255
207 228 255
207 228 255
207 228 255
207 228 255
207 228 255
207 228 255
207 228 255
207 228 255
207 228 255
207 227 255
207 227 255
207 227 255
207 227 255
207 227 255
206 227 255
206 227 255
206 227 255
206 227 255
206 227 255
206 227 255
206 227 255
206 227 255
206 227 255
206 227 255
206 227 255
206 227 255
206 227 255
206 227 255
206 227 255
206 227 255
206 227 255
205 227 255
205 227 255
205 227 255
205 227 255
205 227 255
205 227 255
205 227 255
205 227 255
205 227 255
205 227 255
205 226 255
205 226 255
205 226 255
205 226 255
205 226 255
205 226 255
205 226 255
204 226 255
204 226 255
204 226 255
204 226 255
204 226 255
204 226 255
204 226 255
204 226 255
204 226 255
204 226 255
204 226 255
204 226 255
204 226 255
204 226 255
204 226 255
204 226 255
204 226 255
204 226 255
204 226 255
203 226 255
203 226 255
203 226 255
203 226 255
203 226 255
203 226 255
203 226 255
203 226 255
203 226 255
203 225 255
203 225 255
203 225 255
203 225 255
203 225 255
203 225 255
203 225 255
203 225 255
203 225 255
203 225 255
203 225 255
203 225 255
203 225 255
203 225 255
203 225 255
203 225 255
202 225 255
202 225 255
202 225 255
202 225 255
202 225 255
202 225 255
202 225 255
202 225 255
202 225 255
202 225 255
202 225 255
202 225 255
202 225 255
202 225 255
202 225 255
202 225 255
202 225 255
202 225 255
202 225 255
202 225 255
202 225 255
202 225 255
202 225 255
202 225 255
202 225 255
202 225 255
202 225 255
202 225 255
202 225 255
202 225 255
202 225 255
202 225 255
202 225 255
202 225 255
202 225 255
202 225 255
202 225 255
202 225 255
202 225 255
202 225 255
202 225 255
202 225 255
202 225 255
202 225 255
202 225 255
202 225 255
202 225 255
202 225 255
202 225 255
202 225 255
202 225 255
202 225 255
203 225 255
203 225 255
203 225 255
203 225 255
203 225 255
203 225 255
203 225 255
203 225 255
203 225 255
203 225 255
203 225 255
203 225 255
203 225 255
203 225 255
203 225 255
203 225 255
203 226 255
203 226 255
203 226 255
203 226 255
203 226 255
203 226 255
203 226 255
203 226 255
203 226 255
204 226 255
204 226 255
204 226 255
204 226 255
204 226 255
204 226 255
204 226 255
204 226 255
204 226 255
204 226 255
204 226 255
204 226 255
204 226 255
204 226 255
204 226 255
204 226 255
204 226 255
204 226 255
204 226 255
205 226 255
205 226 255
205 226 255
205 226 255
205 226 255
205 226 255
205 226 255
205 227 255
205 227 255
205 227 255
205 227 255
205 227 255
205 227 255
205 227 255
205 227 255
205 227 255
205 227 255
206 227 255
206 227 255
206 227 255
206 227 255
206 227 255
206 227 255
206 227 255
206 227 255
206 227 255
206 227 255
206 227 255
206 227 255
206 227 255
206 227 255
206 227 255
206 227 255
206 227 255
206 227 255
207 227 255
207 227 255
207 227 255
207 227 255
207 228 255
207 228 255
207 228 255
207 228 255
207 228 255
207 228 255
207 228 255
207 228 255
207 228 255
207 228 255
207 228 255
207 228 255
207 228 255
208 228 255
208 228 255
208 228 255
208 228 255
208 228 255
208 228 255
208 228 255
205 224 250
196 215 239
185 199 212
170 183 194
173 183 185
157 165 161
162 168 157
141 143 122
137 139 113
119 117 78
129 127 84
136 133 88
124 122 81
119 118 79
130 128 85
135 132 87
132 129 85
136 133 87
133 131 87
142 138 92
139 137 90
133 131 87
133 130 86
131 128 84
139 135 89
131 128 85
135 133 88
129 126 84
133 130 86
146 142 93
125 122 80
127 125 83
132 130 89
136 136 108
143 143 116
155 161 151
162 167 157
175 185 190
185 197 204
181 196 212
196 213 235
207 225 249
210 229 255
210 229 255
210 229 255
210 229 255
210 229 255
210 229 255
210 229 255
210 229 255
210 229 255
210 229 255
210 229 255
210 229 255
210 230 255
210 230 255
210 230 255
211 230 255
211 230 255
211 230 255
211 230 255
211 230 255
211 230 255
211 230 255
211 230 255
211 230 255
211 230 255
211 230 255
211 230 255
211 230 255
211 230 255
211 230 255
211 230 255
211 230 255
211 230 255
211 230 255
211 230 255
211 230 255
211 230 255
211 230 255
211 230 255
211 230 255
211 230 255
211 230 255
211 230 255
211 230 255
211 230 255
211 230 255
211 230 255
210 230 255
210 230 255
210 230 255
210 229 255
210 229 255
210 229 255
211 230 255
208 228 252
209 229 254
208 228 250
210 229 254
208 228 250
207 228 252
208 228 254
207 227 250
207 227 250
206 226 248
206 227 253
206 227 252
206 227 252
202 224 245
202 223 241
204 226 252
202 224 249
204 225 248
202 224 246
202 224 246
202 225 249
203 225 249
202 224 244
202 225 253
203 225 248
201 224 249
204 226 254
200 223 244
203 225 249
203 225 253
204 225 252
203 225 252
201 224 250
202 224 249
202 225 254
201 224 248
201 224 248
203 225 249
202 224 248
204 225 252
204 226 250
202 224 249
205 226 253
204 226 250
203 225 248
205 226 248
205 226 252
206 227 252
206 227 253
208 228 254
207 228 255
208 228 254
208 228 255
208 228 255
208 228 255
208 228 255
207 228 255
207 228 255
207 228 255
207 228 255
207 228 255
207 228 255
207 228 255
207 228 255
207 228 255
207 228 255
207 228 255
207 228 255
207 228 255
207 228 255
207 227 255
207 227 255
207 227 255
207 227 255
206 227 255
206 227 255
206 227 255
206 227 255
206 227 255
206 227 255
206 227 255
206 227 255
206 227 255
206 227 255
206 227 255
206 227 255
206 227 255
206 227 255
206 227 255
206 227 255
206 227 255
205 227 255
205 227 255
205 227 255
205 227 255
205 227 255
205 227 255
205 227 255
205 227 255
205 227 255
205 227 255
205 227 255
205 226 255
205 226 255
205 226 255
205 226 255
205 226 255
205 226 255
205 226 255
204 226 255
204 226 255
204 226 255
204 226 255
204 226 255
204 226 255
204 226 255
204 226 255
204 226 255
204 226 255
204 226 255
204 226 255
204 226 255
204 226 255
204 226 255
204 226 255
204 226 255
204 226 255
204 226 255
204 226 255
203 226 255
203 226 255
203 226 255
203 226 255
203 226 255
203 226 255
203 226 255
203 226 255
203 226 255
203 226 255
203 226 255
203 225 255
203 225 255
203 225 255
203 225 255
203 225 255
203 225 255
203 225 255
203 225 255
203 225 255
203 225 255
203 225 255
203 225 255
203 225 255
203 225 255
203 225 255
203 225 255
203 225 255
203 225 255
203 225 255
202 225 255
202 225 255
202 225 255
202 225 255
202 225 255
202 225 255
202 225 255
202 225 255
202 225 255
202 225 255
202 225 255
202 225 255
202 225 255
202 225 255
202 225 255
202 225 255
202 225 255
202 225 255
202 225 255
202 225 255
202 225 255
202 225 255
202 225 255
202 225 255
202 225 255
202 225 255
202 225 255
202 225 255
202 225 255
202 225 255
202 225 255
202 225 255
203 225 255
203 225 255
203 225 255
203 225 255
203 225 255
203 225 255
203 225 255
203 225 255
203 225 255
203 225 255
203 225 255
203 225 255
203 225 255
203 225 255
203 225 255
203 225 255
203 225 255
203 225 255
203 225 255
203 225 255
203 226 255
203 226 255
203 226 255
203 226 255
203 226 255
203 226 255
203 226 255
203 226 255
203 226 255
203 226 255
204 226 255
204 226 255
204 226 255
204 226 255
204 226 255
204 226 255
204 226 255
204 226 255
204 226 255
204 226 255
204 226 255
204 226 255
204 226 255
204 226 255
204 226 255
204 226 255
204 226 255
204 226 255
204 226 255
204 226 255
205 226 255
205 226 255
205 226 255
205 226 255
205 226 255
205 226 255
205 226 255
205 227 255
205 227 255
205 227 255
205 227 255
205 227 255
205 227 255
205 227 255
205 227 255
205 227 255
205 227 255
205 227 255
206 227 255
206 227 255
206 227 255
206 227 255
206 227 255
206 227 255
206 227 255
206 227 255
206 227 255
206 227 255
206 227 255
206 227 255
206 227 255
206 227 255
206 227 255
206 227 255
206 227 255
207 227 255
207 227 255
207 227 255
207 227 255
207 228 255
207 228 255
207 228 255
207 228 255
207 228 255
207 228 255
207 228 255
207 228 255
207 228 255
207 228 255
207 228 255
207 228 255
207 228 255
207 228 255
208 228 255
208 228 255
208 228 255
208 228 255
204 223 248
192 208 224
181 192 193
160 170 174
157 162 147
130 131 103
135 133 88
137 134 90
126 124 83
125 123 82
134 132 87
132 130 87
129 127 85
132 131 87
127 125 84
124 123 82
137 135 90
137 135 90
141 139 93
134 132 88
135 133 88
136 134 89
138 135 90
139 137 92
139 137 91
131 128 85
136 134 89
144 141 94
128 126 84
144 141 93
138 136 90
134 131 87
123 121 80
129 126 83
136 133 87
148 144 94
137 135 90
142 138 90
133 130 85
125 122 80
133 130 86
133 130 86
134 131 85
132 129 84
134 132 88
137 135 88
118 115 75
139 135 88
140 138 101
146 150 137
166 175 174
179 192 201
189 202 214
206 224 248
210 229 255
210 229 255
210 230 255
210 230 255
210 230 255
211 230 255
211 230 255
211 230 255
211 230 255
211 230 255
211 230 255
211 230 255
211 230 255
211 230 255
211 230 255
211 230 255
211 230 255
211 230 255
211 230 255
211 230 255
211 230 255
211 230 255
211 230 255
211 230 255
211 230 255
211 230 255
211 230 255
211 230 255
211 230 255
211 230 255
211 230 255
211 230 255
211 230 255
211 230 255
211 230 255
211 230 255
211 230 255
211 230 255
211 230 255
211 230 255
211 230 255
211 230 255
210 230 255
210 229 254
209 228 250
209 229 255
209 228 250
209 228 252
207 227 249
205 226 246
205 226 250
204 225 248
203 225 248
205 226 250
204 226 250
203 224 244
202 224 249
203 225 249
202 224 244
204 225 250
205 226 249
204 226 253
204 225 250
205 226 254
204 226 253
205 227 255
203 226 255
203 225 254
203 225 255
202 225 254
202 225 255
203 225 255
202 225 255
203 225 252
202 225 255
202 225 253
203 225 254
201 224 254
203 225 254
201 224 255
202 225 254
202 225 254
202 225 255
202 225 255
201 224 254
203 225 255
201 224 253
201 224 252
204 226 253
201 224 255
201 224 250
201 224 248
201 224 252
203 225 253
200 223 245
201 224 248
204 226 254
204 225 249
201 224 248
203 224 245
204 226 254
205 226 250
207 227 254
208 228 254
207 228 255
208 228 255
208 228 255
208 228 255
207 228 255
207 228 255
207 228 255
207 228 255
207 228 255
207 228 255
207 228 255
207 228 255
207 228 255
207 228 255
207 228 255
207 228 255
207 228 255
207 227 255
207 227 255
207 227 255
207 227 255
207 227 255
206 227 255
206 227 255
206 227 255
206 227 255
206 227 255
206 227 255
206 227 255
206 227 255
206 227 255
206 227 255
206 227 255
206 227 255
206 227 255
206 227 255
206 227 255
206 227 255
206 227 255
205 227 255
205 227 255
205 227 255
205 227 255
205 227 255
205 227 255
205 227 255
205 227 255
205 227 255
205 227 255
205 227 255
205 226 255
205 226 255
205 226 255
205 226 255
205 226 255
205 226 255
205 226 255
204 226 255
204 226 255
204 226 255
204 226 255
204 226 255
204 226 255
204 226 255
204 226 255
204 226 255
204 226 255
204 226 255
204 226 255
204 226 255
204 226 255
204 226 255
204 226 255
204 226 255
204 226 255
204 226 255
204 226 255
204 226 255
203 226 255
203 226 255
203 226 255
203 226 255
203 226 255
203 226 255
203 226 255
203 226 255
203 226 255
203 226 255
203 226 255
203 226 255
203 225 255
203 225 255
203 225 255
203 225 255
203 225 255
203 225 255
203 225 255
203 225 255
203 225 255
203 225 255
203 225 255
203 225 255
203 225 255
203 225 255
203 225 255
203 225 255
203 225 255
203 225 255
203 225 255
203 225 255
203 225 255
203 225 255
203 225 255
203 225 255
203 225 255
203 225 255
203 225 255
203 225 255
203 225 255
203 225 255
203 225 255
203 225 255
203 225 255
203 225 255
203 225 255
203 225 255
203 225 255
203 225 255
203 225 255
203 225 255
203 225 255
203 225 255
203 225 255
203 225 255
203 225 255
203 225 255
203 225 255
203 225 255
203 225 255
203 225 255
203 225 255
203 225 255
203 225 255
203 225 255
203 225 255
203 225 255
203 225 255
203 225 255
203 226 255
203 226 255
203 226 255
203 226 255
203 226 255
203 226 255
203 226 255
203 226 255
203 226 255
203 226 255
203 226 255
203 226 255
204 226 255
204 226 255
204 226 255
204 226 255
204 226 255
204 226 255
204 226 255
204 226 255
204 226 255
204 226 255
204 226 255
204 226 255
204 226 255
204 226 255
204 226 255
204 226 255
204 226 255
204 226 255
204 226 255
204 226 255
204 226 255
205 226 255
205 226 255
205 226 255
205 226 255
205 226 255
205 226 255
205 226 255
205 227 255
205 227 255
205 227 255
205 227 255
205 227 255
205 227 255
205 227 255
205 227 255
205 227 255
205 227 255
205 227 255
206 227 255
206 227 255
206 227 255
206 227 255
206 227 255
206 227 255
206 227 255
206 227 255
206 227 255
206 227 255
206 227 255
206 227 255
206 227 255
206 227 255
206 227 255
206 227 255
206 227 255
207 227 255
207 227 255
207 227 255
207 227 255
207 228 255
207 228 255
207 228 255
207 228 255
207 228 255
207 228 255
207 228 255
207 228 255
207 228 255
207 228 255
207 228 255
207 228 255
207 228 255
207 228 255
208 228 255
208 228 255
208 228 255
205 225 251
190 206 225
175 184 182
158 165 157
140 141 112
123 122 81
119 117 78
133 130 87
124 122 81
140 138 92
127 125 84
136 134 90
136 134 90
127 126 84
133 131 87
130 128 85
148 146 98
130 129 86
132 131 88
132 131 88
137 135 90
149 147 98
132 130 87
134 132 88
138 136 90
134 133 89
140 138 93
137 135 90
145 143 95
133 131 87
133 131 87
136 135 90
137 134 88
135 133 88
133 130 87
141 139 92
134 132 88
142 139 91
137 136 91
129 127 84
133 130 86
130 127 84
144 141 92
139 136 90
131 129 85
124 121 80
148 144 95
130 127 83
144 141 94
152 149 99
133 130 86
133 129 84
135 131 86
132 129 84
135 132 87
137 133 85
133 129 84
132 129 84
135 131 84
142 144 126
146 150 140
176 186 187
191 205 220
207 225 248
211 230 255
211 230 255
211 230 255
211 230 255
211 230 255
211 230 255
211 230 255
211 230 255
211 230 255
211 230 255
211 230 255
211 230 255
211 230 255
211 230 255
211 230 255
211 230 255
211 230 255
211 230 255
211 230 255
211 230 255
211 230 255
211 230 255
211 230 255
211 230 255
211 230 255
211 230 255
211 230 255
211 230 255
211 230 255
211 230 255
211 230 255
211 230 255
211 230 255
211 230 255
209 229 255
209 228 252
208 228 253
208 228 252
207 227 249
206 226 249
206 227 249
205 226 248
207 227 252
205 226 253
205 226 253
206 227 254
203 225 249
206 227 250
205 226 252
205 227 255
204 226 254
206 227 254
205 226 255
205 227 255
203 225 253
203 225 255
203 225 254
205 226 255
202 225 254
201 225 255
202 225 255
202 224 253
201 224 255
201 225 254
201 224 254
200 223 250
200 224 253
200 224 255
199 224 255
200 224 254
200 224 255
200 224 254
200 224 255
199 223 255
200 224 254
199 224 255
200 224 254
200 224 255
200 224 254
200 224 254
200 224 255
201 224 253
200 224 255
201 224 255
202 225 255
202 225 255
202 225 255
202 225 255
201 224 255
200 224 254
203 225 254
200 224 253
202 225 250
202 224 246
203 225 250
201 224 252
201 224 245
202 225 252
203 224 244
205 226 252
205 226 252
208 228 253
207 227 254
207 227 254
208 228 255
208 228 255
207 228 255
207 228 255
207 228 255
207 228 255
207 228 255
207 228 255
207 228 255
207 228 255
207 228 255
207 228 255
207 228 255
207 228 255
207 228 255
207 228 255
207 227 255
207 227 255
207 227 255
207 227 255
206 227 255
206 227 255
206 227 255
206 227 255
206 227 255
206 227 255
206 227 255
206 227 255
206 227 255
206 227 255
206 227 255
206 227 255
206 227 255
206 227 255
206 227 255
206 227 255
206 227 255
206 227 255
205 227 255
205 227 255
205 227 255
205 227 255
205 227 255
205 227 255
205 227 255
205 227 255
205 227 255
205 227 255
205 227 255
205 226 255
205 226 255
205 226 255
205 226 255
205 226 255
205 226 255
205 226 255
205 226 255
204 226 255
204 226 255
204 226 255
204 226 255
204 226 255
204 226 255
204 226 255
204 226 255
204 226 255
204 226 255
204 226 255
204 226 255
204 226 255
204 226 255
204 226 255
204 226 255
204 226 255
204 226 255
204 226 255
204 226 255
204 226 255
204 226 255
203 226 255
203 226 255
203 226 255
203 226 255
203 226 255
203 226 255
203 226 255
203 226 255
203 226 255
203 226 255
203 226 255
203 226 255
203 226 255
203 226 255
203 226 255
203 225 255
203 225 255
203 225 255
203 225 255
203 225 255
203 225 255
203 225 255
203 225 255
203 225 255
203 225 255
203 225 255
203 225 255
203 225 255
203 225 255
203 225 255
203 225 255
203 225 255
203 225 255
203 225 255
203 225 255
203 225 255
203 225 255
203 225 255
203 225 255
203 225 255
203 225 255
203 225 255
203 225 255
203 225 255
203 225 255
203 225 255
203 225 255
203 225 255
203 225 255
203 225 255
203 225 255
203 225 255
203 225 255
203 225 255
203 225 255
203 226 255
203 226 255
203 226 255
203 226 255
203 226 255
203 226 255
203 226 255
203 226 255
203 226 255
203 226 255
203 226 255
203 226 255
203 226 255
203 226 255
203 226 255
204 226 255
204 226 255
204 226 255
204 226 255
204 226 255
204 226 255
204 226 255
204 226 255
204 226 255
204 226 255
204 226 255
204 226 255
204 226 255
204 226 255
204 226 255
204 226 255
204 226 255
204 226 255
204 226 255
204 226 255
204 226 255
204 226 255
205 226 255
205 226 255
205 226 255
205 226 255
205 226 255
205 226 255
205 226 255
205 226 255
205 227 255
205 227 255
205 227 255
205 227 255
205 227 255
205 227 255
205 227 255
205 227 255
205 227 255
205 227 255
205 227 255
206 227 255
206 227 255
206 227 255
206 227 255
206 227 255
206 227 255
206 227 255
206 227 255
206 227 255
206 227 255
206 227 255
206 227 255
206 227 255
206 227 255
206 227 255
206 227 255
206 227 255
206 227 255
207 227 255
207 227 255
207 227 255
207 227 255
207 228 255
207 228 255
207 228 255
207 228 255
207 228 255
207 228 255
207 228 255
207 228 255
207 228 255
207 228 255
207 228 255
207 228 255
207 228 255
207 228 255
208 228 255
208 228 255
198 215 236
186 201 217
165 173 166
137 140 121
137 135 90
132 131 87
126 124 83
134 133 89
129 127 85
133 132 88
129 127 85
135 133 89
144 143 95
131 129 86
132 130 87
124 123 82
133 132 88
129 127 84
142 140 94
136 134 90
144 143 95
126 126 85
143 141 95
137 135 90
143 141 95
138 136 91
138 137 92
141 139 93
151 148 99
140 138 92
144 142 95
138 136 91
147 145 97
139 137 91
139 136 90
138 136 91
143 141 94
145 143 93
138 135 89
147 145 96
150 147 97
136 135 90
144 140 93
137 135 89
133 131 87
146 143 95
125 122 81
131 130 86
142 139 91
143 140 93
139 136 90
142 137 90
141 139 91
135 132 87
138 135 89
124 122 80
128 125 80
127 124 80
145 141 93
132 129 84
139 137 89
127 125 80
129 125 82
132 129 85
142 138 90
131 128 82
130 126 82
125 122 78
147 151 134
164 171 166
181 193 203
198 213 230
211 230 255
211 230 255
211 230 255
211 230 255
211 230 255
211 230 255
211 230 255
211 230 255
211 230 255
211 230 255
211 230 255
211 230 255
211 230 255
211 230 255
212 230 255
212 230 255
212 230 255
212 230 255
211 230 255
211 230 255
211 230 255
211 230 255
211 230 255
211 230 255
211 230 255
210 229 254
211 230 254
210 229 253
207 227 249
207 227 249
207 227 245
206 226 246
205 226 246
205 226 246
206 227 250
205 225 245
205 226 249
206 227 252
204 226 252
206 227 255
204 226 254
205 226 254
203 225 253
204 226 253
204 226 255
204 226 253
204 226 255
205 226 254
203 225 253
203 225 255
202 225 254
201 224 254
202 225 253
201 224 254
202 225 254
200 224 253
201 225 255
200 224 254
199 223 254
197 222 253
200 224 255
199 223 254
200 224 255
200 224 255
199 223 255
199 224 255
199 223 255
197 222 254
198 223 255
197 222 254
198 222 254
198 223 254
198 223 255
198 223 255
198 223 254
198 222 253
198 223 254
198 223 255
197 222 255
198 223 255
198 223 255
199 223 255
199 223 254
199 223 254
197 222 254
200 224 254
201 224 255
201 224 254
200 224 254
201 224 255
202 225 255
201 224 254
201 224 252
200 223 253
202 224 246
202 224 252
201 224 248
202 224 246
202 224 250
205 226 253
206 227 252
205 227 253
206 227 252
207 228 255
208 228 255
208 228 255
207 228 255
207 228 255
207 228 255
207 228 255
207 228 255
207 228 255
207 228 255
207 228 255
207 228 255
207 228 255
207 228 255
207 228 255
207 228 255
207 228 255
207 227 255
207 227 255
207 227 255
207 227 255
206 227 255
206 227 255
206 227 255
206 227 255
206 227 255
206 227 255
206 227 255
206 227 255
206 227 255
206 227 255
206 227 255
206 227 255
206 227 255
206 227 255
206 227 255
206 227 255
206 227 255
206 227 255
205 227 255
205 227 255
205 227 255
205 227 255
205 227 255
205 227 255
205 227 255
205 227 255
205 227 255
205 227 255
205 227 255
205 226 255
205 226 255
205 226 255
205 226 255
205 226 255
205 226 255
205 226 255
205 226 255
204 226 255
204 226 255
204 226 255
204 226 255
204 226 255
204 226 255
204 226 255
204 226 255
204 226 255
204 226 255
204 226 255
204 226 255
204 226 255
204 226 255
204 226 255
204 226 255
204 226 255
204 226 255
204 226 255
204 226 255
204 226 255
204 226 255
204 226 255
204 226 255
204 226 255
203 226 255
203 226 255
203 226 255
203 226 255
203 226 255
203 226 255
203 226 255
203 226 255
203 226 255
203 226 255
203 226 255
203 226 255
203 226 255
203 226 255
203 226 255
203 226 255
203 226 255
203 226 255
203 226 255
203 226 255
203 226 255
203 226 255
203 226 255
203 226 255
203 226 255
203 226 255
203 226 255
203 226 255
203 226 255
203 226 255
203 226 255
203 226 255
203 226 255
203 226 255
203 226 255
203 226 255
203 226 255
203 226 255
203 226 255
203 226 255
203 226 255
203 226 255
203 226 255
203 226 255
203 226 255
203 226 255
203 226 255
203 226 255
203 226 255
203 226 255
203 226 255
203 226 255
203 226 255
203 226 255
203 226 255
203 226 255
204 226 255
204 226 255
204 226 255
204 226 255
204 226 255
204 226 255
204 226 255
204 226 255
204 226 255
204 226 255
204 226 255
204 226 255
204 226 255
204 226 255
204 226 255
204 226 255
204 226 255
204 226 255
204 226 255
204 226 255
204 226 255
204 226 255
204 226 255
204 226 255
205 226 255
205 226 255
205 226 255
205 226 255
205 226 255
205 226 255
205 226 255
205 226 255
205 226 255
205 227 255
205 227 255
205 227 255
205 227 255
205 227 255
205 227 255
205 227 255
205 227 255
205 227 255
205 227 255
205 227 255
206 227 255
206 227 255
206 227 255
206 227 255
206 227 255
206 227 255
206 227 255
206 227 255
206 227 255
206 227 255
206 227 255
206 227 255
206 227 255
206 227 255
206 227 255
206 227 255
206 227 255
206 227 255
207 227 255
207 227 255
207 227 255
207 227 255
207 228 255
207 228 255
207 228 255
207 228 255
207 228 255
207 228 255
207 228 255
207 228 255
207 228 255
207 228 255
207 228 255
207 228 255
207 228 255
207 228 255
208 228 255
208 228 255
202 220 244
172 184 192
157 166 162
132 135 113
128 126 84
124 123 82
134 132 88
135 133 89
130 129 86
132 131 87
131 129 87
146 144 97
141 139 93
135 133 89
143 141 95
130 128 86
135 134 90
143 141 95
145 144 97
138 138 93
137 135 90
139 137 92
138 136 91
133 132 89
145 144 97
147 146 98
147 145 97
143 141 94
140 138 93
137 136 91
148 145 97
142 140 94
156 154 103
142 140 94
141 139 93
134 133 90
142 140 94
137 135 90
146 143 95
137 135 90
140 138 93
135 133 88
136 134 88
131 128 85
138 136 90
145 143 95
144 142 95
141 139 92
142 139 93
145 143 93
142 139 92
138 135 89
137 135 90
151 147 97
142 140 91
146 142 93
142 139 91
131 129 86
150 146 97
129 126 83
136 132 85
136 133 87
139 137 90
132 130 84
134 131 86
140 136 87
133 130 84
144 141 93
140 137 89
132 128 82
140 137 90
132 130 84
133 130 83
139 135 87
120 117 73
130 126 81
143 144 118
156 161 154
184 198 212
204 222 246
211 230 255
211 230 255
211 230 255
211 230 255
211 230 255
211 230 255
212 230 255
212 230 255
212 230 255
212 230 255
212 230 255
212 230 255
212 230 255
212 230 255
212 230 255
212 230 255
212 230 255
211 230 254
211 230 255
212 230 255
209 229 252
210 229 253
207 227 248
208 228 252
207 227 250
207 227 250
207 227 250
205 226 248
205 226 250
205 226 249
206 227 255
206 227 254
207 228 254
206 227 254
205 227 255
204 226 252
204 226 255
205 227 255
203 225 254
202 224 253
202 225 254
203 226 255
203 225 254
201 224 253
201 225 254
199 223 253
201 224 255
200 224 255
200 224 254
200 223 254
200 224 255
199 224 255
199 223 252
200 224 254
198 223 253
198 223 254
198 223 254
200 224 255
198 223 255
196 222 253
197 222 254
196 222 255
197 222 255
198 223 255
197 222 253
196 222 254
195 221 254
197 222 253
196 222 254
196 221 252
196 222 255
196 222 255
196 221 253
196 222 254
195 221 255
197 223 255
196 222 254
197 222 254
198 223 255
197 222 255
196 222 253
197 222 255
198 223 255
198 222 253
198 223 254
198 223 255
199 223 252
198 222 253
198 223 255
199 223 254
199 223 255
201 224 255
200 224 254
203 226 254
202 225 254
199 222 246
201 223 246
200 223 246
204 226 253
205 226 250
206 227 252
207 227 254
208 228 255
208 228 255
208 228 255
208 228 255
207 228 255
207 228 255
207 228 255
207 228 255
207 228 255
207 228 255
207 228 255
207 228 255
207 228 255
207 228 255
207 228 255
207 228 255
207 228 255
207 228 255
207 227 255
207 227 255
207 227 255
207 227 255
206 227 255
206 227 255
206 227 255
206 227 255
206 227 255
206 227 255
206 227 255
206 227 255
206 227 255
206 227 255
206 227 255
206 227 255
206 227 255
206 227 255
206 227 255
206 227 255
206 227 255
206 227 255
205 227 255
205 227 255
205 227 255
205 227 255
205 227 255
205 227 255
205 227 255
205 227 255
205 227 255
205 227 255
205 227 255
205 227 255
205 226 255
205 226 255
205 226 255
205 226 255
205 226 255
205 226 255
205 226 255
205 226 255
204 226 255
204 226 255
204 226 255
204 226 255
204 226 255
204 226 255
204 226 255
204 226 255
204 226 255
204 226 255
204 226 255
204 226 255
204 226 255
204 226 255
204 226 255
204 226 255
204 226 255
204 226 255
204 226 255
204 226 255
204 226 255
204 226 255
204 226 255
204 226 255
204 226 255
204 226 255
204 226 255
204 226 255
204 226 255
204 226 255
204 226 255
203 226 255
203 226 255
203 226 255
203 226 255
203 226 255
203 226 255
203 226 255
203 226 255
203 226 255
203 226 255
203 226 255
203 226 255
203 226 255
203 226 255
203 226 255
203 226 255
203 226 255
203 226 255
203 226 255
203 226 255
203 226 255
203 226 255
203 226 255
203 226 255
203 226 255
203 226 255
203 226 255
203 226 255
203 226 255
203 226 255
203 226 255
203 226 255
203 226 255
203 226 255
204 226 255
204 226 255
204 226 255
204 226 255
204 226 255
204 226 255
204 226 255
204 226 255
204 226 255
204 226 255
204 226 255
204 226 255
204 226 255
204 226 255
204 226 255
204 226 255
204 226 255
204 226 255
204 226 255
204 226 255
204 226 255
204 226 255
204 226 255
204 226 255
204 226 255
204 226 255
204 226 255
204 226 255
204 226 255
204 226 255
205 226 255
205 226 255
205 226 255
205 226 255
205 226 255
205 226 255
205 226 255
205 226 255
205 226 255
205 227 255
205 227 255
205 227 255
205 227 255
205 227 255
205 227 255
205 227 255
205 227 255
205 227 255
205 227 255
205 227 255
205 227 255
206 227 255
206 227 255
206 227 255
206 227 255
206 227 255
206 227 255
206 227 255
206 227 255
206 227 255
206 227 255
206 227 255
206 227 255
206 227 255
206 227 255
206 227 255
206 227 255
206 227 255
206 227 255
207 227 255
207 227 255
207 227 255
207 227 255
207 228 255
207 228 255
207 228 255
207 228 255
207 228 255
207 228 255
207 228 255
207 228 255
207 228 255
207 228 255
207 228 255
207 228 255
207 228 255
207 228 255
208 228 255
208 228 255
208 228 255
201 219 242
155 166 173
144 151 144
112 110 73
132 131 87
119 118 79
136 133 89
139 138 93
130 129 87
126 125 84
142 140 93
137 136 91
125 124 84
140 139 93
135 134 90
142 140 93
143 142 95
146 146 98
133 132 88
137 135 90
145 144 97
135 133 89
147 145 97
145 143 95
143 143 96
149 148 99
135 134 90
135 134 90
134 133 90
139 137 92
148 146 98
136 135 90
149 147 98
138 138 93
142 140 93
143 141 94
142 141 95
138 136 91
136 134 89
148 146 96
143 141 95
149 146 97
154 150 99
140 136 90
145 143 96
143 141 93
155 152 101
144 142 94
141 139 93
145 142 95
151 148 99
141 139 91
136 133 86
142 139 92
141 138 91
138 136 90
145 142 93
152 149 97
141 139 91
136 133 88
140 136 89
134 132 88
136 135 88
143 139 91
148 145 94
135 131 86
132 129 85
142 138 89
138 135 85
136 132 86
136 133 87
140 138 91
134 131 85
133 129 84
134 131 84
128 124 79
132 128 82
125 122 79
133 130 85
118 115 75
138 135 87
128 125 80
132 128 80
142 146 134
181 190 191
202 219 238
212 230 255
212 230 255
212 230 255
212 230 255
212 230 255
212 230 255
212 230 255
212 230 255
212 230 255
212 230 255
212 230 255
211 230 254
211 230 254
211 229 253
208 228 252
207 226 241
210 229 253
207 227 248
208 228 252
206 226 248
205 226 246
207 227 252
206 227 253
206 227 254
207 227 255
207 227 255
205 227 254
205 226 253
205 226 255
204 226 254
206 227 255
204 226 255
202 225 254
203 226 254
204 226 253
202 225 253
201 224 254
200 224 253
201 224 255
201 224 255
201 224 255
202 225 255
200 224 254
199 223 254
200 224 255
200 224 254
198 223 255
199 223 255
197 222 255
198 223 255
196 222 255
198 223 255
196 222 255
196 222 255
196 222 255
196 222 255
196 222 254
196 222 255
196 222 255
196 222 255
195 221 255
195 221 254
195 221 255
194 221 255
194 221 255
195 221 254
195 221 255
194 221 255
196 222 254
194 221 255
195 221 255
194 221 254
194 221 255
194 221 255
195 221 255
194 221 255
193 220 254
195 221 254
195 221 254
196 222 255
196 222 255
195 221 255
195 221 254
196 222 255
196 222 255
196 222 254
197 222 255
196 222 254
197 222 253
199 223 255
200 224 254
200 224 254
200 224 254
201 224 255
200 223 252
201 224 253
199 222 242
202 224 248
202 224 250
205 226 252
205 226 252
207 227 254
207 228 255
208 228 255
208 228 255
208 228 255
208 228 255
207 228 255
207 228 255
207 228 255
207 228 255
207 228 255
207 228 255
207 228 255
207 228 255
207 228 255
207 228 255
207 228 255
207 228 255
207 228 255
207 228 255
207 227 255
207 227 255
207 227 255
207 227 255
206 227 255
206 227 255
206 227 255
206 227 255
206 227 255
206 227 255
206 227 255
206 227 255
206 227 255
206 227 255
206 227 255
206 227 255
206 227 255
206 227 255
206 227 255
206 227 255
206 227 255
206 227 255
206 227 255
205 227 255
205 227 255
205 227 255
205 227 255
205 227 255
205 227 255
205 227 255
205 227 255
205 227 255
205 227 255
205 227 255
205 227 255
205 226 255
205 226 255
205 226 255
205 226 255
205 226 255
205 226 255
205 226 255
205 226 255
205 226 255
204 226 255
204 226 255
204 226 255
204 226 255
204 226 255
204 226 255
204 226 255
204 226 255
204 226 255
204 226 255
204 226 255
204 226 255
204 226 255
204 226 255
204 226 255
204 226 255
204 226 255
204 226 255
204 226 255
204 226 255
204 226 255
204 226 255
204 226 255
204 226 255
204 226 255
204 226 255
204 226 255
204 226 255
204 226 255
204 226 255
204 226 255
204 226 255
204 226 255
204 226 255
204 226 255
204 226 255
204 226 255
204 226 255
204 226 255
204 226 255
204 226 255
204 226 255
204 226 255
204 226 255
204 226 255
204 226 255
204 226 255
204 226 255
204 226 255
204 226 255
204 226 255
204 226 255
204 226 255
204 226 255
204 226 255
204 226 255
204 226 255
204 226 255
204 226 255
204 226 255
204 226 255
204 226 255
204 226 255
204 226 255
204 226 255
204 226 255
204 226 255
204 226 255
204 226 255
204 226 255
204 226 255
204 226 255
204 226 255
204 226 255
204 226 255
204 226 255
204 226 255
204 226 255
204 226 255
204 226 255
204 226 255
204 226 255
204 226 255
204 226 255
205 226 255
205 226 255
205 226 255
205 226 255
205 226 255
205 226 255
205 226 255
205 226 255
205 226 255
205 227 255
205 227 255
205 227 255
205 227 255
205 227 255
205 227 255
205 227 255
205 227 255
205 227 255
205 227 255
205 227 255
205 227 255
206 227 255
206 227 255
206 227 255
206 227 255
206 227 255
206 227 255
206 227 255
206 227 255
206 227 255
206 227 255
206 227 255
206 227 255
206 227 255
206 227 255
206 227 255
206 227 255
206 227 255
206 227 255
206 227 255
207 227 255
207 227 255
207 227 255
207 227 255
207 228 255
207 228 255
207 228 255
207 228 255
207 228 255
207 228 255
207 228 255
207 228 255
207 228 255
207 228 255
207 228 255
207 228 255
207 228 255
207 228 255
208 228 255
208 228 255
208 228 255
207 227 254
187 204 224
166 177 181
141 143 117
124 123 82
125 124 83
130 128 85
128 127 85
136 134 90
141 140 94
138 136 91
138 137 92
141 140 94
138 137 92
140 138 93
138 137 93
131 129 87
137 136 91
138 136 91
136 135 90
140 139 93
147 145 97
145 144 97
142 142 95
143 141 95
137 135 90
143 141 94
148 147 99
142 141 95
144 141 94
149 147 99
143 141 95
145 143 95
135 133 89
146 144 97
147 144 95
145 143 95
134 133 89
139 137 92
150 148 99
138 137 91
149 146 97
144 142 95
147 144 96
141 139 93
141 139 93
139 137 92
144 141 94
140 138 90
135 132 87
147 145 97
150 148 99
148 146 97
141 138 91
144 142 94
131 129 86
143 140 93
154 152 101
142 139 91
148 144 94
136 133 88
144 141 93
146 143 94
142 139 91
153 150 98
150 148 98
138 135 88
140 137 91
145 141 91
140 138 91
139 136 90
140 137 89
143 141 93
139 136 87
139 135 87
136 133 87
146 142 92
133 130 86
131 128 84
138 135 88
146 141 93
137 133 87
134 131 84
137 133 86
141 137 88
130 126 80
130 127 80
126 123 78
147 144 93
129 125 78
134 133 108
177 188 192
196 212 230
212 230 254
212 230 255
212 230 255
212 230 255
212 230 255
211 230 253
211 230 253
209 228 249
210 229 252
209 228 252
207 227 245
208 228 252
206 227 246
205 225 241
206 226 248
209 228 253
207 227 254
208 228 255
206 227 255
207 227 254
206 227 255
207 227 255
205 226 254
204 226 254
203 226 254
204 226 253
204 226 254
203 225 254
202 225 255
202 225 254
202 225 255
202 225 255
202 225 254
200 224 255
201 224 254
199 223 253
199 224 255
200 224 253
199 223 255
199 223 254
199 223 255
198 223 255
199 223 255
199 223 255
197 222 255
196 222 254
197 222 255
196 222 255
196 222 255
195 221 255
196 222 255
195 221 255
195 221 254
195 221 255
195 221 255
194 220 255
193 220 255
195 221 255
195 221 255
194 221 255
195 221 255
194 221 255
194 220 255
192 220 255
194 220 255
192 220 255
193 220 255
193 220 255
193 220 255
192 220 255
193 220 255
191 219 255
194 221 255
193 220 255
193 220 255
192 220 255
193 220 255
193 220 255
192 220 255
194 221 255
194 221 255
194 220 253
194 221 254
195 221 255
195 221 255
196 222 253
194 221 253
196 222 255
197 222 255
197 222 255
198 223 255
201 224 255
198 223 254
200 224 255
200 224 254
201 224 249
200 224 253
201 224 248
202 224 246
205 226 249
205 227 253
207 228 255
207 228 255
208 228 255
208 228 255
208 228 255
208 228 255
208 228 255
207 228 255
207 228 255
207 228 255
207 228 255
207 228 255
207 228 255
207 228 255
207 228 255
207 228 255
207 228 255
207 228 255
207 228 255
207 228 255
207 228 255
207 227 255
207 227 255
207 227 255
207 227 255
206 227 255
206 227 255
206 227 255
206 227 255
206 227 255
206 227 255
206 227 255
206 227 255
206 227 255
206 227 255
206 227 255
206 227 255
206 227 255
206 227 255
206 227 255
206 227 255
206 227 255
206 227 255
206 227 255
205 227 255
205 227 255
205 227 255
205 227 255
205 227 255
205 227 255
205 227 255
205 227 255
205 227 255
205 227 255
205 227 255
205 227 255
205 227 255
205 226 255
205 226 255
205 226 255
205 226 255
205 226 255
205 226 255
205 226 255
205 226 255
205 226 255
205 226 255
205 226 255
204 226 255
204 226 255
204 226 255
204 226 255
204 226 255
204 226 255
204 226 255
204 226 255
204 226 255
204 226 255
204 226 255
204 226 255
204 226 255
204 226 255
204 226 255
204 226 255
204 226 255
204 226 255
204 226 255
204 226 255
204 226 255
204 226 255
204 226 255
204 226 255
204 226 255
204 226 255
204 226 255
204 226 255
204 226 255
204 226 255
204 226 255
204 226 255
204 226 255
204 226 255
204 226 255
204 226 255
204 226 255
204 226 255
204 226 255
204 226 255
204 226 255
204 226 255
204 226 255
204 226 255
204 226 255
204 226 255
204 226 255
204 226 255
204 226 255
204 226 255
204 226 255
204 226 255
204 226 255
204 226 255
204 226 255
204 226 255
204 226 255
204 226 255
204 226 255
204 226 255
204 226 255
204 226 255
204 226 255
204 226 255
204 226 255
204 226 255
204 226 255
204 226 255
204 226 255
204 226 255
205 226 255
205 226 255
205 226 255
205 226 255
205 226 255
205 226 255
205 226 255
205 226 255
205 226 255
205 226 255
205 226 255
205 227 255
205 227 255
205 227 255
205 227 255
205 227 255
205 227 255
205 227 255
205 227 255
205 227 255
205 227 255
205 227 255
205 227 255
205 227 255
206 227 255
206 227 255
206 227 255
206 227 255
206 227 255
206 227 255
206 227 255
206 227 255
206 227 255
206 227 255
206 227 255
206 227 255
206 227 255
206 227 255
206 227 255
206 227 255
206 227 255
206 227 255
206 227 255
207 227 255
207 227 255
207 227 255
207 227 255
207 227 255
207 228 255
207 228 255
207 228 255
207 228 255
207 228 255
207 228 255
207 228 255
207 228 255
207 228 255
207 228 255
207 228 255
207 228 255
207 228 255
208 228 255
208 228 255
208 228 255
208 228 255
208 228 255
199 217 238
164 172 169
142 144 121
133 131 87
141 139 93
131 130 87
141 139 93
138 136 91
138 136 91
142 141 95
138 136 91
139 138 93
129 129 87
143 141 94
135 134 90
144 144 97
140 139 93
143 142 95
149 147 99
146 145 97
145 144 97
138 137 92
143 143 96
146 145 97
140 139 93
144 144 97
150 149 101
142 141 95
147 146 98
143 143 96
151 149 100
133 132 88
146 145 97
146 144 96
143 142 95
146 144 97
144 143 96
144 142 95
141 140 94
147 145 97
143 140 93
143 141 95
148 146 97
143 141 95
147 145 97
143 141 93
149 147 97
155 151 100
145 144 97
148 145 96
151 149 97
148 145 95
146 143 95
148 146 97
147 145 97
143 141 94
138 135 90
145 143 94
149 146 97
147 145 97
142 140 93
153 149 99
143 140 92
149 147 95
141 138 91
141 138 91
141 138 90
149 146 96
143 140 92
151 147 97
143 140 92
146 142 90
144 142 93
137 134 87
140 137 90
143 140 93
144 140 90
140 137 90
139 136 88
147 143 93
143 139 91
139 135 85
139 136 87
139 135 85
140 136 84
131 128 84
135 131 84
142 137 87
132 129 84
131 128 80
137 133 87
142 138 88
132 127 80
136 132 84
129 126 80
144 145 121
176 186 191
200 216 235
212 230 255
211 230 252
209 228 252
209 228 249
208 228 249
207 227 248
208 228 250
207 227 248
207 227 250
207 227 249
207 227 254
207 227 254
208 228 255
207 227 254
207 228 255
206 227 255
205 227 255
205 227 255
205 226 255
203 225 253
204 226 254
203 226 255
203 225 254
202 225 253
203 225 255
201 224 253
200 224 253
201 224 250
201 224 255
201 224 254
199 223 253
199 223 253
199 223 255
201 224 255
198 223 255
198 223 255
198 223 255
197 222 255
198 223 255
198 223 255
197 222 255
197 222 255
196 222 255
195 221 254
196 222 255
195 221 255
196 221 254
195 221 255
194 221 255
194 221 255
194 220 255
193 220 255
192 220 255
193 220 255
193 220 255
192 219 255
193 220 255
193 220 255
192 220 255
193 220 255
192 220 255
191 219 255
192 219 254
191 219 255
191 219 255
191 219 255
191 219 255
192 220 255
190 219 255
192 219 255
191 219 255
193 220 255
192 220 255
192 220 255
193 220 255
194 221 255
192 220 255
192 220 255
192 220 255
192 220 255
193 220 255
193 220 255
194 221 255
194 220 255
193 220 254
195 221 254
194 221 255
196 222 255
196 222 253
196 221 254
197 222 255
199 224 255
200 224 254
201 224 254
201 224 249
200 223 249
201 224 253
202 224 249
203 225 250
203 225 248
206 227 253
207 227 254
208 228 255
208 228 255
208 228 255
208 228 255
208 228 255
208 228 255
208 228 255
207 228 255
207 228 255
207 228 255
207 228 255
207 228 255
207 228 255
207 228 255
207 228 255
207 228 255
207 228 255
207 228 255
207 228 255
207 228 255
207 228 255
207 227 255
207 227 255
207 227 255
207 227 255
207 227 255
206 227 255
206 227 255
206 227 255
206 227 255
206 227 255
206 227 255
206 227 255
206 227 255
206 227 255
206 227 255
206 227 255
206 227 255
206 227 255
206 227 255
206 227 255
206 227 255
206 227 255
206 227 255
206 227 255
206 227 255
205 227 255
205 227 255
205 227 255
205 227 255
205 227 255
205 227 255
205 227 255
205 227 255
205 227 255
205 227 255
205 227 255
205 227 255
205 227 255
205 226 255
205 226 255
205 226 255
205 226 255
205 226 255
205 226 255
205 226 255
205 226 255
205 226 255
205 226 255
205 226 255
205 226 255
204 226 255
204 226 255
204 226 255
204 226 255
204 226 255
204 226 255
204 226 255
204 226 255
204 226 255
204 226 255
204 226 255
204 226 255
204 226 255
204 226 255
204 226 255
204 226 255
204 226 255
204 226 255
204 226 255
204 226 255
204 226 255
204 226 255
204 226 255
204 226 255
204 226 255
204 226 255
204 226 255
204 226 255
204 226 255
204 226 255
204 226 255
204 226 255
204 226 255
204 226 255
204 226 255
204 226 255
204 226 255
204 226 255
204 226 255
204 226 255
204 226 255
204 226 255
204 226 255
204 226 255
204 226 255
204 226 255
204 226 255
204 226 255
204 226 255
204 226 255
204 226 255
204 226 255
204 226 255
204 226 255
204 226 255
204 226 255
205 226 255
205 226 255
205 226 255
205 226 255
205 226 255
205 226 255
205 226 255
205 226 255
205 226 255
205 226 255
205 226 255
205 227 255
205 227 255
205 227 255
205 227 255
205 227 255
205 227 255
205 227 255
205 227 255
205 227 255
205 227 255
205 227 255
205 227 255
205 227 255
205 227 255
205 227 255
206 227 255
206 227 255
206 227 255
206 227 255
206 227 255
206 227 255
206 227 255
206 227 255
206 227 255
206 227 255
206 227 255
206 227 255
206 227 255
206 227 255
206 227 255
206 227 255
206 227 255
206 227 255
206 227 255
206 227 255
207 227 255
207 227 255
207 227 255
207 227 255
207 228 255
207 228 255
207 228 255
207 228 255
207 228 255
207 228 255
207 228 255
207 228 255
207 228 255
207 228 255
207 228 255
207 228 255
207 228 255
207 228 255
208 228 255
208 228 255
208 228 255
208 228 255
208 228 255
208 228 255
204 223 248
174 187 198
143 146 127
128 125 84
132 131 87
133 132 88
137 135 90
127 126 84
143 141 94
136 134 90
136 135 90
140 139 93
138 137 92
144 143 96
136 135 91
135 133 89
136 135 90
136 135 91
142 141 95
139 138 93
150 149 100
138 137 93
147 146 97
145 144 97
137 135 90
145 145 97
139 139 93
141 140 94
140 140 95
144 142 95
145 144 97
149 148 99
145 143 96
155 153 103
147 146 98
145 144 96
138 137 91
150 148 99
144 142 95
153 151 101
140 138 93
149 147 98
137 136 91
150 148 99
147 144 96
147 145 97
140 140 94
159 156 104
148 145 97
146 144 96
144 142 95
149 147 98
145 144 96
148 145 96
145 142 94
148 145 95
144 142 95
150 148 97
136 134 90
148 146 98
149 147 97
133 132 88
149 146 97
149 146 97
149 146 95
144 142 95
147 143 95
146 144 96
146 144 95
144 142 94
142 139 93
138 136 90
144 141 93
145 143 93
148 145 95
149 145 95
142 139 90
149 146 95
141 138 90
146 143 93
142 139 91
148 145 94
145 141 93
137 134 87
143 139 90
148 144 91
131 128 83
138 134 85
137 135 86
129 126 82
142 138 88
135 131 84
140 136 88
137 134 86
142 139 89
147 143 93
136 132 84
135 131 83
137 132 85
131 128 83
136 131 81
138 138 113
208 227 245
208 227 248
207 227 248
208 227 248
208 227 248
207 227 250
207 227 252
208 228 255
208 228 254
206 227 252
206 227 254
207 227 253
205 226 255
205 226 254
204 226 253
204 226 253
204 226 255
204 226 254
203 225 254
203 225 254
203 225 255
202 225 255
202 225 254
200 224 254
201 225 255
201 224 255
200 224 254
199 223 255
199 223 255
198 223 255
198 223 254
198 223 255
198 223 255
197 223 255
198 223 255
198 223 255
196 222 255
196 222 255
197 222 255
195 221 255
194 221 255
195 221 255
195 221 255
195 221 255
194 221 255
194 221 254
193 220 255
194 220 255
193 220 255
193 220 254
192 220 255
192 220 255
191 219 254
192 219 255
191 219 255
191 219 255
191 219 255
190 219 255
191 219 255
191 219 255
191 219 255
191 219 255
190 219 255
191 219 255
190 218 254
190 218 255
190 219 255
190 218 255
191 219 255
189 218 255
190 218 254
189 218 255
190 218 254
190 219 255
190 219 255
190 218 255
190 219 255
191 219 255
190 219 255
192 220 255
191 219 255
192 220 255
192 219 255
192 220 255
193 220 255
193 220 255
193 220 255
194 220 253
193 220 255
194 221 254
196 221 254
197 222 254
196 222 253
197 222 253
198 223 255
198 223 255
202 225 255
201 224 255
199 222 246
202 224 249
202 225 252
204 226 250
206 227 252
208 228 255
208 228 255
208 228 255
208 228 255
208 228 255
208 228 255
208 228 255
208 228 255
208 228 255
207 228 255
207 228 255
207 228 255
207 228 255
207 228 255
207 228 255
207 228 255
207 228 255
207 228 255
207 228 255
207 228 255
207 228 255
207 228 255
207 228 255
207 227 255
207 227 255
207 227 255
207 227 255
207 227 255
206 227 255
206 227 255
206 227 255
206 227 255
206 227 255
206 227 255
206 227 255
206 227 255
206 227 255
206 227 255
206 227 255
206 227 255
206 227 255
206 227 255
206 227 255
206 227 255
206 227 255
206 227 255
206 227 255
206 227 255
206 227 255
205 227 255
205 227 255
205 227 255
205 227 255
205 227 255
205 227 255
205 227 255
205 227 255
205 227 255
205 227 255
205 227 255
205 227 255
205 227 255
205 227 255
205 227 255
205 226 255
205 226 255
205 226 255
205 226 255
205 226 255
205 226 255
205 226 255
205 226 255
205 226 255
205 226 255
205 226 255
205 226 255
205 226 255
205 226 255
205 226 255
205 226 255
204 226 255
204 226 255
204 226 255
204 226 255
204 226 255
204 226 255
204 226 255
204 226 255
204 226 255
204 226 255
204 226 255
204 226 255
204 226 255
204 226 255
204 226 255
204 226 255
204 226 255
204 226 255
204 226 255
204 226 255
204 226 255
204 226 255
204 226 255
204 226 255
204 226 255
204 226 255
204 226 255
204 226 255
204 226 255
204 226 255
204 226 255
204 226 255
204 226 255
204 226 255
204 226 255
205 226 255
205 226 255
205 226 255
205 226 255
205 226 255
205 226 255
205 226 255
205 226 255
205 226 255
205 226 255
205 226 255
205 226 255
205 226 255
205 226 255
205 226 255
205 227 255
205 227 255
205 227 255
205 227 255
205 227 255
205 227 255
205 227 255
205 227 255
205 227 255
205 227 255
205 227 255
205 227 255
205 227 255
205 227 255
205 227 255
206 227 255
206 227 255
206 227 255
206 227 255
206 227 255
206 227 255
206 227 255
206 227 255
206 227 255
206 227 255
206 227 255
206 227 255
206 227 255
206 227 255
206 227 255
206 227 255
206 227 255
206 227 255
206 227 255
206 227 255
206 227 255
207 227 255
207 227 255
207 227 255
207 227 255
207 227 255
207 228 255
207 228 255
207 228 255
207 228 255
207 228 255
207 228 255
207 228 255
207 228 255
207 228 255
207 228 255
207 228 255
207 228 255
207 228 255
207 228 255
208 228 255
208 228 255
208 228 255
208 228 255
208 228 255
208 228 255
208 228 255
208 228 255
194 211 233
166 175 173
136 135 101
131 130 87
125 123 83
134 132 88
147 145 97
144 143 96
136 135 90
130 130 87
141 141 95
148 147 99
145 144 97
142 142 95
138 138 93
140 139 93
139 137 92
138 137 92
152 150 101
144 143 96
150 149 100
144 143 95
142 141 95
151 150 101
136 136 91
149 148 99
147 145 97
143 141 95
148 147 99
145 143 96
154 152 102
148 146 98
145 143 95
147 145 97
140 139 93
148 146 98
146 144 96
150 148 99
145 144 96
149 147 99
154 152 101
148 146 97
151 150 100
146 143 95
148 146 97
144 142 95
154 152 101
146 144 96
148 146 97
153 150 99
153 150 99
141 139 93
157 155 103
146 143 95
153 151 101
155 153 103
148 145 96
150 148 97
155 152 101
156 153 101
150 147 98
140 137 90
153 150 98
154 150 99
150 148 97
151 147 97
144 142 95
147 144 95
147 143 94
147 144 94
149 146 97
146 143 94
153 150 99
143 141 91
140 137 90
145 142 93
142 139 90
138 136 89
144 141 92
142 138 90
138 135 88
147 143 89
132 130 86
139 136 88
153 150 97
146 143 94
134 131 86
143 139 88
152 148 97
145 141 90
133 130 85
138 134 85
138 134 87
144 140 90
140 136 87
134 130 84
138 133 87
134 131 84
129 126 79
140 136 89
124 121 77
140 136 85
130 126 80
135 131 83
208 228 250
208 228 250
209 228 253
209 229 254
208 228 255
208 228 255
208 228 255
208 228 255
207 227 255
207 228 255
206 227 255
205 227 255
205 227 255
206 227 255
204 226 255
203 225 254
203 225 254
203 226 254
202 225 253
202 225 255
201 225 255
201 224 253
200 224 255
201 224 255
201 224 255
199 223 255
200 224 255
200 224 255
199 223 255
199 223 255
198 223 255
197 222 255
197 222 255
198 223 255
196 221 254
196 222 255
195 221 255
196 222 255
196 222 255
195 221 255
194 221 255
194 220 255
194 221 255
194 220 255
193 220 255
193 220 255
193 220 255
192 219 255
193 220 255
192 220 255
191 219 255
192 220 255
190 219 255
190 219 255
191 219 255
190 219 255
192 219 255
190 219 255
190 218 255
189 218 255
190 218 255
189 218 255
190 218 255
190 218 255
189 218 255
188 218 255
188 217 255
189 218 255
188 218 255
188 218 255
189 218 255
189 218 255
188 218 255
188 218 255
187 217 255
189 218 255
189 218 255
190 218 255
189 218 255
190 218 255
190 219 254
189 218 255
190 219 255
191 219 255
191 219 255
191 219 255
191 219 255
193 220 255
192 220 255
193 220 255
194 221 255
194 221 253
195 221 255
196 221 254
195 221 255
197 222 254
197 222 254
199 223 255
200 224 254
200 224 253
202 225 255
201 224 246
202 225 254
204 226 254
205 226 250
207 228 254
208 228 255
208 228 255
208 228 255
208 228 255
208 228 255
208 228 255
208 228 255
208 228 255
208 228 255
208 228 255
207 228 255
207 228 255
207 228 255
207 228 255
207 228 255
207 228 255
207 228 255
207 228 255
207 228 255
207 228 255
207 228 255
207 228 255
207 228 255
207 228 255
207 228 255
207 227 255
207 227 255
207 227 255
207 227 255
207 227 255
206 227 255
206 227 255
206 227 255
206 227 255
206 227 255
206 227 255
206 227 255
206 227 255
206 227 255
206 227 255
206 227 255
206 227 255
206 227 255
206 227 255
206 227 255
206 227 255
206 227 255
206 227 255
206 227 255
206 227 255
206 227 255
206 227 255
205 227 255
205 227 255
205 227 255
205 227 255
205 227 255
205 227 255
205 227 255
205 227 255
205 227 255
205 227 255
205 227 255
205 227 255
205 227 255
205 227 255
205 227 255
205 227 255
205 227 255
205 226 255
205 226 255
205 226 255
205 226 255
205 226 255
205 226 255
205 226 255
205 226 255
205 226 255
205 226 255
205 226 255
205 226 255
205 226 255
205 226 255
205 226 255
205 226 255
205 226 255
205 226 255
205 226 255
205 226 255
205 226 255
205 226 255
205 226 255
205 226 255
205 226 255
205 226 255
205 226 255
205 226 255
205 226 255
205 226 255
205 226 255
205 226 255
205 226 255
205 226 255
205 226 255
205 226 255
205 226 255
205 226 255
205 226 255
205 226 255
205 226 255
205 226 255
205 226 255
205 226 255
205 226 255
205 226 255
205 226 255
205 226 255
205 226 255
205 227 255
205 227 255
205 227 255
205 227 255
205 227 255
205 227 255
205 227 255
205 227 255
205 227 255
205 227 255
205 227 255
205 227 255
205 227 255
205 227 255
205 227 255
205 227 255
205 227 255
205 227 255
206 227 255
206 227 255
206 227 255
206 227 255
206 227 255
206 227 255
206 227 255
206 227 255
206 227 255
206 227 255
206 227 255
206 227 255
206 227 255
206 227 255
206 227 255
206 227 255
206 227 255
206 227 255
206 227 255
206 227 255
206 227 255
206 227 255
207 227 255
207 227 255
207 227 255
207 227 255
207 227 255
207 228 255
207 228 255
207 228 255
207 228 255
207 228 255
207 228 255
207 228 255
207 228 255
207 228 255
207 228 255
207 228 255
207 228 255
207 228 255
207 228 255
207 228 255
208 228 255
208 228 255
208 228 255
208 228 255
208 228 255
208 228 255
208 228 255
208 228 255
208 228 255
207 227 254
186 201 217
152 159 151
118 117 78
133 131 87
130 128 85
139 137 92
134 133 89
141 139 93
144 142 95
143 141 95
145 143 96
135 135 90
147 145 97
145 143 96
147 147 99
142 140 94
140 140 94
146 144 97
139 137 92
144 143 96
138 137 92
144 143 96
141 141 95
144 143 96
143 142 95
148 147 99
146 145 97
140 140 94
152 151 101
150 148 99
142 141 95
154 152 102
148 147 99
151 149 100
142 141 95
152 150 101
149 147 99
143 141 95
151 149 100
149 148 99
157 155 103
142 141 94
145 143 96
147 144 96
141 140 93
149 147 99
151 149 99
159 156 103
148 145 97
154 151 101
147 145 97
140 138 91
156 153 101
154 151 101
137 135 90
144 142 95
152 150 99
146 144 95
154 150 99
146 144 95
148 146 97
145 143 95
158 154 100
152 149 99
149 146 95
145 143 95
151 148 97
147 144 95
150 147 97
150 146 97
148 145 96
140 137 90
156 153 101
142 139 92
143 141 92
149 147 96
157 153 99
150 146 93
147 144 94
152 148 97
144 141 94
151 148 97
140 136 86
141 139 90
148 145 95
147 144 94
152 148 97
141 138 90
135 132 85
152 148 94
147 143 91
137 133 87
150 146 95
131 128 82
145 141 89
135 131 84
139 135 88
145 141 91
141 136 87
131 128 82
137 134 83
147 142 89
144 140 90
137 133 86
136 131 84
137 132 84
208 228 254
210 229 254
209 229 254
208 228 254
208 228 255
208 228 254
206 227 254
206 227 255
206 227 254
205 227 254
204 226 253
204 226 255
205 227 255
203 225 254
204 226 255
204 226 255
203 226 255
201 224 254
202 225 254
202 225 255
201 224 255
200 224 255
201 224 255
200 224 255
199 223 255
199 223 255
198 223 255
198 223 255
198 223 255
197 222 254
197 222 255
197 222 255
196 222 255
196 222 255
196 222 255
195 221 255
196 222 255
196 222 255
194 221 255
194 221 255
193 220 255
193 220 255
193 220 254
193 220 255
191 219 255
191 219 255
192 220 255
192 220 255
191 219 255
191 219 255
191 219 255
190 219 255
190 219 255
189 218 255
189 218 255
189 218 255
190 218 255
189 218 255
189 218 255
188 218 255
188 218 255
189 218 255
188 217 255
188 217 255
188 218 255
188 217 255
188 217 255
187 217 255
187 217 255
188 217 255
187 217 255
188 218 255
187 217 255
188 218 255
188 217 255
187 217 255
187 217 255
188 217 255
187 217 255
189 218 255
187 217 254
189 218 254
189 218 255
189 218 255
189 218 255
189 218 255
191 219 255
191 219 254
191 219 255
192 219 255
191 219 255
192 220 255
193 220 255
192 220 255
193 220 255
194 220 253
196 221 254
197 222 254
197 222 255
198 223 254
199 223 255
200 224 255
202 225 252
202 225 254
203 225 250
205 226 253
205 226 250
208 228 254
208 228 255
208 228 255
208 228 255
208 228 255
208 228 255
208 228 255
208 228 255
208 228 255
208 228 255
208 228 255
208 228 255
208 228 255
208 228 255
207 228 255
207 228 255
207 228 255
207 228 255
207 228 255
207 228 255
207 228 255
207 228 255
207 228 255
207 228 255
207 228 255
207 228 255
207 228 255
207 228 255
207 228 255
207 227 255
207 227 255
207 227 255
207 227 255
207 227 255
206 227 255
206 227 255
206 227 255
206 227 255
206 227 255
206 227 255
206 227 255
206 227 255
206 227 255
206 227 255
206 227 255
206 227 255
206 227 255
206 227 255
206 227 255
206 227 255
206 227 255
206 227 255
206 227 255
206 227 255
206 227 255
206 227 255
206 227 255
206 227 255
205 227 255
205 227 255
205 227 255
205 227 255
205 227 255
205 227 255
205 227 255
205 227 255
205 227 255
205 227 255
205 227 255
205 227 255
205 227 255
205 227 255
205 227 255
205 227 255
205 227 255
205 227 255
205 227 255
205 227 255
205 227 255
205 227 255
205 227 255
205 227 255
205 227 255
205 227 255
205 226 255
205 226 255
205 226 255
205 226 255
205 226 255
205 226 255
205 226 255
205 226 255
205 226 255
205 226 255
205 226 255
205 226 255
205 226 255
205 226 255
205 226 255
205 226 255
205 226 255
205 226 255
205 226 255
205 227 255
205 227 255
205 227 255
205 227 255
205 227 255
205 227 255
205 227 255
205 227 255
205 227 255
205 227 255
205 227 255
205 227 255
205 227 255
205 227 255
205 227 255
205 227 255
205 227 255
205 227 255
205 227 255
205 227 255
205 227 255
205 227 255
205 227 255
205 227 255
205 227 255
205 227 255
206 227 255
206 227 255
206 227 255
206 227 255
206 227 255
206 227 255
206 227 255
206 227 255
206 227 255
206 227 255
206 227 255
206 227 255
206 227 255
206 227 255
206 227 255
206 227 255
206 227 255
206 227 255
206 227 255
206 227 255
206 227 255
206 227 255
206 227 255
207 227 255
207 227 255
207 227 255
207 227 255
207 227 255
207 228 255
207 228 255
207 228 255
207 228 255
207 228 255
207 228 255
207 228 255
207 228 255
207 228 255
207 228 255
207 228 255
207 228 255
207 228 255
207 228 255
207 228 255
208 228 255
208 228 255
208 228 255
208 228 255
208 228 255
208 228 255
208 228 255
208 228 255
208 228 255
208 228 255
208 228 255
208 228 255
205 225 250
176 189 198
136 138 112
141 139 93
126 124 83
137 134 89
139 137 92
133 132 88
142 140 93
141 140 94
144 143 96
125 124 84
139 137 92
141 141 95
144 142 95
144 143 96
146 144 97
139 138 93
147 145 97
137 135 91
139 137 92
146 145 97
148 148 99
149 147 99
150 149 100
153 152 102
147 146 98
146 145 97
152 152 102
156 155 104
150 149 100
146 144 97
156 154 103
155 154 103
151 149 99
151 149 100
155 153 102
150 148 99
150 148 99
141 139 93
153 151 101
154 152 102
153 151 101
146 144 97
156 153 102
146 145 97
150 148 98
153 150 100
151 149 99
153 151 101
154 152 101
157 155 103
158 156 104
152 150 99
144 142 95
155 153 101
149 146 97
145 142 94
146 143 95
152 150 99
146 144 95
147 143 94
144 141 93
149 146 97
154 151 100
149 146 95
153 150 97
151 149 97
147 145 95
146 143 94
145 143 93
152 149 97
151 148 97
152 148 96
158 154 101
145 142 95
161 158 104
151 146 95
152 150 97
150 147 96
148 145 96
148 145 95
145 142 90
155 151 97
151 148 98
152 149 98
144 141 92
140 137 90
143 140 91
150 146 94
154 150 99
138 135 87
140 138 87
151 146 94
144 140 90
151 148 95
151 147 95
139 134 85
138 135 85
148 144 91
128 126 82
138 134 86
135 132 84
148 143 93
146 141 90
136 133 84
141 137 86
132 129 84
135 131 78
208 228 255
208 228 254
207 228 254
206 227 254
207 228 255
207 228 255
207 228 255
205 226 254
203 225 252
205 227 255
204 226 254
203 225 254
203 225 252
204 226 255
203 225 255
202 225 253
202 225 255
201 225 255
201 224 255
201 225 255
200 224 255
200 224 255
200 224 255
200 224 255
199 223 255
198 223 255
198 223 255
199 223 255
198 223 255
197 222 255
196 222 255
196 222 255
195 221 255
195 221 254
195 221 255
194 221 255
194 221 255
194 221 255
193 220 255
194 220 255
193 220 255
193 220 255
192 220 255
192 220 255
191 219 255
191 219 255
192 219 255
190 219 255
191 219 255
190 218 255
190 218 255
189 218 255
190 219 255
190 218 255
189 218 255
189 218 255
189 218 255
188 218 255
188 217 255
188 217 255
188 217 255
188 217 255
188 217 255
187 217 255
187 217 255
187 217 255
187 217 255
187 217 255
187 217 255
187 217 255
186 217 255
186 216 255
186 217 255
186 217 255
185 216 255
186 216 255
186 216 255
186 217 255
187 217 255
186 217 255
187 217 255
187 217 255
187 217 255
187 217 255
188 217 255
188 218 255
188 217 255
190 219 255
189 218 255
189 218 255
190 218 255
189 218 255
192 219 255
192 220 255
192 220 255
193 220 255
193 220 255
195 221 255
194 221 253
195 221 254
197 222 254
197 222 254
199 223 255
199 223 254
202 225 254
201 224 248
203 225 252
203 225 252
205 226 249
207 228 254
208 228 255
208 228 255
208 228 255
208 228 255
208 228 255
208 228 255
208 228 255
208 228 255
208 228 255
208 228 255
208 228 255
208 228 255
208 228 255
208 228 255
208 228 255
208 228 255
207 228 255
207 228 255
207 228 255
207 228 255
207 228 255
207 228 255
207 228 255
207 228 255
207 228 255
207 228 255
207 228 255
207 228 255
207 228 255
207 228 255
207 228 255
207 227 255
207 227 255
207 227 255
207 227 255
207 227 255
206 227 255
206 227 255
206 227 255
206 227 255
206 227 255
206 227 255
206 227 255
206 227 255
206 227 255
206 227 255
206 227 255
206 227 255
206 227 255
206 227 255
206 227 255
206 227 255
206 227 255
206 227 255
206 227 255
206 227 255
206 227 255
206 227 255
206 227 255
206 227 255
206 227 255
206 227 255
206 227 255
205 227 255
205 227 255
205 227 255
205 227 255
205 227 255
205 227 255
205 227 255
205 227 255
205 227 255
205 227 255
205 227 255
205 227 255
205 227 255
205 227 255
205 227 255
205 227 255
205 227 255
205 227 255
205 227 255
205 227 255
205 227 255
205 227 255
205 227 255
205 227 255
204 226 254
198 220 251
200 222 252
200 222 252
204 226 255
202 224 254
205 227 255
205 227 255
205 227 255
205 227 255
205 227 255
205 227 255
205 227 255
205 227 255
205 227 255
205 227 255
205 227 255
205 227 255
205 227 255
205 227 255
205 227 255
205 227 255
205 227 255
205 227 255
205 227 255
205 227 255
205 227 255
205 227 255
205 227 255
205 227 255
206 227 255
206 227 255
206 227 255
206 227 255
206 227 255
206 227 255
206 227 255
206 227 255
206 227 255
206 227 255
206 227 255
206 227 255
206 227 255
206 227 255
206 227 255
206 227 255
206 227 255
206 227 255
206 227 255
206 227 255
206 227 255
206 227 255
206 227 255
206 227 255
206 227 255
206 227 255
206 227 255
207 227 255
207 227 255
207 227 255
207 227 255
207 227 255
207 228 255
207 228 255
207 228 255
207 228 255
207 228 255
207 228 255
207 228 255
207 228 255
207 228 255
207 228 255
207 228 255
207 228 255
207 228 255
207 228 255
207 228 255
207 228 255
208 228 255
208 228 255
208 228 255
208 228 255
208 228 255
208 228 255
208 228 255
208 228 255
208 228 255
208 228 255
208 228 255
208 228 255
208 228 255
208 228 255
207 227 253
183 195 202
146 145 110
142 141 94
131 129 87
134 133 90
141 140 94
135 134 90
130 128 86
132 131 89
134 133 90
133 132 89
135 134 90
144 144 97
139 137 92
143 142 95
142 141 95
146 145 97
146 145 98
144 143 97
147 145 97
140 139 94
150 149 100
150 149 100
152 151 101
151 151 101
142 141 95
147 146 98
149 147 99
147 146 98
144 142 95
147 145 97
155 153 103
147 146 98
151 149 100
140 140 94
147 146 98
150 149 99
161 159 106
154 152 102
158 155 104
144 143 96
150 148 99
148 147 98
151 148 99
154 151 101
143 141 94
155 152 101
153 151 101
153 151 101
144 144 97
149 147 97
146 143 95
153 151 101
149 146 97
162 159 105
151 149 99
154 151 100
154 151 101
150 149 99
157 155 103
153 151 100
154 151 99
147 145 96
150 147 96
149 146 97
150 147 98
147 143 94
149 146 96
137 134 89
148 145 94
148 146 96
142 141 94
153 149 99
149 146 97
142 140 93
142 139 90
147 144 93
152 149 97
154 151 98
151 148 97
151 147 94
145 142 90
149 146 93
153 150 97
154 150 96
143 139 90
145 141 90
147 144 92
149 145 95
142 139 90
150 146 95
141 138 88
147 144 93
142 138 88
154 150 98
137 135 89
140 137 88
140 137 87
146 142 90
155 152 98
146 142 89
141 138 85
139 135 85
142 139 87
135 131 84
146 143 90
143 139 88
145 140 90
139 135 84
136 132 83
209 228 255
207 228 255
208 228 255
206 227 253
206 227 254
205 227 255
205 226 253
206 227 254
205 227 255
204 226 254
203 225 253
203 226 254
203 225 254
202 225 255
202 225 255
201 225 255
201 225 255
202 225 255
200 224 255
199 224 255
200 224 255
200 224 255
200 224 254
198 223 255
198 223 255
198 223 255
197 222 255
197 222 255
197 222 255
197 222 255
196 222 255
196 221 255
195 221 255
194 221 254
194 221 255
194 221 255
193 220 254
193 220 255
193 220 255
192 220 255
193 220 255
192 220 255
192 219 255
191 219 255
192 219 255
191 219 255
190 219 255
190 218 255
190 218 255
190 218 255
190 218 255
189 218 255
189 218 255
188 218 255
188 218 255
188 218 255
188 218 255
188 217 255
188 217 255
188 217 255
187 217 255
187 217 255
187 217 255
187 217 255
186 216 255
186 217 255
186 216 255
186 216 255
186 216 255
185 216 255
185 216 255
186 216 255
185 216 255
186 216 255
185 216 255
186 216 255
185 216 255
185 216 255
186 217 255
186 217 255
185 216 255
186 216 255
186 216 255
187 217 255
186 216 255
187 217 255
187 217 255
188 217 255
187 217 255
189 218 255
189 218 255
189 218 255
189 218 255
189 218 255
190 218 255
191 219 255
191 219 255
192 219 254
193 220 255
195 221 255
196 221 255
195 221 253
195 221 254
198 223 254
198 223 255
200 224 255
200 224 255
203 225 253
203 225 249
205 226 253
206 226 248
207 228 255
208 228 255
208 228 255
208 228 255
208 228 255
208 228 255
208 228 255
208 228 255
208 228 255
208 228 255
208 228 255
208 228 255
208 228 255
208 228 255
208 228 255
208 228 255
208 228 255
208 228 255
208 228 255
207 228 255
207 228 255
207 228 255
207 228 255
207 228 255
207 228 255
207 228 255
207 228 255
207 228 255
207 228 255
207 228 255
207 228 255
207 228 255
207 228 255
207 228 255
207 228 255
207 227 255
207 227 255
207 227 255
207 227 255
207 227 255
207 227 255
206 227 255
206 227 255
206 227 255
206 227 255
206 227 255
206 227 255
206 227 255
206 227 255
206 227 255
206 227 255
206 227 255
206 227 255
206 227 255
206 227 255
206 227 255
206 227 255
206 227 255
206 227 255
206 227 255
206 227 255
206 227 255
206 227 255
206 227 255
206 227 255
206 227 255
206 227 255
206 227 255
206 227 255
206 227 255
206 227 255
206 227 255
206 227 255
206 227 255
205 227 255
205 227 255
205 227 255
205 227 255
204 225 254
187 209 243
176 199 236
144 168 217
134 159 211
130 155 208
92 121 187
78 111 184
65 101 180
61 98 176
61 98 176
61 98 177
62 99 174
62 99 178
73 107 179
96 125 191
112 139 198
149 172 217
153 176 220
165 188 228
188 209 242
205 227 255
205 227 255
205 227 255
205 227 255
205 227 255
206 227 255
206 227 255
206 227 255
206 227 255
206 227 255
206 227 255
206 227 255
206 227 255
206 227 255
206 227 255
206 227 255
206 227 255
206 227 255
206 227 255
206 227 255
206 227 255
206 227 255
206 227 255
206 227 255
206 227 255
206 227 255
206 227 255
206 227 255
206 227 255
206 227 255
206 227 255
206 227 255
206 227 255
206 227 255
206 227 255
206 227 255
206 227 255
206 227 255
207 227 255
207 227 255
207 227 255
207 227 255
207 227 255
207 227 255
207 228 255
207 228 255
207 228 255
207 228 255
207 228 255
207 228 255
207 228 255
207 228 255
207 228 255
207 228 255
207 228 255
207 228 255
207 228 255
207 228 255
207 228 255
207 228 255
208 228 255
208 228 255
208 228 255
208 228 255
208 228 255
208 228 255
208 228 255
208 228 255
208 228 255
208 228 255
208 228 255
208 228 255
208 228 255
208 228 255
208 228 255
208 228 255
208 228 255
207 226 252
177 190 198
133 133 104
130 128 85
128 126 84
132 130 87
134 132 88
133 131 87
147 146 98
130 129 86
141 139 93
142 142 95
140 138 92
137 137 92
142 140 94
136 135 90
146 145 97
149 148 99
143 142 95
150 149 100
150 150 101
140 139 93
141 139 93
144 144 97
145 145 97
141 140 94
151 150 101
155 153 103
149 148 99
144 143 96
149 147 99
149 147 99
148 146 98
141 139 93
159 157 104
149 147 99
155 153 103
156 155 104
160 158 106
154 152 102
158 157 105
142 140 94
145 143 95
165 162 108
154 152 101
154 151 101
151 148 99
143 141 94
149 148 99
155 152 101
150 148 99
152 149 99
152 150 99
151 149 99
154 152 101
157 153 102
152 150 100
154 151 99
155 153 102
156 153 101
151 148 98
158 155 102
154 152 99
155 152 101
160 157 104
154 150 100
153 150 99
155 153 101
156 152 100
152 149 98
154 151 99
156 153 102
154 150 99
150 147 97
152 149 99
152 148 97
149 145 94
154 151 97
143 140 90
155 152 99
151 149 97
143 141 93
148 144 95
153 149 96
155 152 99
151 148 96
157 153 99
150 146 93
157 153 97
139 136 90
152 149 97
146 143 93
151 147 94
149 146 93
148 146 93
142 138 87
138 134 84
153 149 95
143 140 91
146 143 93
139 135 87
148 143 89
146 141 90
147 143 90
136 132 86
137 134 84
137 133 85
143 138 87
139 135 86
139 136 85
145 141 92
138 134 84
144 140 88
207 228 254
207 227 253
205 226 253
206 227 254
205 227 255
207 228 255
205 226 252
205 226 255
204 226 254
204 226 255
203 226 255
203 225 255
202 225 255
202 225 255
202 225 254
201 224 255
202 225 255
201 224 255
201 224 255
199 223 255
199 223 255
198 223 255
198 223 255
198 223 255
197 222 255
197 222 255
196 222 255
197 222 255
197 222 255
196 221 255
196 222 255
195 221 255
195 221 255
194 221 255
194 220 255
194 221 255
194 220 255
193 220 255
192 220 255
192 220 255
192 220 254
192 220 255
191 219 255
191 219 255
191 219 255
190 219 255
190 219 255
189 218 255
190 218 255
189 218 255
189 218 255
188 218 255
188 218 255
189 218 255
188 217 255
188 217 255
187 217 255
187 217 255
187 217 255
187 217 255
187 217 255
185 216 255
186 217 255
186 217 255
186 216 255
185 216 255
185 216 255
186 216 255
185 216 255
185 216 255
185 216 255
184 216 255
185 216 255
185 216 255
185 216 255
185 216 255
185 216 255
185 216 255
184 216 255
184 216 255
185 216 255
185 216 255
185 216 255
185 216 255
185 216 255
186 216 255
186 217 255
185 216 255
186 217 255
187 217 255
187 217 255
187 217 254
188 218 255
188 218 255
189 218 255
190 218 255
190 218 255
191 219 255
192 219 255
192 219 255
192 220 255
193 220 255
194 220 255
196 222 255
196 222 254
198 223 255
197 222 255
199 223 254
203 225 255
203 225 254
202 224 248
205 226 252
205 226 248
208 228 255
208 228 255
208 228 255
208 228 255
208 228 255
208 228 255
208 228 255
208 228 255
208 228 255
208 228 255
208 228 255
208 228 255
208 228 255
208 228 255
208 228 255
208 228 255
208 228 255
208 228 255
208 228 255
208 228 255
208 228 255
208 228 255
207 228 255
207 228 255
207 228 255
207 228 255
207 228 255
207 228 255
207 228 255
207 228 255
207 228 255
207 228 255
207 228 255
207 228 255
207 228 255
207 228 255
207 228 255
207 228 255
207 228 255
207 227 255
207 227 255
207 227 255
207 227 255
207 227 255
207 227 255
206 227 255
206 227 255
206 227 255
206 227 255
206 227 255
206 227 255
206 227 255
206 227 255
206 227 255
206 227 255
206 227 255
206 227 255
206 227 255
206 227 255
206 227 255
206 227 255
206 227 255
206 227 255
206 227 255
206 227 255
206 227 255
206 227 255
206 227 255
206 227 255
206 227 255
206 227 255
206 227 255
203 224 254
185 207 241
157 180 224
111 138 198
78 111 183
62 99 175
62 99 175
62 99 173
62 99 177
62 98 173
62 99 176
63 99 175
62 99 172
62 99 180
62 99 175
62 99 176
62 99 177
62 99 177
62 99 175
62 99 178
62 98 173
62 98 175
62 99 175
62 99 177
61 98 175
73 107 179
119 145 201
134 159 211
179 200 236
201 222 252
206 227 255
206 227 255
206 227 255
206 227 255
206 227 255
206 227 255
206 227 255
206 227 255
206 227 255
206 227 255
206 227 255
206 227 255
206 227 255
206 227 255
206 227 255
206 227 255
206 227 255
206 227 255
206 227 255
206 227 255
206 227 255
206 227 255
206 227 255
206 227 255
206 227 255
206 227 255
206 227 255
207 227 255
207 227 255
207 227 255
207 227 255
207 227 255
207 227 255
207 228 255
207 228 255
207 228 255
207 228 255
207 228 255
207 228 255
207 228 255
207 228 255
207 228 255
207 228 255
207 228 255
207 228 255
207 228 255
207 228 255
207 228 255
207 228 255
207 228 255
208 228 255
208 228 255
208 228 255
208 228 255
208 228 255
208 228 255
208 228 255
208 228 255
208 228 255
208 228 255
208 228 255
208 228 255
208 228 255
208 228 255
208 228 255
208 228 255
208 228 255
208 228 255
208 228 255
208 228 255
209 228 255
185 199 211
137 139 113
125 123 82
136 135 90
139 138 93
137 136 91
134 134 90
150 148 99
137 136 91
138 137 93
137 136 92
138 137 92
144 142 95
139 138 93
142 141 95
143 142 95
142 141 95
154 154 104
150 148 99
145 144 97
143 142 95
150 149 100
149 147 99
154 153 103
147 145 97
147 146 98
149 149 100
149 147 99
147 145 98
155 154 103
141 140 94
156 154 103
149 147 99
153 151 101
148 146 98
150 148 99
149 147 99
155 154 103
146 145 97
154 152 102
150 149 100
148 146 98
157 155 104
154 151 101
156 152 101
152 149 99
155 153 102
155 152 101
155 153 102
152 151 101
159 155 103
157 154 101
162 159 105
153 149 99
159 156 104
156 154 102
150 148 99
150 147 97
163 160 107
153 151 100
153 150 99
151 147 97
155 152 101
150 147 98
154 150 99
145 142 95
151 148 97
152 149 99
155 152 98
151 148 98
155 152 101
153 150 99
156 152 99
152 150 99
150 147 97
154 151 97
153 150 97
152 149 99
152 149 99
153 149 98
147 145 95
151 148 98
156 153 101
156 152 101
153 149 95
156 152 98
148 145 95
149 146 96
158 153 99
153 150 95
149 146 94
151 147 95
148 145 92
144 141 90
147 143 90
152 148 97
147 143 92
143 140 90
155 151 98
150 146 96
143 139 90
139 136 87
151 147 92
154 149 95
142 138 89
140 136 84
139 135 87
141 137 87
148 144 93
145 141 87
132 128 78
136 133 83
146 143 92
143 139 89
206 227 255
207 228 255
206 227 254
205 226 254
205 226 254
205 227 255
204 226 254
205 226 255
204 226 255
204 226 255
204 226 255
203 225 255
203 225 255
202 225 255
201 224 255
201 224 255
200 224 255
200 224 255
200 224 255
198 223 254
198 223 255
198 223 255
198 223 255
198 223 255
197 222 255
197 222 255
196 222 255
196 222 255
195 221 255
195 221 255
195 221 255
195 221 255
194 221 255
194 221 255
194 220 255
193 220 255
193 220 255
192 220 255
192 220 255
192 220 255
191 219 255
191 219 255
191 219 255
191 219 255
190 219 255
190 219 255
190 218 255
189 218 255
189 218 255
188 218 255
188 218 255
188 218 255
188 217 255
187 217 255
187 217 255
187 217 255
186 216 252
188 217 253
188 217 252
187 216 246
186 215 249
187 216 246
188 217 250
189 217 249
189 218 252
191 218 244
190 218 252
190 218 252
189 217 250
189 217 248
191 218 248
188 217 249
187 217 254
186 216 252
184 216 254
184 215 253
185 216 255
184 215 255
184 215 255
184 215 255
184 215 255
185 216 255
184 215 255
185 216 255
184 216 255
185 216 255
185 216 255
185 216 255
186 216 255
185 216 255
186 216 255
186 216 255
186 217 255
186 216 255
186 217 255
187 217 255
188 218 255
188 218 255
189 218 255
191 219 255
190 219 255
191 219 254
191 219 254
194 220 255
194 221 254
195 221 255
195 221 254
196 222 253
198 223 254
199 224 255
202 225 255
202 225 253
203 225 245
204 225 249
207 227 253
209 229 255
209 229 255
209 229 255
209 228 255
208 228 255
208 228 255
208 228 255
208 228 255
208 228 255
208 228 255
208 228 255
208 228 255
208 228 255
208 228 255
208 228 255
208 228 255
208 228 255
208 228 255
208 228 255
208 228 255
208 228 255
208 228 255
208 228 255
208 228 255
208 228 255
208 228 255
207 228 255
207 228 255
207 228 255
207 228 255
207 228 255
207 228 255
207 228 255
207 228 255
207 228 255
207 228 255
207 228 255
207 228 255
207 228 255
207 228 255
207 228 255
207 228 255
207 228 255
207 227 255
207 227 255
207 227 255
207 227 255
207 227 255
207 227 255
207 227 255
207 227 255
206 227 255
206 227 255
206 227 255
206 227 255
206 227 255
206 227 255
206 227 255
206 227 255
206 227 255
206 227 255
206 227 255
206 227 255
206 227 255
206 227 255
206 227 255
206 227 255
202 223 252
164 187 228
126 151 204
76 109 178
62 99 177
62 99 174
62 99 175
63 99 174
62 99 178
61 98 169
62 99 171
62 99 176
62 99 176
62 99 173
63 99 178
62 99 175
62 98 172
62 99 174
62 99 174
61 98 173
62 98 174
63 99 176
62 99 176
63 100 177
62 99 178
62 99 174
63 99 173
62 99 175
62 99 175
62 99 176
61 98 171
62 98 174
71 105 181
119 145 199
168 190 229
202 223 253
206 227 255
206 227 255
206 227 255
206 227 255
206 227 255
206 227 255
206 227 255
206 227 255
206 227 255
206 227 255
206 227 255
206 227 255
206 227 255
206 227 255
206 227 255
206 227 255
207 227 255
207 227 255
207 227 255
207 227 255
207 227 255
207 227 255
207 227 255
207 228 255
207 228 255
207 228 255
207 228 255
207 228 255
207 228 255
207 228 255
207 228 255
207 228 255
207 228 255
207 228 255
207 228 255
207 228 255
207 228 255
207 228 255
207 228 255
207 228 255
207 228 255
208 228 255
208 228 255
208 228 255
208 228 255
208 228 255
208 228 255
208 228 255
208 228 255
208 228 255
208 228 255
208 228 255
208 228 255
208 228 255
208 228 255
208 228 255
208 228 255
208 228 255
208 228 255
208 228 255
208 228 255
208 228 255
209 228 255
209 228 255
209 229 255
209 229 255
186 201 216
142 144 126
142 139 93
142 140 94
136 135 90
132 130 87
137 136 91
140 138 93
134 133 89
145 144 96
137 135 91
139 137 92
140 140 94
139 138 93
140 139 94
150 149 101
149 148 99
140 139 93
145 143 96
145 144 96
148 147 100
149 148 100
155 153 103
153 152 102
150 148 100
153 152 102
158 156 105
146 145 97
153 152 102
150 149 100
155 154 104
148 147 98
155 152 101
156 153 103
152 151 101
149 147 98
156 154 103
148 147 98
151 150 100
154 151 101
157 155 104
162 161 108
157 154 103
153 151 101
158 154 103
157 154 103
153 151 101
153 151 101
160 158 105
157 155 104
160 157 104
157 155 103
157 153 101
153 151 101
156 154 103
158 155 103
159 157 104
164 161 107
154 151 101
150 147 98
155 153 101
160 157 104
156 154 103
153 149 98
153 149 98
156 152 101
159 155 100
153 150 98
157 153 100
157 154 102
158 155 101
163 160 106
154 150 99
147 145 96
154 151 100
150 147 98
158 156 103
159 154 99
158 154 101
158 154 101
146 144 95
149 146 94
151 147 94
157 152 98
158 154 99
148 145 94
156 152 98
149 146 93
152 147 96
145 143 91
156 152 100
153 149 97
143 139 90
154 150 97
155 151 99
147 143 93
145 141 93
157 152 99
147 143 94
136 133 84
152 148 92
153 148 95
158 153 98
145 141 87
142 139 87
161 157 99
139 135 86
153 149 94
142 140 89
145 140 89
142 138 89
150 146 89
146 141 88
137 133 84
142 137 85
145 141 92
207 227 255
207 227 254
205 227 254
204 226 253
205 227 255
205 226 255
204 226 255
204 226 255
203 226 255
202 225 255
203 225 255
202 225 255
202 225 254
201 224 255
201 224 255
201 224 255
200 224 254
199 223 254
199 223 255
199 223 255
199 223 255
198 223 254
198 223 255
197 222 255
197 222 255
197 222 255
196 222 255
197 222 255
195 221 255
196 222 255
195 221 255
195 221 255
195 221 255
194 221 255
193 220 255
193 220 255
193 220 255
192 220 255
192 220 255
191 219 255
191 219 255
191 219 255
190 219 255
191 219 255
190 218 255
190 219 255
190 218 255
189 218 255
190 218 253
189 217 252
192 219 252
192 219 250
191 218 249
192 218 237
190 217 242
194 220 246
191 218 242
193 219 241
193 220 252
192 219 244
192 218 242
189 217 241
192 219 244
189 216 236
192 218 242
192 218 241
192 219 249
190 216 233
193 219 241
194 219 242
191 218 242
190 217 238
193 219 240
190 216 240
188 216 237
191 217 238
190 218 248
189 217 246
189 217 245
187 216 244
188 216 242
187 216 248
186 216 254
184 215 253
184 216 255
183 215 255
184 215 255
184 216 255
184 215 255
184 216 255
184 216 255
185 216 255
186 216 255
186 216 255
185 216 255
186 217 255
187 217 255
187 217 254
188 217 255
189 218 255
190 218 255
190 219 254
190 219 255
191 219 255
192 220 255
193 220 255
194 220 254
195 221 255
195 221 253
199 223 253
200 224 254
199 223 253
200 224 253
203 225 253
203 225 249
203 225 246
207 228 254
209 229 255
209 229 255
209 229 255
209 229 255
209 229 255
209 229 255
209 228 255
209 228 255
208 228 255
208 228 255
208 228 255
208 228 255
208 228 255
208 228 255
208 228 255
208 228 255
208 228 255
208 228 255
208 228 255
208 228 255
208 228 255
208 228 255
208 228 255
208 228 255
208 228 255
208 228 255
208 228 255
208 228 255
208 228 255
207 228 255
207 228 255
207 228 255
207 228 255
207 228 255
207 228 255
207 228 255
207 228 255
207 228 255
207 228 255
207 228 255
207 228 255
207 228 255
207 228 255
207 228 255
207 228 255
207 228 255
207 228 255
207 228 255
207 228 255
207 228 255
207 227 255
207 227 255
207 227 255
207 227 255
207 227 255
207 227 255
207 227 255
207 227 255
206 227 255
206 227 255
206 227 255
206 227 255
206 227 255
185 206 240
127 152 203
71 105 179
62 99 175
61 98 175
62 99 175
62 99 173
62 99 173
62 99 177
62 99 171
63 99 175
62 98 170
62 99 176
62 99 171
62 98 171
62 99 172
61 98 172
62 98 171
62 98 171
63 100 178
62 98 167
62 99 173
62 99 174
62 98 171
62 99 175
61 98 171
62 99 173
62 99 178
62 99 174
61 98 173
62 99 173
61 98 173
62 99 178
62 98 175
61 98 174
62 98 172
61 98 173
65 101 178
137 161 207
184 205 240
206 227 255
206 227 255
206 227 255
206 227 255
206 227 255
207 227 255
207 227 255
207 227 255
207 227 255
207 227 255
207 227 255
207 227 255
207 227 255
207 228 255
207 228 255
207 228 255
207 228 255
207 228 255
207 228 255
207 228 255
207 228 255
207 228 255
207 228 255
207 228 255
207 228 255
207 228 255
207 228 255
207 228 255
207 228 255
207 228 255
207 228 255
207 228 255
207 228 255
207 228 255
208 228 255
208 228 255
208 228 255
208 228 255
208 228 255
208 228 255
208 228 255
208 228 255
208 228 255
208 228 255
208 228 255
208 228 255
208 228 255
208 228 255
208 228 255
208 228 255
208 228 255
208 228 255
208 228 255
208 228 255
208 228 255
209 228 255
209 228 255
209 229 255
209 229 255
209 229 255
209 229 255
209 229 255
200 218 240
163 170 163
126 124 82
135 131 87
140 138 92
131 129 87
141 139 93
147 146 98
139 138 93
142 141 95
146 144 96
141 141 96
140 138 93
144 143 96
146 145 98
148 147 99
138 137 93
140 138 93
149 148 99
149 148 100
151 150 101
145 144 97
154 152 102
149 147 99
148 146 98
144 142 95
151 150 101
150 149 100
156 154 103
152 151 102
149 147 99
154 153 103
151 149 99
154 152 101
157 155 103
152 150 101
156 154 103
158 156 104
158 156 104
147 146 98
148 148 99
149 147 98
154 152 102
154 152 101
165 162 108
154 151 101
159 157 104
144 142 95
149 147 98
152 149 99
148 146 97
155 153 102
157 154 103
158 155 103
160 156 104
156 154 103
158 155 103
165 163 109
158 155 103
154 150 98
163 160 106
155 152 101
154 151 100
159 156 104
164 161 108
163 160 105
154 151 99
155 152 99
160 157 103
153 150 99
158 155 102
159 156 103
154 152 101
155 152 99
155 152 100
162 158 103
149 145 93
157 154 100
150 146 94
157 154 100
160 156 101
153 149 97
157 153 101
152 148 95
157 153 101
154 150 99
156 153 99
151 148 95
159 155 101
149 145 95
148 146 95
145 142 90
147 143 88
150 146 95
150 147 95
159 156 101
149 146 95
157 153 99
151 148 95
154 149 95
150 146 94
151 148 95
149 144 93
157 153 98
156 152 98
146 142 91
151 145 92
141 138 88
134 130 82
142 139 85
150 146 94
149 145 93
143 139 89
143 139 88
145 139 88
140 136 88
144 140 89
143 138 87
207 227 254
205 226 252
205 227 255
206 227 255
204 226 255
204 226 255
204 226 255
204 226 255
203 225 255
202 225 255
202 225 255
201 224 254
202 225 255
200 224 255
201 224 255
200 224 255
200 224 255
199 223 255
199 223 255
199 223 255
198 223 255
198 223 255
198 223 255
197 222 255
197 222 255
196 222 255
196 222 255
196 222 255
196 222 255
194 221 254
195 221 255
195 221 255
194 221 255
193 220 255
193 220 255
192 220 255
192 220 255
193 220 255
192 219 255
191 219 255
191 219 255
191 219 255
191 219 255
191 219 255
191 219 253
192 219 249
194 220 249
194 219 240
193 218 242
193 218 236
196 220 240
193 218 236
194 219 236
195 220 244
193 219 237
193 219 244
191 217 234
192 218 237
193 218 234
192 218 238
193 219 238
194 219 242
190 216 234
192 218 234
191 217 237
192 218 237
192 218 236
190 216 237
190 215 233
192 218 238
190 216 227
190 216 228
191 217 233
191 217 234
191 217 241
190 216 236
189 215 228
191 218 240
189 216 234
191 218 241
192 219 246
190 217 246
190 217 242
191 218 246
189 216 237
189 217 250
187 217 250
185 215 250
184 215 253
183 215 255
184 215 255
184 215 255
185 216 255
184 215 255
185 216 255
185 216 255
186 216 255
186 217 255
187 217 255
187 217 255
187 217 255
188 217 255
189 218 255
190 219 255
191 219 254
192 219 255
192 220 255
194 221 255
194 221 255
196 222 255
197 222 255
199 223 255
200 224 254
201 224 255
203 226 255
203 225 254
204 225 252
206 227 250
208 228 253
209 228 254
209 229 255
209 229 255
209 229 255
209 229 255
209 229 255
209 229 255
209 229 255
209 229 255
209 228 255
209 228 255
208 228 255
208 228 255
208 228 255
208 228 255
208 228 255
208 228 255
208 228 255
208 228 255
208 228 255
208 228 255
208 228 255
208 228 255
208 228 255
208 228 255
208 228 255
208 228 255
208 228 255
208 228 255
208 228 255
208 228 255
208 228 255
208 228 255
208 228 255
207 228 255
207 228 255
207 228 255
207 228 255
207 228 255
207 228 255
207 228 255
207 228 255
207 228 255
207 228 255
207 228 255
207 228 255
207 228 255
207 228 255
207 228 255
207 228 255
207 228 255
207 228 255
207 228 255
207 228 255
207 228 255
207 228 255
207 228 255
207 228 255
203 224 253
168 190 231
108 135 195
62 99 174
62 99 175
63 99 176
62 99 171
62 98 171
62 99 173
62 99 171
62 99 177
62 99 170
61 98 169
63 100 178
62 99 170
62 99 175
62 98 165
62 98 174
63 100 177
62 99 175
62 98 174
62 99 174
62 99 170
63 100 176
62 99 172
62 99 173
63 99 174
62 99 171
63 100 177
62 99 172
62 99 171
61 97 168
62 98 174
62 98 172
62 99 174
62 98 170
61 98 170
61 98 170
61 98 171
63 99 176
62 98 170
62 98 172
61 98 175
106 133 192
169 191 229
205 226 254
207 228 255
207 228 255
207 228 255
207 228 255
207 228 255
207 228 255
207 228 255
207 228 255
207 228 255
207 228 255
207 228 255
207 228 255
207 228 255
207 228 255
207 228 255
207 228 255
207 228 255
207 228 255
207 228 255
207 228 255
207 228 255
207 228 255
207 228 255
207 228 255
207 228 255
208 228 255
208 228 255
208 228 255
208 228 255
208 228 255
208 228 255
208 228 255
208 228 255
208 228 255
208 228 255
208 228 255
208 228 255
208 228 255
208 228 255
208 228 255
208 228 255
208 228 255
208 228 255
208 228 255
208 228 255
208 228 255
208 228 255
209 228 255
209 228 255
209 229 255
209 229 255
209 229 255
209 229 255
209 229 255
209 229 255
209 229 255
209 229 255
206 225 250
176 187 196
148 147 109
140 136 90
135 133 89
148 146 96
144 143 96
135 134 90
150 147 98
144 142 95
141 139 94
143 141 95
147 146 98
132 131 88
152 151 102
152 151 101
143 141 94
152 150 101
144 142 95
149 148 99
153 151 102
153 151 102
145 144 97
148 147 99
148 146 98
150 147 98
153 151 102
153 151 101
148 147 99
147 146 98
156 154 103
154 153 103
150 148 99
163 160 106
150 149 100
153 151 102
155 153 103
158 155 103
153 150 100
155 153 103
162 159 106
158 156 104
159 156 104
163 159 106
165 162 108
159 158 106
159 157 104
157 155 103
157 154 103
159 157 104
155 153 102
160 157 104
158 156 103
157 154 102
155 153 102
155 152 101
162 158 103
154 152 101
154 152 102
158 156 103
148 145 97
162 158 104
156 154 101
150 148 99
158 155 101
164 162 108
157 154 101
159 156 103
155 152 100
159 156 103
162 158 104
151 148 96
158 154 101
161 157 103
154 152 100
158 154 102
162 158 103
153 149 96
164 160 105
146 143 95
156 153 101
156 152 99
158 155 102
158 153 99
152 149 96
151 148 95
149 146 95
153 150 99
156 152 99
159 155 101
157 154 100
157 153 97
151 147 95
159 155 99
151 148 95
147 144 95
150 146 91
157 152 99
145 142 93
151 148 94
147 144 91
150 147 95
152 148 94
154 148 96
150 146 94
152 147 95
154 150 95
142 139 87
154 149 96
151 147 92
145 142 87
148 144 93
142 138 87
144 140 89
154 149 93
146 142 90
149 145 90
148 143 91
151 147 93
134 130 80
207 228 255
205 227 255
205 227 255
205 227 255
204 226 255
204 226 255
203 226 255
203 226 255
204 226 255
202 225 255
202 225 255
201 225 255
201 225 255
201 224 255
201 224 255
200 224 255
200 224 255
199 223 255
198 223 255
199 223 255
198 223 255
198 223 255
198 223 255
197 222 255
197 222 255
196 222 255
196 222 255
196 222 255
195 221 255
195 221 255
194 221 255
194 221 255
194 220 255
193 220 255
193 220 255
193 220 255
192 220 255
191 219 255
191 219 255
192 220 254
191 218 249
194 220 249
193 219 244
194 220 244
196 220 240
195 220 241
194 219 238
194 219 245
196 221 250
195 220 244
196 221 242
192 218 241
194 218 236
192 217 228
195 219 234
192 218 234
193 218 234
193 218 237
192 218 236
194 219 241
193 219 240
194 219 236
191 216 228
193 218 238
193 218 233
191 216 230
192 218 240
192 219 245
191 217 240
193 219 242
192 217 237
192 217 230
191 218 237
191 218 241
192 218 242
192 218 240
193 218 234
193 219 240
193 218 228
190 216 240
192 218 236
189 215 231
190 216 231
192 219 246
191 218 244
190 217 240
191 218 242
190 217 237
187 215 242
189 217 245
188 216 237
186 216 250
185 216 255
184 216 255
184 215 255
184 215 255
185 216 255
184 216 255
187 217 255
186 216 255
187 217 255
187 217 255
188 218 255
187 217 255
189 218 255
190 219 255
190 219 255
193 220 255
192 220 255
195 221 254
196 222 255
195 221 254
197 222 254
198 223 254
198 222 250
202 225 253
203 225 255
204 226 254
204 226 252
207 227 250
209 229 255
209 229 255
209 229 255
209 229 255
209 229 255
209 229 255
209 229 255
209 229 255
209 229 255
209 229 255
209 229 255
209 229 255
209 229 255
209 228 255
209 228 255
208 228 255
208 228 255
208 228 255
208 228 255
208 228 255
208 228 255
208 228 255
208 228 255
208 228 255
208 228 255
208 228 255
208 228 255
208 228 255
208 228 255
208 228 255
208 228 255
208 228 255
208 228 255
208 228 255
208 228 255
208 228 255
208 228 255
208 228 255
208 228 255
208 228 255
207 228 255
207 228 255
207 228 255
207 228 255
207 228 255
207 228 255
207 228 255
207 228 255
207 228 255
207 228 255
207 228 255
207 228 255
207 228 255
207 228 255
207 228 255
205 226 254
175 197 233
97 125 190
61 98 169
63 100 178
62 98 168
62 99 169
62 99 173
63 99 174
62 99 171
62 99 173
61 98 169
62 99 170
62 99 176
61 98 172
63 99 166
62 99 169
63 99 169
62 99 169
62 98 170
62 98 165
61 98 169
63 99 164
62 98 167
62 98 165
62 98 167
63 99 173
62 99 174
62 98 171
62 98 170
62 98 166
63 99 174
62 98 167
63 99 172
62 99 171
63 99 177
62 98 168
62 98 170
61 97 170
60 97 163
62 98 171
62 99 172
61 98 173
62 98 170
61 97 170
62 98 172
62 98 173
100 128 190
170 192 230
207 228 255
207 228 255
207 228 255
207 228 255
207 228 255
207 228 255
207 228 255
207 228 255
207 228 255
207 228 255
207 228 255
207 228 255
207 228 255
207 228 255
207 228 255
207 228 255
208 228 255
208 228 255
208 228 255
208 228 255
208 228 255
208 228 255
208 228 255
208 228 255
208 228 255
208 228 255
208 228 255
208 228 255
208 228 255
208 228 255
208 228 255
208 228 255
208 228 255
208 228 255
208 228 255
208 228 255
208 228 255
208 228 255
208 228 255
208 228 255
208 228 255
209 228 255
209 229 255
209 229 255
209 229 255
209 229 255
209 229 255
209 229 255
209 229 255
209 229 255
209 229 255
209 229 255
209 229 255
209 229 255
209 229 255
193 209 228
140 143 125
127 125 83
134 131 87
128 126 84
136 135 91
143 141 95
139 136 91
148 145 96
147 146 98
140 139 94
133 133 90
144 143 96
142 142 96
147 145 98
137 136 91
144 143 97
150 148 99
149 148 99
147 146 98
144 143 96
150 150 101
150 149 101
152 151 101
155 154 104
150 148 99
151 149 99
154 152 102
148 147 99
149 148 99
158 156 105
150 148 100
151 150 101
148 148 100
153 151 102
151 149 99
148 146 97
154 151 101
151 148 99
155 153 102
161 159 106
157 155 104
156 154 103
159 157 105
155 152 101
158 156 104
155 153 102
162 159 106
156 153 102
162 160 107
151 148 99
162 160 106
156 154 103
149 147 97
156 154 103
157 154 102
154 151 101
158 155 103
168 165 109
160 156 103
151 148 97
163 160 106
158 154 103
163 160 106
161 157 104
153 150 98
156 153 102
157 153 101
160 157 104
153 151 100
150 147 97
160 156 103
158 155 101
158 156 103
153 149 95
146 144 93
151 147 95
154 151 99
159 156 102
153 149 95
153 149 95
154 150 97
153 148 95
162 158 103
156 152 99
153 149 95
163 159 104
156 151 97
157 153 99
155 150 97
155 151 95
149 145 91
159 155 101
156 151 95
155 151 96
155 151 95
158 154 101
156 152 97
156 151 95
151 147 95
163 159 101
156 152 97
161 156 102
151 147 93
147 144 91
159 154 99
158 153 100
154 150 96
149 145 92
152 148 94
152 148 92
146 141 91
138 134 83
156 151 97
140 136 82
153 149 93
150 145 93
143 138 84
145 141 88
143 138 85
148 143 89
205 227 255
205 227 255
205 227 255
204 226 255
204 226 255
203 226 255
203 226 255
203 226 255
202 225 255
203 225 255
202 225 255
201 224 255
200 224 255
201 224 255
199 223 254
200 224 255
200 224 255
199 223 255
198 223 255
198 223 255
198 223 255
198 223 255
197 222 255
197 222 255
196 222 255
196 222 255
196 221 255
195 221 255
195 221 255
194 221 255
194 221 255
194 220 255
193 220 255
193 220 255
193 220 255
193 220 255
194 221 254
195 221 252
194 219 242
194 218 240
195 221 248
194 219 237
197 221 248
195 219 237
192 218 236
195 219 242
195 219 236
193 218 237
193 217 224
194 218 234
196 221 242
195 220 242
191 216 226
195 220 240
194 219 242
192 218 237
194 219 237
192 217 230
193 217 236
189 216 236
196 220 237
191 216 233
193 219 241
195 219 236
196 220 237
192 217 230
195 219 240
193 219 242
193 219 244
191 217 240
191 217 234
192 216 233
193 218 234
193 218 238
193 218 236
194 218 230
192 217 234
192 218 238
192 218 234
192 218 240
192 218 236
192 218 240
190 217 237
192 218 236
192 218 242
189 216 238
189 216 240
187 214 228
189 217 241
190 217 238
190 217 240
191 218 244
193 219 241
191 218 244
187 216 248
186 215 250
185 216 255
184 215 255
185 216 255
185 216 255
185 216 255
186 217 255
186 217 255
188 217 255
188 218 255
188 218 255
190 219 255
189 218 255
190 219 255
191 219 254
193 220 255
195 221 255
195 221 254
196 222 255
197 222 254
198 223 255
200 224 255
203 225 254
202 224 252
203 225 250
205 226 248
208 228 254
209 229 255
209 229 255
209 229 255
209 229 255
209 229 255
209 229 255
209 229 255
209 229 255
209 229 255
209 229 255
209 229 255
209 229 255
209 229 255
209 229 255
209 229 255
209 229 255
209 229 255
209 229 255
209 228 255
208 228 255
208 228 255
208 228 255
208 228 255
208 228 255
208 228 255
208 228 255
208 228 255
208 228 255
208 228 255
208 228 255
208 228 255
208 228 255
208 228 255
208 228 255
208 228 255
208 228 255
208 228 255
208 228 255
208 228 255
208 228 255
208 228 255
208 228 255
208 228 255
208 228 255
208 228 255
208 228 255
208 228 255
207 228 255
207 228 255
207 228 255
207 228 255
207 228 255
169 191 230
94 123 186
62 98 170
62 99 177
61 98 171
62 99 171
63 99 173
62 99 172
63 99 173
62 99 173
62 99 171
62 99 172
61 98 167
62 98 170
62 99 175
62 98 167
62 99 168
62 99 172
63 99 171
62 99 170
62 99 174
63 99 170
62 99 171
62 99 174
62 99 171
62 98 163
62 98 171
62 99 174
63 99 169
62 98 162
62 99 170
61 98 168
62 99 172
62 98 171
63 99 176
62 98 166
62 99 173
62 98 169
62 99 173
61 98 165
61 97 165
63 99 171
62 99 170
61 97 167
62 98 169
62 99 174
62 98 166
62 97 169
61 98 172
61 97 171
106 132 192
180 201 237
206 227 255
207 228 255
207 228 255
207 228 255
207 228 255
208 228 255
208 228 255
208 228 255
208 228 255
208 228 255
208 228 255
208 228 255
208 228 255
208 228 255
208 228 255
208 228 255
208 228 255
208 228 255
208 228 255
208 228 255
208 228 255
208 228 255
208 228 255
208 228 255
208 228 255
208 228 255
208 228 255
208 228 255
208 228 255
208 228 255
208 228 255
208 228 255
208 228 255
209 228 255
209 228 255
209 229 255
209 229 255
209 229 255
209 229 255
209 229 255
209 229 255
209 229 255
209 229 255
209 229 255
209 229 255
209 229 255
209 229 255
209 229 255
209 229 255
209 229 255
209 229 255
208 227 253
174 186 196
134 132 90
139 137 92
130 128 86
137 135 90
141 139 93
146 145 97
139 138 93
138 137 93
145 143 96
138 136 92
149 147 99
143 142 96
140 139 93
152 150 101
140 139 94
141 140 95
145 144 97
143 142 95
150 149 100
160 158 106
142 140 94
153 152 102
152 151 102
146 145 97
158 156 105
153 151 102
149 147 99
150 148 99
162 160 108
157 155 104
151 150 100
157 154 103
151 150 101
154 152 101
159 157 104
155 153 102
162 159 106
160 158 106
161 158 105
158 156 104
163 160 107
157 155 103
162 160 107
152 149 99
156 153 102
156 153 102
168 163 108
160 157 104
164 161 107
158 155 103
162 158 104
158 156 104
159 157 104
152 150 100
156 153 101
161 157 103
164 161 107
159 156 104
157 154 101
168 164 109
162 158 105
157 153 101
157 154 102
163 158 103
157 153 101
154 151 99
161 158 104
157 153 101
161 157 103
153 150 99
158 156 103
158 154 101
157 153 100
160 156 102
152 150 98
162 158 103
151 148 97
151 148 95
157 154 101
153 150 97
156 152 100
160 156 103
159 155 99
155 151 94
155 151 97
153 150 98
159 154 100
147 143 93
153 150 95
157 152 98
149 146 91
155 151 97
163 159 102
159 155 100
160 155 99
155 152 97
154 150 99
156 153 97
158 154 99
150 146 93
154 151 98
156 152 97
152 148 94
151 147 96
153 149 95
143 140 90
156 151 97
150 145 92
153 148 96
154 149 95
146 142 89
152 148 93
133 129 81
147 142 88
155 150 95
144 140 87
149 145 89
150 146 91
150 146 90
146 141 90
144 140 87
205 226 255
204 226 255
205 226 255
204 226 255
204 226 255
203 225 255
203 226 255
203 225 255
202 225 255
202 225 255
202 225 255
202 225 255
201 224 255
200 224 255
200 224 255
200 224 255
199 224 255
199 223 255
199 223 255
198 223 255
198 223 255
198 223 255
197 222 255
197 222 255
196 222 255
196 222 255
196 222 255
195 221 255
195 221 255
194 221 255
194 221 255
194 221 255
193 220 254
193 219 249
196 221 249
194 219 244
196 220 231
195 219 234
193 218 236
197 221 242
197 221 244
196 219 237
196 220 244
194 218 236
197 221 242
198 221 240
197 221 240
195 219 231
193 217 234
192 216 240
194 219 242
195 220 245
197 220 234
195 220 245
194 219 240
193 218 237
193 218 234
195 219 237
195 219 237
194 219 237
192 217 231
191 216 226
191 217 231
187 213 217
188 214 223
185 211 217
188 215 226
187 213 214
187 213 227
189 215 226
189 215 220
189 215 226
186 213 226
188 214 218
185 212 215
187 213 217
186 214 223
190 216 228
188 214 218
190 216 227
188 215 231
187 214 226
191 217 240
190 216 236
191 217 237
192 218 233
191 217 236
193 219 240
190 216 234
193 218 236
190 216 234
191 217 238
189 216 234
191 218 237
187 215 241
189 216 238
190 217 241
189 217 245
186 216 246
185 216 254
184 216 255
185 216 255
185 216 255
186 216 255
187 217 255
186 217 255
189 218 255
189 218 255
190 218 254
191 219 255
191 219 255
192 220 254
193 220 255
195 221 254
196 221 255
197 222 255
196 222 255
201 225 255
200 224 253
204 226 254
204 226 255
204 226 252
209 228 252
210 229 255
209 229 255
209 229 255
209 229 255
209 229 255
209 229 255
209 229 255
209 229 255
209 229 255
209 229 255
209 229 255
209 229 255
209 229 255
209 229 255
209 229 255
209 229 255
209 229 255
209 229 255
209 229 255
209 229 255
209 229 255
209 229 255
209 229 255
209 228 255
208 228 255
208 228 255
208 228 255
208 228 255
208 228 255
208 228 255
208 228 255
208 228 255
208 228 255
208 228 255
208 228 255
208 228 255
208 228 255
208 228 255
208 228 255
208 228 255
208 228 255
208 228 255
208 228 255
208 228 255
208 228 255
208 228 255
208 228 255
208 228 255
208 228 255
190 211 242
118 144 198
62 99 174
63 100 173
62 99 171
63 100 175
63 99 173
62 98 169
63 99 173
63 99 173
62 98 170
62 99 172
62 98 168
63 99 170
62 99 173
62 99 174
62 98 168
62 99 170
62 99 171
62 99 173
62 99 170
62 99 173
62 99 169
62 98 166
61 98 165
63 99 174
62 99 172
62 99 171
62 98 167
62 98 165
62 98 173
63 99 173
61 98 167
62 98 166
62 98 169
62 99 167
62 99 171
61 97 162
62 98 170
62 98 168
62 98 169
62 98 168
62 98 169
61 97 167
62 98 165
63 99 173
61 97 168
62 99 172
63 99 171
62 98 171
62 98 170
62 98 170
62 97 169
61 97 171
120 145 198
192 212 243
208 228 255
208 228 255
208 228 255
208 228 255
208 228 255
208 228 255
208 228 255
208 228 255
208 228 255
208 228 255
208 228 255
208 228 255
208 228 255
208 228 255
208 228 255
208 228 255
208 228 255
208 228 255
208 228 255
208 228 255
208 228 255
208 228 255
208 228 255
208 228 255
208 228 255
209 228 255
209 228 255
209 229 255
209 229 255
209 229 255
209 229 255
209 229 255
209 229 255
209 229 255
209 229 255
209 229 255
209 229 255
209 229 255
209 229 255
209 229 255
209 229 255
209 229 255
209 229 255
209 229 255
209 229 255
209 229 255
209 229 255
209 229 255
196 214 236
147 151 139
119 117 78
125 124 84
138 136 90
147 145 97
144 141 93
136 135 91
144 143 96
144 142 95
143 141 95
148 145 98
138 137 93
141 140 94
145 144 97
154 153 103
142 140 93
148 146 97
144 142 95
153 151 101
147 145 97
151 149 100
153 152 103
153 151 102
147 146 98
154 151 101
150 149 100
151 150 101
150 149 100
154 152 101
152 150 100
154 152 102
154 152 101
160 158 106
151 148 99
159 158 106
163 161 108
150 148 99
157 155 104
158 156 104
151 149 99
163 161 108
160 157 105
155 153 102
162 160 107
158 156 104
159 156 104
161 158 106
158 154 103
157 154 103
161 157 104
163 159 105
156 154 103
164 161 106
162 158 104
160 157 104
159 156 104
157 154 102
153 151 99
157 154 101
148 145 96
156 154 101
160 157 103
165 161 106
158 154 102
159 156 101
162 158 102
160 156 104
168 164 108
156 151 99
164 160 104
156 153 101
156 153 101
164 160 104
165 161 106
159 156 102
157 154 100
161 158 103
158 155 101
158 154 100
154 151 98
164 159 103
153 150 97
157 153 99
163 159 103
163 158 103
158 155 100
156 153 99
162 157 101
157 153 99
159 154 99
159 155 99
157 153 99
158 154 100
163 159 101
156 153 97
152 149 95
156 152 97
157 153 99
150 145 91
159 154 99
152 148 95
155 151 94
151 147 93
145 142 93
153 148 95
159 154 97
151 147 93
149 146 92
151 147 93
155 151 95
146 142 90
153 148 93
148 144 92
152 147 94
143 139 88
148 144 91
139 135 84
149 145 93
151 146 90
132 128 79
145 141 87
150 146 93
141 137 87
205 227 255
205 226 255
205 226 255
204 226 255
204 226 255
203 226 255
203 225 255
202 225 254
202 225 255
202 225 255
202 225 255
201 225 255
200 224 255
200 224 255
200 224 255
200 224 255
199 223 255
199 223 255
198 223 255
198 223 255
198 223 255
198 223 255
197 222 255
196 222 255
196 222 255
196 222 255
195 221 255
195 221 255
195 221 255
194 221 255
197 222 254
195 220 245
197 222 248
198 222 244
197 220 237
198 222 246
195 219 236
196 220 241
195 219 236
197 220 237
197 220 236
194 219 233
197 221 241
193 217 226
195 219 234
197 220 237
195 219 234
197 221 238
197 221 238
195 219 238
197 221 242
192 217 230
193 218 234
192 217 224
191 216 226
190 215 230
191 216 226
190 216 228
190 215 215
190 215 220
190 216 230
188 213 221
187 213 226
188 214 223
188 212 207
186 213 226
186 213 220
191 217 233
187 213 221
190 216 233
188 213 217
188 214 220
184 211 212
188 214 228
188 215 224
186 211 212
189 215 226
188 214 224
188 215 224
185 211 217
186 213 214
186 213 217
188 214 221
188 214 224
185 212 215
188 215 227
187 214 223
191 216 227
190 217 240
193 219 238
190 216 237
194 219 241
190 218 244
190 217 240
189 215 238
189 217 241
191 217 236
191 217 242
193 219 246
189 216 236
188 216 244
186 216 252
185 216 255
185 216 255
185 216 255
187 217 255
186 217 255
187 217 255
189 218 255
189 218 255
189 218 255
191 219 255
192 219 255
192 220 255
194 221 255
195 221 255
195 221 255
197 222 254
199 223 254
202 225 255
202 225 254
203 225 254
205 226 250
207 227 249
209 229 255
210 229 255
210 229 255
210 229 255
210 229 255
210 229 255
209 229 255
209 229 255
209 229 255
209 229 255
209 229 255
209 229 255
209 229 255
209 229 255
209 229 255
209 229 255
209 229 255
209 229 255
209 229 255
209 229 255
209 229 255
209 229 255
209 229 255
209 229 255
209 229 255
209 229 255
209 229 255
209 229 255
209 228 255
209 228 255
209 228 255
208 228 255
208 228 255
208 228 255
208 228 255
208 228 255
208 228 255
208 228 255
208 228 255
208 228 255
208 228 255
208 228 255
208 228 255
208 228 255
208 228 255
208 228 255
207 227 255
155 177 220
65 101 173
62 98 167
62 98 171
62 99 172
62 98 171
61 98 172
62 99 172
62 99 172
62 98 169
62 99 169
62 98 166
62 99 170
61 97 165
62 98 164
62 99 170
63 99 169
62 99 178
62 98 169
62 99 173
62 99 172
62 98 166
62 99 172
62 99 167
62 98 159
63 99 168
63 99 170
63 99 173
62 98 168
62 99 168
61 98 164
63 99 172
61 98 165
62 98 165
63 99 174
62 98 166
62 99 174
62 98 170
61 97 167
62 98 165
62 98 169
62 98 168
62 98 166
63 99 172
62 98 168
62 98 172
60 96 160
61 98 164
62 98 171
62 99 170
61 97 161
62 98 171
62 98 169
62 98 175
62 99 175
62 98 168
73 106 176
168 189 226
208 228 255
208 228 255
208 228 255
208 228 255
208 228 255
208 228 255
208 228 255
208 228 255
208 228 255
208 228 255
208 228 255
208 228 255
208 228 255
208 228 255
208 228 255
208 228 255
208 228 255
209 228 255
209 229 255
209 229 255
209 229 255
209 229 255
209 229 255
209 229 255
209 229 255
209 229 255
209 229 255
209 229 255
209 229 255
209 229 255
209 229 255
209 229 255
209 229 255
209 229 255
209 229 255
209 229 255
209 229 255
209 229 255
209 229 255
209 229 255
209 229 255
210 229 255
210 229 255
210 229 255
210 229 255
210 229 255
187 200 211
138 137 99
134 132 88
128 126 84
136 133 89
141 141 95
141 140 94
146 143 96
135 134 90
138 137 93
136 135 91
148 147 99
144 143 96
139 138 93
147 146 98
144 142 96
151 150 100
157 155 104
148 146 98
153 152 102
142 142 96
147 146 99
151 150 100
155 153 102
157 156 106
153 151 102
156 154 103
151 149 100
161 159 107
154 151 101
152 151 102
155 154 103
158 156 105
152 150 101
158 155 103
160 157 104
155 154 103
153 151 101
160 157 105
158 155 103
166 163 109
158 155 103
163 160 107
163 160 106
168 164 109
163 160 107
159 156 104
156 152 101
156 155 103
164 161 107
157 154 103
163 160 107
163 159 105
159 155 101
159 156 103
161 158 105
158 156 103
162 159 104
163 159 105
166 163 108
163 159 105
160 156 102
160 157 104
154 151 100
163 158 103
164 161 105
158 155 101
161 158 104
157 153 99
167 163 105
155 151 97
166 163 106
164 160 103
161 157 100
164 160 104
158 154 99
162 158 104
167 162 104
160 155 99
167 162 103
159 155 102
164 160 105
156 151 97
161 157 103
155 151 96
159 155 99
154 151 95
162 158 101
157 154 98
164 159 102
162 157 100
165 160 103
158 154 100
160 155 98
161 157 101
154 149 94
154 150 97
162 157 99
159 155 99
160 155 101
150 146 91
156 152 95
155 150 94
149 145 93
153 149 95
150 146 93
158 153 98
156 152 95
153 149 95
155 151 97
158 153 95
152 149 96
140 137 86
159 154 99
159 153 97
156 151 95
156 151 96
141 137 85
153 148 96
145 141 87
151 147 94
146 142 90
150 146 86
149 145 87
151 146 92
205 227 255
205 227 255
204 226 255
204 226 255
204 226 255
203 225 255
203 225 254
203 225 255
202 225 254
202 225 255
202 225 255
201 224 255
200 224 255
201 224 255
201 224 255
199 224 255
199 223 255
199 223 254
198 223 255
198 223 255
197 223 255
197 222 255
197 222 255
197 222 255
196 222 255
196 222 255
195 221 255
195 221 255
196 221 248
195 220 241
200 223 246
198 221 240
199 222 241
198 221 240
194 217 227
196 219 231
197 221 234
193 218 236
197 220 233
198 221 241
197 221 245
196 219 234
198 222 242
196 220 240
195 219 236
196 220 242
197 221 240
195 219 242
196 220 237
193 218 233
190 215 223
189 214 228
189 214 218
190 215 220
188 214 220
192 217 223
190 215 217
189 215 224
191 216 226
189 214 217
188 214 220
190 215 228
189 214 221
190 215 221
191 216 221
188 213 215
189 214 221
189 215 223
188 214 224
188 213 221
188 214 231
191 216 230
189 215 228
188 214 233
191 217 233
189 215 231
188 215 223
188 215 226
186 212 221
189 215 228
189 215 218
189 215 234
189 215 224
191 217 231
185 212 221
188 215 228
189 214 221
187 214 228
185 212 212
185 213 221
191 218 237
193 218 237
189 215 221
191 217 236
191 217 236
192 218 240
193 219 241
192 218 233
192 218 244
191 217 238
191 218 241
190 217 241
189 217 241
190 219 254
187 217 253
186 216 254
186 216 255
187 217 255
187 217 255
188 218 255
189 218 255
191 219 255
191 219 255
192 219 255
192 220 255
194 221 255
194 221 255
196 222 255
197 222 255
198 223 254
200 224 253
202 225 255
205 227 254
205 226 253
205 226 253
208 228 253
210 229 255
210 229 255
210 229 255
210 229 255
210 229 255
210 229 255
210 229 255
210 229 255
210 229 255
210 229 255
209 229 255
209 229 255
209 229 255
209 229 255
209 229 255
209 229 255
209 229 255
209 229 255
209 229 255
209 229 255
209 229 255
209 229 255
209 229 255
209 229 255
209 229 255
209 229 255
209 229 255
209 229 255
209 229 255
209 229 255
209 229 255
209 229 255
209 229 255
209 229 255
209 228 255
209 228 255
208 228 255
208 228 255
208 228 255
208 228 255
208 228 255
208 228 255
208 228 255
190 211 243
109 135 195
62 98 171
61 98 171
63 99 167
62 99 168
62 99 172
61 98 170
62 99 171
61 98 163
61 98 165
62 99 170
62 99 174
62 99 173
62 98 165
63 99 169
61 97 162
62 99 170
61 97 165
62 99 169
62 98 167
62 98 162
61 98 166
62 98 165
63 99 168
62 98 161
61 97 159
62 99 173
62 98 165
62 98 166
62 98 165
63 99 169
62 98 161
61 98 163
62 98 170
62 98 162
62 98 160
63 99 172
61 98 167
62 98 162
63 99 171
62 98 158
61 98 168
62 99 172
62 98 161
62 98 168
61 97 165
61 97 164
61 98 164
61 97 165
62 99 170
61 98 175
62 98 164
63 99 167
61 98 168
62 99 174
62 98 171
61 96 163
62 98 173
62 97 172
115 140 194
196 216 247
208 228 255
208 228 255
208 228 255
208 228 255
208 228 255
208 228 255
209 228 255
209 228 255
209 229 255
209 229 255
209 229 255
209 229 255
209 229 255
209 229 255
209 229 255
209 229 255
209 229 255
209 229 255
209 229 255
209 229 255
209 229 255
209 229 255
209 229 255
209 229 255
209 229 255
209 229 255
209 229 255
209 229 255
209 229 255
209 229 255
209 229 255
209 229 255
209 229 255
209 229 255
210 229 255
210 229 255
210 229 255
210 229 255
210 229 255
210 229 255
210 229 255
210 229 255
207 225 250
166 174 170
134 131 86
136 133 89
141 138 91
140 138 92
140 137 91
140 139 94
140 140 94
139 138 93
140 140 94
147 145 98
151 149 100
150 148 99
142 141 95
150 149 101
152 151 102
150 148 100
153 152 102
141 140 94
152 150 101
145 143 96
153 151 102
159 156 104
149 147 99
157 155 104
159 157 105
153 151 101
160 158 106
158 156 105
164 161 108
149 149 100
153 149 99
158 156 104
164 162 108
154 151 100
158 155 103
165 163 109
162 159 106
162 159 106
164 161 107
161 158 105
167 164 109
164 162 108
159 156 103
157 154 103
162 159 106
163 160 107
162 160 106
158 156 104
167 163 108
157 154 102
154 150 99
159 156 103
157 154 101
157 154 102
156 154 102
165 162 108
162 159 106
160 157 103
160 157 105
164 160 105
158 155 103
165 161 104
161 157 103
164 160 106
162 158 104
159 156 103
166 162 106
163 159 104
163 159 104
160 156 98
160 155 101
159 155 101
166 162 104
159 155 103
157 154 101
168 163 106
162 159 103
158 154 100
157 153 100
162 159 103
162 158 103
160 156 102
164 160 101
160 156 101
161 156 99
154 149 97
162 157 101
160 156 103
164 160 103
159 155 99
166 162 103
165 160 104
157 153 99
155 152 96
156 151 97
159 154 95
151 147 96
163 158 100
152 149 95
163 158 102
161 156 99
162 157 100
152 149 96
155 150 97
160 156 99
152 147 95
161 156 99
160 155 95
154 151 95
153 148 90
156 152 96
153 149 93
157 152 95
151 147 91
150 144 90
159 154 97
154 150 95
155 151 95
159 154 95
145 142 89
152 148 93
154 149 93
153 148 90
143 139 87
151 146 94
205 226 255
205 227 255
204 226 255
203 225 254
203 226 255
203 225 254
202 225 255
202 225 255
202 225 255
202 225 255
201 225 255
201 224 255
200 224 255
200 224 255
200 224 255
200 224 255
199 223 255
199 223 255
198 223 255
198 223 255
198 223 255
197 222 255
197 222 255
196 222 255
197 222 255
195 221 252
198 221 248
197 220 238
200 223 244
199 222 241
199 222 240
201 223 245
196 219 233
197 220 237
197 221 236
200 223 242
196 220 240
195 219 236
198 220 233
198 220 234
194 218 233
195 219 234
196 220 237
198 220 227
197 221 238
194 217 228
192 216 224
192 216 223
190 214 209
189 214 217
193 217 223
191 216 224
192 216 221
193 218 230
192 217 224
193 219 240
188 213 207
190 215 223
193 217 228
192 217 230
191 217 228
193 218 230
192 218 234
191 216 227
192 217 224
191 216 227
190 215 220
191 217 230
191 216 223
187 213 221
189 214 221
189 214 221
190 214 217
191 216 224
189 214 221
191 217 230
190 216 233
190 217 233
190 216 231
187 212 211
189 215 227
189 216 230
189 215 228
189 214 215
187 213 217
186 212 206
187 214 223
188 215 227
187 214 226
187 213 223
187 213 217
188 214 223
189 215 224
187 214 218
188 214 221
190 216 231
192 218 238
192 218 233
194 219 241
189 216 236
190 217 236
191 216 230
191 218 242
192 217 233
192 219 246
190 217 244
187 216 250
186 217 255
186 217 255
187 217 255
188 217 255
188 217 255
189 218 255
190 218 255
190 219 255
192 220 255
193 220 254
195 221 255
197 222 255
197 222 255
198 223 255
201 224 255
201 224 253
204 226 253
205 227 255
203 225 245
207 227 250
210 229 255
210 229 255
210 229 255
210 229 255
210 229 255
210 229 255
210 229 255
210 229 255
210 229 255
210 229 255
210 229 255
210 229 255
210 229 255
210 229 255
210 229 255
209 229 255
209 229 255
209 229 255
209 229 255
209 229 255
209 229 255
209 229 255
209 229 255
209 229 255
209 229 255
209 229 255
209 229 255
209 229 255
209 229 255
209 229 255
209 229 255
209 229 255
209 229 255
209 229 255
209 229 255
209 229 255
209 229 255
209 229 255
209 229 255
209 229 255
209 229 255
174 195 233
77 109 181
62 99 172
62 99 169
62 99 173
62 98 165
63 99 165
62 99 172
62 99 173
62 98 166
61 98 168
62 98 168
61 98 169
63 99 171
63 99 162
61 98 167
61 97 163
61 97 161
62 97 162
62 99 171
62 98 168
62 98 164
62 99 170
62 99 164
62 98 169
62 98 164
62 99 166
61 97 158
62 98 166
62 99 170
62 99 169
62 97 158
62 98 164
63 100 169
62 98 167
62 98 166
61 97 162
61 97 162
63 99 170
62 99 169
62 99 165
62 98 165
62 99 171
61 97 163
62 98 165
61 97 161
61 97 166
61 97 168
61 97 167
62 98 165
62 98 168
62 98 167
61 97 166
62 98 167
60 96 164
62 97 167
62 97 166
62 97 165
61 97 165
61 97 164
62 98 174
61 97 168
75 106 173
176 196 233
209 229 255
209 229 255
209 229 255
209 229 255
209 229 255
209 229 255
209 229 255
209 229 255
209 229 255
209 229 255
209 229 255
209 229 255
209 229 255
209 229 255
209 229 255
209 229 255
209 229 255
209 229 255
209 229 255
209 229 255
209 229 255
209 229 255
209 229 255
209 229 255
209 229 255
209 229 255
210 229 255
210 229 255
210 229 255
210 229 255
210 229 255
210 229 255
210 229 255
210 229 255
210 229 255
210 229 255
210 229 255
210 229 255
210 229 255
210 229 255
199 217 240
135 139 127
129 126 84
129 127 84
138 136 91
142 140 94
144 142 96
144 142 95
131 130 88
139 139 93
134 133 90
141 140 94
139 137 92
147 146 100
147 145 97
145 144 98
155 153 103
142 140 95
151 149 101
146 144 97
144 144 97
153 151 101
152 150 101
148 147 100
147 146 98
155 155 105
150 149 100
162 159 106
158 155 104
161 158 106
157 155 104
167 164 110
157 155 103
151 149 100
160 156 103
159 157 105
154 152 101
161 159 107
151 149 100
159 156 104
155 152 101
161 158 105
161 159 106
163 160 106
163 160 106
162 159 106
163 159 105
160 157 105
164 161 106
163 160 105
153 149 98
163 160 106
158 155 103
161 157 103
166 163 108
163 160 107
160 157 104
163 160 106
162 159 105
162 157 104
163 160 106
168 164 108
163 159 104
162 158 103
155 151 99
166 163 107
167 163 108
162 159 104
163 158 103
154 152 99
167 163 106
160 156 101
159 154 101
158 153 99
158 156 103
161 158 103
159 156 101
164 160 102
157 154 101
161 157 103
161 158 102
162 158 103
157 154 101
161 158 102
165 160 103
153 149 95
162 157 98
163 159 103
159 155 99
161 156 101
159 155 99
160 156 101
154 150 97
156 152 96
156 153 97
155 151 97
157 153 98
154 149 94
158 153 98
163 158 101
159 154 98
154 149 94
155 150 95
159 155 99
155 151 96
159 154 96
156 152 95
161 157 101
160 156 98
152 148 93
154 150 93
161 156 99
151 147 91
156 152 97
161 155 96
157 152 97
157 153 96
154 150 97
151 147 94
150 146 92
161 155 100
162 155 96
147 143 88
155 151 93
147 142 91
148 144 87
148 144 91
149 145 89
205 227 254
205 226 255
204 226 255
204 226 255
204 226 255
203 225 255
202 225 255
202 225 255
202 225 255
201 225 255
201 225 255
201 224 255
201 224 255
200 224 255
200 224 255
200 224 255
199 223 255
199 223 254
199 223 255
198 223 255
198 223 255
198 223 255
198 223 255
196 221 249
199 222 244
199 222 245
200 222 242
198 221 240
197 220 238
200 223 242
198 221 238
195 219 231
197 220 236
199 221 236
200 223 244
200 223 242
200 222 244
197 220 237
199 222 241
199 223 245
200 222 240
194 218 231
193 217 227
192 217 227
190 214 223
193 217 226
192 217 221
193 218 230
192 216 223
191 215 223
187 211 211
192 216 227
190 215 223
188 213 218
193 218 237
193 217 227
192 217 224
193 217 224
195 219 233
192 217 228
191 215 220
190 215 227
191 217 230
191 216 230
191 216 221
194 219 236
192 217 231
188 214 217
188 215 226
192 217 240
192 217 237
190 215 220
191 217 228
189 215 226
193 218 233
188 213 217
187 213 217
190 215 230
192 217 236
191 217 236
191 216 226
191 217 236
189 214 209
190 215 228
188 213 221
188 214 221
191 216 226
187 212 209
192 218 240
188 214 217
188 214 217
190 216 230
188 215 224
188 215 224
185 211 212
190 216 226
188 215 230
189 215 223
189 216 231
192 218 234
190 217 234
189 216 233
191 217 236
192 218 238
192 218 236
191 218 238
194 220 246
190 218 245
187 216 253
186 217 255
187 217 255
188 217 255
189 218 255
189 218 255
190 219 255
191 219 255
192 219 255
193 220 254
195 221 255
195 221 255
197 222 254
198 223 255
199 223 255
201 224 255
202 225 255
205 227 255
205 226 249
207 227 250
210 229 255
210 229 255
210 229 255
210 229 255
210 229 255
210 229 255
210 229 255
210 229 255
210 229 255
210 229 255
210 229 255
210 229 255
210 229 255
210 229 255
210 229 255
210 229 255
210 229 255
210 229 255
210 229 255
210 229 255
210 229 255
209 229 255
209 229 255
209 229 255
209 229 255
209 229 255
209 229 255
209 229 255
209 229 255
209 229 255
209 229 255
209 229 255
209 229 255
209 229 255
209 229 255
209 229 255
209 229 255
209 229 255
209 229 255
142 165 213
65 100 171
62 98 168
62 98 171
62 98 173
63 99 172
62 99 168
62 99 166
62 98 160
62 98 172
62 99 170
61 98 168
63 99 170
61 97 161
63 99 173
61 97 161
62 98 166
61 98 166
62 98 162
62 98 158
62 98 164
62 98 166
62 99 169
61 98 165
61 98 162
62 98 162
62 98 163
62 98 166
61 97 159
61 98 165
62 98 162
62 98 162
62 98 163
63 99 170
61 97 156
62 98 161
61 97 158
62 98 161
63 99 168
63 99 173
62 98 164
62 98 173
60 96 160
62 98 164
62 98 165
62 99 169
62 98 165
62 97 169
61 97 165
63 99 172
62 98 164
62 98 166
61 97 162
62 99 167
61 97 163
62 98 170
61 96 161
62 98 171
62 98 166
61 96 164
61 97 166
61 97 169
61 97 174
60 95 164
61 96 164
155 177 218
209 229 255
209 229 255
209 229 255
209 229 255
209 229 255
209 229 255
209 229 255
209 229 255
209 229 255
209 229 255
209 229 255
209 229 255
209 229 255
209 229 255
209 229 255
209 229 255
209 229 255
209 229 255
210 229 255
210 229 255
210 229 255
210 229 255
210 229 255
210 229 255
210 229 255
210 229 255
210 229 255
210 229 255
210 229 255
210 229 255
210 229 255
210 229 255
210 229 255
210 229 255
210 229 255
210 229 255
210 229 255
210 229 255
198 215 235
134 135 109
142 138 91
141 139 93
124 122 82
139 137 92
145 143 96
138 136 91
134 133 90
139 138 94
147 145 97
142 141 96
144 144 97
158 155 103
144 142 95
149 147 99
146 145 98
144 143 97
139 138 94
151 149 101
158 156 105
152 150 100
146 144 97
151 149 100
150 149 100
153 151 101
158 157 105
151 148 99
155 153 102
152 150 101
154 152 101
151 148 98
162 159 106
156 154 103
157 154 103
163 161 108
160 158 105
155 152 101
154 151 101
162 159 105
164 160 106
163 159 106
160 159 107
161 158 104
164 160 106
164 161 107
157 154 102
167 163 108
159 156 103
167 164 108
161 158 104
158 155 102
168 164 109
164 160 106
165 160 106
168 163 108
165 162 108
162 159 105
162 158 103
156 153 99
162 157 104
160 156 101
162 158 103
169 165 108
164 160 106
159 156 102
161 157 103
166 162 106
162 158 104
165 161 105
167 162 105
154 151 99
164 161 104
166 162 105
168 164 106
165 160 103
159 155 100
160 156 101
168 164 108
166 161 104
169 165 108
159 155 100
164 161 104
155 151 97
161 157 100
162 158 99
161 157 101
160 157 99
165 161 100
159 154 99
167 163 104
160 156 99
164 159 100
165 162 106
156 153 98
157 153 97
153 149 95
161 157 101
161 157 97
167 163 103
159 154 97
156 152 97
160 156 101
156 151 95
157 152 95
156 152 97
154 150 93
156 151 97
154 151 94
155 150 93
149 143 89
158 153 97
154 150 95
157 152 96
153 148 93
153 148 92
155 150 93
151 146 90
155 151 96
158 153 96
153 149 93
147 143 89
147 144 91
150 144 88
160 154 95
153 148 92
157 152 95
148 143 86
148 143 91
205 227 255
205 227 255
204 226 255
204 226 255
203 226 255
203 226 255
203 225 255
202 225 255
202 225 255
201 224 254
201 225 255
201 225 255
201 224 255
201 224 255
200 224 255
200 224 255
199 223 255
199 223 255
199 223 255
198 223 255
198 223 255
199 223 254
199 222 241
201 223 248
199 221 234
200 222 241
198 221 234
199 221 237
200 222 240
198 221 234
201 223 242
201 223 242
198 221 241
197 220 234
198 221 240
201 222 233
199 222 242
202 223 240
195 219 231
194 218 227
195 219 230
194 218 231
191 215 227
195 220 236
192 217 230
192 216 224
192 216 223
193 217 217
193 217 221
188 212 212
192 217 233
195 218 227
191 214 220
192 217 236
194 218 227
194 218 231
190 214 220
192 216 220
191 215 230
194 219 233
193 218 231
190 215 220
193 217 228
191 216 223
190 215 224
190 216 233
191 216 230
191 217 230
194 219 234
192 217 230
194 219 237
193 218 227
192 217 234
192 216 227
189 214 226
191 216 221
194 218 234
189 215 227
191 216 230
193 218 236
187 213 217
191 217 227
192 217 233
193 218 237
189 215 230
188 214 221
190 215 217
187 214 224
192 217 227
191 217 234
190 217 234
190 215 223
188 215 228
188 215 227
188 214 221
188 214 223
190 216 226
189 215 226
187 212 206
188 215 226
189 215 228
188 214 226
192 217 231
192 218 234
190 217 234
193 218 237
191 217 237
191 218 241
190 217 234
190 217 241
189 218 255
187 217 255
187 217 255
189 218 255
190 218 255
190 218 255
191 219 255
192 220 255
194 220 255
194 221 255
196 221 255
196 222 255
198 223 254
199 223 254
201 224 255
204 226 254
204 226 254
206 227 252
207 227 249
209 228 252
210 230 255
210 230 255
210 230 255
210 229 255
210 229 255
210 229 255
210 229 255
210 229 255
210 229 255
210 229 255
210 229 255
210 229 255
210 229 255
210 229 255
210 229 255
210 229 255
210 229 255
210 229 255
210 229 255
210 229 255
210 229 255
210 229 255
210 229 255
210 229 255
210 229 255
210 229 255
210 229 255
209 229 255
209 229 255
209 229 255
209 229 255
209 229 255
209 229 255
209 229 255
209 229 255
205 225 253
121 145 194
62 99 171
61 97 167
61 98 166
62 98 169
62 98 167
61 98 165
61 98 162
61 98 165
62 98 167
62 99 171
62 99 167
62 98 169
62 99 170
63 99 168
62 98 164
62 99 167
62 99 165
62 98 164
62 99 167
62 99 172
61 97 161
62 98 166
62 98 164
62 99 169
62 98 165
62 98 167
62 98 166
62 98 165
61 98 166
63 99 167
63 99 163
61 97 163
63 99 170
62 98 164
62 98 163
62 98 165
61 97 158
62 98 164
63 99 168
62 99 167
61 98 162
62 98 164
62 98 164
62 99 170
63 99 164
62 98 167
61 97 159
62 98 167
61 97 161
62 98 166
62 98 161
62 98 163
62 97 162
62 98 170
61 96 165
61 97 168
61 96 164
62 98 167
62 96 160
61 97 167
60 95 164
62 98 169
62 97 162
62 97 167
61 97 169
61 96 166
126 150 201
206 226 254
209 229 255
209 229 255
209 229 255
209 229 255
209 229 255
209 229 255
209 229 255
209 229 255
210 229 255
210 229 255
210 229 255
210 229 255
210 229 255
210 229 255
210 229 255
210 229 255
210 229 255
210 229 255
210 229 255
210 229 255
210 229 255
210 229 255
210 229 255
210 229 255
210 229 255
210 229 255
210 229 255
210 229 255
210 229 255
210 229 255
210 229 255
210 230 255
210 230 255
210 230 255
210 230 255
178 190 197
124 122 83
138 135 89
128 127 85
139 137 90
133 131 88
132 131 89
142 141 95
136 134 91
128 128 87
142 139 93
142 140 95
144 143 97
144 143 97
150 148 99
132 130 88
151 150 101
140 138 93
140 139 94
147 146 99
140 139 94
157 156 105
153 151 102
160 157 105
151 149 101
147 145 97
151 150 102
155 154 103
157 154 103
152 150 100
159 157 105
167 163 108
156 153 102
151 149 100
158 155 104
164 161 107
160 156 103
161 157 104
152 150 100
161 158 106
158 156 104
166 163 109
153 151 100
161 159 106
167 164 109
161 158 106
164 161 107
159 156 103
161 158 103
168 164 108
163 159 104
164 161 105
163 161 106
167 164 108
161 158 103
161 158 104
162 158 103
160 156 102
162 159 104
162 158 104
168 165 108
164 159 104
158 155 103
165 161 106
163 160 104
163 159 103
165 161 103
167 162 104
163 159 103
163 160 103
165 160 104
164 161 106
158 154 99
161 157 104
163 160 106
154 150 96
159 157 101
168 164 106
163 159 102
164 161 104
164 161 105
159 154 99
161 156 100
160 155 97
164 160 102
164 160 102
161 157 99
166 161 103
159 155 101
164 160 104
162 158 103
166 162 105
153 149 98
159 154 100
163 157 98
155 151 96
159 155 97
163 158 99
157 152 97
160 155 98
154 150 95
162 157 101
159 155 97
160 155 95
154 149 93
152 148 95
161 156 99
157 152 97
153 148 94
156 153 95
157 151 95
150 146 91
167 161 103
152 148 92
157 153 99
161 156 99
155 150 93
157 152 95
154 149 90
156 150 90
155 151 97
159 155 95
147 142 86
149 145 88
156 152 94
159 153 95
157 153 95
150 146 90
151 145 92
158 154 93
205 227 255
204 226 255
204 226 255
204 226 255
204 226 255
203 226 255
203 225 255
202 225 255
202 225 255
202 225 255
202 225 255
201 224 255
201 224 255
200 224 255
200 224 255
200 224 255
199 224 255
199 223 255
199 223 255
199 222 253
200 223 252
200 223 244
201 223 238
199 221 237
200 223 240
200 222 240
202 224 245
197 220 226
199 221 236
198 221 241
199 221 234
196 220 237
198 221 234
202 223 242
201 223 244
200 222 236
197 220 236
192 215 220
194 218 224
193 217 221
192 216 228
192 216 226
194 217 217
196 219 226
191 215 220
193 217 220
194 217 224
195 218 233
192 216 218
194 218 231
192 217 228
195 219 228
191 215 214
194 217 217
192 217 231
191 215 218
193 216 228
195 219 233
194 218 236
196 219 228
191 215 221
194 218 228
193 217 223
194 218 237
195 220 237
193 217 231
192 217 231
194 218 234
191 216 227
196 220 240
192 215 227
188 213 223
189 214 221
193 218 237
191 216 224
193 217 230
189 214 223
193 217 226
190 216 238
190 214 220
190 215 218
187 212 220
194 219 241
187 213 231
191 216 224
191 216 226
192 217 224
190 216 227
191 217 231
191 217 231
192 217 226
191 217 234
189 214 217
188 215 227
187 213 217
188 215 231
190 215 220
191 216 227
190 216 230
190 216 230
192 218 234
190 216 233
189 214 215
190 216 226
194 219 231
192 217 237
193 218 228
193 218 237
193 219 238
193 219 242
191 216 227
193 219 246
188 216 245
188 217 255
188 218 255
190 218 255
190 218 255
191 219 255
192 220 255
193 220 254
194 221 254
195 221 255
197 222 255
198 223 255
199 223 254
199 223 255
202 225 255
205 227 255
206 227 253
206 227 252
209 228 252
211 230 255
211 230 255
211 230 255
211 230 255
211 230 255
211 230 255
210 230 255
210 230 255
210 230 255
210 229 255
210 229 255
210 229 255
210 229 255
210 229 255
210 229 255
210 229 255
210 229 255
210 229 255
210 229 255
210 229 255
210 229 255
210 229 255
210 229 255
210 229 255
210 229 255
210 229 255
210 229 255
210 229 255
210 229 255
210 229 255
210 229 255
210 229 255
210 229 255
203 222 251
123 147 198
62 98 169
64 100 174
62 98 167
62 99 167
62 99 166
61 98 168
61 98 166
62 98 165
62 98 163
62 98 165
62 98 165
63 99 174
62 98 164
62 98 163
62 99 166
62 98 162
61 98 160
63 99 169
62 98 164
62 98 162
62 98 166
62 98 167
62 98 164
62 98 164
63 99 165
62 99 169
62 98 161
62 98 165
61 97 160
62 98 162
62 99 166
64 100 170
62 98 165
62 98 162
62 98 161
62 99 164
62 99 164
62 98 162
62 98 164
62 98 161
61 97 162
62 99 169
62 98 164
62 98 165
62 99 171
62 98 165
61 98 162
62 99 166
62 98 164
62 98 159
62 98 167
61 97 165
62 99 169
62 98 163
61 97 162
61 96 163
61 97 165
62 98 167
60 95 157
61 97 161
61 97 166
61 97 162
63 98 169
61 96 164
60 96 168
61 97 167
60 96 168
60 95 159
107 133 188
200 219 248
210 229 255
210 229 255
210 229 255
210 229 255
210 229 255
210 229 255
210 229 255
210 229 255
210 229 255
210 229 255
210 229 255
210 229 255
210 229 255
210 229 255
210 229 255
210 229 255
210 229 255
210 229 255
210 229 255
210 229 255
210 229 255
210 229 255
210 229 255
210 229 255
210 230 255
210 230 255
210 230 255
211 230 255
211 230 255
211 230 255
211 230 255
211 230 255
211 230 255
182 195 205
134 132 89
129 125 82
139 137 91
124 122 83
138 135 90
127 127 87
142 141 96
143 141 96
144 143 96
139 138 93
142 142 96
144 143 96
143 142 97
144 142 96
143 141 95
143 141 96
153 151 102
139 138 93
149 147 99
150 148 99
146 145 98
149 147 99
152 150 100
159 157 105
153 151 102
161 160 107
154 152 102
161 159 107
153 151 102
166 163 108
160 158 105
157 155 104
161 159 106
156 154 103
166 162 108
163 161 108
165 162 108
162 160 106
159 156 104
155 152 101
164 161 107
159 156 103
162 160 107
170 166 110
163 160 106
162 159 105
160 156 102
162 160 107
163 160 105
166 163 108
169 165 108
171 167 110
167 163 108
162 160 107
167 163 106
168 165 108
165 162 105
165 162 106
166 162 106
168 164 108
171 166 108
164 161 105
165 161 106
166 163 107
165 160 105
164 161 104
166 162 104
161 158 103
166 161 104
164 161 103
161 157 103
162 158 102
166 162 103
157 153 101
168 164 106
163 160 103
158 154 99
165 160 98
164 160 101
165 160 103
164 159 103
168 162 103
162 158 103
160 155 99
157 152 94
160 156 102
163 158 99
165 161 105
161 158 101
163 158 101
162 158 100
164 161 103
160 157 101
164 160 100
156 151 99
165 160 100
160 156 96
158 153 97
157 152 94
160 156 97
163 158 101
156 152 93
169 164 101
154 150 93
164 158 102
152 148 95
159 154 95
159 155 100
154 150 92
160 156 97
149 145 91
159 154 95
151 146 90
159 154 94
159 155 99
156 152 96
165 160 101
154 150 93
156 150 90
153 149 93
159 155 97
152 148 90
148 144 92
151 146 90
153 150 94
156 151 96
157 152 95
152 147 90
157 152 92
147 142 89
205 227 255
205 226 255
204 226 255
204 226 255
203 226 255
203 225 255
203 225 255
203 225 255
202 225 254
202 225 255
202 225 255
201 225 255
201 224 255
201 224 255
200 224 255
200 224 255
200 224 255
200 224 255
200 223 249
200 222 240
202 224 245
201 223 245
197 220 228
201 223 240
198 220 240
200 222 241
200 222 238
199 221 237
198 221 240
200 222 241
198 221 242
198 221 241
199 221 237
201 223 240
196 218 228
194 218 224
194 218 227
192 215 214
193 217 218
195 218 224
193 217 221
194 218 224
197 219 228
194 217 224
192 217 224
196 219 228
197 220 237
196 219 237
196 220 230
194 218 226
190 215 220
193 217 227
193 217 231
193 217 226
193 216 227
195 219 234
194 217 230
194 218 234
191 215 217
194 218 233
194 217 227
191 215 227
194 218 231
192 217 227
194 218 234
191 215 224
194 218 230
192 216 231
192 217 231
195 219 230
193 217 230
192 217 227
192 216 226
191 216 223
188 213 221
190 215 223
188 213 223
190 215 226
191 215 226
192 217 230
193 218 230
192 218 238
193 218 234
191 216 234
193 218 233
190 215 223
192 216 228
193 218 234
190 215 223
191 216 230
192 217 236
189 214 221
192 217 234
188 214 224
192 218 238
189 214 223
191 216 228
192 218 234
187 213 217
189 215 221
190 215 223
188 214 221
188 215 228
190 215 227
189 215 227
188 213 218
191 217 236
196 221 241
195 220 242
193 219 236
194 219 233
193 219 241
194 219 240
194 220 246
189 218 255
188 218 255
189 218 255
190 218 255
191 219 255
192 220 255
193 220 255
194 221 255
195 221 255
197 222 255
198 223 254
199 223 255
201 224 255
203 225 255
205 226 254
206 227 253
207 227 250
211 230 255
211 230 255
211 230 255
211 230 255
211 230 255
211 230 255
211 230 255
211 230 255
211 230 255
211 230 255
211 230 255
211 230 255
211 230 255
210 230 255
210 230 255
210 230 255
210 230 255
210 229 255
210 229 255
210 229 255
210 229 255
210 229 255
210 229 255
210 229 255
210 229 255
210 229 255
210 229 255
210 229 255
210 229 255
210 229 255
210 229 255
210 229 255
203 223 250
95 124 186
61 98 164
63 99 166
63 99 173
62 98 167
61 98 165
62 98 159
62 98 166
62 99 167
61 97 158
62 98 163
62 98 170
62 98 164
62 98 161
62 98 162
62 99 169
62 97 157
62 98 160
62 98 166
62 99 167
62 98 162
62 98 162
63 99 167
61 98 163
62 98 159
62 98 164
61 97 156
61 97 161
61 96 155
62 97 154
62 98 167
61 98 160
62 98 159
62 98 167
62 97 157
62 98 162
62 98 161
62 98 161
62 99 167
62 98 165
62 98 162
62 98 163
61 97 162
61 98 162
62 97 160
62 98 165
62 99 168
62 98 164
63 99 166
62 97 161
62 98 164
62 98 168
62 98 160
61 96 160
61 96 161
61 97 161
62 97 161
61 97 163
62 97 165
62 97 162
61 97 164
61 97 164
61 96 161
60 95 155
62 97 164
61 96 165
61 96 161
61 97 166
61 97 169
61 96 164
60 94 159
90 117 175
201 220 248
210 229 255
210 229 255
210 229 255
210 229 255
210 229 255
210 229 255
210 229 255
210 229 255
210 229 255
210 229 255
210 229 255
210 229 255
210 229 255
210 229 255
210 229 255
210 229 255
210 230 255
210 230 255
211 230 255
211 230 255
211 230 255
211 230 255
211 230 255
211 230 255
211 230 255
211 230 255
211 230 255
211 230 255
211 230 255
211 230 255
211 230 255
166 176 177
138 135 88
143 140 92
138 135 90
142 141 95
126 125 84
132 131 89
134 132 89
145 144 97
141 139 94
139 137 92
146 144 97
140 139 95
142 140 95
139 138 93
152 150 102
150 149 101
148 147 100
152 150 101
152 151 103
142 142 96
150 149 101
155 153 102
151 150 101
146 145 98
153 150 100
150 148 100
151 148 100
152 150 100
143 141 95
155 154 103
159 157 105
158 155 104
162 159 106
158 156 105
154 152 100
168 164 107
162 160 107
160 157 105
158 155 103
158 155 103
162 159 105
170 165 108
160 156 103
164 161 106
162 159 105
164 160 106
164 160 106
163 160 106
168 164 109
169 165 108
165 161 105
162 158 102
171 167 109
166 162 106
162 159 103
172 166 107
166 163 107
161 157 103
165 161 105
167 164 106
167 163 106
168 163 105
165 161 106
161 158 104
168 163 105
168 163 108
166 163 108
163 160 104
164 160 103
170 165 106
166 163 106
163 159 101
165 161 103
163 159 102
162 158 101
166 162 104
165 160 104
163 158 103
165 160 101
170 164 104
159 155 101
166 161 103
156 152 98
166 161 103
164 159 102
165 160 103
161 157 101
159 155 100
160 155 99
155 150 89
162 157 100
155 151 96
166 163 101
160 155 101
161 156 100
163 158 101
165 160 102
160 155 99
153 150 90
164 159 100
159 154 97
162 157 100
167 161 100
155 151 93
164 158 98
163 158 98
165 161 101
164 160 99
161 157 99
160 155 96
158 153 95
157 153 96
158 153 94
156 152 95
157 152 93
144 141 87
153 149 96
166 160 101
155 149 91
154 149 92
156 152 96
159 154 93
150 146 88
155 151 94
158 153 93
150 145 91
150 146 91
155 149 93
154 148 90
161 155 93
142 138 83
205 227 255
204 226 255
205 227 255
204 226 255
203 226 255
203 226 255
203 225 255
203 225 255
202 225 255
202 225 255
202 225 255
202 225 255
201 224 255
201 224 255
201 224 255
200 224 255
201 224 252
202 224 250
199 221 242
202 224 242
202 224 244
201 222 238
202 223 242
197 219 230
200 222 236
200 222 233
200 223 238
201 223 244
198 220 234
200 221 236
201 222 238
200 221 240
197 220 237
197 220 234
193 216 218
193 217 226
193 217 223
196 219 230
195 218 221
194 217 230
196 220 230
195 218 231
196 219 230
197 220 230
196 220 233
196 219 223
197 220 228
195 218 224
195 218 224
195 218 226
189 213 214
194 218 230
193 217 226
194 218 231
193 217 224
196 220 236
193 216 224
192 216 233
194 217 227
195 219 234
191 216 224
190 214 221
191 215 226
194 218 231
193 217 230
192 216 230
189 213 217
194 217 236
193 216 226
193 217 224
194 218 231
193 217 228
191 215 228
192 217 230
190 215 223
191 215 218
193 217 231
194 218 231
192 217 228
194 219 241
195 219 234
191 215 231
189 215 223
193 218 226
191 216 224
194 218 236
190 215 224
192 216 230
192 217 230
190 216 228
189 214 223
190 215 226
193 218 233
190 215 221
190 214 220
191 217 231
192 217 233
190 216 226
187 213 214
193 218 234
189 213 217
189 215 226
189 215 221
191 217 226
190 216 227
192 217 233
187 213 218
190 216 227
192 218 234
194 218 231
196 221 242
193 219 238
195 220 244
195 220 248
193 219 245
190 218 249
189 218 254
190 219 255
190 219 255
191 219 255
192 220 255
193 220 255
194 221 255
195 221 255
197 222 255
199 224 255
199 224 255
200 223 250
203 225 254
204 226 253
206 227 254
207 227 253
209 229 253
211 230 255
211 230 255
211 230 255
211 230 255
211 230 255
211 230 255
211 230 255
211 230 255
211 230 255
211 230 255
211 230 255
211 230 255
211 230 255
211 230 255
211 230 255
211 230 255
211 230 255
211 230 255
211 230 255
211 230 255
210 230 255
210 230 255
210 230 255
210 229 255
210 229 255
210 229 255
210 229 255
210 229 255
210 229 255
200 220 247
98 126 183
61 98 170
62 99 172
61 98 162
62 98 164
62 98 165
62 98 166
62 98 165
63 99 170
62 98 169
61 97 163
61 97 156
62 98 169
62 98 162
62 98 164
62 98 160
62 99 165
62 98 167
61 98 160
60 96 152
62 98 163
61 97 156
62 98 162
62 98 161
62 98 159
62 98 162
63 99 167
62 98 165
62 98 161
61 98 160
62 97 157
63 99 168
62 98 161
62 98 160
62 98 160
62 98 161
62 98 164
61 97 156
62 98 162
61 98 161
61 97 157
62 97 156
62 98 159
63 98 164
62 97 156
61 97 155
62 97 158
61 97 163
62 98 163
62 98 166
62 98 166
61 97 159
62 98 164
62 98 161
62 97 165
61 98 165
62 98 167
61 96 158
62 97 158
62 98 167
61 97 162
61 96 160
61 97 167
61 97 163
61 97 157
61 97 164
61 96 163
61 96 163
60 94 159
60 95 158
61 96 163
60 95 161
60 95 163
105 130 185
202 222 249
210 229 255
210 229 255
210 229 255
210 229 255
210 229 255
210 229 255
210 230 255
210 230 255
210 230 255
211 230 255
211 230 255
211 230 255
211 230 255
211 230 255
211 230 255
211 230 255
211 230 255
211 230 255
211 230 255
211 230 255
211 230 255
211 230 255
211 230 255
211 230 255
211 230 255
211 230 255
211 230 255
211 230 255
211 230 255
161 168 161
131 128 86
133 130 87
128 126 84
141 139 93
132 130 89
135 135 92
144 143 97
138 136 92
136 135 93
135 134 91
142 142 97
144 143 97
136 135 92
143 142 95
141 140 95
152 151 101
141 140 95
151 150 101
148 146 99
142 141 96
144 144 98
147 146 98
151 149 100
156 154 104
150 148 100
149 148 99
153 152 102
157 155 103
153 151 101
151 149 99
165 162 108
158 156 104
160 157 105
159 156 103
158 155 102
158 155 103
163 160 106
156 154 103
158 155 103
165 163 107
164 160 106
163 160 106
161 157 104
164 160 105
169 165 108
159 156 103
164 161 106
161 157 103
163 160 105
169 165 108
164 160 106
171 167 110
166 162 107
171 166 109
168 163 106
167 162 105
170 165 108
164 159 103
166 162 104
169 164 103
168 165 108
166 162 106
169 165 106
173 168 109
170 165 105
169 164 104
163 159 104
167 163 104
167 163 106
164 159 102
168 163 106
170 165 105
164 160 101
171 166 108
173 168 110
165 161 104
169 164 108
170 165 108
165 161 105
166 161 104
164 160 100
163 159 101
168 163 106
168 163 105
166 161 102
163 159 100
161 156 98
169 163 102
161 157 100
161 157 99
166 161 101
163 158 100
164 159 100
164 159 97
167 162 102
162 157 97
156 152 95
168 162 103
165 160 101
165 160 103
161 156 97
159 154 97
164 159 98
161 157 96
161 157 98
161 155 99
162 158 99
157 152 95
160 154 96
158 154 96
161 155 97
159 154 97
161 155 96
153 148 91
159 155 96
145 141 87
162 157 98
158 152 95
161 156 97
160 155 95
157 150 93
161 157 94
155 151 93
156 151 91
151 146 90
156 151 93
161 155 98
158 152 97
153 147 89
146 141 83
148 143 85
146 142 88
205 227 255
205 226 255
204 226 254
204 226 255
204 226 255
203 226 255
203 225 255
203 225 255
203 225 255
202 225 255
202 225 255
202 225 255
202 225 255
201 224 255
201 224 254
198 220 240
201 223 240
204 225 248
201 222 241
201 222 240
201 223 237
202 223 237
201 223 238
200 222 233
199 221 238
201 223 242
202 223 241
198 220 228
200 222 238
198 219 231
196 218 227
194 217 224
196 219 228
194 217 227
190 214 214
195 218 217
196 219 226
197 220 233
196 219 230
194 217 230
194 217 221
193 216 224
193 217 218
195 218 215
197 220 237
198 221 240
193 217 221
194 217 217
194 217 233
197 220 230
196 220 240
194 217 220
194 217 228
194 217 220
194 218 226
196 219 227
193 217 231
195 219 237
192 216 220
195 218 228
193 217 227
190 213 218
196 219 233
196 220 242
194 218 227
196 219 233
195 219 233
193 217 230
195 220 236
194 217 227
195 218 227
192 217 227
193 217 227
193 217 224
193 218 228
194 219 241
192 217 221
196 219 236
191 216 223
192 216 228
192 216 223
192 215 218
194 218 233
193 217 223
193 218 230
193 217 234
195 219 238
191 216 223
191 216 230
191 216 226
193 217 228
192 217 233
192 217 230
191 216 227
189 214 221
193 217 230
193 218 240
191 216 221
192 217 237
193 217 221
192 216 215
191 216 223
190 216 223
193 218 234
189 214 220
191 216 221
192 218 236
191 216 228
189 214 217
191 217 231
195 219 234
196 220 241
196 220 237
195 220 241
191 217 234
196 221 241
193 219 249
189 218 253
190 219 255
191 219 255
191 219 255
193 220 255
193 220 255
195 221 255
195 221 255
197 222 255
198 223 254
199 223 255
202 225 254
202 225 255
205 226 253
206 227 252
207 227 252
210 230 255
211 230 255
211 230 255
211 230 255
211 230 255
211 230 255
211 230 255
211 230 255
211 230 255
211 230 255
211 230 255
211 230 255
211 230 255
211 230 255
211 230 255
211 230 255
211 230 255
211 230 255
211 230 255
211 230 255
211 230 255
211 230 255
211 230 255
211 230 255
211 230 255
211 230 255
211 230 255
211 230 255
202 221 250
125 149 197
61 98 169
61 98 164
61 97 164
62 99 166
63 99 168
62 98 162
62 98 162
62 98 167
61 97 158
62 98 161
62 98 162
60 97 161
62 98 162
62 98 162
61 96 156
61 97 156
62 98 164
62 98 161
62 98 163
62 98 163
62 98 161
62 98 157
62 98 159
62 98 165
63 99 166
62 98 162
62 98 160
63 99 162
62 98 157
62 98 161
62 98 159
61 97 154
63 99 165
62 97 159
62 98 161
62 98 164
60 96 164
62 98 158
62 97 160
62 98 160
61 97 158
61 97 160
62 98 163
61 97 158
62 98 165
61 97 161
62 98 162
60 96 152
62 98 163
61 97 159
62 99 166
62 97 161
62 98 164
61 97 161
61 97 157
61 96 162
62 98 169
60 95 157
62 97 162
60 96 153
60 96 161
62 98 166
61 97 158
61 97 164
62 97 162
61 95 160
60 95 161
61 96 164
60 95 161
60 95 158
60 94 158
61 96 167
60 96 166
61 95 161
108 132 184
209 228 254
211 230 255
211 230 255
211 230 255
211 230 255
211 230 255
211 230 255
211 230 255
211 230 255
211 230 255
211 230 255
211 230 255
211 230 255
211 230 255
211 230 255
211 230 255
211 230 255
211 230 255
211 230 255
211 230 255
211 230 255
211 230 255
211 230 255
211 230 255
211 230 255
211 230 255
211 230 255
211 230 255
172 181 181
123 120 78
127 126 83
141 138 92
134 132 90
130 129 86
141 139 93
137 136 92
135 134 91
126 126 88
133 132 90
145 144 98
138 137 94
132 131 90
146 145 99
149 147 100
148 147 99
142 139 93
150 148 100
144 143 96
150 149 101
142 141 95
152 150 99
148 146 98
156 154 103
158 156 104
150 149 100
157 154 103
160 157 104
152 149 100
150 149 100
156 154 103
155 154 103
157 155 103
163 160 106
160 157 103
159 157 104
160 157 104
157 154 102
167 165 110
164 161 104
173 169 111
160 157 104
161 158 106
163 160 106
160 157 101
168 164 108
165 162 105
163 161 105
161 157 104
154 151 100
167 162 106
163 160 103
167 163 107
166 163 108
163 160 104
169 164 108
169 165 108
175 170 109
166 162 107
169 165 108
165 161 104
167 164 107
167 163 106
167 163 105
159 155 99
168 163 104
164 160 103
168 163 107
167 163 105
162 158 102
170 165 103
165 161 103
170 166 106
166 161 104
166 161 104
162 158 99
169 165 107
169 165 107
167 162 103
166 161 103
169 163 104
170 164 104
167 162 103
165 160 103
169 164 104
167 162 100
160 156 99
164 160 102
165 161 100
165 160 102
165 160 103
171 166 103
162 157 99
164 160 100
166 161 102
164 159 103
161 156 96
165 160 102
159 155 99
150 144 90
165 160 101
152 148 95
161 155 95
159 155 96
156 151 91
164 159 101
160 156 97
157 153 97
151 147 92
160 155 97
152 148 90
164 159 98
164 159 99
156 152 97
163 158 97
160 154 95
161 155 96
156 151 88
159 154 93
162 157 97
153 148 95
158 152 93
155 150 95
145 142 87
155 151 93
159 154 93
161 156 94
160 155 95
147 144 84
148 144 87
157 152 96
150 146 87
151 146 88
205 227 255
205 227 255
205 226 255
204 226 255
204 226 255
204 226 255
204 226 255
203 226 255
203 225 255
203 225 255
202 225 255
202 225 255
202 225 255
200 223 252
200 221 244
202 224 244
203 224 241
202 223 236
203 225 248
200 221 227
203 224 245
202 224 240
202 224 244
202 224 245
201 223 242
199 221 237
201 223 238
202 223 237
199 221 237
195 217 223
197 220 227
196 219 227
194 216 209
196 219 224
194 217 223
194 217 217
197 220 227
196 218 223
198 220 231
197 219 226
191 213 223
193 215 220
195 219 227
195 218 231
197 220 234
193 216 221
193 216 223
196 219 227
195 219 227
193 216 223
197 220 238
193 216 221
197 220 228
194 217 237
195 218 224
195 218 234
195 219 231
194 217 228
193 216 226
197 221 238
192 215 220
195 218 228
198 220 236
197 220 236
194 217 224
192 216 228
195 218 227
196 218 224
195 217 230
192 216 223
193 216 224
194 218 237
192 216 228
195 219 238
193 217 226
197 221 238
193 216 221
192 216 228
192 216 227
195 218 236
194 218 228
192 216 220
194 218 234
192 217 227
195 219 230
192 217 230
193 218 237
193 216 224
191 215 224
191 215 223
194 218 234
192 217 227
193 217 233
193 218 233
193 218 234
188 212 214
194 219 236
192 217 227
194 218 227
192 217 228
193 217 226
192 217 226
192 217 230
194 218 230
192 217 233
192 218 236
192 217 228
190 215 220
190 215 214
191 216 221
193 217 223
189 215 220
192 217 234
193 218 230
193 219 237
194 219 233
196 220 241
192 218 237
190 217 249
190 219 255
191 219 255
192 220 255
193 220 255
195 221 255
194 221 255
196 222 255
198 223 255
199 223 255
200 224 255
202 225 255
203 226 255
205 226 254
206 227 254
208 228 250
211 230 254
212 230 255
212 230 255
212 230 255
212 230 255
212 230 255
211 230 255
211 230 255
211 230 255
211 230 255
211 230 255
211 230 255
211 230 255
211 230 255
211 230 255
211 230 255
211 230 255
211 230 255
211 230 255
211 230 255
211 230 255
211 230 255
211 230 255
211 230 255
211 230 255
211 230 255
208 227 253
113 138 190
62 98 168
62 98 163
61 98 166
62 99 169
61 98 163
61 97 162
61 97 159
61 97 160
62 99 164
61 97 163
62 98 166
61 97 156
62 98 165
61 98 163
63 99 170
63 99 164
61 97 161
62 98 156
61 97 156
63 99 166
62 98 165
62 99 169
62 98 161
61 97 157
61 97 153
61 97 158
61 97 156
61 97 157
62 98 162
63 99 165
61 97 155
62 98 160
61 97 157
62 98 162
63 99 168
62 98 158
61 97 157
62 98 158
61 97 157
61 97 153
62 99 166
62 98 161
62 97 161
61 96 150
62 98 163
63 98 160
63 99 160
61 97 153
62 98 164
62 97 158
61 96 159
61 96 155
62 97 164
61 96 159
63 99 164
62 97 151
61 96 159
61 96 162
61 96 152
62 97 163
61 96 161
61 97 153
62 98 162
60 95 149
62 98 163
60 95 156
61 96 163
61 96 158
60 94 150
61 96 166
62 98 162
60 95 158
58 93 152
60 94 159
61 95 164
60 95 159
124 146 191
211 230 255
211 230 255
211 230 255
211 230 255
211 230 255
211 230 255
211 230 255
211 230 255
211 230 255
211 230 255
211 230 255
211 230 255
211 230 255
211 230 255
211 230 255
211 230 255
211 230 255
211 230 255
211 230 255
211 230 255
211 230 255
211 230 255
212 230 255
212 230 255
212 230 255
212 230 255
175 185 186
136 133 86
129 126 83
134 131 88
140 138 93
134 134 91
149 148 100
134 133 90
137 136 94
145 143 97
140 139 95
130 130 89
136 135 93
141 141 96
134 134 92
135 135 93
137 136 93
135 134 91
150 148 100
151 149 100
144 144 98
150 148 100
150 147 98
145 143 95
147 146 99
150 148 100
142 140 95
149 147 99
158 155 103
160 158 106
156 153 102
159 156 103
163 160 106
164 161 107
153 150 99
160 157 104
159 157 106
157 154 102
161 159 106
165 162 108
161 158 104
160 158 103
162 160 106
164 161 104
168 165 108
164 161 105
164 160 105
160 157 104
168 163 108
165 160 103
168 164 107
163 159 104
167 163 106
173 168 109
166 163 107
165 161 104
170 166 108
164 160 104
166 162 105
164 161 106
166 162 104
168 163 107
167 162 104
168 163 105
165 161 103
168 164 104
170 164 105
166 161 104
172 167 109
172 168 108
173 167 104
170 166 106
169 165 104
171 166 106
167 162 101
170 166 107
172 166 107
165 161 99
160 156 102
167 162 101
167 162 104
173 168 108
170 164 104
168 163 104
165 160 98
166 162 101
162 157 101
160 156 99
162 159 101
168 165 103
171 166 108
168 163 104
165 160 100
161 157 97
166 162 101
164 158 98
163 157 96
165 159 101
163 157 99
163 157 97
156 152 91
170 165 104
159 155 95
168 162 103
164 160 100
163 158 97
162 157 99
165 160 99
153 148 95
163 157 98
160 155 97
153 148 89
160 154 97
155 151 94
157 151 94
164 159 101
157 152 95
151 147 92
159 154 95
159 154 94
154 149 93
149 145 91
156 150 93
157 152 91
159 154 97
156 152 94
155 150 95
157 152 90
156 151 93
154 150 89
150 146 86
151 147 89
159 153 95
152 147 89
160 154 93
206 227 255
205 226 255
205 227 255
205 226 255
204 226 255
204 226 255
204 226 255
203 226 255
203 225 255
203 225 255
203 225 255
202 225 254
204 225 249
205 226 248
205 225 244
203 224 237
203 225 244
202 224 242
201 223 236
201 223 236
203 224 245
198 220 231
204 225 245
200 221 233
204 225 244
205 225 241
201 222 241
197 220 231
197 219 226
193 215 218
195 217 223
195 217 221
194 217 223
197 220 228
193 216 215
197 220 230
195 218 227
195 217 220
193 216 220
197 219 230
199 221 241
198 220 236
194 217 226
195 218 228
196 219 231
198 221 234
198 221 230
195 218 226
193 216 228
194 217 228
196 218 227
196 219 230
195 218 228
197 221 236
196 219 236
197 220 234
192 215 223
196 219 237
194 218 230
190 214 221
194 218 227
193 216 233
193 217 227
195 218 228
195 218 228
192 214 218
191 215 220
193 217 230
192 215 231
196 219 234
191 214 215
193 217 233
193 217 220
195 218 228
195 218 228
193 216 218
192 216 223
193 217 231
196 220 237
191 215 218
196 219 226
193 217 231
193 217 228
193 217 221
195 219 231
197 220 236
197 220 237
191 216 221
194 218 241
195 218 231
193 217 228
192 216 224
192 217 226
192 217 227
195 219 233
196 220 240
194 218 228
192 216 221
194 218 233
192 216 224
192 217 234
194 218 233
191 217 230
192 217 231
192 217 233
190 215 231
192 217 230
190 215 227
190 216 226
189 215 221
191 216 221
189 215 214
189 215 218
192 217 233
195 220 238
195 220 240
193 218 233
195 220 238
197 221 245
195 220 248
191 219 254
192 220 255
193 220 255
194 220 255
195 221 255
195 221 255
196 222 254
198 223 255
199 224 255
200 224 254
202 225 254
204 226 254
206 227 255
208 228 254
208 228 250
211 230 254
212 230 255
212 230 255
212 230 255
212 230 255
212 230 255
212 230 255
212 230 255
212 230 255
212 230 255
212 230 255
212 230 255
211 230 255
211 230 255
211 230 255
211 230 255
211 230 255
211 230 255
211 230 255
211 230 255
211 230 255
211 230 255
211 230 255
211 230 255
210 229 255
128 152 201
62 98 169
62 98 162
62 99 167
62 98 163
62 98 164
62 98 164
62 98 169
62 99 168
62 98 163
61 98 159
62 98 164
62 98 162
62 98 163
62 98 158
62 98 163
62 98 158
61 97 155
62 98 160
62 98 159
61 96 155
62 98 163
61 97 161
62 98 155
61 97 158
61 97 161
61 97 153
61 97 159
62 99 164
62 98 166
62 97 158
61 97 157
61 97 163
61 96 153
62 98 157
62 98 165
62 98 159
61 96 151
62 98 159
62 98 162
62 98 167
61 97 158
63 99 168
62 98 165
62 98 156
61 97 156
62 98 160
63 99 168
61 96 156
62 98 162
62 98 159
61 97 156
62 97 153
61 96 154
61 97 161
60 96 152
61 97 166
61 97 156
61 96 158
62 98 166
61 96 153
60 96 156
61 96 156
62 98 165
61 96 158
60 96 154
61 96 155
61 97 163
59 94 148
61 96 164
61 96 166
60 95 151
61 96 164
60 94 154
59 92 149
59 93 155
61 96 161
61 96 161
58 92 153
130 152 195
211 230 255
211 230 255
211 230 255
211 230 255
211 230 255
211 230 255
211 230 255
211 230 255
211 230 255
211 230 255
211 230 255
211 230 255
211 230 255
212 230 255
212 230 255
212 230 255
212 230 255
212 230 255
212 230 255
212 230 255
212 230 255
212 230 255
212 230 255
212 230 255
178 190 199
127 124 79
131 128 84
123 122 82
127 126 86
145 144 97
139 138 92
133 132 90
128 127 87
143 141 95
140 139 94
134 134 92
138 138 95
140 138 93
151 150 103
146 145 99
142 141 94
149 148 100
141 140 94
148 147 100
145 145 99
147 146 98
149 147 100
157 155 104
156 154 102
155 152 101
145 144 98
151 149 99
157 154 104
159 157 105
154 151 101
156 155 105
156 153 102
159 157 103
151 149 99
158 155 103
156 153 102
164 161 106
156 153 102
158 155 103
155 153 100
163 160 105
168 163 106
163 160 106
160 156 103
168 164 106
162 159 104
167 163 105
167 163 108
167 163 106
166 162 107
168 164 105
166 162 104
164 160 106
164 161 104
170 166 107
166 162 107
166 162 106
167 163 108
171 166 108
170 166 107
168 164 106
167 163 104
173 168 108
163 159 101
165 162 103
169 165 108
169 163 103
164 160 105
163 159 102
166 162 104
169 164 105
171 165 105
165 160 101
171 166 105
169 165 104
171 166 106
167 163 105
160 156 95
167 162 103
167 162 104
166 161 103
168 163 103
165 160 102
168 164 105
172 166 108
163 159 99
162 157 99
171 166 104
171 166 106
158 154 97
162 159 99
167 161 102
166 160 101
163 158 99
164 158 100
164 159 98
170 164 101
166 161 102
164 160 101
163 158 97
162 157 99
166 161 103
164 158 99
169 163 101
157 152 95
164 159 97
158 153 93
164 158 100
160 155 96
164 158 100
164 158 97
162 158 99
164 157 99
164 157 97
158 153 99
160 155 93
152 147 90
157 153 95
156 152 89
161 155 95
154 149 93
160 155 97
162 156 96
158 153 90
154 149 93
158 153 94
150 146 84
153 148 89
150 145 88
156 150 93
155 150 89
154 150 88
149 145 92
159 153 93
157 153 93
206 227 255
205 227 255
205 227 255
205 226 255
204 226 255
204 226 255
204 226 255
204 226 255
203 226 255
203 225 255
203 225 253
203 225 246
202 224 241
204 225 244
202 223 236
205 226 249
203 224 237
203 224 242
203 224 241
202 223 240
203 223 238
203 224 236
202 223 236
202 223 234
203 224 244
199 221 230
197 219 223
194 216 217
196 218 227
198 220 233
198 220 234
196 218 217
195 217 224
199 220 236
194 217 217
196 219 227
195 217 221
194 217 220
197 219 221
199 221 234
200 222 234
197 219 226
198 220 228
199 221 233
197 219 227
196 219 226
195 218 218
196 218 226
190 212 218
195 218 233
197 220 236
194 217 228
198 221 233
194 217 228
195 217 215
197 219 234
196 219 234
192 216 231
197 220 234
194 217 227
195 218 234
195 218 224
194 217 223
195 218 231
197 219 230
194 218 230
196 220 236
195 217 227
193 216 228
194 217 231
193 217 226
198 220 236
194 216 218
194 218 233
199 222 245
195 219 233
194 217 218
198 221 240
197 220 230
198 220 227
196 219 227
197 220 228
194 217 217
195 219 228
195 218 230
192 216 220
193 217 223
194 218 227
195 218 231
194 218 224
193 217 231
194 218 224
191 215 223
194 218 228
194 218 231
194 218 230
191 214 211
196 220 231
193 217 230
193 217 223
194 218 230
194 218 231
192 217 224
193 217 224
191 216 224
193 217 226
194 218 236
192 217 230
190 214 211
192 216 224
189 215 221
192 216 218
193 217 227
192 217 221
192 217 226
194 218 230
196 221 245
193 218 236
194 219 238
197 221 244
195 221 248
193 219 250
192 220 255
193 220 255
194 221 255
195 221 255
196 222 255
197 222 255
199 223 255
200 224 255
202 225 255
202 225 254
205 226 254
207 228 255
207 227 253
207 227 248
212 231 255
212 230 255
212 230 255
212 230 255
212 230 255
212 230 255
212 230 255
212 230 255
212 230 255
212 230 255
212 230 255
212 230 255
212 230 255
212 230 255
212 230 255
212 230 255
212 230 255
212 230 255
212 230 255
212 230 255
212 230 255
211 230 255
211 230 255
166 186 223
62 98 171
61 98 166
62 98 167
62 98 164
61 98 158
62 99 167
62 98 163
62 98 161
62 99 166
62 98 164
62 98 161
62 98 163
62 98 161
61 97 156
62 99 166
62 98 160
62 98 161
62 98 160
60 95 147
62 98 160
61 97 158
61 97 158
62 98 159
63 99 165
62 97 161
62 98 161
62 98 161
62 98 158
61 97 160
62 98 165
61 97 161
62 98 159
62 98 162
62 98 163
61 97 163
62 97 154
62 98 164
61 97 153
60 96 153
62 98 160
61 97 154
61 97 155
62 98 164
62 98 159
61 97 156
62 98 162
61 96 152
61 96 155
61 96 158
63 99 166
62 98 159
60 96 152
60 95 148
61 96 155
62 98 164
62 98 168
62 98 166
62 98 163
61 96 159
61 97 155
61 96 155
62 97 159
61 97 163
61 96 158
61 96 155
62 97 158
61 96 155
61 96 158
61 96 155
61 96 162
61 96 159
61 96 162
61 96 157
59 94 150
59 93 154
60 94 154
59 93 159
60 94 158
60 94 156
57 91 155
159 179 216
211 230 255
211 230 255
212 230 255
212 230 255
212 230 255
212 230 255
212 230 255
212 230 255
212 230 255
212 230 255
212 230 255
212 230 255
212 230 255
212 230 255
212 230 255
212 230 255
212 230 255
212 230 255
212 230 255
212 230 255
212 230 255
212 230 255
193 207 220
136 134 89
126 124 80
131 129 87
136 134 90
135 133 90
140 138 93
125 126 87
135 135 92
130 130 89
132 132 90
135 135 93
143 142 96
145 145 99
140 140 96
145 144 97
143 143 97
149 149 101
135 135 92
148 146 98
150 148 100
139 138 94
145 143 96
147 145 97
153 151 103
149 147 99
148 146 98
154 151 99
147 146 98
152 150 99
154 152 101
161 158 105
163 160 106
156 154 101
160 157 104
156 154 101
153 151 100
157 156 104
153 151 99
163 159 104
159 156 102
157 154 101
165 162 106
165 162 105
164 160 105
167 163 107
167 163 107
168 164 108
169 166 108
167 163 106
168 163 105
166 162 105
165 161 103
170 167 110
169 164 105
173 168 108
167 163 104
169 163 105
171 165 104
165 161 103
165 161 103
166 161 103
167 162 102
165 161 104
172 166 107
173 168 108
169 164 104
163 159 101
169 165 105
173 168 107
171 166 103
166 160 101
167 162 100
163 158 99
171 166 106
168 163 101
166 161 104
169 165 106
172 167 104
166 162 101
162 157 99
168 163 102
169 163 103
165 160 99
158 155 98
166 161 103
170 165 104
169 163 99
167 162 102
165 160 101
165 160 101
164 159 101
169 163 104
170 165 108
169 164 102
167 161 101
168 163 104
165 160 97
169 163 102
161 155 94
163 159 98
161 156 95
165 160 99
166 160 99
164 160 95
160 155 97
165 159 97
161 157 97
165 161 102
160 154 94
158 153 93
161 157 99
164 159 101
167 161 100
160 155 94
158 154 92
158 154 93
158 153 93
164 158 97
158 153 95
159 154 95
155 149 93
159 153 95
160 154 97
156 150 91
159 153 95
154 149 95
160 154 93
150 146 89
155 150 90
165 158 97
155 150 88
160 155 93
158 153 93
148 144 87
148 144 86
148 143 88
206 227 255
206 227 255
205 227 255
205 226 255
205 226 255
204 226 255
204 226 255
204 226 255
203 226 255
203 225 252
203 223 241
204 224 245
203 223 239
204 224 240
204 224 237
201 222 240
201 222 236
203 223 236
202 223 237
201 222 234
202 224 240
198 219 236
204 225 242
203 224 237
199 220 230
199 221 231
196 218 228
194 216 218
198 220 231
196 219 220
198 219 227
195 217 217
197 219 226
199 221 224
197 218 224
199 220 231
198 220 230
197 220 228
198 220 230
194 216 223
192 214 220
197 219 231
193 215 221
196 217 230
196 219 233
192 214 227
201 223 240
195 217 228
197 219 226
198 220 227
193 215 223
196 219 230
196 218 230
195 217 228
195 217 231
200 222 237
199 221 233
196 219 228
198 221 242
195 218 221
193 216 221
194 216 220
196 219 233
196 218 223
197 219 234
196 219 230
193 216 221
196 218 226
195 218 220
197 220 233
199 221 238
197 219 234
196 218 224
195 218 227
197 220 233
193 215 215
197 220 234
199 222 241
196 219 230
194 218 234
196 220 237
193 216 224
194 217 223
194 217 221
194 217 226
195 218 227
197 220 227
191 215 223
196 219 236
196 219 224
195 219 231
195 219 233
196 219 238
197 220 228
190 215 227
194 218 233
196 219 230
191 215 217
196 220 234
193 217 221
192 216 220
195 219 231
195 218 228
193 217 231
196 219 230
194 218 231
196 220 240
195 219 231
193 218 228
192 216 227
194 218 228
193 217 233
193 218 228
193 218 230
190 214 215
189 215 223
191 216 221
197 220 238
196 220 238
196 220 236
195 220 240
196 220 242
196 222 255
193 220 255
194 221 255
195 221 255
196 222 255
197 222 255
198 223 254
199 223 255
200 224 255
202 225 255
203 225 253
205 227 255
207 228 255
208 228 254
210 229 252
212 230 254
212 231 255
212 231 255
212 231 255
212 231 255
212 231 255
212 230 255
212 230 255
212 230 255
212 230 255
212 230 255
212 230 255
212 230 255
212 230 255
212 230 255
212 230 255
212 230 255
212 230 255
212 230 255
212 230 255
212 230 255
192 212 240
65 100 164
61 98 162
62 98 162
61 98 161
62 98 161
61 97 159
62 98 158
61 97 157
62 98 168
63 99 164
62 98 162
61 97 159
62 98 160
62 98 162
62 98 166
62 98 161
61 96 151
60 96 152
62 98 167
60 96 150
62 98 156
62 98 156
61 97 158
61 97 157
62 98 164
63 99 165
63 99 169
61 97 155
62 97 158
61 96 145
62 98 159
61 96 148
62 97 153
62 97 159
62 98 158
61 97 158
61 97 155
62 98 165
62 98 162
62 98 161
62 97 154
63 99 165
62 98 161
62 98 159
62 98 158
61 97 156
61 97 155
62 97 155
62 98 158
62 98 166
62 98 160
63 99 163
62 98 158
61 97 158
60 95 155
61 96 153
62 97 160
61 97 148
62 98 163
61 96 161
63 99 164
61 97 155
62 97 150
62 97 162
60 95 156
61 96 156
61 96 154
61 96 154
61 97 159
61 96 157
61 95 155
61 97 163
62 97 160
60 94 154
60 94 152
62 97 164
59 93 149
59 93 155
58 93 151
60 94 156
61 96 162
69 101 163
186 205 235
212 230 255
212 230 255
212 230 255
212 230 255
212 230 255
212 230 255
212 230 255
212 230 255
212 230 255
212 230 255
212 230 255
212 230 255
212 230 255
212 230 255
212 230 255
212 231 255
212 231 255
212 231 255
212 231 255
212 231 255
195 211 231
130 129 94
129 127 84
118 116 78
135 133 88
129 127 85
136 134 91
141 140 96
128 128 88
139 138 94
127 127 87
134 134 92
138 137 94
142 141 96
133 133 91
141 141 97
147 146 98
128 128 89
143 142 95
148 146 99
143 142 97
145 143 97
142 140 95
147 146 98
149 148 100
149 149 100
150 148 99
150 148 99
155 152 102
156 153 101
157 154 103
156 154 103
154 152 100
160 157 105
156 154 102
153 151 101
156 153 102
159 157 104
161 157 103
168 164 106
162 159 104
153 151 99
159 157 104
159 155 102
157 154 101
166 161 104
165 161 104
176 171 112
165 161 104
164 160 102
167 163 106
165 162 104
160 156 103
162 159 102
167 162 104
159 156 102
165 161 103
163 159 102
171 166 108
170 165 103
173 168 108
170 165 103
171 166 107
169 163 104
171 166 106
165 160 101
171 167 107
169 164 104
170 165 105
169 164 103
162 158 98
166 162 104
172 166 109
168 163 104
169 164 104
170 164 101
170 166 104
171 166 104
171 166 106
170 165 105
172 167 104
165 160 101
169 164 105
169 164 102
166 162 99
170 165 104
169 164 104
160 155 94
173 167 104
163 158 98
169 163 102
164 160 101
168 162 97
163 158 99
170 165 104
163 159 97
163 158 99
171 166 106
160 154 94
166 162 101
166 161 95
163 157 95
163 158 100
163 158 96
165 159 98
159 154 95
166 161 101
165 159 101
160 156 97
161 157 95
161 156 97
164 159 101
162 155 95
164 159 97
161 156 95
162 157 99
158 152 92
160 156 97
156 151 90
154 149 85
156 151 93
162 157 99
161 157 94
159 154 93
160 154 94
159 155 94
169 163 103
162 157 96
157 152 93
165 159 94
157 152 92
155 150 91
159 153 93
154 149 89
144 140 79
152 148 91
156 151 94
157 151 87
206 227 255
206 227 255
206 227 255
206 227 255
205 226 255
205 227 255
205 226 255
204 226 255
206 227 254
204 225 247
203 223 240
204 224 242
205 225 241
205 225 246
204 224 236
203 224 240
204 224 238
204 224 241
203 225 242
200 221 227
202 223 236
204 224 241
204 225 240
201 222 234
196 218 217
198 219 226
200 221 227
197 218 226
199 220 226
198 219 227
199 220 228
198 220 221
201 222 233
201 223 238
198 219 234
196 218 224
195 217 223
197 218 221
198 220 238
198 219 226
196 217 226
199 220 234
197 220 228
195 217 224
193 215 218
193 215 226
196 218 228
193 215 221
193 216 220
198 220 227
199 221 236
200 223 240
196 218 233
194 216 223
196 218 223
192 215 223
197 219 233
195 217 226
199 221 238
197 220 236
196 219 233
195 217 218
202 223 238
194 217 230
199 220 236
195 217 223
196 218 226
197 220 230
198 221 234
198 220 233
198 221 237
196 219 233
197 219 228
197 220 233
198 220 228
199 221 234
198 221 242
196 219 231
199 222 240
198 220 227
200 222 238
194 217 226
196 218 224
199 221 233
198 221 237
198 221 241
196 219 236
195 218 233
196 219 226
199 221 237
193 215 218
196 220 237
198 221 238
197 220 237
196 219 230
193 217 226
195 218 227
196 219 233
196 220 240
195 218 226
193 218 227
194 218 233
194 217 221
195 219 233
194 217 227
198 221 240
193 217 218
195 219 236
194 219 236
193 218 234
193 217 226
193 217 218
195 218 226
192 217 226
194 218 228
192 216 221
193 218 228
193 217 230
196 220 230
198 222 242
194 219 238
197 220 238
197 222 248
195 221 248
193 220 255
195 221 255
196 222 255
196 222 255
198 223 255
199 223 255
200 224 255
202 225 255
203 225 255
205 227 255
205 227 254
207 227 255
208 228 253
211 230 252
213 231 255
213 231 255
213 231 255
213 231 255
212 231 255
212 231 255
212 231 255
212 231 255
212 231 255
212 231 255
212 231 255
212 231 255
212 231 255
212 231 255
212 231 255
212 230 255
212 230 255
212 230 255
212 230 255
208 226 253
102 129 186
61 98 164
62 99 169
62 98 165
62 98 164
61 97 160
62 98 163
61 97 161
62 98 161
62 98 165
62 98 160
62 98 166
62 98 164
61 97 161
63 99 170
62 99 166
62 98 158
61 97 155
61 97 156
63 99 161
61 97 153
62 97 155
62 98 160
62 98 163
61 96 151
61 97 158
62 98 163
61 97 156
62 97 156
61 97 157
62 98 157
61 97 152
62 98 157
62 98 164
63 98 160
62 98 159
61 97 150
62 97 153
61 96 151
61 97 158
61 97 152
63 99 161
62 97 150
62 98 159
61 97 155
62 97 158
62 98 158
61 96 153
61 97 156
62 98 162
63 99 160
61 97 154
62 97 155
61 97 155
61 97 158
62 98 159
61 96 152
62 98 156
62 98 165
62 97 155
61 96 152
61 96 155
61 96 154
62 97 153
61 96 156
61 97 159
61 97 156
62 96 160
62 97 161
61 97 156
61 97 157
61 96 155
60 94 153
61 95 156
61 95 160
61 96 160
60 94 155
62 96 157
60 95 154
60 94 154
59 92 154
60 94 154
59 92 152
75 105 165
207 226 251
212 230 255
212 230 255
212 230 255
212 230 255
212 230 255
212 231 255
212 231 255
212 231 255
212 231 255
212 231 255
212 231 255
212 231 255
212 231 255
212 231 255
212 231 255
213 231 255
213 231 255
213 231 255
207 224 245
134 135 114
127 126 84
115 113 74
125 124 84
126 125 85
132 131 90
128 129 89
127 126 86
133 132 91
131 131 91
129 129 88
141 139 95
149 148 100
128 129 89
136 137 95
136 135 92
133 133 91
139 138 94
150 148 100
149 148 99
140 140 95
140 140 94
150 149 100
156 154 102
152 150 101
155 152 100
157 154 102
146 145 96
153 151 99
155 152 101
151 149 101
156 153 102
155 152 100
162 159 105
169 165 110
156 153 101
158 156 105
152 150 99
158 155 102
163 160 103
165 161 104
165 162 106
163 160 103
165 162 108
162 159 103
161 158 103
165 161 103
161 158 102
167 163 104
168 164 106
168 164 106
165 161 103
171 167 108
167 162 103
166 162 102
168 163 105
170 165 103
170 165 106
172 166 105
169 164 105
169 164 107
173 167 108
167 162 101
167 162 103
169 165 105
168 163 101
168 164 105
169 164 103
173 168 106
169 163 103
172 167 107
173 168 106
169 164 104
168 164 105
170 166 106
168 164 102
168 162 101
174 168 107
170 164 102
170 166 104
168 163 101
173 167 104
166 162 102
168 164 101
167 162 101
172 166 104
163 159 99
172 166 105
166 162 99
165 160 99
169 164 103
170 165 103
168 163 103
165 160 101
162 158 99
164 159 97
162 157 96
159 155 97
166 161 99
167 161 97
163 158 96
167 162 100
161 157 97
163 158 97
167 161 99
166 160 96
164 159 98
167 161 103
164 159 99
161 156 97
154 149 90
155 150 87
164 160 97
166 161 99
160 155 94
163 158 96
160 155 93
163 159 97
158 154 94
160 155 95
155 150 89
157 152 90
164 159 95
158 153 92
152 148 90
161 155 95
157 153 92
152 146 88
163 156 95
159 154 97
154 149 89
155 150 90
150 146 88
163 157 95
153 148 89
154 149 90
154 149 89
156 150 90
206 227 255
206 227 255
206 227 255
206 227 255
205 227 255
205 227 255
205 226 255
205 226 249
203 223 241
206 226 249
206 226 241
206 226 246
205 225 246
204 225 238
204 224 236
204 224 238
204 224 237
204 225 245
202 222 233
204 225 240
202 222 237
205 225 245
198 219 224
198 219 226
196 218 221
196 217 223
197 219 220
197 219 220
200 221 230
199 221 230
197 219 218
201 222 231
198 219 223
197 219 221
197 219 220
196 218 223
196 217 227
197 218 226
200 221 240
196 218 224
195 216 233
193 215 217
195 217 233
193 216 221
196 218 231
199 220 233
196 217 228
195 217 221
199 220 228
196 218 227
199 221 237
198 219 231
201 222 236
197 219 223
195 217 223
194 217 223
198 220 233
193 216 227
195 218 228
198 220 227
198 219 233
198 220 230
199 221 234
200 221 231
194 215 221
197 219 231
198 220 234
199 221 237
198 221 236
197 219 231
199 220 236
199 220 233
197 220 226
198 220 231
198 221 240
198 221 236
199 221 236
197 221 237
199 222 241
197 219 226
200 222 242
199 221 236
197 220 236
198 221 236
198 220 234
195 217 228
200 222 241
197 220 241
200 222 238
197 219 236
196 220 234
196 219 228
196 219 230
197 220 237
196 219 230
195 218 224
196 219 226
196 219 230
195 219 230
194 217 226
195 219 227
194 218 227
194 218 227
194 217 221
196 219 230
194 217 220
195 219 228
198 221 238
194 218 224
195 219 230
196 219 231
196 220 234
191 215 214
195 219 231
193 217 228
197 220 237
193 218 231
192 216 217
193 218 230
194 218 228
196 220 238
199 222 238
196 220 236
199 222 238
196 221 246
194 221 255
195 221 255
196 222 255
197 222 255
198 223 255
199 223 255
201 224 255
202 225 255
203 225 255
203 225 252
206 227 255
209 229 255
210 229 253
210 229 249
212 231 254
213 231 255
213 231 255
213 231 255
213 231 255
213 231 255
213 231 255
213 231 255
213 231 255
213 231 255
213 231 255
213 231 255
213 231 255
212 231 255
212 231 255
212 231 255
212 231 255
212 231 255
145 167 209
61 97 161
61 97 165
61 98 164
62 98 165
62 98 160
62 98 158
62 98 158
63 99 166
62 98 157
62 98 162
61 97 153
62 98 162
61 97 156
62 98 161
62 98 158
62 98 156
61 97 153
62 97 155
61 97 159
61 97 155
61 97 153
62 98 159
61 97 149
62 98 159
62 97 156
62 98 160
62 98 155
61 97 149
61 97 161
63 99 162
61 97 156
61 97 157
61 97 153
61 97 158
61 96 149
63 99 163
62 98 162
62 97 153
62 98 157
61 97 161
62 98 160
61 96 150
63 99 165
61 97 152
62 98 156
62 98 158
61 97 154
61 97 157
61 97 161
61 97 158
60 95 150
61 96 154
61 97 154
60 96 148
62 97 157
62 97 150
62 97 155
62 98 158
62 97 161
60 95 147
61 97 153
61 97 156
61 96 157
60 96 150
61 97 159
61 96 153
62 98 160
60 96 160
60 94 145
62 97 163
61 95 156
61 96 155
60 95 150
62 97 161
61 96 159
60 94 155
60 94 153
59 93 150
60 95 161
61 96 160
58 91 146
59 93 150
60 94 159
59 92 148
136 156 195
212 231 255
212 231 255
212 231 255
212 231 255
212 231 255
213 231 255
213 231 255
213 231 255
213 231 255
213 231 255
213 231 255
213 231 255
213 231 255
213 231 255
213 231 255
213 231 255
213 231 255
213 230 254
145 145 118
124 122 76
131 129 85
129 128 87
127 126 86
127 126 85
132 131 88
125 126 87
132 131 91
135 135 94
131 131 91
136 135 93
142 141 97
131 131 91
143 141 96
128 129 90
133 133 92
151 150 100
136 135 92
137 136 94
146 144 98
135 134 91
148 146 98
152 149 98
150 149 100
148 145 97
155 152 102
154 152 102
158 156 105
152 150 100
155 153 103
154 152 101
156 153 100
156 154 102
160 157 103
162 158 101
160 156 103
160 158 102
155 153 101
161 157 103
160 156 102
167 163 104
159 158 103
165 161 105
171 167 109
161 158 101
163 159 104
166 161 104
165 161 103
165 161 103
161 157 100
168 165 107
174 168 108
163 159 101
172 168 109
173 168 110
170 165 107
170 165 106
174 169 108
172 167 106
163 159 103
170 165 103
165 161 100
171 166 105
173 168 108
168 163 103
170 165 105
174 169 108
172 167 105
169 164 103
176 169 106
168 164 101
165 159 99
168 162 103
165 160 100
168 163 104
172 166 106
172 167 104
169 163 102
173 168 104
169 164 103
174 169 105
168 163 102
168 162 97
167 163 101
171 166 103
165 161 101
166 161 99
162 157 100
168 163 103
174 168 104
166 161 99
165 160 98
169 163 101
168 162 99
163 159 94
166 161 96
166 160 96
169 163 103
167 161 97
170 164 101
167 162 102
168 163 99
165 160 99
163 158 97
168 162 99
164 159 97
165 161 96
160 154 93
156 151 92
158 152 93
162 157 97
159 155 94
168 161 97
165 159 97
159 154 94
163 158 99
163 158 95
153 149 90
155 150 93
164 159 100
156 151 93
160 155 90
157 151 93
162 157 95
159 153 93
156 151 93
167 161 96
162 156 93
160 153 94
156 151 92
162 158 93
156 151 94
156 151 91
160 154 92
160 154 93
151 146 87
158 153 93
159 154 93
207 228 255
207 227 255
206 227 255
206 227 255
206 227 255
206 227 255
206 226 249
205 225 248
205 225 242
205 225 245
205 224 238
201 221 238
196 217 220
207 227 250
204 224 240
204 224 240
204 224 240
203 223 238
206 226 246
207 227 245
203 223 237
199 220 227
194 216 209
199 220 228
197 218 223
198 219 228
199 220 231
199 220 227
198 220 227
199 220 224
201 222 231
198 219 234
194 215 209
200 221 234
196 218 218
199 221 224
197 218 223
201 222 240
195 216 223
193 214 218
201 222 240
197 218 221
196 218 228
195 217 218
197 218 230
193 215 221
193 214 220
198 220 233
197 219 233
195 216 227
199 221 233
197 219 224
198 220 228
199 220 231
198 220 227
200 223 238
199 220 230
200 222 234
196 217 221
200 221 238
203 224 249
198 220 228
200 222 236
199 221 234
200 221 238
197 219 228
199 220 228
203 224 241
201 222 234
198 220 236
200 222 241
199 221 236
200 221 238
197 220 231
194 216 220
198 220 233
199 222 240
199 221 236
199 221 237
201 224 245
198 220 236
200 222 242
198 220 236
201 223 242
196 219 231
198 221 234
198 219 233
197 220 231
198 220 233
198 220 238
199 221 234
195 217 228
197 220 238
195 217 226
197 220 234
198 220 231
196 220 241
198 220 230
197 220 234
196 219 233
199 222 240
195 219 233
196 219 226
196 219 226
195 219 236
197 220 231
197 220 236
195 218 231
196 220 233
197 219 224
197 220 237
193 217 228
194 218 227
196 220 233
195 219 226
193 216 221
191 216 217
193 217 224
193 217 217
194 218 226
198 221 234
200 223 248
196 220 230
198 222 242
198 221 244
198 222 248
195 221 254
195 221 255
196 222 255
198 223 255
199 223 255
200 224 255
201 225 255
203 226 255
204 226 255
206 227 255
207 227 254
210 229 253
209 228 250
211 230 250
213 231 255
213 231 255
213 231 255
213 231 255
213 231 255
213 231 255
213 231 255
213 231 255
213 231 255
213 231 255
213 231 255
213 231 255
213 231 255
213 231 255
213 231 255
213 231 255
183 203 234
61 98 166
61 97 161
62 98 166
62 98 158
61 97 162
62 97 162
62 98 157
62 98 162
60 96 155
61 98 162
62 98 160
61 97 154
62 97 155
61 97 154
62 98 159
61 97 156
61 97 156
62 98 163
62 98 157
61 97 159
61 97 152
62 98 155
61 97 159
62 98 159
61 97 155
62 97 154
62 98 158
62 97 149
61 97 155
62 98 160
63 99 161
61 97 151
61 97 155
61 97 150
62 98 159
61 97 155
62 98 157
63 98 160
63 98 163
62 97 161
62 98 158
62 97 154
61 97 154
61 97 154
62 98 158
62 98 161
62 98 161
63 99 164
62 98 158
62 98 162
62 97 151
62 97 156
61 96 150
61 97 160
62 97 154
63 98 165
61 96 148
60 95 147
62 97 156
62 98 162
61 96 152
62 97 156
61 97 155
61 97 158
61 97 152
61 96 157
62 98 162
61 97 162
61 96 157
60 95 150
61 97 160
61 96 154
61 96 159
61 96 155
60 94 144
61 96 154
61 96 153
61 95 155
59 93 151
61 95 155
60 94 156
59 92 152
58 90 147
60 93 156
58 90 144
57 89 143
180 199 230
213 231 255
213 231 255
213 231 255
213 231 255
213 231 255
213 231 255
213 231 255
213 231 255
213 231 255
213 231 255
213 231 255
213 231 255
213 231 255
213 231 255
213 231 255
213 231 255
177 187 192
121 120 79
131 129 86
114 114 79
122 122 83
117 117 81
125 125 85
118 118 82
132 131 89
131 131 91
126 126 87
128 128 88
123 124 85
126 127 89
132 132 91
137 137 95
133 134 93
145 143 95
142 142 96
144 143 96
137 135 91
142 141 96
145 144 97
142 141 96
154 152 102
156 154 103
147 145 98
151 149 99
149 148 97
153 150 99
152 151 100
151 150 97
161 158 105
160 158 105
152 149 99
157 154 102
161 157 104
156 153 100
159 156 100
159 154 101
163 160 103
167 163 107
161 158 103
160 157 101
170 165 107
165 162 104
160 156 100
165 161 104
166 161 105
168 164 107
170 165 107
169 163 105
163 159 101
170 165 108
167 163 106
163 160 104
169 165 107
165 162 101
169 165 106
168 163 102
167 162 100
172 167 107
176 170 108
170 165 104
168 163 101
168 163 102
164 160 103
171 166 106
170 165 105
176 170 108
170 165 104
171 166 106
163 159 98
167 163 101
167 161 103
170 165 103
174 168 103
171 164 103
172 167 106
171 167 103
166 160 101
170 165 99
168 162 102
169 163 102
167 162 100
173 167 103
172 166 99
168 163 99
169 164 99
171 166 104
166 161 98
170 166 101
173 167 104
168 163 104
166 162 101
168 162 101
172 166 104
168 162 101
168 162 97
164 157 95
174 168 107
167 162 97
167 162 98
169 163 102
164 158 97
169 163 103
166 161 98
169 162 97
168 163 102
165 158 95
162 156 95
163 157 93
165 158 98
164 158 95
167 161 97
158 153 87
162 157 94
161 156 97
164 159 95
160 155 93
162 156 97
165 159 96
160 154 91
164 158 97
161 156 96
162 157 93
158 153 88
160 155 94
155 150 89
165 159 95
157 151 87
160 154 92
159 153 90
157 153 90
152 147 86
159 153 92
159 153 91
155 149 86
154 149 89
152 146 88
207 228 255
207 228 255
207 228 255
206 227 255
207 227 255
208 228 254
206 226 245
207 227 245
205 225 244
204 224 244
205 225 240
204 225 237
203 224 236
205 224 237
205 225 240
205 225 244
204 224 238
206 225 242
205 225 244
201 221 228
195 216 220
200 221 228
199 220 223
197 218 215
199 219 231
196 217 226
197 218 220
199 220 226
198 219 226
199 220 227
200 221 233
196 218 220
202 223 236
198 219 224
199 220 227
196 217 223
194 214 218
196 218 223
200 221 228
196 218 227
197 218 223
201 222 233
194 216 221
196 217 228
193 215 221
198 220 237
198 219 231
197 218 224
195 217 218
199 220 230
199 220 231
195 217 227
198 220 234
201 222 234
201 222 231
200 222 237
199 220 234
201 222 236
199 220 234
204 225 245
201 222 234
199 221 233
199 221 234
198 220 224
201 222 236
196 218 223
198 220 230
199 221 236
199 221 230
198 219 230
200 222 236
194 217 231
202 224 245
194 217 228
200 222 238
197 219 234
197 219 231
200 222 238
200 222 242
197 219 233
198 219 226
198 220 238
199 221 236
199 221 234
198 220 233
198 221 230
197 219 231
195 218 230
195 217 224
198 220 236
198 219 230
200 221 242
201 222 241
199 221 237
199 222 245
197 220 236
200 222 237
198 220 234
198 220 234
198 220 227
196 218 224
197 220 236
195 219 230
195 218 226
196 218 220
194 218 233
195 218 226
193 216 212
195 219 233
194 218 228
194 218 230
197 219 228
195 218 223
195 219 228
197 220 234
194 218 224
197 219 227
195 219 228
194 218 226
194 217 221
193 217 220
197 220 233
200 222 237
201 223 244
195 219 224
199 221 237
199 223 253
196 222 255
197 222 255
197 222 255
199 223 255
200 224 255
201 224 255
202 225 255
204 226 255
205 226 255
207 227 253
209 228 254
209 229 254
211 229 253
213 231 255
213 231 255
213 231 255
213 231 255
213 231 255
213 231 255
213 231 255
213 231 255
213 231 255
213 231 255
213 231 255
213 231 255
213 231 255
213 231 255
213 231 255
209 227 253
97 124 175
62 99 164
62 98 165
60 96 155
61 97 161
62 98 157
62 98 160
61 97 157
62 98 159
62 98 157
61 97 155
61 97 158
61 97 153
62 98 163
61 97 159
61 97 154
61 97 156
61 97 155
61 97 153
62 98 156
61 97 152
61 97 154
62 98 156
62 99 166
61 97 155
62 98 157
61 97 157
61 97 153
61 98 162
62 98 160
61 97 155
62 98 160
62 98 159
62 97 156
61 96 145
62 98 156
60 96 152
61 97 157
62 97 156
62 98 160
62 98 159
62 97 153
61 96 143
61 97 159
62 98 158
61 97 149
61 96 148
62 98 159
62 98 157
61 96 145
62 98 155
61 97 158
61 97 155
61 96 149
61 96 150
62 97 153
61 97 152
60 96 149
62 97 156
60 96 147
62 97 151
61 97 151
61 97 157
62 97 156
60 95 151
61 96 159
62 98 162
61 95 154
60 95 147
61 97 153
61 97 156
60 94 151
59 94 145
61 97 157
61 96 154
59 93 148
60 95 153
60 94 148
61 95 151
60 94 154
61 95 152
60 94 152
60 94 155
59 93 145
58 91 143
59 92 149
58 91 152
96 120 168
211 229 254
213 231 255
213 231 255
213 231 255
213 231 255
213 231 255
213 231 255
213 231 255
213 231 255
213 231 255
213 231 255
213 231 255
213 231 255
213 231 255
213 231 255
191 205 222
132 130 88
128 126 83
122 121 83
121 120 82
129 129 88
122 122 84
122 123 86
120 120 83
134 134 92
122 123 85
130 131 91
124 124 87
126 126 88
132 132 90
138 137 94
143 143 98
138 138 95
143 143 99
138 137 93
142 141 95
143 141 93
148 146 98
146 144 97
149 147 97
141 140 94
153 151 100
153 152 102
151 149 100
154 151 101
156 154 101
146 145 97
147 146 96
153 152 101
160 156 102
162 159 104
160 157 104
159 156 101
159 157 102
161 158 104
168 165 106
160 156 101
159 157 103
162 158 103
164 160 103
166 162 104
167 162 105
170 165 104
166 162 102
165 162 102
173 168 106
165 160 103
162 157 102
172 166 107
170 165 107
168 162 103
168 165 104
172 168 107
173 167 105
164 160 98
173 168 107
171 166 105
166 163 102
169 164 103
174 168 106
167 162 104
172 166 105
171 165 101
171 165 103
169 164 102
174 169 104
177 170 106
171 166 103
171 165 104
166 162 102
174 169 106
175 169 108
171 166 105
172 166 103
173 167 101
170 165 102
175 169 105
166 161 101
167 161 101
168 163 100
171 165 104
172 165 104
167 162 99
171 165 104
173 166 103
167 163 103
172 166 100
168 162 100
167 162 102
168 164 99
170 164 104
167 161 99
168 163 97
165 159 95
168 163 101
163 157 92
168 162 100
164 159 95
163 157 91
162 158 97
166 161 99
167 161 97
168 162 100
167 161 95
167 162 95
158 153 89
161 156 97
160 155 92
167 162 96
161 156 97
159 155 95
161 155 95
165 159 96
161 155 93
162 157 96
167 162 100
155 150 90
162 157 97
165 158 97
161 155 94
164 158 93
156 150 87
161 155 92
161 155 93
157 152 93
158 153 91
158 153 94
152 147 84
159 154 91
155 148 87
158 153 93
159 153 93
149 144 85
157 151 90
159 153 90
160 154 90
207 228 255
207 228 255
207 228 255
207 228 255
208 228 252
207 227 248
204 223 238
208 227 244
207 226 243
207 226 243
205 225 237
207 226 241
206 225 244
205 224 238
205 225 240
203 223 238
206 226 241
205 224 241
203 223 236
202 223 227
202 222 234
199 220 222
200 221 224
200 221 223
200 221 224
200 221 230
197 218 217
202 223 234
197 218 218
200 221 226
202 222 236
197 218 227
195 215 224
203 223 241
200 220 234
199 220 231
190 211 212
198 220 231
200 221 233
197 218 221
201 222 233
196 216 226
197 217 228
203 224 233
196 217 223
198 219 228
197 217 231
197 218 223
198 219 228
198 219 226
197 218 227
198 219 223
197 218 226
198 220 231
198 219 228
199 220 237
195 216 218
202 223 237
203 224 241
203 224 241
201 222 238
202 222 238
200 222 237
195 216 227
200 222 237
199 220 230
200 221 238
200 221 230
199 221 236
198 220 231
201 222 238
197 219 228
199 221 237
197 219 231
200 222 240
198 219 231
201 223 238
199 220 238
195 217 228
199 220 231
202 223 238
198 219 234
198 221 238
197 218 230
195 217 231
198 220 236
198 219 228
201 223 237
200 221 231
198 219 231
199 221 238
202 223 237
199 221 238
195 218 230
198 221 238
199 221 233
198 220 230
197 219 230
199 221 231
200 222 237
200 222 241
198 220 230
199 221 233
197 220 226
197 220 228
195 218 223
194 218 227
196 219 228
197 219 228
199 221 234
200 222 234
194 217 227
196 220 237
195 218 221
198 221 234
197 220 236
199 221 237
197 220 227
194 217 215
191 215 209
198 221 237
193 217 218
197 220 231
200 222 237
198 220 230
195 219 224
199 222 240
196 220 241
197 222 255
198 223 255
198 223 255
199 223 255
200 224 255
201 225 255
203 225 255
205 226 255
206 227 254
207 228 255
210 229 254
210 229 254
213 230 253
214 231 255
214 231 255
214 231 255
214 231 255
214 231 255
214 231 255
214 231 255
213 231 255
213 231 255
213 231 255
213 231 255
213 231 255
213 231 255
213 231 255
143 164 201
62 98 165
62 98 166
61 98 159
61 97 159
61 97 159
62 98 164
61 97 160
60 96 151
62 97 158
62 98 162
62 98 160
62 98 157
61 97 156
62 98 160
62 98 165
62 98 159
62 97 157
61 97 155
62 98 165
61 97 150
61 97 150
62 98 163
62 98 157
62 97 152
61 97 152
62 97 153
61 97 150
61 97 154
62 98 156
62 98 155
62 97 154
61 97 159
61 97 153
60 96 148
61 97 156
61 96 150
62 97 155
62 98 155
62 98 154
61 96 146
62 97 156
62 97 154
61 97 150
62 98 156
61 97 156
61 97 151
63 98 158
61 96 155
62 98 157
62 97 157
63 98 158
61 96 155
62 98 158
61 97 156
61 97 153
61 96 152
61 97 153
60 95 149
61 97 153
60 96 148
60 96 153
62 97 161
62 97 152
62 97 154
61 96 154
61 96 152
61 96 147
61 96 146
61 97 153
61 97 162
61 97 158
61 96 153
62 97 163
60 95 147
61 96 154
61 95 150
61 95 158
60 94 147
60 95 153
60 96 156
58 91 150
60 93 152
61 96 159
60 92 141
58 91 145
60 93 154
58 91 149
58 90 139
153 172 204
213 231 255
213 231 255
213 231 255
213 231 255
213 231 255
213 231 255
213 231 255
214 231 255
214 231 255
214 231 255
214 231 255
214 231 255
214 231 255
212 229 251
127 127 102
116 114 74
128 125 83
124 123 82
125 124 84
122 121 82
123 124 86
122 122 83
120 119 82
134 133 90
120 121 84
117 118 83
128 128 89
138 138 95
126 127 87
134 133 91
134 134 92
136 136 93
141 141 97
137 137 94
147 146 98
145 143 95
145 143 97
145 144 97
143 142 97
143 142 95
148 147 96
151 149 97
151 149 98
151 149 100
158 156 103
156 153 101
149 147 98
151 149 99
157 154 103
159 156 101
163 160 105
156 153 101
160 157 103
157 155 100
169 164 105
160 157 100
163 160 103
157 154 99
167 163 103
156 154 99
166 162 106
166 162 103
166 162 103
170 166 108
160 156 99
164 160 102
165 161 101
164 160 101
164 161 104
169 164 103
170 165 104
167 163 103
167 163 102
166 162 101
165 160 99
169 164 103
173 167 105
168 163 103
170 165 101
174 169 106
170 165 105
174 169 107
176 170 108
171 166 104
168 164 102
171 165 101
176 170 107
172 167 105
169 164 103
172 167 104
170 166 104
171 165 102
172 167 104
176 170 109
173 167 103
169 162 101
169 163 99
172 166 104
168 163 101
168 163 97
168 162 103
170 165 103
164 160 96
171 165 103
170 164 101
170 164 102
165 160 97
168 162 101
169 163 101
168 162 100
165 160 98
166 161 101
169 164 97
172 165 101
172 165 101
164 158 97
165 160 97
159 153 90
165 161 99
164 159 97
167 161 97
166 161 99
160 155 94
165 160 97
167 161 100
159 154 91
166 160 96
167 161 100
159 154 95
162 157 97
164 158 99
158 153 92
160 154 92
162 157 93
161 155 93
161 155 93
159 153 92
162 157 97
154 149 86
165 159 95
159 153 93
159 154 90
164 158 94
167 162 97
154 149 92
159 153 91
161 156 95
156 150 90
150 144 83
156 150 87
162 156 97
155 149 89
148 143 83
157 152 91
159 153 94
208 228 255
208 228 255
207 228 255
207 227 253
206 226 241
209 228 248
207 226 242
205 225 241
205 224 244
206 226 240
204 224 238
201 221 234
207 226 244
208 227 244
207 226 241
208 227 245
205 223 240
203 222 232
201 222 224
198 219 217
199 221 228
197 217 215
200 221 231
200 221 228
196 217 219
199 219 227
202 223 231
203 223 240
198 218 220
198 219 223
200 221 231
203 224 242
195 215 229
195 216 224
198 219 233
200 220 231
198 219 226
199 220 233
200 220 234
202 223 237
201 221 228
197 217 226
199 220 233
201 222 236
201 222 233
198 219 224
195 216 226
201 221 227
201 222 228
202 222 230
202 223 234
199 220 230
204 224 241
199 221 233
202 223 238
201 222 233
205 225 242
199 221 233
201 222 237
204 224 241
197 218 227
199 220 233
202 223 240
200 221 237
200 221 231
198 219 227
203 224 238
198 219 228
200 222 236
197 219 231
200 221 237
192 213 226
203 224 241
198 219 233
202 224 245
198 219 241
200 221 237
198 219 237
198 220 237
200 221 242
201 222 240
198 220 233
200 221 240
200 221 237
201 223 238
201 222 237
201 222 236
196 218 224
198 219 233
199 220 228
198 219 230
199 221 234
201 222 236
199 221 242
195 218 236
197 219 228
198 220 231
199 222 241
199 221 234
201 223 238
201 223 240
199 222 244
198 220 231
200 221 230
198 219 217
200 222 236
197 219 228
194 218 227
199 222 241
196 219 223
198 220 233
199 222 241
196 219 227
197 221 234
197 220 230
196 219 228
198 220 230
197 221 240
198 220 233
197 220 231
193 217 221
195 219 227
188 212 212
195 218 224
199 221 230
201 223 241
198 222 241
197 221 238
198 222 244
198 223 255
199 223 255
200 224 255
201 224 255
202 225 255
203 226 255
204 226 255
205 227 254
206 227 253
209 229 255
209 228 253
211 229 253
213 231 253
214 231 255
214 231 255
214 231 255
214 231 255
214 231 255
214 231 255
214 231 255
214 231 255
214 231 255
214 231 255
214 231 255
214 231 255
201 219 246
68 103 172
61 97 159
60 96 155
61 97 151
61 96 154
60 95 148
61 97 160
62 98 160
62 98 158
61 97 155
61 97 158
62 98 159
62 98 159
62 97 153
62 97 157
60 96 152
61 97 151
62 97 154
61 96 149
61 97 145
61 97 156
62 99 163
61 97 153
62 98 154
62 97 154
62 98 156
61 97 152
62 98 159
62 98 153
62 97 154
61 97 154
61 97 149
62 98 156
59 95 142
62 97 152
63 99 162
62 98 156
62 97 153
61 96 143
61 97 148
61 97 151
61 96 149
61 97 150
61 97 151
61 96 144
61 96 150
62 98 160
62 98 158
61 96 152
62 98 159
61 97 153
62 98 158
61 97 157
61 96 155
62 97 151
60 95 147
61 96 152
61 96 154
61 97 158
61 97 152
62 97 154
60 96 151
61 96 154
61 96 151
61 97 153
61 97 158
62 98 161
61 96 154
62 97 156
61 96 154
60 95 145
61 96 154
60 95 148
61 96 157
60 95 147
61 95 147
61 96 159
61 96 153
60 94 146
61 95 153
60 94 151
60 94 145
60 94 155
60 94 154
58 90 139
60 94 149
59 91 143
58 90 145
57 89 143
59 87 137
206 223 249
214 231 255
214 231 255
214 231 255
214 231 255
214 231 255
214 231 255
214 231 255
214 231 255
214 231 255
214 231 255
214 231 255
214 231 255
177 185 181
113 112 74
122 121 82
121 120 80
117 117 78
117 118 81
120 121 85
128 127 88
125 126 88
119 120 84
127 128 88
114 116 82
119 121 85
131 131 88
132 132 91
133 134 93
139 138 95
139 138 93
141 141 95
133 135 94
141 140 95
141 140 96
144 142 93
143 142 98
149 148 100
149 147 97
142 141 92
156 153 100
141 141 94
153 151 99
146 145 97
146 145 96
154 151 99
158 155 102
154 152 98
156 153 100
157 155 100
158 155 100
155 152 98
159 156 103
159 156 102
167 162 105
157 154 99
153 150 99
161 157 99
161 158 101
165 161 103
163 159 101
167 163 105
166 162 105
164 160 101
167 163 103
165 161 101
165 161 103
169 164 104
170 165 104
168 163 102
171 166 107
173 168 107
171 166 104
170 165 104
171 167 103
174 170 108
166 161 101
172 166 102
172 168 106
169 164 103
171 166 102
172 167 105
171 166 106
174 169 105
173 168 107
174 168 106
169 164 101
173 168 103
172 166 100
173 167 103
173 168 104
173 167 105
170 164 103
173 167 104
173 168 103
166 161 99
173 167 105
173 167 100
169 165 100
167 161 101
167 162 99
168 162 96
169 164 99
173 166 105
170 164 99
165 160 98
168 162 97
173 167 100
170 164 101
170 164 99
168 163 103
165 160 99
165 160 91
167 161 95
168 162 97
165 159 95
169 164 101
168 162 96
165 160 98
164 158 94
168 163 99
160 154 90
160 155 94
168 161 96
167 161 95
162 157 90
162 156 93
163 158 94
163 157 95
166 159 95
158 153 87
166 161 95
158 154 90
160 155 87
166 160 92
167 161 99
167 161 97
166 160 96
161 156 95
162 155 91
160 155 94
160 153 93
153 147 88
159 154 93
160 154 96
152 146 88
159 154 91
156 152 90
159 153 90
158 152 90
153 148 92
161 156 93
161 155 87
162 155 94
157 151 88
208 228 255
208 228 255
207 227 253
207 227 246
210 229 249
206 226 240
207 227 242
205 225 237
208 227 244
203 222 235
207 226 244
207 226 241
205 225 240
208 227 242
205 224 231
205 225 236
205 224 242
200 220 231
201 222 230
199 219 215
202 222 231
196 216 213
201 221 223
196 217 212
198 219 222
202 222 228
197 218 225
205 225 240
204 224 238
195 215 215
198 219 227
195 216 220
194 214 226
197 217 223
198 218 223
199 218 226
201 222 233
199 219 233
193 213 219
190 211 204
200 220 233
201 221 231
200 220 230
199 219 218
202 223 238
202 222 231
197 218 224
198 219 228
199 220 234
203 223 234
203 223 230
202 223 237
199 220 233
200 221 230
197 218 228
200 221 236
199 219 230
195 217 231
202 223 238
201 222 234
203 223 241
200 221 234
202 223 240
200 220 228
199 220 236
199 220 233
200 221 237
202 223 240
200 221 233
198 220 233
196 217 236
203 223 240
203 224 240
200 221 234
200 221 238
204 224 244
200 221 240
200 221 240
198 220 234
200 222 238
199 221 231
201 222 236
201 223 246
196 218 231
202 223 242
197 219 230
202 224 246
197 218 231
200 222 236
196 218 231
199 221 240
196 217 223
199 220 233
199 221 238
199 221 237
197 219 227
196 219 226
201 222 237
200 221 234
201 223 238
197 219 227
199 222 240
199 221 231
199 220 234
199 221 234
201 223 242
198 220 230
199 221 230
197 220 230
196 218 218
200 222 238
196 219 227
198 220 230
198 221 228
197 220 231
199 221 233
198 221 234
198 220 233
196 218 217
197 220 226
197 220 227
197 220 226
197 220 227
194 218 220
196 219 226
199 221 238
201 223 240
201 223 242
200 222 241
198 222 252
199 223 255
200 224 255
201 224 255
201 225 255
202 225 255
204 226 255
205 227 255
206 227 255
208 228 255
209 228 252
212 230 255
211 230 253
214 231 254
214 232 255
214 232 255
214 232 255
214 232 255
214 232 255
214 232 255
214 232 255
214 231 255
214 231 255
214 231 255
214 231 255
146 167 207
61 97 164
61 97 156
60 96 157
61 96 150
61 97 159
61 97 162
62 98 159
62 98 158
62 97 155
61 97 153
62 98 156
61 97 153
60 95 149
61 97 150
62 98 157
62 97 155
61 97 152
61 96 153
61 97 148
62 97 155
62 98 159
62 98 159
61 97 156
62 98 158
62 97 151
61 96 153
60 95 151
62 97 150
61 96 152
62 98 156
62 98 154
61 97 154
61 97 152
61 96 153
60 96 144
63 99 160
62 98 161
61 97 156
62 97 152
61 96 142
62 97 156
61 97 155
61 97 157
62 97 152
61 97 150
61 97 147
61 97 152
62 98 161
62 98 160
62 97 156
60 95 147
61 96 146
62 97 154
63 99 159
59 94 147
62 98 163
62 98 153
61 96 148
61 96 150
63 98 156
61 97 155
61 95 147
62 97 159
62 98 161
60 95 151
62 98 156
60 96 153
62 98 162
62 98 153
61 96 141
61 96 148
61 95 149
60 95 156
60 95 145
61 96 157
60 96 156
60 94 144
60 94 145
60 95 153
59 93 149
60 94 148
59 93 141
59 93 150
59 92 142
59 92 143
58 91 145
57 89 147
59 92 148
58 90 145
58 91 141
144 163 197
214 231 255
214 231 255
214 231 255
214 231 255
214 232 255
214 232 255
214 232 255
214 232 255
214 232 255
214 232 255
214 232 255
199 214 233
124 121 79
121 120 79
110 109 72
111 110 76
109 110 77
111 111 76
116 117 82
120 121 84
123 124 85
124 125 87
127 128 90
116 117 82
129 130 88
123 124 85
130 130 88
131 132 91
141 140 96
134 134 92
133 133 91
139 139 95
135 135 92
150 149 100
137 136 90
147 146 97
148 147 98
147 145 95
157 154 100
143 142 94
142 141 94
159 157 105
153 150 99
150 149 96
154 151 101
151 149 100
161 157 104
156 154 100
158 153 99
162 159 100
157 155 101
160 157 101
161 158 105
163 160 104
166 163 105
158 155 100
170 166 105
167 164 100
168 164 107
168 164 103
164 160 101
170 165 103
170 165 102
164 160 101
167 163 103
169 164 106
169 164 103
166 162 103
171 166 104
172 168 104
174 168 104
174 169 108
167 162 98
169 164 98
169 164 105
173 167 101
168 162 100
169 164 102
168 162 103
168 164 103
170 166 103
175 168 103
169 164 98
171 166 103
173 167 101
168 162 101
168 163 103
170 164 101
174 168 106
168 163 100
170 164 103
174 168 107
170 165 100
170 165 99
173 167 103
171 165 101
171 166 102
173 167 101
172 167 104
173 166 101
170 164 101
169 164 103
171 165 99
168 163 99
167 162 95
170 164 99
172 167 103
167 161 99
165 160 97
168 163 99
171 165 99
167 162 99
169 164 99
169 163 99
158 154 91
168 162 98
162 156 94
168 162 95
166 161 95
162 156 93
170 165 102
164 158 93
170 163 102
168 162 99
161 156 90
167 160 96
166 160 97
162 157 93
168 163 97
158 153 92
155 151 88
154 149 90
154 149 89
163 158 93
160 155 91
164 159 95
166 160 92
160 155 93
164 157 93
163 157 93
165 160 93
166 160 97
165 161 99
158 152 92
153 149 84
159 153 90
155 151 84
151 146 81
158 152 93
155 149 87
157 152 91
159 152 88
156 151 88
163 158 95
209 229 255
209 229 255
207 226 245
206 225 242
209 228 249
207 227 245
209 228 245
209 228 248
205 224 233
206 225 240
206 224 240
206 226 241
206 225 243
207 226 243
205 224 242
206 225 245
202 221 227
201 222 220
203 222 236
202 222 232
203 222 228
199 220 227
200 219 221
200 220 228
200 220 223
198 218 225
199 220 221
200 220 224
202 222 233
204 224 237
200 220 233
199 219 230
198 217 224
200 220 230
199 219 231
196 216 219
192 212 219
200 220 227
197 218 227
201 222 234
199 219 236
199 220 224
202 222 230
199 220 221
200 220 226
200 220 227
200 220 227
200 221 221
200 220 228
205 225 246
207 227 245
200 220 223
198 218 224
202 223 236
203 223 237
203 223 236
199 220 231
202 222 236
200 221 234
199 220 236
203 223 238
199 219 230
198 219 236
199 220 236
201 222 240
199 220 231
203 223 242
203 224 244
202 223 240
198 219 230
201 221 237
196 217 230
199 220 236
200 221 233
201 222 240
198 219 233
200 220 233
198 219 233
200 221 234
198 218 230
193 214 220
200 222 242
198 219 231
202 223 241
199 220 238
196 217 223
200 221 234
200 221 236
200 221 231
197 218 230
201 222 237
198 220 234
201 221 233
198 220 233
199 220 230
200 221 230
200 221 237
200 221 233
197 219 230
200 222 240
200 221 233
200 221 230
201 221 230
201 222 236
200 222 237
203 224 238
199 221 233
200 222 233
204 224 241
202 223 238
200 222 233
198 220 233
198 220 224
200 222 233
199 221 238
195 217 214
197 219 228
199 221 230
197 219 227
198 220 226
198 221 231
198 221 238
194 218 224
197 220 234
195 218 215
200 222 233
202 223 237
199 222 240
202 224 241
201 223 244
200 223 252
200 224 255
201 224 255
202 225 255
203 225 255
203 226 255
205 226 255
207 227 255
208 228 255
209 229 255
210 229 255
211 229 252
213 231 252
214 232 255
214 232 255
214 232 255
214 232 255
214 232 255
214 232 255
214 232 255
214 232 255
214 232 255
214 232 255
202 220 244
67 101 163
61 97 156
62 98 159
60 95 155
61 96 151
61 97 161
62 98 160
62 98 159
61 96 147
61 97 157
62 98 156
62 98 163
62 97 156
61 97 155
63 99 163
61 96 153
61 96 154
62 97 157
61 96 153
61 97 155
63 98 158
60 95 147
61 97 153
62 98 156
61 97 154
61 97 151
62 98 154
63 99 163
61 97 156
62 97 155
61 97 155
61 97 152
61 96 148
60 95 144
61 97 151
61 96 155
62 97 154
62 97 155
61 96 143
61 97 148
61 96 149
61 96 153
62 98 154
61 97 148
61 97 153
62 98 153
62 97 153
60 96 151
62 97 152
61 96 150
62 98 154
62 97 150
61 96 150
61 96 147
62 97 156
62 97 157
61 97 151
61 96 151
61 96 148
61 96 150
61 97 158
62 97 154
61 97 154
62 97 156
61 97 158
61 96 150
63 98 159
61 96 149
62 97 157
61 95 150
62 98 155
61 96 153
59 94 146
62 96 152
60 95 155
60 95 150
59 94 144
61 95 147
60 95 146
60 95 151
59 93 149
60 94 151
60 94 151
61 96 150
59 93 149
59 92 144
59 92 140
57 90 148
59 92 153
60 93 150
58 90 147
62 90 133
196 214 240
214 232 255
214 232 255
214 232 255
214 232 255
214 232 255
214 232 255
214 232 255
214 232 255
214 232 255
214 231 254
138 142 127
117 115 77
118 117 79
115 115 78
112 113 80
110 112 78
114 116 82
118 118 83
120 120 82
128 129 90
117 118 84
121 121 84
111 112 80
112 114 80
115 117 83
143 142 96
127 127 86
135 136 94
126 127 89
131 131 90
141 139 93
143 143 98
131 130 90
141 139 92
146 145 96
141 139 91
142 140 93
152 149 97
144 143 96
153 151 99
150 148 97
146 144 97
149 147 95
149 146 93
152 150 97
150 148 97
156 153 100
159 157 103
161 157 103
158 155 99
163 159 101
154 151 98
165 162 103
165 161 104
153 150 95
161 158 100
165 161 102
166 162 103
164 160 101
166 162 101
162 157 98
171 165 104
167 162 102
171 166 105
170 166 105
165 161 98
168 164 104
171 167 106
170 165 104
167 162 100
173 168 105
169 164 103
173 168 106
167 163 100
171 166 104
173 167 104
167 162 102
173 168 104
170 165 98
169 164 100
171 166 102
171 166 103
171 166 99
165 161 97
170 164 101
171 166 102
169 164 101
170 165 103
170 165 99
170 165 103
169 164 96
170 165 99
169 164 101
172 167 103
169 163 99
168 163 98
169 164 96
169 164 101
169 164 100
171 166 97
170 164 98
166 160 99
174 167 99
168 163 95
168 163 99
167 161 97
169 163 98
169 164 100
170 163 98
175 169 106
165 160 95
163 158 95
166 161 97
169 163 99
166 160 93
166 160 97
165 160 94
169 163 97
164 159 99
169 162 95
161 155 91
168 162 98
161 156 89
168 162 93
167 161 94
165 159 95
158 153 94
167 161 99
164 159 95
166 161 95
164 158 93
166 160 93
158 153 90
157 152 90
160 155 90
169 162 95
159 153 89
166 159 94
167 160 93
161 156 91
158 152 90
159 153 89
164 158 95
157 151 89
164 157 91
165 159 93
158 152 87
157 151 87
160 154 95
160 155 90
156 151 89
160 155 93
160 155 90
208 228 254
211 229 253
211 229 249
211 229 248
208 227 240
208 227 241
209 227 241
206 225 234
207 226 243
205 224 240
209 228 244
207 226 239
209 228 242
204 222 233
204 223 240
204 223 237
200 220 220
202 222 232
201 221 231
201 221 220
203 223 231
201 220 226
203 223 227
198 218 212
204 223 230
203 223 233
204 224 236
203 222 233
200 219 230
197 217 223
200 220 225
202 222 231
200 220 226
202 222 233
200 219 232
203 223 233
201 221 227
198 218 226
199 219 223
196 217 227
199 219 228
201 221 231
201 221 230
202 222 230
201 222 226
197 218 212
203 223 231
203 223 234
204 224 240
202 222 233
204 224 236
200 221 231
203 223 240
200 220 233
206 226 244
200 220 231
202 222 233
200 221 230
200 220 233
201 221 230
203 223 242
204 224 241
197 217 227
200 220 230
201 222 230
200 220 226
197 217 227
201 222 238
196 216 230
199 220 234
203 223 242
199 220 237
200 221 241
197 218 236
201 222 238
202 222 241
200 220 237
197 218 227
199 220 233
201 221 236
198 219 237
199 221 231
204 224 240
200 221 234
200 222 242
197 219 230
199 220 230
199 221 236
198 218 234
202 223 237
200 221 236
199 220 236
199 220 233
196 217 227
199 220 227
197 219 228
200 221 236
198 219 224
199 220 230
201 222 238
201 222 230
199 220 227
196 217 224
202 223 241
200 222 234
201 222 237
201 223 241
200 221 233
197 219 220
201 222 234
199 221 231
197 220 226
202 224 241
198 220 226
196 218 220
199 221 231
197 219 224
198 220 230
198 220 226
199 221 234
199 221 231
197 220 224
197 219 224
196 219 221
198 220 230
195 218 221
201 222 236
201 222 236
201 222 233
202 224 240
203 224 244
201 224 255
201 224 255
202 225 255
203 225 255
204 226 255
204 226 255
207 228 255
207 228 255
208 228 255
209 229 255
211 230 254
214 231 255
213 231 252
215 232 255
215 232 255
215 232 255
215 232 255
215 232 255
215 232 255
215 232 255
215 232 255
215 232 255
133 155 197
61 97 157
60 95 152
60 96 154
61 96 153
61 97 156
61 96 147
61 97 156
60 96 149
61 97 160
62 97 156
62 98 157
63 98 152
61 97 153
61 96 147
60 96 150
62 98 160
59 94 143
61 97 155
61 97 155
62 98 159
62 98 159
61 97 156
62 98 154
62 98 152
61 96 150
61 97 152
61 97 151
61 96 155
61 97 153
62 98 158
62 97 150
61 97 152
61 97 149
60 96 148
62 98 157
61 97 148
62 98 155
61 97 153
62 98 156
62 97 151
62 97 152
61 97 148
61 97 154
60 96 149
62 98 154
61 96 148
60 95 144
62 97 152
62 98 154
61 96 150
61 97 154
60 96 143
61 97 147
62 97 157
61 96 156
61 96 147
61 95 148
61 97 154
61 95 149
62 97 154
61 95 147
60 94 150
61 96 148
61 97 154
61 96 154
62 98 158
61 96 146
61 96 147
61 96 151
60 95 147
61 96 155
60 95 155
61 96 151
60 96 158
60 94 141
59 93 145
60 94 148
60 95 146
60 95 154
59 94 149
60 94 153
61 96 155
61 95 156
59 93 143
60 94 150
59 92 143
58 90 143
58 90 141
58 90 137
59 91 137
59 92 145
58 89 138
133 152 181
215 232 255
215 232 255
215 232 255
215 232 255
215 232 255
215 232 255
215 232 255
215 232 255
215 232 255
189 201 214
117 115 72
118 116 78
120 119 79
115 116 79
120 120 82
124 123 86
107 108 76
129 129 88
115 116 81
123 124 85
123 125 88
119 121 85
121 122 84
124 125 87
109 112 78
126 126 86
127 127 87
135 136 93
130 131 88
127 128 89
139 138 92
133 133 90
139 137 91
142 141 94
139 139 93
147 146 96
148 146 96
144 142 93
157 154 100
142 140 92
148 147 94
149 146 92
159 155 98
152 149 99
154 151 98
154 151 96
155 152 99
158 154 96
152 149 98
162 158 97
163 159 98
168 163 103
162 159 102
154 152 96
156 153 97
161 158 101
170 164 105
166 162 99
164 160 97
166 162 102
170 165 103
169 165 101
168 164 103
170 165 107
164 160 100
164 160 98
171 166 105
168 163 99
174 168 103
169 164 99
175 170 107
170 164 101
172 166 105
168 163 102
171 166 101
170 166 103
173 168 102
171 166 102
174 168 103
176 168 103
173 168 103
171 166 100
174 168 103
169 164 101
169 164 98
178 171 105
170 164 100
172 166 99
168 163 97
173 168 103
170 164 97
167 163 98
168 163 96
173 166 99
172 167 99
169 164 101
173 166 104
169 164 99
169 163 95
173 167 99
172 166 102
165 160 94
172 166 103
171 165 100
169 163 97
167 162 98
170 165 101
169 163 98
166 160 93
168 162 96
170 164 98
169 164 98
169 162 97
169 162 98
166 160 95
165 160 94
165 160 93
166 161 94
161 156 94
167 161 98
166 160 95
158 152 90
167 161 93
167 160 95
167 161 96
160 155 87
160 155 90
163 158 89
160 155 88
160 156 89
166 159 92
168 161 97
165 160 93
165 159 90
157 151 91
156 151 87
162 156 90
159 153 86
166 160 95
159 154 87
160 155 92
167 162 99
156 150 86
159 153 85
152 147 81
164 157 93
162 157 93
156 151 86
160 155 93
154 150 88
155 150 88
157 151 87
161 155 90
211 230 254
210 229 245
209 228 245
209 228 245
210 228 249
208 226 244
208 227 238
207 226 241
209 228 244
210 228 246
209 228 245
206 225 233
208 226 240
206 224 237
207 226 241
202 222 232
201 221 224
203 223 226
199 219 221
203 223 233
201 220 225
204 224 237
204 223 230
200 219 226
205 225 238
197 217 225
199 219 227
204 224 235
200 220 228
200 220 228
204 224 241
193 213 213
198 218 226
203 222 238
198 218 228
196 216 224
198 218 231
203 222 233
200 220 233
200 220 228
200 220 227
203 223 233
204 224 233
204 224 233
201 221 227
203 223 230
204 223 234
205 225 240
204 224 236
203 223 234
205 224 237
203 223 233
203 223 231
206 225 240
204 224 233
201 221 230
202 222 236
202 222 234
205 225 242
200 220 223
202 221 231
203 224 245
202 222 237
204 224 237
203 223 244
203 223 240
201 221 231
199 220 237
200 220 236
201 221 236
200 220 233
203 223 236
202 223 244
200 220 231
197 217 230
202 223 238
198 219 230
200 221 236
200 221 241
203 224 241
203 223 237
200 221 233
199 219 226
200 221 236
202 223 241
196 217 227
198 219 228
200 221 233
206 227 252
198 219 228
198 220 237
198 220 230
198 219 226
201 222 234
200 221 231
198 219 224
199 221 236
203 224 238
200 220 230
201 222 236
203 224 244
202 223 234
200 221 234
198 219 233
201 222 238
203 224 240
200 221 230
199 220 223
201 222 236
200 222 236
201 222 234
202 223 234
198 220 223
197 219 221
198 220 224
199 221 230
199 221 231
198 220 230
199 221 228
198 220 224
199 221 231
199 221 228
198 221 230
199 221 227
199 221 230
198 220 230
199 221 230
203 224 236
196 217 236
193 214 229
194 215 234
192 214 236
188 211 245
197 220 252
201 224 254
204 226 255
205 227 255
206 227 254
207 228 255
208 228 255
209 228 252
212 230 255
213 231 255
214 231 253
215 232 255
215 232 255
215 232 255
215 232 255
215 232 255
215 232 255
215 232 255
215 232 255
198 216 243
68 101 159
60 95 158
61 96 159
61 97 155
62 98 161
62 98 156
61 97 156
61 96 147
60 96 150
61 97 150
62 97 155
61 96 149
61 96 149
62 97 155
62 98 155
61 97 152
62 97 151
60 95 143
61 96 148
60 96 145
61 97 150
61 97 154
62 98 151
61 96 155
62 97 148
61 97 151
61 97 152
62 97 155
60 96 142
62 97 151
61 96 149
61 96 144
62 97 153
61 96 148
61 97 153
61 97 150
62 97 159
61 97 153
61 96 145
61 95 142
61 97 153
60 95 143
62 98 158
61 97 152
62 97 152
62 97 152
61 97 152
61 96 149
62 97 154
61 96 151
61 96 146
62 97 154
61 97 151
62 98 161
62 97 150
62 97 155
61 97 150
61 95 142
61 96 150
61 97 154
61 97 154
61 96 150
62 98 163
60 96 145
61 96 150
61 96 151
60 95 147
61 96 151
61 96 152
61 96 151
61 96 151
61 95 147
61 97 150
61 95 148
61 96 143
60 95 145
61 95 146
62 97 160
59 93 145
60 94 145
61 95 152
62 97 159
60 94 142
60 93 147
60 94 147
59 93 142
58 90 136
59 92 146
59 91 148
58 90 143
58 90 137
57 89 138
57 89 143
54 84 132
200 217 242
215 232 255
215 232 255
215 232 255
215 232 255
215 232 255
215 232 255
215 232 255
215 232 255
123 124 100
120 119 79
104 106 72
111 111 78
101 100 70
115 115 77
110 112 78
119 118 81
114 116 82
108 110 78
112 114 81
110 112 78
128 127 87
124 125 87
120 121 85
119 121 83
128 130 91
135 135 91
127 128 90
130 131 90
137 138 93
139 139 93
132 131 86
141 140 93
147 146 97
147 145 97
147 146 98
147 146 96
142 141 92
153 150 99
151 150 98
147 146 95
140 139 92
154 152 102
156 153 99
158 156 101
155 152 96
156 153 98
154 151 98
153 150 96
158 154 97
157 154 101
165 160 100
158 155 96
162 159 102
162 159 100
170 165 102
166 161 101
168 163 100
164 160 102
165 161 99
167 162 104
170 165 104
169 164 102
167 162 98
170 165 103
166 161 100
168 163 101
170 165 101
170 166 103
172 167 100
173 168 107
169 164 103
175 169 103
169 164 102
173 167 100
172 166 101
165 161 99
174 168 104
174 169 106
175 168 104
175 169 101
171 166 98
174 169 105
173 168 103
168 162 98
168 162 95
176 170 106
169 162 94
170 165 96
172 167 100
173 167 99
171 166 100
170 164 97
172 166 100
172 166 99
172 166 99
168 162 98
168 163 99
176 169 101
171 164 101
173 167 101
171 166 101
172 166 101
168 163 100
169 164 95
171 166 97
171 166 102
164 158 92
169 163 99
167 161 97
169 163 98
169 165 99
167 161 95
168 163 96
168 162 96
170 164 97
168 162 95
166 160 94
169 163 99
160 155 90
161 156 91
158 152 87
167 161 95
168 162 97
167 161 97
162 157 88
164 159 91
164 159 94
165 159 93
169 162 98
162 156 90
165 159 97
161 156 91
165 159 93
167 161 95
165 159 93
166 160 96
164 158 93
165 159 94
159 154 90
156 151 88
155 150 87
163 157 90
158 152 86
154 149 85
155 148 87
158 152 89
151 146 86
161 156 91
155 150 90
151 147 83
162 155 87
158 151 87
210 228 242
210 228 247
208 227 242
210 228 246
209 228 244
208 227 241
209 227 243
210 228 244
204 222 228
209 228 242
204 224 231
211 229 248
210 228 247
207 225 237
209 227 246
204 223 230
205 224 235
197 216 223
205 224 231
196 216 214
201 220 219
202 222 224
205 224 231
202 222 228
201 221 226
202 221 230
201 221 226
202 222 227
202 222 227
201 220 230
201 221 234
199 218 225
200 220 228
201 221 227
201 220 235
202 222 232
198 219 221
202 222 230
199 218 220
203 223 236
204 223 238
204 224 233
200 220 224
203 223 234
202 221 228
203 223 233
204 223 233
205 225 240
206 225 241
205 224 244
201 221 236
203 222 236
204 224 237
204 223 240
203 222 233
200 220 234
203 223 237
203 223 237
203 223 234
203 223 237
201 221 237
199 219 231
204 223 236
201 221 236
199 218 233
200 220 231
198 219 233
198 218 227
201 222 238
200 219 234
203 223 238
199 220 236
201 221 233
198 218 231
198 217 231
197 217 227
199 220 230
199 219 236
197 218 228
201 221 236
198 219 237
201 222 241
203 224 242
197 217 231
199 220 233
203 223 234
202 222 234
201 222 230
200 221 233
200 221 237
201 221 231
200 220 231
202 223 241
200 221 234
204 224 242
203 224 240
201 222 234
206 226 249
201 222 237
199 220 230
200 221 233
200 220 230
203 223 237
204 225 245
201 221 234
200 222 242
200 221 227
199 220 223
201 222 233
202 224 240
203 223 237
201 222 228
200 222 236
200 221 230
201 223 236
200 221 230
202 223 233
198 219 226
198 220 223
200 221 227
196 218 220
201 223 237
201 222 231
197 219 223
197 219 215
197 219 220
185 207 210
179 200 212
171 192 216
177 198 216
177 198 223
183 204 224
176 198 227
176 199 236
181 203 240
189 211 244
199 221 252
206 227 255
208 228 255
208 228 255
209 229 255
211 230 255
212 230 254
213 231 253
215 232 254
215 232 255
215 232 255
215 232 255
215 232 255
215 232 255
215 232 255
215 232 255
162 182 216
61 97 159
61 97 158
60 96 152
61 97 153
61 97 154
61 96 159
61 96 153
61 97 153
59 94 146
61 97 153
61 96 149
60 96 143
61 97 148
62 98 155
62 97 160
61 97 148
62 98 156
62 97 156
62 97 154
62 98 156
60 95 148
62 97 147
61 97 155
61 96 145
61 96 149
61 96 150
61 97 155
61 96 145
61 96 149
61 96 149
61 97 156
62 97 157
61 96 151
61 96 151
60 96 148
61 97 154
61 96 151
62 97 155
61 97 151
61 96 151
62 98 153
60 95 142
60 95 146
61 97 148
62 97 157
62 97 150
62 98 153
61 96 153
60 95 148
61 97 147
61 97 147
62 97 154
61 97 153
61 97 151
61 96 146
61 97 148
61 96 151
61 96 151
61 96 149
63 98 155
61 96 149
60 95 137
59 94 140
62 97 151
61 96 152
60 96 142
61 97 153
61 96 149
61 96 153
62 97 157
61 96 151
59 93 136
61 96 153
61 95 152
61 95 147
60 94 149
60 95 139
59 93 140
61 96 150
61 95 150
59 93 147
59 92 143
60 94 148
59 94 152
58 90 134
59 92 143
60 94 154
57 90 141
59 93 146
56 89 139
58 91 144
58 90 146
57 87 136
56 86 137
155 173 202
215 232 255
215 232 255
215 232 255
215 232 255
215 232 255
215 232 255
215 232 255
186 198 207
113 111 72
112 111 74
110 111 78
114 114 78
114 114 79
108 109 76
104 106 74
108 111 78
110 112 79
115 118 83
107 110 79
116 117 81
108 110 79
125 125 87
120 121 84
120 121 83
130 130 89
129 129 88
130 130 89
131 132 89
136 135 90
135 134 90
141 139 93
133 134 93
139 138 90
143 141 92
147 145 96
150 149 99
138 137 90
150 147 93
149 147 97
157 154 101
156 153 101
150 147 96
150 148 97
154 151 96
161 157 99
156 152 95
154 152 97
159 156 100
159 156 100
163 159 99
155 152 94
164 160 100
155 152 95
159 155 98
160 156 94
168 162 99
162 159 95
163 159 100
167 163 101
166 162 101
169 164 102
165 160 100
161 157 97
171 166 103
171 165 102
170 165 104
169 164 101
170 165 100
169 166 103
170 165 99
171 165 102
170 165 100
173 167 101
171 167 101
171 166 101
174 169 102
175 169 104
174 167 97
172 166 102
174 168 102
175 169 104
172 166 102
173 168 97
176 169 103
173 167 100
173 167 99
171 166 97
171 166 103
172 167 101
168 163 95
169 164 95
171 165 101
172 167 100
170 164 100
171 165 98
172 166 96
174 167 103
171 165 99
171 165 99
164 159 94
170 165 96
173 167 99
169 164 98
172 166 100
173 167 100
171 165 97
162 156 90
165 160 96
172 165 100
168 162 93
167 162 95
166 159 95
168 162 96
164 157 94
174 168 103
163 158 90
166 160 88
165 159 93
164 159 95
172 166 96
159 154 90
170 164 96
161 156 90
167 160 94
163 158 91
165 159 95
167 162 93
160 155 90
167 160 97
159 153 87
166 161 94
153 148 86
164 158 91
158 152 86
155 149 87
162 156 93
164 157 89
163 157 93
162 156 91
155 151 81
154 149 86
155 151 87
163 157 95
155 149 84
168 162 95
166 160 91
161 155 90
164 157 94
159 153 80
157 150 84
155 150 86
155 151 84
212 229 246
207 225 237
209 227 244
208 227 237
209 228 245
206 225 235
207 226 237
208 226 237
209 228 242
209 227 242
206 225 235
209 228 246
207 225 236
207 225 233
206 224 236
201 220 224
200 220 223
199 219 226
203 223 220
204 223 231
204 224 226
200 219 216
203 223 226
201 220 224
203 222 226
205 225 236
202 222 233
201 220 226
199 218 226
199 219 228
205 224 240
204 224 234
199 218 228
198 217 222
199 219 221
204 223 238
199 218 227
202 222 227
204 223 238
204 223 236
203 223 228
203 222 228
205 225 233
204 223 236
201 221 228
202 222 230
203 223 234
205 225 238
200 219 233
206 225 242
204 223 234
206 225 242
205 224 241
207 226 246
202 222 233
205 225 237
201 221 228
201 221 230
202 222 227
204 224 241
203 223 238
200 220 238
203 223 237
199 218 226
202 222 236
205 225 242
202 222 238
199 219 231
202 222 236
201 221 234
200 220 236
195 216 227
203 223 234
201 221 234
203 223 233
198 219 233
198 218 230
200 220 237
200 220 230
199 219 230
201 222 238
200 220 236
201 222 234
200 221 231
200 220 234
200 220 238
196 218 236
201 221 234
203 224 241
200 221 233
200 221 231
203 223 238
200 221 234
201 222 234
203 224 241
200 220 228
201 221 237
201 223 240
201 222 230
198 219 227
202 223 234
201 222 231
201 222 233
203 224 236
201 221 230
203 223 236
205 225 241
201 222 236
203 224 240
203 224 238
202 222 230
204 224 236
201 221 228
203 223 236
203 224 242
199 220 224
199 220 220
201 223 237
196 218 221
201 223 234
200 221 227
201 222 233
197 219 220
201 223 233
186 207 202
166 188 199
169 191 199
181 203 207
171 193 207
176 197 219
184 204 214
186 207 228
179 199 220
172 195 231
174 197 234
167 190 226
175 197 233
187 208 241
204 225 253
208 228 255
209 229 255
210 229 255
212 230 255
212 231 254
215 232 254
216 232 255
216 232 255
216 232 255
216 232 255
215 232 255
215 232 255
214 231 255
94 121 171
60 96 156
61 97 161
60 95 150
61 96 151
62 97 155
61 96 150
62 98 160
61 96 153
61 97 156
61 97 156
60 96 150
61 96 154
61 97 148
61 96 150
62 97 149
61 96 143
61 97 152
60 95 140
61 97 151
61 97 153
60 95 142
61 96 150
62 97 156
62 97 154
60 95 145
60 96 149
61 97 155
61 96 145
61 96 145
62 97 149
60 96 142
60 95 141
62 97 153
61 96 151
61 96 143
61 96 150
60 96 142
61 97 151
60 95 144
61 97 148
61 96 142
61 96 148
61 96 145
61 96 150
62 97 151
61 96 147
61 96 148
61 97 158
61 97 155
61 97 148
61 97 149
62 98 153
61 96 143
61 96 146
61 97 156
61 97 151
61 97 153
61 96 151
61 96 147
60 95 141
61 96 150
60 95 137
60 95 140
60 95 149
60 95 150
61 97 145
60 95 150
62 97 156
61 96 149
61 96 151
58 91 134
61 96 151
61 96 155
59 93 135
60 94 142
61 96 153
60 94 136
61 95 150
60 94 139
59 93 137
61 95 147
60 94 138
60 94 145
61 95 148
59 93 147
60 93 142
60 94 151
59 92 148
58 90 139
59 92 143
57 89 142
57 89 143
56 87 139
56 86 131
99 120 153
211 228 252
215 232 255
215 232 255
216 232 255
216 232 255
216 232 255
213 230 253
140 142 121
106 105 73
99 100 70
105 106 74
110 111 77
103 104 73
110 112 78
104 107 78
104 106 74
103 105 74
116 118 83
108 111 80
107 110 78
115 116 79
115 115 79
117 118 82
128 128 87
116 118 83
122 124 85
124 125 86
127 127 87
135 135 93
132 132 90
139 138 92
133 132 87
149 147 97
132 132 88
139 138 91
136 136 87
146 144 95
150 148 96
147 145 93
154 151 96
152 150 98
148 146 92
157 154 97
152 150 96
160 157 102
154 152 96
161 157 98
155 152 95
157 153 96
160 157 101
161 157 98
165 160 100
161 157 97
166 163 105
164 160 100
165 161 99
167 162 102
164 159 97
169 164 99
170 165 104
163 158 95
164 160 99
167 162 93
171 166 105
172 167 104
174 168 105
168 164 100
170 166 103
168 163 95
173 168 103
169 163 93
169 164 98
170 165 99
169 163 96
171 167 103
170 165 101
174 168 99
172 167 104
169 164 101
173 167 104
174 169 102
172 167 102
171 166 100
170 166 100
175 168 106
168 162 93
170 165 101
176 169 103
172 166 99
167 161 95
165 160 96
171 165 97
171 165 99
172 166 100
171 165 97
173 167 99
172 165 97
172 166 97
173 166 99
172 166 94
175 168 103
167 161 96
173 167 104
166 161 92
172 167 101
173 166 99
170 164 95
173 166 101
173 167 99
168 163 97
169 163 95
171 165 100
168 163 98
170 163 96
164 158 93
167 162 93
160 156 90
170 164 94
166 160 93
167 160 91
161 155 91
166 159 91
170 164 95
164 159 94
165 159 95
159 153 86
162 156 89
166 160 94
163 157 92
165 159 93
169 162 97
163 157 91
165 159 95
163 158 93
156 151 88
159 153 90
164 158 95
157 152 87
165 159 95
163 157 91
163 157 93
160 154 87
158 153 87
155 149 86
157 151 87
153 147 82
158 152 87
161 155 91
157 151 88
156 150 84
154 148 84
162 155 83
212 229 246
208 226 236
208 226 240
211 229 246
209 227 240
209 227 242
210 228 241
210 228 242
212 230 245
208 226 237
208 227 241
210 228 238
210 229 245
208 226 239
204 223 230
204 223 228
205 225 231
202 221 226
204 223 230
204 223 224
206 225 231
204 224 228
201 221 229
203 222 223
202 221 226
204 223 231
204 223 229
201 220 229
203 221 236
196 215 220
201 220 218
207 226 242
201 221 228
203 222 233
201 221 230
198 218 214
200 219 225
207 226 238
203 222 224
206 225 236
202 222 224
202 221 221
203 223 234
204 223 228
203 221 228
206 225 233
205 224 236
208 228 246
205 224 230
207 226 240
206 225 245
205 224 236
204 223 238
204 224 237
204 223 238
203 222 236
200 219 228
197 217 231
204 223 238
200 220 231
204 224 244
205 225 241
203 223 241
203 223 236
205 224 240
204 223 236
201 221 228
208 227 249
198 218 230
200 220 230
203 223 234
202 222 233
203 223 236
200 220 228
204 224 240
200 219 227
201 221 231
202 222 236
203 223 237
201 221 240
198 218 234
199 219 221
197 218 234
201 222 236
200 220 236
201 221 234
200 221 234
201 221 231
200 220 233
202 222 231
202 222 240
203 223 238
202 223 238
203 223 233
202 222 234
200 221 228
202 222 236
202 223 236
202 223 238
204 224 236
202 223 236
202 223 234
201 221 228
200 221 231
202 222 231
201 221 226
202 222 230
200 221 228
206 226 246
203 223 234
204 224 234
200 221 223
203 224 241
205 225 240
202 223 231
204 225 240
199 220 220
200 221 226
202 223 237
201 222 227
199 221 223
201 222 230
197 218 223
176 197 210
175 196 215
175 196 207
177 198 219
179 200 203
183 204 212
178 198 218
185 205 223
178 199 222
182 202 217
183 204 230
173 196 231
190 211 242
182 204 238
178 199 232
182 203 237
198 218 247
209 229 255
211 230 255
211 230 253
213 231 254
214 231 253
215 232 254
216 233 255
216 233 255
216 233 255
216 232 255
216 232 255
182 200 231
60 95 157
60 95 153
60 95 150
62 98 158
60 95 147
60 96 153
61 97 148
61 97 154
61 97 157
60 96 148
62 97 155
62 97 151
62 97 151
61 96 149
59 95 135
61 96 144
61 96 151
61 97 149
61 97 148
60 96 148
60 96 144
61 96 150
61 97 149
61 96 141
61 96 148
61 96 147
61 96 141
62 98 157
60 95 140
62 97 156
61 96 155
60 96 149
61 97 148
62 98 159
62 98 149
62 97 145
60 96 150
61 96 143
61 96 149
62 98 156
61 97 145
62 97 147
61 96 147
61 97 144
61 96 147
61 96 147
61 96 145
59 94 134
61 96 148
60 96 148
61 96 149
62 97 153
60 95 148
61 96 148
61 96 143
61 96 143
61 95 146
62 98 156
60 95 140
61 96 149
62 98 154
61 96 148
60 95 140
61 97 153
61 96 145
60 95 141
60 95 149
62 97 154
61 95 143
60 94 146
59 94 140
61 96 151
59 92 136
62 97 163
61 96 154
60 95 150
61 96 150
61 96 148
60 95 145
60 94 144
60 95 151
59 93 141
59 93 144
58 91 139
59 92 139
59 93 143
59 92 141
60 93 153
58 91 138
58 91 136
59 91 148
58 90 134
57 88 128
56 87 143
56 87 135
55 85 130
184 201 226
216 232 255
216 232 255
216 233 255
216 233 255
216 233 255
186 197 205
120 117 77
113 111 75
108 108 75
91 93 65
99 101 71
100 102 72
94 97 69
103 105 74
108 110 78
104 106 73
114 116 83
111 114 81
119 121 84
108 110 79
115 116 79
115 118 85
120 121 84
121 122 84
125 126 87
127 128 88
130 131 89
120 121 80
132 133 89
137 136 90
143 143 95
144 143 93
141 139 91
141 140 91
151 149 97
142 141 91
140 140 91
147 145 95
152 151 96
150 148 96
139 138 87
153 150 95
154 150 95
161 158 101
151 148 95
159 155 98
160 157 99
161 157 101
156 153 96
158 155 96
162 159 100
165 161 103
160 156 98
162 159 96
171 166 104
164 160 96
167 163 101
169 163 104
166 161 101
165 160 95
169 163 98
175 169 102
168 163 101
167 163 100
167 163 101
164 160 98
171 166 99
167 162 94
172 167 102
168 164 99
163 159 95
172 167 102
168 162 95
167 162 92
170 165 99
169 164 99
175 169 100
174 168 101
172 167 98
171 166 96
172 167 100
169 164 99
175 168 101
171 166 99
169 164 100
171 165 95
169 163 96
173 167 100
172 167 99
174 167 101
169 165 95
171 166 97
173 166 93
172 166 98
172 166 101
172 166 93
167 162 95
173 167 99
170 165 97
170 165 99
170 164 94
169 163 97
174 167 103
166 161 89
170 164 97
167 162 94
165 159 96
174 167 101
164 159 93
171 165 99
169 162 90
164 158 87
168 163 96
161 156 91
163 158 92
170 163 98
169 163 95
164 158 90
164 158 97
165 160 95
165 160 90
164 159 93
161 156 92
168 163 98
165 159 97
163 157 89
164 159 94
169 163 95
164 159 91
164 158 92
159 153 85
166 160 86
157 152 88
159 152 87
160 155 90
157 151 87
165 158 88
162 155 91
161 156 90
164 158 89
158 152 84
160 154 93
159 154 89
163 158 90
161 156 88
164 158 89
160 154 90
159 153 88
149 144 80
153 148 80
154 149 84
210 228 240
211 229 248
211 229 249
208 226 240
210 228 241
207 225 235
209 227 238
206 224 237
210 228 240
208 227 243
206 224 233
207 225 233
210 227 245
211 228 246
202 221 223
202 221 223
204 223 230
203 222 226
202 221 227
200 219 209
206 224 233
203 222 231
205 223 228
204 222 231
208 227 242
205 224 238
203 222 232
201 220 226
203 222 228
203 222 231
205 224 238
201 220 234
203 222 235
201 220 227
198 217 226
202 221 238
201 220 229
203 222 233
207 226 237
208 226 237
205 224 230
208 226 238
205 223 234
208 226 245
206 225 234
203 223 230
206 225 233
206 225 240
209 227 242
203 222 237
206 225 238
203 222 233
203 222 237
201 221 228
203 222 227
208 227 245
197 217 226
198 218 226
196 214 215
203 223 238
203 222 231
201 220 233
202 222 236
202 222 234
201 220 234
202 221 237
196 216 226
203 223 238
204 223 240
201 221 236
204 224 238
198 217 226
198 218 236
201 220 231
201 221 231
199 219 231
198 218 227
204 224 238
203 222 236
199 219 233
202 222 237
202 222 234
202 223 234
193 213 221
201 221 231
206 226 248
202 221 234
200 220 227
203 222 238
201 221 230
199 219 224
204 224 233
201 221 230
202 223 234
202 222 238
203 224 242
206 226 244
203 223 228
205 225 241
200 220 230
204 224 241
200 220 226
200 221 233
205 225 241
203 224 237
203 223 234
205 225 237
202 222 234
202 222 228
204 224 234
204 224 236
203 223 231
199 220 230
202 223 233
203 224 233
203 224 233
202 222 227
204 224 238
205 225 241
201 222 226
198 219 224
193 214 231
172 193 191
171 192 205
169 190 190
163 183 201
168 189 199
175 195 200
162 184 181
165 187 201
172 192 213
175 196 211
185 205 225
180 201 220
174 196 227
181 203 235
171 193 224
179 200 234
181 202 233
180 200 231
199 219 248
210 229 255
212 230 255
213 231 255
214 231 255
214 231 253
216 233 255
216 233 255
216 233 255
216 233 255
216 233 255
136 157 192
60 95 158
62 98 161
61 96 152
60 96 142
61 96 148
60 96 149
61 96 155
63 98 153
60 96 145
59 94 141
61 97 154
62 97 154
60 96 147
62 97 153
62 98 155
62 97 157
61 97 151
61 97 148
60 95 143
61 97 150
61 97 148
62 97 150
62 98 165
62 97 154
61 96 145
61 96 149
60 95 150
60 95 148
61 96 152
62 98 153
61 97 154
61 96 149
62 97 155
61 96 149
61 97 149
60 95 151
61 97 151
61 96 147
60 96 143
62 98 158
61 97 150
62 97 149
62 97 154
61 96 147
60 96 140
60 95 149
61 96 150
62 98 157
61 96 147
61 97 149
62 97 148
60 95 144
61 96 148
61 96 139
61 96 144
62 98 160
62 97 149
62 97 155
60 94 144
61 96 146
61 95 148
60 95 143
61 96 146
60 95 144
60 95 147
60 95 146
62 97 150
61 96 150
60 94 139
59 93 140
61 95 145
59 93 139
61 96 151
61 96 144
61 97 156
60 95 157
61 96 148
59 93 141
60 94 146
60 95 149
60 94 142
60 94 144
61 95 152
58 92 134
60 94 149
60 94 143
59 92 139
59 93 141
57 90 141
58 91 141
58 91 141
59 92 148
59 92 149
57 88 136
57 88 137
53 82 128
123 141 173
216 233 255
216 233 255
216 233 255
216 233 255
216 233 255
144 149 142
114 112 73
106 106 72
113 113 78
96 98 68
103 104 74
98 101 71
103 105 74
106 108 76
109 110 77
107 109 76
98 101 73
106 109 78
112 114 83
112 114 78
112 115 82
113 114 82
114 116 83
122 124 85
128 129 86
122 123 83
125 125 85
134 133 90
135 134 88
130 131 86
130 129 84
135 135 87
144 142 92
141 140 91
136 135 88
148 145 95
144 141 90
147 146 94
146 144 93
147 146 95
138 137 87
155 152 96
155 152 95
159 155 97
158 155 98
153 150 96
158 155 98
155 151 93
161 157 95
158 153 98
156 152 94
168 163 101
161 158 95
161 158 99
167 162 97
159 154 93
166 162 101
160 156 92
166 162 101
170 165 99
164 159 95
159 155 94
164 160 96
166 162 99
166 161 95
170 165 97
166 162 95
168 163 98
172 168 98
172 166 98
172 166 98
171 165 98
171 166 105
171 166 98
170 165 97
171 165 95
171 166 96
172 167 104
173 167 100
174 168 100
169 164 94
175 168 102
168 163 98
174 168 95
173 167 98
168 163 98
168 162 97
173 167 102
168 162 98
164 160 87
170 165 97
169 163 99
172 166 99
173 167 99
172 166 98
170 164 98
169 163 96
174 167 97
173 166 96
166 161 97
167 162 97
164 159 94
169 163 95
176 169 103
168 162 93
168 163 94
170 164 93
170 163 95
170 163 94
173 167 97
172 165 93
168 161 92
166 160 95
173 166 101
169 162 95
166 160 94
166 159 93
161 157 91
167 161 92
165 159 91
168 162 95
168 161 93
168 162 94
159 154 86
165 159 93
163 157 90
164 159 93
159 154 82
160 155 93
167 160 90
160 154 93
168 162 93
151 147 81
157 152 88
162 157 90
158 153 88
154 148 88
158 154 89
154 148 82
163 157 90
161 156 88
157 152 85
161 154 87
161 155 93
157 151 89
159 153 90
158 152 87
158 153 87
161 155 88
151 146 81
162 157 89
211 228 245
211 229 244
210 228 240
210 228 244
210 228 244
208 226 237
209 227 242
211 229 246
210 228 242
207 224 238
210 228 243
208 226 242
209 226 241
207 225 241
207 225 233
208 227 237
199 218 216
196 215 211
200 219 219
201 220 218
203 221 225
204 223 230
200 218 217
199 218 218
198 217 227
204 223 226
202 221 233
207 225 231
205 223 235
205 224 232
205 223 237
198 217 218
202 221 229
207 225 238
200 219 227
201 219 223
204 223 228
206 225 235
203 222 231
207 226 240
206 225 233
205 224 231
206 225 234
203 222 233
205 224 238
203 221 228
205 224 234
204 223 231
201 220 236
204 222 238
207 226 237
206 225 237
204 222 233
203 222 236
201 219 230
204 223 236
203 223 233
201 221 228
204 223 238
204 223 237
200 219 234
199 218 221
199 218 230
197 216 226
202 221 228
205 224 236
203 222 237
193 212 221
199 218 226
201 220 236
202 221 236
199 219 233
202 222 233
201 221 234
194 214 221
193 212 220
201 221 238
203 222 237
199 219 227
203 223 240
206 226 244
203 222 230
200 220 227
198 218 224
202 222 228
202 222 238
201 221 231
205 224 236
206 225 241
203 222 236
202 222 231
203 223 238
203 223 236
199 219 226
204 224 240
199 219 230
205 224 240
202 222 231
204 224 234
202 222 230
202 222 221
204 224 236
202 222 228
203 224 237
206 226 245
202 222 230
202 223 231
204 224 233
204 224 236
205 225 238
205 225 240
203 223 228
204 224 233
204 224 240
205 225 237
203 223 231
206 225 244
205 224 234
203 223 237
199 219 228
185 205 214
175 196 201
173 194 197
167 187 200
168 189 190
170 191 199
162 183 192
175 196 201
164 185 199
169 190 207
170 190 198
178 197 212
173 193 217
185 205 223
182 203 231
181 203 236
186 207 238
177 198 231
181 201 234
185 205 237
183 203 236
193 212 241
212 230 255
213 231 254
214 232 255
215 232 253
216 233 255
216 233 255
216 233 255
216 233 255
209 226 250
72 103 153
61 96 154
60 95 149
61 97 160
60 95 148
61 96 150
60 95 150
61 96 156
60 95 146
60 95 144
61 96 150
60 95 139
62 98 154
61 96 151
62 98 153
62 97 157
62 97 148
60 95 148
60 95 143
60 95 142
59 94 133
62 97 157
61 95 142
61 96 144
61 97 149
61 96 147
60 96 144
61 97 149
62 97 144
61 96 147
62 97 153
61 97 155
62 97 152
62 97 147
61 96 143
61 97 151
61 97 151
62 97 157
61 96 144
61 96 152
61 96 149
60 95 141
60 95 139
61 97 152
61 96 145
61 96 147
61 97 152
60 95 139
61 96 143
59 93 131
61 96 143
60 95 147
61 97 154
61 95 146
61 97 159
61 96 147
61 96 143
59 93 136
61 96 142
61 96 151
61 96 146
61 96 145
61 96 150
61 96 152
60 94 134
61 95 143
60 95 147
61 96 149
60 95 142
61 96 151
59 93 145
60 95 142
60 95 151
61 95 144
59 93 143
61 97 155
60 95 147
59 93 138
59 93 141
61 96 153
59 94 139
60 94 141
60 94 150
60 94 144
60 94 151
60 92 144
61 95 154
58 91 142
58 91 142
58 90 140
58 91 142
58 90 140
58 90 141
56 87 134
57 88 132
56 88 139
55 84 123
67 92 131
211 228 250
216 233 255
216 233 255
216 233 255
202 216 233
108 107 69
111 109 71
103 104 73
98 99 69
89 93 67
97 98 67
85 87 61
84 87 61
101 104 75
97 99 69
102 105 75
91 94 67
108 110 76
108 110 77
115 117 82
106 109 77
122 124 86
127 128 90
124 125 86
135 133 88
129 128 86
122 123 85
121 123 83
138 137 91
136 136 90
128 128 81
139 139 92
137 136 87
141 140 92
131 131 86
150 148 94
144 142 91
150 147 93
152 149 94
149 147 95
144 142 90
155 152 97
161 157 99
157 153 92
157 154 98
158 154 94
154 151 96
151 148 89
154 152 92
165 160 93
166 161 100
164 159 99
165 161 98
167 162 100
162 157 94
162 158 91
165 160 100
170 165 95
169 165 101
163 158 93
171 165 97
167 162 92
170 166 100
165 160 98
172 166 101
167 162 96
167 162 97
173 168 103
172 166 99
168 163 100
173 167 97
173 167 100
173 167 101
174 168 102
168 163 99
169 163 95
171 166 96
173 166 96
173 167 97
173 168 98
167 163 98
169 164 96
170 165 99
170 165 94
171 166 97
173 167 97
175 168 101
170 164 96
169 163 99
171 165 97
171 165 102
174 168 99
172 165 98
171 165 96
174 168 99
170 164 95
168 162 94
170 164 98
171 164 95
172 165 99
172 166 98
168 162 93
170 164 95
166 160 90
167 162 92
168 162 95
169 163 93
165 159 93
172 165 95
167 161 93
164 159 90
170 164 97
172 166 101
164 158 92
167 161 93
169 163 95
165 159 93
167 161 90
165 159 93
162 156 89
165 158 93
160 154 89
165 160 90
153 148 86
166 160 94
167 161 94
165 159 92
162 157 87
164 159 90
161 156 90
164 158 89
166 159 91
167 160 93
160 155 90
160 154 91
162 156 93
157 151 86
159 154 90
162 156 91
165 159 93
165 159 90
161 154 88
162 156 87
152 147 82
160 154 86
163 157 87
159 153 90
161 156 90
160 154 88
155 150 80
153 147 83
212 229 246
211 228 237
211 229 244
213 230 246
208 226 233
211 228 242
208 225 238
212 229 245
212 229 249
211 229 240
210 227 240
207 225 233
209 226 244
207 224 233
202 220 217
205 223 227
206 225 234
202 221 217
205 223 233
201 220 215
204 223 229
204 222 223
206 224 233
203 221 229
205 223 237
203 222 231
200 219 222
204 222 227
205 224 228
207 226 242
201 219 230
205 223 236
202 221 231
204 223 228
201 220 220
205 224 231
204 223 228
205 223 232
207 225 231
208 226 240
209 227 242
206 225 233
208 227 241
206 224 237
203 222 230
205 224 237
208 226 237
204 223 231
204 223 231
206 225 233
204 223 234
207 225 238
203 222 234
205 223 237
207 226 241
203 221 230
201 220 231
203 221 238
202 220 234
201 219 233
202 220 236
198 216 226
204 223 240
205 224 237
196 215 224
201 219 224
200 219 237
204 222 238
198 218 227
207 225 245
199 218 230
202 222 236
204 223 240
201 220 230
193 213 227
203 222 233
199 217 226
196 215 224
203 222 230
200 220 236
201 220 236
205 224 234
197 217 227
199 218 220
206 226 241
204 223 238
202 222 231
203 223 238
198 218 226
201 221 231
204 223 237
202 221 236
205 225 241
202 222 234
202 222 231
204 224 236
204 223 238
203 222 231
205 224 237
203 223 234
203 222 238
207 227 242
202 222 227
202 222 226
205 225 237
205 225 236
206 225 240
204 224 234
204 224 234
200 221 224
203 223 234
207 226 242
202 222 224
204 224 230
204 224 231
205 225 238
204 224 230
202 222 235
198 218 231
195 214 224
179 199 215
173 193 203
173 193 209
166 186 191
163 184 192
177 197 213
173 194 201
164 185 197
163 184 188
165 186 194
166 187 192
173 192 210
168 188 203
174 194 214
180 199 226
189 209 237
180 201 236
180 200 231
179 199 231
176 196 227
188 208 237
181 200 233
201 220 247
213 231 254
214 232 255
215 232 254
216 232 253
217 233 255
217 233 255
217 233 255
175 193 220
60 96 153
59 95 149
61 97 158
61 96 152
61 97 154
59 94 140
61 97 150
61 97 151
62 98 158
60 95 143
62 97 153
62 97 157
60 95 143
60 95 136
61 96 151
62 97 157
62 97 150
62 98 156
61 96 152
61 97 155
61 97 149
62 98 152
61 96 147
61 96 149
62 98 154
60 95 142
62 97 148
61 96 147
61 97 149
62 98 149
62 98 154
60 95 143
61 97 152
61 96 140
62 97 148
61 96 142
62 97 155
62 97 153
60 95 142
62 97 153
61 97 152
60 95 144
61 97 150
61 96 151
61 96 143
62 97 147
61 96 144
59 94 135
61 96 150
61 97 149
62 97 153
62 97 149
60 95 144
61 96 144
62 97 150
60 95 140
61 96 150
61 97 153
60 95 147
61 96 140
60 95 143
61 96 145
60 95 141
62 96 146
59 94 145
61 95 142
62 97 149
60 95 141
60 95 143
60 95 136
61 95 142
61 96 146
61 95 141
60 94 141
61 96 150
60 94 136
60 94 142
60 95 145
59 93 148
60 94 141
60 94 148
60 93 143
60 94 145
59 92 130
59 92 135
59 93 136
59 93 144
59 92 143
56 88 129
58 91 142
57 89 139
58 91 148
57 90 143
58 90 138
59 91 137
55 84 129
56 86 133
53 81 121
181 198 222
217 233 255
217 233 255
217 233 255
171 181 184
104 102 66
102 102 70
100 101 71
107 108 74
87 89 62
88 92 64
93 96 69
99 100 69
102 105 74
90 94 68
88 92 68
97 100 71
105 107 77
104 107 75
115 117 83
103 106 73
113 115 80
111 113 76
110 112 73
119 121 82
128 128 85
124 124 80
129 129 86
129 129 83
140 138 90
139 138 88
137 136 83
138 137 91
140 139 89
136 136 88
144 143 92
141 139 89
143 141 90
145 143 90
154 152 100
150 147 95
153 149 91
154 151 94
149 147 94
158 155 97
157 154 98
162 158 101
162 159 97
155 152 95
160 156 96
160 155 96
165 161 99
159 156 97
169 164 103
160 157 93
164 160 96
164 160 93
164 160 97
169 164 99
165 159 94
170 164 98
167 163 94
168 162 94
171 166 99
170 165 98
167 162 94
172 166 96
171 165 95
172 167 101
167 162 92
165 160 91
174 167 100
169 163 93
168 163 95
168 162 94
170 164 94
167 161 96
172 166 95
172 166 98
173 167 99
174 168 100
176 170 99
174 168 102
170 164 96
170 165 92
171 165 97
168 162 94
168 163 95
174 167 97
173 166 99
167 162 89
171 165 96
172 166 97
172 166 95
173 167 98
172 166 93
173 167 97
168 162 91
173 166 97
168 162 91
171 166 90
170 165 97
169 163 96
170 164 91
170 162 99
170 164 94
169 163 93
170 164 92
173 166 97
166 159 85
167 162 93
164 159 90
170 164 95
167 161 93
169 163 95
171 165 96
168 162 94
165 160 95
170 163 94
167 161 90
167 160 95
167 160 97
163 158 90
161 155 84
162 157 90
166 160 94
166 161 90
165 159 93
160 155 90
161 156 90
167 162 91
161 156 84
163 158 89
168 161 95
162 156 89
156 150 82
166 160 90
161 155 85
164 157 91
161 155 94
158 152 85
159 154 86
165 158 91
161 154 94
152 147 83
162 155 84
156 150 84
155 149 84
161 155 90
152 147 80
148 141 78
211 228 246
210 228 242
214 231 252
213 231 250
211 228 244
210 228 240
207 224 235
209 226 238
210 227 242
212 229 247
211 229 244
210 228 238
208 225 238
209 227 234
203 221 226
206 224 228
205 223 231
203 222 220
207 225 236
207 225 227
207 225 231
207 225 236
203 221 231
199 218 226
197 215 211
206 225 230
204 222 228
200 219 228
199 218 223
206 224 233
202 220 226
203 221 227
205 224 229
203 222 227
207 226 238
208 226 238
206 225 234
208 226 234
209 227 241
209 227 238
207 225 236
206 225 231
207 225 236
208 227 240
205 224 234
206 224 236
205 224 233
206 224 236
206 225 233
206 224 238
205 224 238
203 221 230
203 222 234
210 228 248
205 222 242
200 218 231
204 222 236
201 219 238
204 222 237
205 223 240
201 218 240
204 223 240
204 223 234
201 220 236
204 222 238
200 218 234
200 218 227
203 222 241
205 224 237
203 222 234
197 215 223
204 223 236
201 219 237
196 215 231
204 223 241
198 216 224
199 218 231
201 220 230
200 219 230
201 221 228
201 220 233
203 222 233
201 221 233
201 220 228
200 220 221
201 221 226
202 222 231
203 223 240
206 225 238
197 216 224
202 222 236
203 223 227
202 222 231
203 223 238
201 221 228
203 222 233
205 225 234
204 224 233
206 225 236
202 222 230
204 223 234
203 223 230
202 222 224
204 224 237
204 224 231
206 225 237
205 225 234
207 226 238
206 225 236
203 223 234
205 224 233
205 224 234
201 221 217
206 226 236
204 224 233
203 223 233
196 216 224
198 217 225
200 220 230
188 208 214
168 188 204
172 192 203
163 183 190
178 198 200
166 186 204
178 197 214
168 189 185
172 192 201
167 188 195
164 185 188
166 187 181
176 196 210
180 199 216
178 197 213
168 188 209
184 203 224
184 204 237
186 206 238
178 198 231
178 198 231
189 208 236
181 201 230
178 197 231
206 224 250
213 231 252
215 232 254
216 233 255
217 233 255
217 233 255
217 233 255
129 150 189
59 95 150
61 97 151
61 97 157
59 94 144
60 95 152
62 97 152
60 96 154
60 95 144
59 94 142
62 98 154
60 95 148
61 97 154
61 97 148
62 97 158
61 97 145
61 96 148
61 97 151
61 96 142
60 95 131
62 97 149
61 96 144
61 96 148
61 96 149
60 96 142
63 98 154
62 97 152
60 96 150
61 97 154
61 97 147
61 96 144
61 96 142
60 95 144
61 96 142
61 97 149
62 97 154
61 96 145
60 96 147
61 95 142
61 96 150
60 95 139
61 96 148
61 96 141
60 95 148
59 94 134
61 95 147
61 97 148
61 96 151
59 94 133
61 96 139
61 96 151
61 97 147
61 96 149
61 97 147
61 96 140
62 97 152
61 96 139
62 97 157
60 94 134
60 95 139
60 94 134
61 96 150
60 95 145
61 95 147
61 95 146
61 95 140
60 95 143
61 96 150
61 95 149
61 96 145
60 95 141
60 94 138
60 94 145
60 94 140
61 97 156
59 93 141
60 95 142
60 94 143
60 95 142
58 92 141
60 95 148
59 94 139
59 93 138
59 93 140
60 94 144
58 90 132
59 93 140
60 93 139
58 91 134
58 90 140
59 92 142
57 88 128
57 89 133
57 88 138
54 84 125
57 87 130
56 87 125
57 87 130
51 78 110
136 152 179
217 233 255
217 233 255
217 233 254
127 130 114
104 103 64
99 98 63
87 89 62
98 98 66
87 90 65
87 91 66
92 96 68
93 98 71
102 105 75
105 108 76
103 105 75
103 106 74
98 101 71
110 111 76
102 105 73
114 116 77
102 104 72
109 110 73
112 114 80
130 130 86
126 127 85
128 129 82
126 127 84
120 121 76
136 134 86
138 136 86
122 122 81
138 138 89
135 134 82
142 140 86
149 147 90
142 140 90
149 148 94
141 139 88
140 139 88
161 156 98
160 156 97
150 148 89
152 149 95
155 153 95
155 151 95
161 157 97
157 154 93
161 156 92
158 155 93
161 157 93
152 149 88
160 157 97
161 156 95
165 160 100
167 161 96
168 162 96
166 162 95
167 162 96
167 162 95
169 164 97
166 162 93
166 161 95
168 163 95
166 161 97
170 164 95
169 164 99
174 167 100
169 163 93
173 167 97
166 161 94
172 166 97
170 164 97
174 168 98
171 165 94
171 165 97
171 165 89
171 166 94
176 169 100
173 167 99
175 169 104
168 163 92
173 167 100
173 167 100
170 165 95
174 167 97
170 165 93
171 165 95
175 168 96
171 165 95
169 164 93
174 167 97
169 163 95
172 166 97
168 163 93
172 165 92
171 165 96
170 165 93
171 165 96
167 161 92
168 162 90
170 164 90
171 164 92
169 163 91
167 160 87
167 162 93
166 160 92
172 166 94
168 162 93
167 161 90
171 165 97
167 161 94
167 160 93
173 166 98
163 158 91
170 163 90
162 156 89
171 165 97
166 161 93
167 161 88
170 164 95
168 162 94
164 158 93
168 163 92
165 158 87
163 157 95
160 154 89
168 162 91
165 161 88
162 156 93
163 157 90
167 161 90
163 157 91
163 158 89
164 157 92
163 157 90
169 163 96
154 148 81
164 158 90
157 152 90
154 147 84
159 154 84
166 158 94
163 157 90
157 150 85
164 159 90
161 154 87
157 151 85
160 155 87
156 150 84
156 150 87
215 231 249
211 228 244
214 231 251
213 230 245
212 229 240
213 229 245
210 228 236
211 228 248
208 225 238
211 228 244
206 223 238
207 224 234
207 224 235
211 228 241
206 224 230
205 223 223
204 222 230
201 219 212
200 218 223
209 226 238
207 226 230
205 223 232
205 222 231
204 222 234
206 224 231
207 225 233
204 221 233
206 224 236
207 225 232
201 219 228
205 223 229
201 219 231
205 223 231
202 221 223
203 221 224
205 223 231
207 225 233
210 228 237
206 225 234
210 227 241
209 227 240
208 226 234
209 227 238
210 228 241
209 228 238
205 223 230
206 224 228
205 223 238
210 227 244
203 221 230
203 222 233
202 221 227
203 221 228
205 223 237
199 217 224
199 218 230
198 216 226
200 218 231
201 218 233
203 221 240
204 222 241
195 213 228
201 219 231
200 218 234
198 215 228
201 219 236
202 220 237
200 219 228
199 217 234
204 222 236
203 221 234
203 222 236
206 224 241
204 223 237
203 221 234
204 223 240
203 221 230
204 222 236
203 222 234
202 220 233
206 225 238
204 223 237
204 223 234
203 222 237
199 219 224
199 219 221
206 224 241
203 223 234
199 219 230
201 221 234
204 224 238
201 221 224
204 223 234
204 224 240
200 221 224
204 223 230
205 224 236
201 221 226
205 224 238
206 226 241
207 226 238
204 223 236
204 223 230
203 223 228
204 224 230
202 222 223
207 226 234
206 225 230
204 223 228
207 226 238
205 225 236
205 224 233
205 225 233
207 226 237
202 221 228
200 219 233
201 220 233
197 216 232
194 214 226
171 190 208
163 183 194
168 187 206
165 185 198
172 193 191
174 195 191
173 192 201
178 198 195
176 196 207
173 193 207
172 193 198
160 181 195
163 183 197
178 197 222
173 192 201
183 202 222
174 194 219
161 182 216
187 207 236
180 199 230
183 202 233
196 215 243
174 193 223
184 202 231
179 197 229
213 231 254
215 232 254
217 233 255
217 233 255
217 233 255
217 233 255
100 124 163
60 95 151
61 96 157
60 95 149
60 95 149
60 95 142
61 96 147
61 97 150
61 97 149
60 95 146
62 97 156
60 95 142
61 97 145
62 97 151
59 94 129
60 94 138
61 96 143
61 96 140
61 96 150
61 96 144
61 96 144
61 96 148
61 96 142
60 95 144
60 96 141
62 97 149
61 97 147
61 96 141
61 96 147
60 94 140
61 96 137
60 95 142
60 95 142
62 97 149
60 94 135
61 97 152
61 96 140
62 97 149
60 95 144
60 96 142
60 95 143
60 95 140
62 97 151
60 95 140
60 95 143
60 94 139
60 95 139
60 96 144
61 96 150
61 97 152
61 96 144
60 95 141
61 96 148
61 96 145
61 96 147
61 96 141
58 93 139
60 95 144
61 95 141
60 95 144
61 96 141
61 96 140
59 94 139
60 94 143
60 95 145
61 96 146
61 95 148
61 95 143
61 96 147
61 96 148
59 94 136
62 97 147
61 97 147
59 93 139
60 96 144
59 92 133
61 96 150
59 93 131
60 93 141
58 92 134
59 94 141
61 96 153
59 93 137
59 92 136
59 93 139
59 93 149
59 92 136
61 95 149
59 92 140
60 94 142
59 93 143
57 91 134
59 93 151
59 90 129
55 86 129
59 92 139
54 84 128
54 83 130
56 86 127
76 97 131
217 233 255
217 233 255
203 218 235
99 97 63
109 108 72
92 94 66
73 76 55
88 90 65
90 92 64
86 90 65
87 90 66
90 93 66
96 99 70
92 95 70
83 88 63
97 101 71
79 86 64
101 105 74
105 107 74
108 111 77
108 111 74
109 111 76
112 115 80
128 128 85
125 126 84
121 121 80
124 125 82
124 124 81
123 124 77
135 133 81
138 136 85
132 131 85
142 140 88
143 141 91
140 138 88
144 142 87
146 144 91
146 144 92
145 143 90
151 148 88
146 144 86
153 151 92
156 153 96
153 150 91
155 153 95
159 155 95
155 152 92
156 153 88
166 160 100
159 155 92
165 160 96
160 156 93
165 160 98
166 160 99
161 157 94
158 154 90
159 155 87
165 161 97
171 165 96
167 162 97
165 160 92
173 166 101
166 162 94
165 160 94
167 162 95
168 163 94
169 163 96
178 170 103
171 166 96
169 163 95
168 163 96
170 165 102
172 166 98
172 166 97
171 166 95
170 164 93
177 170 103
172 166 92
174 168 98
179 172 104
173 167 97
172 166 97
168 161 90
169 164 97
173 167 95
175 168 97
168 162 95
172 166 96
172 166 95
170 163 95
170 165 98
166 160 90
168 163 89
170 164 93
164 159 91
168 162 90
171 164 90
172 165 95
167 162 93
174 167 97
174 167 97
169 163 96
165 159 87
171 165 90
170 164 91
175 168 97
175 167 97
170 163 94
174 166 97
166 160 91
167 160 90
168 162 93
163 158 91
170 163 92
167 161 93
164 159 84
161 156 84
169 162 90
167 161 90
169 162 94
165 160 91
170 164 94
162 156 88
167 160 92
159 154 89
158 152 87
165 159 90
167 160 91
161 156 81
165 159 91
162 156 90
164 159 91
165 158 88
165 159 94
162 156 88
156 150 80
163 157 88
164 158 87
165 158 92
166 159 90
161 155 87
163 157 89
163 156 87
164 158 88
164 158 90
158 153 90
161 154 87
161 154 85
160 154 81
155 149 82
214 231 246
216 232 252
212 229 242
211 228 241
210 227 242
212 229 243
214 230 244
215 232 250
212 229 244
213 230 242
212 229 244
210 227 244
211 228 241
213 229 245
204 222 223
211 228 238
207 225 226
205 224 223
203 221 220
207 224 227
205 223 228
208 226 236
204 222 232
209 226 236
208 226 240
204 222 231
206 224 235
206 224 226
200 218 223
202 220 231
207 225 232
202 220 224
204 222 224
208 225 242
207 225 233
205 223 236
210 228 242
211 228 240
208 226 240
205 223 228
209 227 234
206 224 223
209 227 238
206 225 227
206 224 228
206 224 236
210 228 244
209 227 244
205 223 236
207 225 238
206 224 236
210 227 244
208 225 245
204 221 234
203 221 236
198 216 230
204 222 238
202 220 234
202 220 237
204 221 236
201 219 237
201 218 230
200 217 234
196 213 227
205 223 241
199 217 230
200 218 236
201 219 233
196 213 228
202 220 236
200 218 231
202 221 233
202 220 238
198 216 230
200 217 230
206 224 242
203 221 233
207 225 242
202 220 228
205 224 238
201 220 226
206 224 237
201 219 228
203 222 237
207 226 241
203 223 233
200 219 230
198 218 223
204 223 231
205 225 233
203 222 226
205 224 234
207 226 238
208 227 245
205 224 236
205 225 237
204 223 230
205 225 240
202 222 217
204 223 224
204 223 231
204 223 233
207 226 237
204 223 230
206 225 237
204 224 227
203 223 227
206 226 238
208 226 234
207 226 236
204 223 228
206 225 234
206 224 233
205 224 235
201 220 230
198 217 222
201 220 231
198 217 227
184 203 214
177 196 203
181 200 212
176 195 204
167 187 204
174 193 199
177 196 203
171 191 203
174 193 201
169 189 196
166 186 190
176 196 209
170 190 192
171 191 194
180 199 216
175 194 211
179 198 220
175 195 210
140 161 187
143 165 203
175 195 226
174 194 226
185 204 233
181 200 230
178 197 229
171 190 223
196 213 239
215 232 255
216 233 255
217 233 254
218 234 255
201 217 242
59 93 149
60 95 146
58 93 142
61 96 153
61 96 149
60 94 137
61 96 145
60 96 145
61 96 143
62 98 155
60 95 143
61 97 150
60 95 144
61 97 151
62 98 158
60 95 142
62 97 156
61 96 139
60 95 143
61 96 151
61 96 150
60 95 140
62 98 156
61 96 148
62 97 157
62 98 157
60 95 144
60 95 137
61 97 147
60 95 144
60 96 141
62 97 144
60 96 143
61 96 142
61 96 150
61 97 150
61 96 144
61 97 147
60 95 143
61 96 147
60 94 141
60 95 141
60 95 143
62 97 154
60 95 148
62 97 144
61 97 148
60 95 140
60 95 139
61 96 144
61 96 149
61 96 145
60 94 142
61 96 143
61 96 147
60 95 143
60 95 137
59 93 139
61 95 136
61 96 153
61 96 141
60 96 143
61 96 146
60 96 148
61 96 143
60 94 129
58 92 132
60 95 140
60 94 140
60 95 145
59 93 136
60 95 139
60 95 136
60 94 140
60 95 138
60 94 145
60 95 139
60 94 137
59 92 132
59 93 141
60 94 142
59 92 143
59 93 138
59 92 142
60 95 149
59 93 137
59 92 140
59 92 139
57 88 123
59 91 134
59 92 140
59 92 139
60 93 147
58 90 135
57 89 128
56 86 127
56 87 131
54 84 131
56 86 128
51 78 112
207 223 245
218 233 255
172 182 188
95 94 60
95 95 64
90 93 66
88 90 62
74 76 53
70 74 53
79 84 61
87 90 65
95 98 71
83 86 61
76 80 58
92 97 70
102 106 74
104 107 77
94 98 68
92 97 68
112 114 79
104 107 69
113 114 77
114 114 76
127 127 81
127 127 84
126 126 80
126 127 85
142 140 87
123 123 80
126 125 81
131 132 85
143 141 88
141 140 87
130 129 81
139 138 84
144 142 89
141 140 88
146 144 93
148 144 86
143 140 87
149 147 91
151 148 89
150 147 92
157 154 91
158 153 90
151 148 86
162 158 96
151 148 90
156 152 86
156 152 90
154 151 93
159 156 95
161 157 94
163 159 88
164 159 93
167 161 91
158 154 93
164 160 94
168 163 99
166 161 93
173 168 98
167 161 94
169 163 96
162 158 90
172 166 98
171 166 99
171 165 94
168 162 93
169 163 96
171 165 96
173 167 98
171 165 96
172 167 100
169 163 90
175 168 102
173 167 93
164 159 89
172 166 99
170 164 98
173 167 96
171 165 91
168 162 89
170 164 90
174 167 99
171 166 93
175 168 97
173 166 96
178 170 101
168 161 88
168 163 94
171 165 95
164 159 92
170 164 95
168 161 90
175 168 94
175 167 93
174 167 95
166 160 90
173 166 94
168 162 90
171 165 90
172 165 93
168 163 91
174 167 94
164 158 88
168 162 89
170 164 87
163 159 84
171 164 91
170 164 92
168 162 93
171 165 96
168 161 92
169 164 95
165 159 88
166 160 90
173 167 99
163 158 86
166 160 90
170 163 95
162 157 84
163 156 87
171 163 91
162 156 87
164 158 90
167 160 93
164 158 90
161 155 86
161 155 84
167 161 90
163 157 89
163 157 86
157 152 84
169 162 90
160 154 86
162 155 92
162 156 89
165 159 90
158 152 82
166 159 87
156 151 82
163 157 87
158 152 87
158 152 84
163 156 85
163 156 90
163 156 88
150 144 75
155 149 85
159 154 81
214 231 246
215 231 249
211 227 242
212 229 242
208 225 239
214 230 247
212 229 244
211 228 242
209 226 235
209 226 237
208 224 236
210 227 240
208 225 238
213 229 245
210 227 231
205 223 219
209 226 237
204 222 226
203 221 222
204 221 224
211 228 243
202 220 226
206 224 235
203 221 233
204 222 232
202 220 225
205 223 233
207 224 235
207 224 235
203 220 228
206 224 226
201 219 226
208 226 230
204 222 223
210 227 238
206 224 231
208 226 231
209 226 233
209 227 237
209 227 237
209 226 238
207 225 233
208 225 233
208 226 231
208 226 236
208 226 238
208 226 234
204 221 231
209 227 238
208 226 237
205 223 236
208 225 233
207 224 234
198 216 224
201 219 228
205 222 242
205 222 240
199 216 234
203 221 237
199 217 234
200 218 239
192 209 225
200 217 234
203 220 237
203 220 240
198 215 231
207 224 246
203 220 237
208 225 241
197 215 228
205 222 241
195 213 228
204 221 237
197 215 228
204 221 234
194 212 221
206 224 237
203 221 231
195 213 223
205 224 237
204 222 231
205 223 234
205 223 236
203 222 231
204 224 233
204 223 234
202 221 228
204 222 227
204 223 234
203 222 231
201 221 217
205 224 234
203 222 230
206 225 233
205 224 231
206 225 236
208 226 240
205 223 230
207 226 244
202 222 220
206 225 237
207 225 231
206 225 234
209 227 242
206 225 234
205 224 234
206 225 231
208 226 237
207 226 242
203 221 235
209 227 242
204 223 233
208 226 240
199 218 223
201 220 228
207 225 236
204 223 232
202 221 230
176 194 210
171 191 202
177 197 204
178 197 207
169 189 199
173 192 212
172 193 199
177 197 202
179 198 201
172 191 197
170 190 199
173 192 203
169 190 184
170 190 192
181 199 216
166 187 200
180 199 205
179 197 212
169 188 213
82 112 172
165 185 218
180 199 230
188 206 231
181 199 228
183 201 230
185 203 234
185 202 230
213 229 253
216 233 254
218 234 255
218 234 255
176 193 219
59 94 151
60 95 151
61 96 148
60 95 148
60 95 147
60 95 145
60 94 141
60 95 145
61 97 148
61 96 150
61 96 143
60 96 145
60 95 141
61 96 148
60 95 142
60 95 136
61 97 150
60 95 143
60 95 135
61 96 148
60 95 137
60 95 143
61 96 147
60 95 140
61 96 144
61 97 147
61 96 150
61 96 145
62 97 148
60 95 137
60 95 137
61 96 147
62 98 156
61 96 142
61 96 149
59 94 136
61 95 141
61 96 139
61 96 141
61 97 148
60 95 135
60 95 141
61 97 147
61 96 144
62 97 150
62 97 149
60 95 133
60 95 139
59 94 141
61 97 148
60 94 134
59 94 137
61 96 145
61 95 141
62 97 150
60 95 142
62 97 150
61 95 147
60 94 139
62 96 156
60 95 136
60 95 141
62 97 153
61 96 145
61 96 145
62 97 146
60 95 139
61 96 145
60 95 142
59 94 140
60 95 147
60 95 145
59 94 137
60 94 137
60 93 141
61 96 143
59 93 139
60 95 149
60 94 141
60 95 152
60 94 145
61 95 149
58 91 127
58 92 139
59 92 138
59 93 137
58 91 135
59 94 138
58 91 138
59 91 145
58 91 140
59 92 141
57 89 132
57 89 131
55 86 125
57 88 129
57 88 124
54 83 125
52 81 118
48 74 113
183 199 220
218 234 255
150 154 143
104 103 66
89 88 60
89 91 63
74 77 57
79 81 57
90 92 65
76 81 60
79 82 58
88 91 64
96 100 72
87 91 66
97 100 71
81 86 63
101 104 73
96 99 68
103 106 73
104 106 71
112 112 74
112 114 77
102 105 74
121 123 83
127 127 82
135 134 87
125 125 79
129 129 82
128 128 83
146 144 90
124 124 81
138 138 87
143 142 90
138 138 86
143 141 87
148 145 92
135 133 77
140 138 86
145 143 87
149 146 89
150 147 88
150 147 91
161 157 94
156 152 90
158 154 92
163 158 95
156 152 93
159 154 91
161 156 97
162 158 98
164 160 96
170 163 95
165 160 95
166 161 95
162 157 97
167 161 96
165 159 93
163 159 95
165 161 100
168 163 92
163 159 95
169 163 93
170 164 98
164 160 97
166 163 95
169 164 95
168 163 97
168 163 94
169 164 96
169 163 93
167 162 98
170 164 95
173 167 97
172 166 97
172 165 91
174 168 101
172 166 96
169 163 90
173 167 100
168 162 91
173 167 99
168 162 87
168 161 87
172 166 98
173 166 94
171 165 95
171 165 92
173 166 95
173 167 96
171 165 93
172 166 97
172 165 94
171 165 92
172 165 96
169 163 93
172 165 95
172 166 97
173 166 91
173 166 93
166 161 90
172 165 95
169 163 93
172 166 93
164 159 87
165 159 85
167 161 92
171 165 95
165 159 89
169 164 92
166 160 95
168 162 91
165 159 88
166 161 92
165 160 92
164 160 90
168 161 85
163 157 89
166 160 87
169 162 90
165 160 91
168 162 92
168 161 90
168 162 88
164 157 90
165 160 85
160 154 85
160 154 90
167 160 90
168 162 94
164 159 92
155 149 85
165 158 88
166 159 87
160 154 81
162 157 89
153 148 77
161 155 83
163 157 81
163 157 90
159 152 81
158 152 79
153 147 79
165 158 90
158 152 85
151 147 76
160 155 84
165 159 93
163 156 92
160 155 85
161 154 86
215 231 248
212 228 238
216 232 249
213 230 244
213 229 241
214 230 247
211 228 240
211 227 240
212 229 242
215 231 248
210 227 242
212 228 244
211 228 239
210 226 242
212 229 246
209 226 231
207 225 226
205 223 228
207 225 232
211 228 237
204 222 224
206 223 231
207 224 235
207 224 228
206 223 230
202 220 226
204 222 226
206 223 229
206 223 233
202 220 226
206 224 231
205 222 232
207 225 230
209 226 234
207 225 236
208 226 236
210 227 234
208 225 230
208 226 230
209 226 238
212 229 240
208 226 234
211 229 244
211 228 240
210 228 237
208 226 237
205 223 226
206 223 234
212 228 242
207 225 237
210 227 241
210 227 241
203 220 233
208 226 238
202 219 237
205 222 240
197 214 231
197 214 228
193 210 226
203 220 237
196 212 230
200 216 237
195 212 230
199 216 233
209 226 248
204 221 244
199 217 234
199 215 235
200 218 233
199 216 224
202 218 233
200 218 228
203 220 234
200 218 226
197 215 226
201 219 230
204 222 233
202 220 237
204 223 237
209 226 240
206 225 236
207 225 240
204 222 228
203 221 231
205 224 234
201 220 227
205 224 237
205 223 230
209 227 244
205 224 231
207 226 236
208 226 238
206 225 234
205 224 230
202 221 224
205 224 227
205 224 234
203 222 224
206 225 234
204 222 224
208 227 241
209 227 238
208 227 242
207 225 231
210 228 241
207 225 234
209 227 237
204 223 228
205 223 229
202 221 223
203 222 226
200 219 220
206 224 238
197 216 215
202 220 233
201 219 228
199 218 228
197 215 235
175 194 202
175 195 202
170 189 198
174 193 211
177 196 206
182 201 211
180 199 207
175 194 203
162 183 194
170 189 198
175 194 200
168 187 194
171 190 203
165 185 193
172 190 218
173 192 212
179 197 215
176 194 213
172 191 213
127 149 193
108 133 183
182 200 228
173 192 223
178 196 226
183 201 229
184 202 232
176 194 225
192 209 234
216 233 254
218 234 255
218 234 255
140 159 192
60 96 149
59 94 145
61 96 147
60 95 152
61 97 151
60 95 140
61 96 155
61 96 151
61 96 149
61 96 142
59 94 143
59 94 140
60 95 142
61 96 143
60 96 143
61 96 144
61 96 144
62 97 150
62 97 143
60 96 148
61 97 147
60 95 136
59 94 134
60 95 137
60 96 143
61 96 140
60 95 140
62 97 148
62 97 150
59 94 131
60 95 139
62 97 150
62 98 154
60 95 141
61 96 139
62 97 150
59 94 131
61 96 147
61 96 142
61 96 139
62 98 154
60 95 142
61 97 149
60 95 139
61 96 145
61 97 148
61 96 149
60 95 139
61 96 145
61 96 143
59 94 137
61 96 149
60 95 140
61 96 148
61 96 144
60 94 146
61 96 143
60 95 136
60 95 141
59 94 139
61 96 141
60 94 135
60 94 133
60 94 134
59 93 134
59 94 139
61 96 152
59 93 134
59 93 138
60 95 142
61 97 147
60 95 145
59 93 142
60 94 139
60 95 142
59 93 133
60 94 137
60 93 137
60 94 148
60 94 138
59 93 142
60 95 146
60 94 139
59 93 139
61 95 145
59 93 144
59 92 142
58 91 127
58 90 135
59 93 138
57 89 130
57 89 130
58 89 135
56 87 125
57 88 130
54 85 128
56 86 126
56 86 125
53 82 119
52 80 116
148 164 187
213 229 248
99 99 67
89 90 57
86 87 60
79 81 58
85 85 58
81 84 60
69 73 53
85 89 64
81 85 61
74 78 55
77 83 62
96 100 70
93 96 65
81 87 63
93 97 68
108 110 76
103 106 68
105 108 74
103 106 73
108 110 73
109 111 73
121 122 80
115 116 77
125 125 82
126 126 82
127 127 83
134 133 86
128 128 80
147 145 94
136 136 86
139 137 83
144 142 89
146 143 88
135 134 84
148 144 88
141 139 84
149 146 88
146 143 88
150 147 88
155 151 90
159 154 94
150 147 85
151 148 86
157 153 93
160 154 94
159 154 94
158 154 88
155 152 88
162 158 92
157 153 91
157 153 90
163 159 92
170 164 98
162 157 90
169 164 98
168 162 92
164 159 91
169 163 95
166 161 89
167 162 94
167 162 92
172 165 97
168 163 94
168 163 91
172 165 95
171 166 93
168 162 91
171 165 93
171 165 95
170 165 95
168 163 90
171 165 93
164 159 87
172 165 97
170 165 89
168 163 92
172 167 95
171 164 92
170 165 93
165 160 93
173 167 96
173 166 95
173 166 95
168 163 90
171 165 92
170 165 93
171 164 93
167 161 89
171 165 96
176 169 99
172 166 94
171 165 90
164 159 85
169 163 91
170 164 92
171 164 93
169 163 89
170 162 90
170 163 90
170 164 93
167 162 93
163 157 85
173 166 92
172 165 97
171 164 97
171 164 91
169 162 91
160 154 84
163 157 88
166 161 91
167 161 90
168 163 92
167 159 88
164 158 84
166 160 90
166 160 85
167 161 87
167 161 86
165 159 82
167 160 90
159 154 85
172 164 92
165 158 93
163 157 87
166 159 90
159 153 86
162 157 91
158 152 83
158 153 84
163 156 87
165 159 86
164 159 90
161 155 86
167 160 92
161 155 87
162 156 84
154 148 83
161 156 84
167 161 89
154 149 84
157 152 79
163 156 87
159 153 82
160 154 85
167 160 89
161 155 86
159 153 84
155 150 85
217 233 250
212 228 244
214 231 247
215 231 246
214 230 245
213 229 244
214 230 249
215 231 246
213 229 245
212 228 246
214 230 246
211 228 245
215 231 248
215 231 248
214 231 247
211 228 241
205 222 228
207 224 220
205 222 228
203 220 225
206 223 230
203 221 230
200 218 217
202 220 230
202 219 225
205 223 225
204 222 222
201 218 225
206 224 235
210 227 237
207 224 236
204 222 222
210 227 234
211 229 240
210 227 236
211 228 236
211 228 236
208 226 227
209 227 230
210 227 241
209 226 233
210 227 240
210 227 234
210 228 237
208 225 237
207 224 231
210 227 240
208 225 236
210 226 241
206 224 228
208 225 237
200 218 226
212 229 246
208 225 240
206 223 236
204 221 234
203 219 238
208 224 246
200 217 237
193 210 228
194 211 231
197 214 235
201 218 238
199 216 236
198 215 234
201 218 237
198 215 236
196 214 235
201 218 238
197 214 230
197 214 228
201 217 231
207 224 237
201 218 233
198 215 224
200 217 228
200 218 231
200 218 224
203 220 233
202 221 226
202 220 226
200 218 227
206 224 236
207 225 240
208 226 238
208 226 238
204 222 234
207 225 236
211 229 245
208 226 238
206 225 236
205 223 226
206 225 236
208 226 240
210 228 238
210 228 238
204 223 224
207 225 237
205 224 231
207 226 234
202 221 223
208 227 238
206 224 226
206 225 230
204 223 228
208 226 234
205 224 221
208 226 236
205 223 231
206 224 238
205 224 236
206 224 229
197 215 220
199 217 227
203 221 228
204 222 233
205 223 233
181 200 214
170 189 208
167 186 203
174 193 200
164 183 199
182 200 213
177 195 213
174 192 203
173 192 191
175 195 194
179 198 209
170 189 196
170 190 194
166 186 188
169 189 193
178 197 214
168 186 203
179 196 213
187 205 226
177 195 206
148 168 198
75 105 163
154 174 211
179 197 227
183 201 228
179 197 226
190 208 235
184 202 228
182 199 226
217 233 254
218 234 255
218 234 254
118 140 181
60 95 146
60 95 142
60 94 148
60 95 147
59 94 141
61 96 148
60 96 151
61 96 142
61 96 148
61 96 140
61 97 153
59 94 129
59 93 135
60 94 137
60 95 141
60 94 129
60 95 143
60 95 139
61 96 141
61 96 149
61 96 148
60 95 135
59 94 134
61 96 141
59 94 137
61 96 145
61 96 148
60 96 140
59 93 126
60 95 140
60 95 137
58 93 131
61 97 150
61 96 147
60 95 137
58 93 129
60 95 141
61 97 147
61 95 141
60 95 143
61 96 148
60 95 135
61 96 147
61 96 142
59 94 137
61 96 142
62 97 154
61 96 140
62 97 151
61 96 141
60 94 125
61 96 144
62 97 154
59 94 130
60 95 136
60 94 135
60 94 135
62 97 152
60 94 136
60 95 139
60 95 140
59 93 139
61 96 137
60 95 142
59 94 137
61 94 146
60 95 142
59 93 135
61 95 147
60 95 140
61 95 140
61 95 143
61 96 145
60 94 149
58 91 140
60 94 139
60 93 140
60 94 146
59 93 136
61 95 147
59 93 142
60 94 140
58 90 130
58 91 136
58 92 139
59 92 133
58 90 131
57 89 129
58 91 129
58 90 137
59 92 140
57 89 126
59 90 124
56 86 116
56 88 122
56 87 129
55 85 120
57 88 127
52 79 112
51 78 112
126 143 169
197 210 225
95 94 60
78 79 52
78 80 57
82 83 55
71 74 53
70 74 55
57 63 47
65 69 50
75 79 58
72 77 54
72 77 55
83 86 61
83 87 61
79 84 60
89 93 65
99 102 72
109 109 72
88 90 62
104 106 67
100 104 68
116 116 78
112 113 70
117 118 76
126 126 84
127 127 77
119 120 76
126 126 78
116 117 73
131 130 80
130 129 78
144 142 88
137 136 84
136 135 84
141 139 83
143 141 81
142 140 86
140 138 81
149 146 91
157 152 91
149 146 85
156 152 91
154 150 92
154 150 85
153 149 92
159 155 91
159 154 96
160 155 92
166 160 91
163 159 94
161 156 90
157 154 91
164 159 97
165 160 95
168 162 97
168 163 97
169 163 94
162 157 91
162 158 88
165 160 86
172 165 94
171 165 96
165 160 93
166 161 88
168 162 90
173 167 93
168 163 91
170 164 95
174 168 96
168 163 89
171 164 90
165 161 91
174 167 94
172 166 91
172 166 93
170 164 93
177 171 106
174 167 96
172 166 95
168 163 84
169 163 94
169 163 91
174 167 97
169 164 94
168 162 89
173 166 97
176 168 96
171 164 94
171 165 90
166 160 93
173 167 90
169 163 93
165 159 87
170 164 90
172 166 90
171 164 93
171 165 92
174 167 94
168 162 89
172 165 87
166 160 84
169 162 97
165 159 87
169 163 93
167 160 90
168 161 87
172 165 97
162 156 86
167 161 88
173 167 95
168 162 88
166 160 90
167 161 87
167 161 87
166 160 84
166 159 87
167 161 90
172 165 95
164 157 89
170 163 92
163 157 78
164 159 84
160 155 76
165 158 87
168 161 86
163 156 87
165 159 84
163 156 87
162 156 87
162 157 80
166 159 89
167 160 89
161 155 86
157 151 82
165 158 87
161 155 90
151 146 75
161 155 89
160 155 87
157 150 79
156 150 84
163 158 84
160 155 84
155 149 81
161 155 88
162 156 87
156 150 82
159 153 79
149 144 75
217 233 254
217 233 252
214 230 246
215 231 248
214 231 246
215 231 246
216 232 251
214 231 246
212 228 242
215 231 248
215 231 248
214 230 244
212 228 242
212 228 240
214 230 244
213 229 247
215 231 246
211 227 237
208 225 227
206 223 227
212 228 242
204 221 228
202 220 221
206 223 234
201 219 222
201 218 225
204 222 220
210 227 236
206 223 235
209 226 238
208 225 234
211 227 240
209 226 233
207 224 228
209 226 229
209 227 230
212 229 237
209 226 227
211 228 233
213 229 240
209 227 228
211 228 237
211 229 238
210 227 234
210 227 231
210 226 239
208 225 235
206 223 227
214 230 244
207 224 232
205 223 231
204 221 236
202 219 228
203 220 232
209 225 246
203 219 239
202 218 240
203 219 241
200 216 236
202 219 237
198 215 235
202 219 239
193 210 229
200 217 233
195 212 233
199 215 234
196 213 228
203 220 239
193 211 227
198 215 233
196 213 231
200 217 232
208 225 242
202 219 233
202 219 224
205 223 238
205 222 236
205 222 233
204 221 231
208 225 240
202 220 224
204 222 228
207 225 240
207 225 236
210 227 237
204 221 228
210 228 241
207 225 233
207 225 230
204 222 233
204 222 226
209 227 241
205 223 227
208 226 236
204 223 221
208 225 236
205 224 224
209 227 241
208 226 230
208 225 233
206 224 226
208 226 234
209 227 236
206 225 231
208 226 234
208 226 234
211 228 240
202 220 226
205 223 221
203 222 226
208 226 238
200 218 230
196 214 217
198 216 221
193 211 222
202 220 228
201 219 233
171 190 208
178 197 214
187 205 204
179 198 203
169 189 192
161 181 193
179 197 207
178 197 199
167 186 181
183 202 208
166 186 188
179 198 193
173 192 198
166 185 188
178 196 206
181 199 213
167 186 205
176 194 206
176 193 214
186 204 222
163 182 201
82 109 161
95 121 172
193 211 238
191 208 234
188 205 230
193 210 235
189 205 233
180 197 225
211 227 251
218 234 255
219 234 255
81 109 152
60 96 151
59 94 140
59 93 141
61 96 143
60 94 143
60 95 135
60 95 139
60 96 142
59 94 139
59 93 134
61 96 153
60 95 141
60 96 140
61 96 149
61 96 143
60 95 137
61 97 145
61 97 149
61 96 144
60 95 136
60 95 134
59 94 141
60 96 142
62 96 152
61 96 144
60 95 144
61 96 144
60 95 143
62 97 151
61 96 148
60 95 144
61 96 150
59 94 135
60 94 130
61 96 143
60 95 137
60 95 144
60 95 139
61 95 134
60 95 137
61 95 137
61 96 142
60 95 145
61 96 139
61 96 142
60 96 143
60 95 147
61 97 148
62 97 143
60 95 137
62 97 145
59 93 137
59 95 137
62 96 145
61 95 134
61 96 143
61 96 142
60 95 136
60 95 141
62 97 149
60 95 139
60 95 142
60 94 141
61 96 147
60 94 146
60 94 135
61 96 152
59 93 134
60 94 133
59 93 133
60 94 135
60 95 144
61 96 144
60 94 142
61 95 142
60 94 145
60 94 140
60 94 137
60 94 146
58 92 122
60 94 142
61 95 147
59 93 137
58 92 142
61 95 139
61 94 149
59 92 141
58 91 128
58 90 129
59 91 139
58 90 129
58 91 131
59 92 138
57 89 134
57 89 134
56 87 121
57 87 125
57 90 133
53 81 120
53 82 111
77 96 113
180 190 198
77 77 49
81 81 49
76 77 53
69 71 51
34 41 30
53 59 43
66 71 51
69 74 54
76 81 60
75 81 56
80 85 59
82 87 63
78 83 59
89 92 63
94 98 70
86 91 62
102 104 67
97 99 66
100 103 70
109 110 73
109 111 69
119 119 77
112 113 74
108 110 74
126 126 78
131 130 84
138 136 83
124 124 78
131 130 77
131 130 83
133 132 81
139 137 87
139 138 87
141 139 83
137 136 85
144 142 89
142 140 81
148 144 84
139 137 76
144 142 85
149 146 86
152 149 86
151 147 84
158 154 92
158 154 90
157 153 90
150 147 88
154 150 87
164 160 85
155 151 82
165 159 89
164 159 95
162 158 91
161 157 93
161 156 89
168 162 95
165 159 91
162 157 91
167 162 92
169 164 91
162 158 91
167 162 93
168 163 89
166 161 93
172 165 95
169 163 89
170 164 94
166 161 87
170 164 96
172 165 92
170 164 95
174 167 93
168 163 88
163 157 86
168 162 87
173 167 94
173 166 93
168 162 91
175 168 93
171 165 89
167 161 89
172 166 94
174 167 92
168 163 88
171 164 90
172 166 87
173 167 92
176 169 97
171 165 90
171 165 92
168 162 93
171 163 92
167 162 84
172 166 91
172 166 93
169 163 87
171 164 93
168 162 84
171 165 94
169 163 89
173 167 95
173 166 95
170 164 93
172 166 97
165 160 82
174 167 93
171 164 91
168 162 84
167 160 90
169 162 89
167 161 90
163 157 87
168 162 91
167 161 89
166 159 87
170 164 88
161 155 85
166 159 92
161 156 84
162 157 80
166 160 91
166 160 86
165 159 88
165 159 84
164 156 83
158 152 86
157 151 80
160 154 86
161 154 87
163 157 87
165 160 90
161 155 80
163 157 88
166 159 89
158 151 86
165 160 86
162 157 84
154 149 81
160 154 87
159 154 88
157 151 81
163 156 85
156 150 76
154 150 81
154 148 80
163 156 87
149 144 77
162 155 87
214 230 247
217 233 252
214 230 248
217 233 252
216 231 251
214 230 248
216 231 246
215 231 245
214 230 244
216 232 250
216 231 248
214 230 240
216 232 246
216 232 250
214 230 244
213 229 246
213 229 241
216 232 248
215 231 247
214 230 242
202 219 228
206 223 227
207 224 233
206 224 226
201 218 223
206 223 224
205 222 229
206 223 232
206 223 233
206 223 227
208 225 237
208 225 234
213 229 240
208 225 228
208 226 226
213 229 237
211 228 234
210 227 231
213 229 238
210 226 230
211 228 236
211 228 237
209 226 227
212 229 237
208 225 228
212 229 238
211 228 238
208 225 227
211 228 242
206 223 230
208 225 236
206 223 236
207 223 233
201 218 236
202 219 238
199 215 236
204 220 242
199 216 239
195 211 229
203 219 240
200 217 236
199 215 235
200 217 236
199 216 234
202 218 238
198 214 232
199 215 233
205 221 242
197 214 234
201 218 234
208 225 242
197 214 230
203 220 241
206 223 238
207 223 240
207 223 236
211 228 244
208 226 237
210 226 242
209 226 237
208 225 237
208 225 237
208 225 234
208 226 236
208 225 233
207 225 231
208 226 233
207 225 230
210 228 238
209 226 237
208 226 236
209 227 237
209 227 237
207 225 231
208 227 234
208 226 230
207 225 228
208 226 234
209 227 233
209 227 237
207 225 226
211 229 242
209 227 234
208 226 231
210 228 240
208 227 234
208 226 230
205 223 231
207 224 230
202 220 223
208 225 232
200 218 226
198 216 226
200 218 231
197 215 228
201 219 227
187 205 210
161 181 195
173 192 200
171 191 194
170 189 197
173 192 204
174 192 199
170 189 196
172 191 201
174 193 199
170 189 191
171 191 175
174 193 194
179 197 203
173 192 197
180 198 215
181 199 214
182 200 217
175 193 213
179 196 207
174 192 213
183 200 224
74 103 155
77 106 153
146 166 199
188 206 233
195 212 240
182 199 225
181 198 227
181 198 224
194 211 235
218 234 254
207 223 244
57 92 143
59 94 144
59 94 149
61 96 147
58 93 138
60 95 139
60 95 138
60 95 143
62 97 145
60 96 147
60 95 140
59 94 137
60 95 131
59 94 137
61 96 153
61 97 149
62 97 152
60 95 142
60 95 137
61 95 142
60 94 141
60 95 141
61 97 153
60 95 135
61 97 150
61 96 142
61 96 149
60 95 142
61 97 148
61 96 144
61 96 143
59 94 140
60 96 143
60 95 139
60 95 130
59 93 128
60 95 140
60 95 141
61 96 139
60 95 136
61 95 140
60 96 142
61 96 136
61 95 139
60 95 141
61 96 145
61 96 143
59 93 133
61 97 149
62 97 149
60 95 139
61 96 151
61 96 142
61 95 145
61 95 135
61 96 150
59 93 137
60 95 142
60 95 143
59 93 134
60 95 133
61 95 140
58 92 135
62 96 148
61 96 148
61 95 141
61 96 143
61 96 149
61 96 149
62 97 151
60 95 140
61 95 146
60 94 140
60 94 136
60 94 139
59 93 137
59 93 133
60 94 126
61 94 140
59 93 134
58 91 139
59 93 130
59 93 139
60 94 140
58 91 136
58 90 126
59 93 142
57 91 126
58 91 131
59 92 133
59 91 134
56 88 131
58 90 137
56 88 133
58 89 131
56 87 124
56 88 121
55 85 124
56 86 125
55 84 126
49 76 108
51 79 123
136 143 146
81 79 45
87 87 54
72 75 53
69 72 50
62 66 47
63 67 48
70 75 55
47 54 40
70 76 56
66 73 55
74 80 59
76 82 56
86 90 62
84 88 59
75 81 57
94 98 66
89 94 66
114 115 73
114 115 78
96 99 62
106 108 67
119 119 73
105 108 72
128 128 80
119 118 70
125 125 79
127 127 79
124 124 76
137 135 81
138 137 81
133 131 79
138 136 83
145 142 85
142 139 87
144 141 90
145 141 80
135 134 78
149 145 88
151 148 90
147 145 86
158 154 94
161 156 92
150 147 82
156 153 86
158 154 88
155 151 90
161 156 93
156 151 88
159 155 91
160 155 84
159 155 88
163 159 92
162 157 86
163 158 93
164 160 92
159 155 84
167 161 91
166 162 93
165 160 84
169 163 91
169 163 94
162 157 86
169 163 93
169 163 91
166 160 89
173 166 94
169 163 87
174 166 96
165 160 87
171 165 92
167 162 90
170 164 92
169 163 89
167 162 91
169 163 86
169 163 90
171 165 87
170 164 90
170 165 87
168 163 94
170 164 87
167 160 88
171 165 89
172 164 90
171 165 90
168 163 87
171 165 90
170 164 89
174 167 96
170 164 87
169 163 93
168 162 90
169 162 90
171 166 90
170 163 87
167 161 84
171 164 90
171 163 87
168 163 87
170 165 93
169 162 88
169 162 89
168 161 86
167 161 83
167 160 85
173 167 97
166 160 92
166 159 87
159 153 77
165 158 84
168 162 88
163 157 81
164 159 85
165 160 88
167 161 87
167 160 89
166 160 86
166 160 83
169 162 87
163 157 89
163 157 86
164 158 81
165 158 86
161 155 86
166 159 87
163 158 81
161 156 79
156 151 80
162 156 85
154 148 82
161 156 84
165 159 89
165 157 84
156 152 71
163 156 90
166 159 87
156 150 80
159 152 75
160 154 84
150 145 75
154 148 73
155 149 80
163 156 85
161 155 90
158 151 82
161 154 83
160 154 84
162 155 88
214 230 250
217 232 252
218 233 253
217 233 249
218 233 253
217 233 251
217 232 250
215 231 248
214 230 246
217 233 248
216 231 247
216 232 248
215 231 245
216 232 246
211 227 241
216 231 252
215 230 249
215 231 247
215 230 248
214 230 250
209 225 241
211 227 242
210 227 238
206 223 236
208 225 231
211 228 236
211 227 240
209 225 230
213 229 242
205 222 222
203 220 225
211 227 234
209 225 234
207 223 229
211 228 230
210 227 228
211 228 231
213 229 237
208 225 225
211 228 233
210 227 230
214 230 241
211 228 236
211 228 234
211 228 237
212 229 238
212 229 238
209 226 234
209 225 236
212 229 240
209 226 239
204 221 231
198 215 233
198 214 233
204 220 243
207 223 244
197 213 233
197 213 235
197 213 235
196 213 231
197 213 236
199 215 233
199 215 230
203 219 238
202 219 240
200 217 236
198 214 231
194 211 229
202 219 239
194 210 229
203 219 236
199 216 234
207 224 242
207 224 242
202 218 231
204 219 230
209 226 236
203 220 227
211 228 241
209 226 237
211 228 240
208 225 231
212 229 245
208 225 233
210 228 238
209 226 231
208 225 231
209 226 231
210 227 234
210 227 234
209 227 233
209 227 231
208 226 231
208 225 230
211 228 237
208 226 228
210 227 237
208 226 233
209 227 233
210 227 236
209 226 233
207 224 226
210 227 236
210 228 234
211 228 238
209 226 230
208 225 228
209 226 239
206 223 230
206 224 230
201 219 223
193 211 217
201 218 225
196 213 217
200 217 233
202 219 222
173 190 200
179 198 198
180 198 207
170 189 202
175 193 203
168 187 190
175 193 205
171 189 197
179 196 203
176 194 192
182 200 210
171 190 198
180 198 202
174 192 201
170 189 191
181 199 209
174 191 205
173 191 211
183 201 217
173 190 203
181 198 219
184 201 221
119 140 179
85 113 163
101 126 165
187 204 227
186 203 230
181 198 226
186 203 229
186 203 228
186 202 226
219 234 255
196 212 234
60 95 148
60 95 147
59 93 139
59 93 144
59 93 134
61 95 143
59 93 134
61 97 144
59 94 138
59 94 133
59 94 137
61 96 142
60 95 135
60 95 134
60 95 140
61 96 150
60 95 135
61 96 144
59 94 141
61 97 143
59 94 141
60 94 141
61 95 134
59 94 134
60 95 140
61 96 145
61 95 142
61 97 140
61 96 137
61 97 148
60 95 144
61 95 144
60 95 139
60 95 145
62 97 149
60 95 140
60 94 134
61 96 142
59 93 126
60 95 142
60 95 133
60 95 143
59 94 136
60 94 135
61 96 143
62 97 145
61 95 142
60 94 134
61 96 145
60 95 131
61 96 144
59 93 136
60 94 133
60 95 139
60 95 142
59 93 124
59 94 136
61 96 144
60 95 133
60 94 139
61 96 144
60 96 145
60 94 133
61 95 144
62 96 144
60 94 131
60 94 128
60 94 132
58 92 133
61 96 148
60 95 141
60 93 138
59 94 131
59 93 134
61 96 144
61 96 141
60 95 140
60 94 143
60 94 137
60 94 134
59 93 141
60 94 134
58 91 128
61 95 144
60 93 137
60 93 144
59 92 128
59 93 141
57 89 129
59 92 134
57 89 130
56 87 125
58 91 126
56 87 118
58 91 138
57 89 130
54 84 122
57 89 135
55 85 127
54 83 116
53 80 119
49 76 112
89 90 68
84 84 47
82 79 51
61 62 42
62 63 43
63 67 48
68 70 50
53 58 41
77 80 55
53 61 46
62 69 52
67 73 52
71 74 49
78 83 58
91 95 65
94 97 63
89 94 67
90 94 63
103 105 68
108 110 69
102 104 66
106 108 72
121 121 77
113 113 73
119 119 73
109 110 69
130 129 82
119 120 75
121 121 76
127 126 75
132 131 79
125 125 77
125 125 73
144 141 84
132 131 76
144 141 84
148 145 80
148 144 83
152 148 84
145 142 85
154 150 85
150 147 87
153 149 86
157 151 82
153 150 82
155 150 91
155 152 83
161 156 90
156 152 88
161 156 88
161 156 90
159 155 87
162 157 82
161 156 90
159 154 86
167 161 92
165 160 80
162 157 89
163 158 90
167 162 89
166 160 91
161 156 88
171 165 91
171 164 92
168 163 90
167 162 93
167 161 93
169 164 93
170 165 92
170 164 93
171 165 89
167 161 86
169 163 90
170 164 86
174 167 96
172 165 89
171 165 92
174 167 91
172 165 93
170 163 90
172 165 89
172 165 91
171 165 90
171 165 94
173 167 96
171 165 90
171 164 90
169 162 87
175 169 98
170 164 90
168 161 85
176 169 96
169 163 85
165 160 84
168 162 87
169 162 85
171 166 93
169 162 84
168 162 82
166 160 84
166 161 79
169 162 87
170 162 92
167 161 87
167 161 86
172 165 90
171 164 90
170 164 90
163 156 84
166 160 87
165 159 79
166 160 87
167 161 95
166 160 87
166 159 82
169 162 90
160 155 70
164 157 82
169 162 89
165 160 87
162 156 88
165 159 90
169 163 89
160 154 84
161 155 84
166 159 86
169 162 88
167 161 86
164 158 83
164 157 82
161 155 82
157 152 78
157 152 82
162 155 80
164 157 85
162 154 84
165 157 86
164 159 84
166 159 87
154 148 79
154 149 77
159 152 80
157 151 85
160 154 84
159 152 84
156 150 83
144 137 72
157 150 80
159 153 82
219 234 254
219 234 255
220 235 255
220 235 255
218 233 253
215 231 251
220 235 255
219 234 255
216 231 252
217 233 254
216 231 250
216 231 249
219 234 253
217 232 252
217 232 248
216 231 249
216 231 250
216 231 248
211 226 246
217 232 253
210 226 245
215 230 250
211 227 248
210 225 240
213 228 242
212 228 240
209 225 234
210 226 239
208 225 235
209 226 231
206 223 227
208 224 226
210 226 236
209 226 232
212 228 233
214 230 240
213 230 240
211 228 233
213 229 236
212 229 233
214 230 240
210 227 229
212 229 236
210 226 231
211 228 234
209 226 227
214 230 238
210 227 235
208 224 236
213 229 240
207 224 229
197 213 226
207 222 244
203 219 240
201 217 238
197 213 236
204 220 242
199 215 234
207 223 244
208 224 244
203 219 238
209 225 245
196 212 232
205 221 240
202 218 239
205 221 242
207 223 243
192 208 224
198 214 237
201 217 237
206 222 242
206 222 243
207 223 244
211 227 245
201 217 238
202 218 226
208 224 236
207 224 230
207 223 233
205 222 228
212 228 244
208 225 231
209 226 234
208 225 231
209 226 230
209 227 230
210 227 230
211 228 233
209 227 233
211 228 237
211 228 234
211 228 234
210 227 234
210 227 237
211 228 241
211 228 238
212 229 238
207 225 226
212 229 238
212 229 241
207 224 233
213 230 240
209 226 233
210 227 233
211 228 237
209 226 231
208 226 227
208 225 234
204 222 222
208 225 229
204 221 226
200 218 223
205 222 230
194 211 208
199 216 228
188 203 205
176 193 197
175 192 197
175 193 203
168 187 202
167 186 204
166 185 190
165 184 197
162 181 193
177 195 203
171 189 205
182 201 198
167 185 187
163 182 191
184 201 207
182 199 209
182 199 211
178 195 215
173 190 203
178 195 213
191 208 223
187 204 224
170 188 211
113 133 169
76 104 150
71 100 142
180 197 225
183 199 224
187 204 228
179 196 224
179 194 219
168 184 212
217 232 254
167 184 211
59 94 143
61 96 147
59 93 132
58 93 139
60 94 139
62 98 153
59 94 138
60 95 151
61 96 145
59 94 136
59 93 129
61 96 145
61 96 139
60 95 133
60 95 144
59 94 143
62 97 147
60 95 141
59 94 130
59 94 149
60 95 144
61 96 148
62 97 149
61 96 149
60 95 139
61 95 136
60 95 133
60 95 141
61 96 142
61 96 139
61 96 143
61 96 141
61 95 137
60 95 142
61 96 140
60 95 137
61 96 142
62 97 144
60 95 137
60 95 136
60 95 134
61 96 142
60 96 139
62 97 142
60 95 136
61 96 141
61 95 144
60 94 134
60 95 142
61 95 149
60 94 133
60 95 136
61 95 145
61 96 136
59 94 136
61 95 143
61 96 142
60 94 135
61 95 145
61 96 145
61 96 137
59 93 133
61 95 141
60 94 139
59 93 131
60 95 141
60 94 138
60 95 139
59 93 138
62 97 145
58 92 129
59 93 134
58 92 132
60 95 137
59 93 135
59 93 130
59 93 129
59 92 133
59 93 134
58 91 129
59 92 128
59 92 130
60 94 136
59 92 131
58 90 127
59 92 134
58 91 125
59 92 134
56 89 121
58 90 127
58 90 128
60 93 139
57 89 130
57 88 126
57 88 119
57 89 125
56 87 125
55 86 121
55 85 119
53 82 115
52 80 109
53 81 111
81 85 67
75 74 43
57 57 37
50 53 35
56 58 40
58 62 46
45 50 36
57 60 41
46 54 42
63 68 48
50 59 46
61 69 50
65 72 52
86 90 61
99 102 68
93 96 64
94 97 63
93 95 63
98 100 64
102 104 67
101 104 69
103 106 69
108 110 68
114 115 67
117 118 68
110 112 68
128 126 75
122 122 74
132 131 78
118 117 68
136 135 81
125 125 73
135 133 77
143 140 86
146 144 84
137 136 76
148 145 85
141 140 82
138 135 76
144 142 81
141 139 79
150 146 83
153 149 84
155 150 86
149 146 80
148 145 81
159 155 91
155 151 87
154 150 85
152 148 87
153 149 84
156 152 88
162 158 87
162 157 78
156 151 84
161 157 91
163 158 91
167 162 95
162 157 90
162 157 81
168 162 88
167 161 91
172 165 92
170 164 90
169 163 90
163 158 89
170 164 93
163 158 90
174 167 94
168 163 91
167 161 87
168 162 87
168 163 85
168 163 87
167 163 86
163 158 83
172 166 89
171 165 91
170 164 90
172 165 89
167 162 84
169 163 88
172 166 92
172 165 92
169 163 85
174 167 92
171 165 93
171 164 87
174 166 95
171 165 92
169 163 87
177 169 97
170 163 90
168 162 84
176 168 96
173 166 97
169 163 95
171 165 93
167 161 84
171 164 87
167 161 83
175 167 97
173 166 92
169 163 91
168 161 89
167 160 89
172 166 97
167 161 82
165 160 87
167 161 89
169 162 87
172 165 93
164 158 83
167 162 87
169 163 87
169 162 87
166 159 84
166 159 86
166 159 87
166 160 83
166 160 85
169 161 89
164 157 84
165 158 87
165 159 85
165 159 86
160 154 86
165 157 86
160 155 84
160 154 81
164 158 89
156 151 75
169 162 86
157 151 82
153 146 77
157 152 78
157 151 80
153 147 74
162 155 86
160 154 81
161 155 81
161 154 83
160 153 83
165 158 85
155 151 79
161 154 81
163 156 84
156 151 84
160 153 82
217 232 253
219 234 255
216 231 252
217 232 252
219 234 254
220 235 255
218 233 254
217 232 253
218 233 254
219 234 254
219 234 255
218 233 253
218 233 254
216 231 252
218 233 254
219 234 255
217 232 252
218 233 254
216 231 252
217 232 253
211 226 246
218 233 254
217 232 252
212 227 247
215 230 250
217 232 252
212 227 246
211 226 245
215 230 248
212 227 245
210 226 238
215 231 247
209 225 232
214 229 244
213 229 234
215 231 241
213 230 237
213 229 237
212 229 236
213 229 234
214 230 237
210 227 226
214 230 238
213 229 236
209 226 223
213 229 236
210 226 233
212 228 240
212 228 240
213 229 245
210 226 238
204 220 242
202 218 239
198 214 238
204 220 241
200 216 238
203 219 239
211 226 248
191 207 226
200 217 234
201 217 232
200 216 237
205 220 242
202 218 238
198 214 232
203 219 234
200 215 235
210 225 246
202 217 236
202 218 239
201 217 238
194 210 232
203 219 238
206 222 241
203 220 240
201 218 232
210 226 236
211 227 236
210 226 234
209 226 230
213 229 240
207 224 226
212 228 236
212 228 240
209 225 231
210 227 230
208 225 223
213 229 237
213 230 240
214 230 240
213 229 237
211 228 234
210 227 231
211 228 236
212 229 238
211 228 236
212 229 238
213 230 241
211 228 231
211 227 230
210 227 234
208 226 224
210 227 230
215 231 244
212 229 236
215 231 245
210 227 231
204 221 221
204 221 222
207 224 234
202 219 225
201 218 230
201 218 226
202 218 230
194 209 210
190 202 197
166 185 189
177 195 208
175 193 204
172 191 199
173 191 194
181 198 200
182 199 213
184 201 219
174 193 197
176 193 209
167 185 189
170 187 206
171 188 198
185 201 222
185 201 220
184 201 217
172 189 207
185 201 223
182 199 222
181 197 217
169 186 211
185 201 226
139 156 180
74 101 140
92 117 152
154 172 204
191 207 232
184 200 222
182 198 223
181 197 222
166 182 206
207 222 245
165 182 209
57 90 124
60 95 147
59 94 137
59 94 141
60 95 139
60 95 144
61 97 144
59 94 128
61 95 139
60 95 135
60 94 128
60 95 133
61 96 144
60 95 141
60 95 143
60 95 140
60 95 139
62 97 144
59 94 133
61 95 140
60 94 135
60 94 137
60 95 137
61 95 143
61 96 144
61 96 148
60 95 136
58 92 125
60 95 140
61 96 145
59 94 136
61 95 139
62 97 149
61 96 142
61 96 143
61 96 142
60 95 141
59 94 133
60 95 140
62 97 153
60 95 137
61 96 144
60 94 140
59 94 134
59 94 124
60 94 129
61 96 141
60 94 135
60 95 139
61 95 140
60 94 144
59 94 135
61 96 144
58 91 122
61 96 137
60 95 140
61 95 145
61 96 140
58 92 119
60 95 143
60 94 141
58 91 133
59 94 135
59 94 131
60 95 145
59 93 130
60 94 135
60 94 134
59 94 137
59 93 130
58 92 135
59 93 135
60 93 136
60 94 135
58 91 130
61 96 143
61 96 145
58 92 137
61 95 148
58 92 133
59 92 133
59 92 121
58 92 126
58 91 128
58 91 131
56 87 113
59 92 143
59 92 134
59 91 132
58 90 126
56 86 114
57 89 127
55 86 118
57 89 131
56 87 121
58 90 128
57 88 134
56 87 129
56 87 122
53 81 114
51 78 107
52 81 119
71 76 71
83 82 50
67 65 40
59 61 43
72 73 47
60 63 46
48 54 41
62 68 48
57 63 47
60 67 46
69 75 53
67 72 49
78 83 56
89 92 59
78 82 58
81 86 57
84 87 59
102 104 66
98 99 61
97 100 66
106 108 70
92 96 59
112 112 69
113 113 68
108 109 63
106 108 67
129 127 73
127 125 76
129 127 77
124 123 71
131 130 75
140 139 82
123 123 69
145 142 83
144 140 83
142 138 71
144 141 79
156 152 90
146 143 80
148 145 83
152 149 87
148 146 78
147 143 76
154 150 89
157 153 84
154 151 81
156 151 86
160 155 91
158 154 86
155 151 85
158 153 83
158 154 88
158 154 88
162 157 83
161 157 83
164 159 91
164 158 86
162 157 88
166 161 94
165 159 87
169 163 90
162 157 80
170 163 85
161 156 83
167 161 87
164 158 85
166 160 84
168 163 86
165 159 89
169 163 93
168 163 88
169 163 87
171 165 88
170 164 94
168 161 87
173 166 94
173 166 93
169 163 86
170 163 93
173 166 89
175 168 93
175 167 91
175 167 94
169 163 81
172 164 92
176 168 95
170 163 88
170 163 90
171 164 87
174 167 93
172 165 93
166 159 81
169 162 87
170 163 89
168 162 83
166 160 78
175 167 95
166 160 85
166 161 87
170 163 89
168 162 86
172 165 90
166 160 87
167 161 87
174 167 90
166 160 82
162 156 81
171 164 95
167 160 87
166 159 84
165 160 84
172 164 87
168 161 84
166 160 83
170 163 90
166 160 86
165 159 88
165 159 81
157 151 76
164 158 86
171 163 95
163 157 81
165 159 82
166 160 88
161 154 76
165 159 85
162 156 84
161 155 85
161 154 85
162 156 83
160 154 80
163 157 87
162 156 84
160 154 86
157 151 83
159 153 84
164 158 82
160 154 80
164 158 85
163 157 86
157 151 83
156 150 79
160 154 82
157 152 80
162 155 85
155 149 75
162 155 89
160 154 86
155 148 77
218 233 254
220 235 255
216 231 252
218 233 254
220 235 255
217 232 252
219 234 254
216 231 251
219 234 254
220 235 255
216 231 252
219 234 255
220 235 255
218 233 253
218 233 254
217 232 253
218 233 254
215 230 250
216 231 252
215 230 251
215 230 250
217 232 252
216 231 252
213 227 248
215 230 252
215 230 252
213 228 247
215 230 250
216 231 252
218 233 253
210 225 246
216 231 253
214 229 251
218 233 254
221 235 255
220 235 255
220 235 255
219 234 253
218 233 250
217 232 246
216 232 244
219 234 252
216 232 242
215 230 242
212 228 230
216 232 244
215 230 246
208 224 239
211 227 237
212 228 238
207 223 242
194 210 232
200 216 237
208 223 244
203 219 238
208 223 244
204 220 242
201 217 237
201 216 238
204 220 240
201 216 235
207 223 241
200 215 235
188 203 221
197 213 230
206 221 242
207 222 241
209 225 243
206 221 243
199 215 236
206 222 239
205 220 243
203 219 238
198 214 234
209 225 246
199 216 231
212 228 239
210 226 226
208 225 229
211 228 234
207 224 226
214 230 244
210 227 230
210 227 228
212 229 234
210 227 230
211 227 230
210 227 230
213 229 236
214 230 241
209 226 228
212 228 234
211 228 231
212 229 237
213 229 234
212 229 234
209 226 223
212 228 236
212 229 234
211 227 227
214 230 238
211 228 235
214 230 240
213 229 237
214 230 241
214 230 240
209 226 231
214 230 243
206 223 229
207 223 228
202 218 223
195 212 222
204 221 228
203 220 227
191 205 207
177 188 178
172 190 197
179 197 208
160 179 185
179 196 208
168 186 201
179 197 206
181 198 211
176 194 209
174 191 205
176 192 217
184 200 217
185 201 220
188 204 227
180 196 222
188 204 229
178 194 216
183 199 223
178 194 217
185 201 230
176 192 214
190 206 229
188 203 226
147 165 196
88 112 155
81 107 145
148 166 194
181 198 223
192 207 228
187 203 227
173 189 214
173 189 213
195 210 232
159 177 202
58 92 133
59 94 138
58 92 134
60 94 136
60 96 146
61 96 147
59 93 128
59 93 129
59 93 128
59 94 141
59 94 133
61 96 144
59 94 135
59 94 140
60 95 134
58 93 140
60 95 137
60 95 135
61 96 136
60 95 143
60 95 139
59 94 130
61 96 139
60 95 137
59 94 131
59 94 139
60 95 131
61 96 140
60 95 135
61 96 145
61 96 142
60 94 133
60 95 142
59 94 130
61 96 142
60 94 139
60 95 141
61 96 141
60 94 126
61 96 142
59 93 126
59 94 131
60 95 135
59 93 130
61 95 140
60 94 136
60 94 137
60 94 131
60 94 139
61 95 142
60 94 141
60 95 141
61 96 136
60 95 139
60 95 140
60 95 137
58 93 118
60 94 134
59 94 142
59 93 135
60 95 139
59 94 140
59 93 129
60 95 139
60 94 134
60 94 141
59 93 131
61 96 142
60 95 142
60 94 139
58 91 130
60 95 141
59 92 135
60 94 135
59 93 138
58 92 127
60 94 130
60 94 136
59 93 130
60 93 139
58 91 127
59 92 132
58 90 127
58 91 128
60 93 130
58 91 134
57 89 130
59 91 137
58 90 123
58 91 135
59 92 137
57 89 130
57 89 126
56 89 122
56 86 125
56 87 125
57 87 124
53 81 115
56 86 113
51 77 103
50 76 104
47 72 102
68 75 64
77 75 41
51 54 35
56 57 38
73 75 51
48 51 32
56 61 41
57 62 44
65 70 47
65 69 47
53 61 41
68 71 48
69 75 54
73 78 52
80 84 50
79 83 54
83 88 61
81 86 60
98 100 62
95 97 59
108 109 67
112 112 67
116 116 64
110 111 68
114 114 70
122 123 74
137 134 78
127 125 74
129 128 74
137 135 78
129 128 72
132 130 78
133 131 78
134 132 75
133 132 71
136 133 80
135 134 76
141 138 81
149 145 82
146 144 85
142 139 74
147 144 78
149 146 79
147 143 74
155 150 81
144 140 75
152 147 86
152 148 76
161 156 87
158 153 84
160 155 80
161 156 83
159 154 86
168 163 88
154 152 82
167 162 87
162 156 84
165 160 89
158 154 81
166 161 86
168 162 87
165 159 86
166 161 87
158 153 81
168 162 86
172 165 92
172 164 94
168 163 89
171 164 86
167 161 82
162 157 88
166 161 87
171 164 87
170 165 89
164 159 83
164 158 78
170 164 90
169 163 89
168 162 83
173 167 90
171 164 91
162 157 78
172 165 89
170 164 83
169 163 87
172 166 87
168 163 85
170 165 90
168 163 84
168 162 87
175 168 95
172 165 84
169 163 87
171 164 90
167 161 88
168 162 87
171 164 89
167 160 83
167 160 84
171 164 93
167 160 84
166 159 81
164 158 79
166 160 84
170 163 88
167 160 85
167 161 84
166 159 87
164 158 86
166 160 86
162 157 75
165 159 85
165 158 89
158 153 80
164 157 90
163 157 82
163 158 80
163 156 80
157 151 72
166 159 82
162 156 72
159 154 73
164 158 84
165 158 80
164 157 81
165 159 84
169 162 86
159 153 80
160 154 82
163 157 81
162 155 86
158 150 82
160 154 87
164 156 87
161 154 80
167 161 90
155 149 76
159 153 78
163 157 87
152 146 80
157 151 80
157 152 78
160 154 77
166 160 86
155 149 73
165 158 93
153 146 75
159 153 79
157 151 75
220 234 255
221 235 255
217 232 253
220 234 254
219 233 254
220 234 254
219 233 253
218 232 253
218 233 253
218 232 253
221 235 255
220 234 254
219 233 254
220 234 255
217 232 252
219 233 254
219 233 254
218 232 252
215 230 251
214 229 250
216 231 252
214 229 249
214 229 249
217 232 253
218 232 254
217 232 253
215 230 252
218 232 252
213 228 249
217 232 252
220 234 254
218 232 252
221 235 255
217 231 251
220 234 255
221 235 255
221 235 255
221 235 255
221 235 255
221 235 255
220 235 255
219 234 254
221 235 255
221 235 255
221 235 255
220 234 254
218 233 254
215 230 250
219 233 253
217 232 252
199 215 236
203 218 240
207 222 243
202 217 237
207 223 244
200 215 238
197 213 234
202 217 236
202 217 236
204 219 240
203 218 240
205 220 241
207 222 244
206 221 242
205 220 239
202 217 236
206 220 243
202 218 238
204 220 240
203 218 238
208 223 243
196 212 228
198 214 232
205 220 241
200 216 238
209 225 244
209 225 237
213 229 236
215 231 240
209 225 226
215 230 244
214 230 240
213 229 231
215 231 240
215 231 241
216 232 244
216 232 244
214 230 237
213 228 231
214 230 238
214 230 237
212 229 233
216 231 244
214 230 238
212 229 233
214 230 238
216 232 245
214 230 237
213 229 235
212 229 233
215 231 240
213 229 234
214 230 236
213 229 240
216 231 242
213 229 234
216 231 242
213 229 242
212 228 233
208 223 236
199 215 223
205 220 241
210 225 238
209 224 239
183 194 189
188 201 214
174 191 213
185 201 220
183 199 221
179 196 221
172 189 214
169 185 207
182 198 224
194 209 231
182 198 219
182 198 221
174 190 212
173 189 212
168 184 209
187 203 225
180 196 220
183 199 223
184 200 225
183 198 222
178 194 218
176 193 221
187 203 228
178 194 214
156 173 198
81 107 142
83 109 148
129 148 175
189 205 229
181 197 218
190 205 226
184 200 226
188 204 228
190 206 226
155 173 200
58 91 136
58 92 131
58 92 131
59 94 135
59 93 134
58 92 131
59 93 137
59 93 129
59 94 134
61 96 143
59 94 134
59 94 133
60 95 142
60 94 136
59 94 131
60 95 140
60 95 131
59 94 130
60 95 129
60 95 137
62 97 145
61 96 141
60 95 135
59 94 128
61 95 136
61 95 135
62 97 147
59 93 134
61 96 137
60 95 142
60 95 135
60 95 136
61 96 145
59 93 128
62 97 151
60 95 137
60 95 141
60 95 141
60 94 135
60 94 124
60 95 139
60 94 133
59 94 126
61 96 141
59 93 130
59 94 128
61 95 143
59 93 118
60 95 139
61 96 136
60 95 125
59 93 130
62 97 147
60 95 142
60 95 136
60 95 136
60 94 131
59 93 131
59 93 133
60 94 136
59 93 131
61 96 140
60 95 140
59 93 135
61 96 146
61 95 143
59 93 137
59 93 131
59 93 130
60 94 131
61 96 148
59 94 144
60 94 135
59 93 129
60 94 135
58 91 129
61 96 144
58 92 128
58 92 126
59 92 132
59 93 134
59 93 129
58 92 130
58 91 130
59 92 137
58 91 136
57 90 127
58 90 131
58 91 133
58 91 134
58 90 125
57 88 130
56 86 120
58 90 125
56 87 121
56 86 122
55 85 106
57 87 123
56 87 122
50 77 105
52 80 108
49 75 105
48 60 68
69 69 35
66 66 37
59 61 40
63 65 43
47 52 38
38 44 32
38 44 29
65 70 50
43 51 37
70 74 51
61 67 45
76 83 53
77 81 55
76 81 53
78 83 58
81 87 58
86 90 58
96 99 60
90 93 58
109 110 65
96 99 64
117 116 65
113 114 67
116 118 71
112 114 72
116 117 69
128 126 72
125 124 70
121 122 63
124 123 69
138 135 79
138 136 80
140 138 75
138 136 77
143 141 84
134 133 73
142 140 81
141 139 75
140 136 73
153 149 82
152 149 80
150 147 80
142 140 77
152 148 79
152 148 81
153 148 78
151 147 80
153 149 84
153 149 80
162 157 89
157 153 80
166 160 87
156 151 85
158 154 84
161 156 81
156 152 83
162 157 82
162 156 76
168 162 86
160 155 84
160 155 82
167 162 87
167 161 86
162 156 84
169 162 88
163 158 85
164 159 85
169 164 88
171 164 90
169 162 90
168 162 90
171 164 86
168 163 89
175 167 90
168 163 86
167 161 84
170 163 89
172 165 89
167 161 83
168 162 89
174 166 88
170 164 87
166 160 82
168 162 85
166 160 87
170 163 82
168 161 82
170 163 83
169 164 85
170 164 90
170 163 88
168 162 81
170 164 87
169 163 84
170 163 84
167 161 77
174 167 91
170 163 86
166 159 81
167 160 84
159 153 81
169 164 90
167 160 84
163 157 83
167 160 82
167 160 83
169 162 81
167 160 84
170 164 84
167 160 81
163 157 80
162 156 80
173 166 93
165 159 83
163 158 80
163 157 87
168 161 88
168 162 87
167 161 82
165 159 82
167 160 84
170 163 89
163 157 80
158 152 75
168 161 84
161 155 80
166 159 84
159 152 83
162 156 80
165 158 84
159 153 85
160 155 82
166 159 82
163 157 86
156 150 77
159 152 83
166 159 87
157 151 77
161 155 83
160 155 77
160 153 83
160 153 79
160 154 88
161 155 80
151 147 75
161 154 80
154 149 73
160 154 79
218 232 253
221 235 255
218 232 253
220 234 254
219 233 254
220 234 254
219 233 254
216 230 250
216 230 250
219 233 254
218 232 253
219 233 254
217 231 252
221 235 255
220 234 254
218 232 253
217 231 252
220 234 254
215 229 251
218 232 253
216 230 251
213 228 249
215 229 250
218 232 253
214 228 250
215 229 252
213 228 248
218 232 253
216 230 251
213 228 247
217 231 252
219 233 254
217 231 252
217 232 252
221 235 255
221 235 255
221 235 255
221 235 255
221 235 255
221 235 255
221 235 255
221 235 255
221 235 255
220 234 255
221 235 255
216 230 251
211 226 247
219 233 254
219 233 254
212 227 248
208 223 242
207 222 242
197 212 236
199 214 234
207 222 244
207 222 242
197 213 237
203 219 239
208 223 244
207 222 244
206 221 242
210 225 246
194 209 227
207 222 242
207 222 245
200 215 237
205 220 240
207 222 243
209 223 244
210 224 243
205 220 241
206 221 240
209 224 242
206 221 243
203 219 242
202 218 238
213 228 248
219 234 253
220 234 255
221 235 255
216 231 251
219 233 253
220 234 254
220 235 254
220 234 253
219 234 250
219 234 254
220 235 253
220 234 253
221 235 255
220 234 253
221 235 254
220 235 254
221 235 255
221 235 255
220 235 254
221 235 254
220 235 254
221 235 255
221 235 255
219 234 252
219 234 253
220 235 254
221 235 255
220 234 255
221 235 255
219 234 253
217 231 252
215 229 250
213 228 247
209 223 242
208 223 244
206 221 241
202 216 234
190 202 216
190 202 214
191 207 228
179 195 217
183 199 220
164 181 209
174 190 210
184 200 224
185 201 223
183 199 223
180 196 220
180 197 222
184 200 226
186 201 223
186 202 222
189 204 225
184 199 223
184 199 222
177 193 213
198 213 234
191 207 232
185 201 225
186 202 227
178 194 217
164 180 207
91 114 147
79 106 151
106 127 157
196 211 232
189 204 229
197 212 232
188 203 225
179 195 217
185 200 222
162 179 206
57 91 133
58 92 134
58 93 135
60 94 132
59 94 137
58 92 131
59 94 130
59 94 133
60 95 140
59 93 131
60 95 139
61 96 143
60 94 130
60 95 137
61 96 141
58 92 119
60 95 136
60 95 141
60 95 139
60 94 126
59 93 140
60 96 142
59 93 135
60 95 140
60 95 133
60 95 135
59 94 124
60 94 140
59 93 126
60 95 136
61 95 133
60 95 136
58 92 122
60 94 133
59 94 130
61 96 139
61 95 136
60 95 137
60 95 133
60 95 141
60 95 143
59 94 128
58 91 128
59 93 133
60 94 126
60 95 133
59 93 131
61 96 140
60 94 134
61 96 141
60 95 130
60 94 133
61 96 142
60 95 141
60 95 137
61 96 139
61 96 139
60 94 135
59 93 134
59 93 133
60 95 142
60 95 137
59 94 136
60 95 145
59 92 128
60 94 135
58 92 123
60 95 139
61 95 137
61 96 142
61 95 145
58 92 129
59 94 139
60 94 132
59 93 132
58 92 125
58 92 127
58 91 123
59 93 127
57 91 113
59 92 130
60 94 144
59 93 134
60 93 136
58 90 124
59 92 139
56 88 121
59 91 136
59 91 133
58 90 123
57 90 129
57 88 124
57 89 121
57 88 112
56 88 125
55 86 108
56 86 123
56 86 124
54 83 120
52 81 116
54 81 105
53 80 109
56 64 51
75 75 41
67 67 39
55 57 37
48 50 32
36 42 23
42 48 36
34 41 31
50 56 36
62 66 44
54 62 42
61 66 40
68 72 45
73 78 50
86 88 55
89 92 55
72 76 50
93 96 60
90 93 59
97 99 58
111 113 66
93 97 62
104 104 64
108 109 67
120 119 72
124 122 70
134 133 77
136 133 76
124 124 72
127 126 76
139 137 80
135 133 76
128 128 75
133 131 73
129 128 72
140 138 75
144 141 78
139 137 77
144 140 76
150 146 83
145 142 76
154 149 84
140 137 78
152 148 81
149 147 81
156 151 83
156 151 80
151 148 80
158 153 84
155 151 81
159 154 83
163 158 82
156 151 79
158 153 83
166 159 87
160 155 82
167 161 87
153 150 72
161 156 84
163 158 89
162 158 82
162 157 79
160 155 82
169 162 81
166 160 83
168 163 88
168 162 89
163 158 82
169 163 88
164 159 79
167 161 80
168 162 84
170 163 86
168 162 86
164 158 80
166 161 86
173 165 92
168 162 80
170 164 91
168 162 81
167 161 85
169 163 86
167 161 89
168 162 83
164 159 84
170 163 88
170 164 89
171 163 87
168 161 84
169 162 87
173 166 87
170 162 81
162 155 71
169 163 85
176 168 91
169 164 86
167 160 83
169 162 82
166 160 84
168 162 82
164 159 82
166 159 79
166 160 83
166 159 84
169 163 85
165 158 84
172 165 94
167 160 84
167 161 86
163 157 80
166 160 84
163 157 75
169 162 84
168 161 88
165 158 80
163 156 79
162 156 80
159 152 80
167 161 85
166 160 84
167 160 86
167 160 85
158 153 81
162 157 77
162 156 80
165 159 81
166 160 84
161 156 83
158 152 72
163 157 87
158 151 82
163 155 84
153 146 73
161 154 84
164 157 86
158 152 69
156 150 76
163 157 84
156 149 74
159 153 71
156 149 75
157 151 80
158 152 75
158 153 82
161 156 82
166 159 87
161 154 85
145 139 71
155 149 75
221 236 255
221 236 255
218 232 253
218 233 253
221 236 255
221 236 255
217 232 252
217 232 252
219 234 254
220 235 254
220 235 255
220 235 255
220 234 254
220 234 254
217 232 252
219 234 254
219 234 254
219 234 254
212 226 248
217 231 251
212 226 247
213 227 249
214 228 249
211 225 245
216 230 250
215 229 250
219 234 254
216 230 251
214 228 249
214 228 249
218 232 253
218 233 254
217 232 253
219 234 254
221 236 255
220 235 254
221 236 255
221 236 255
220 234 254
221 236 255
221 236 255
221 236 255
221 236 255
221 236 255
221 236 255
219 234 254
217 232 252
219 234 254
217 232 252
219 234 254
203 218 238
208 223 243
201 216 238
197 213 235
201 216 238
204 219 240
207 222 244
214 229 249
215 230 252
206 221 242
207 222 243
205 220 241
206 220 239
204 219 241
204 219 239
207 221 241
204 218 237
199 214 237
201 216 236
209 224 243
198 213 237
206 221 242
207 222 244
204 219 243
203 218 240
202 217 236
212 226 248
218 232 253
218 233 253
221 236 255
220 235 255
220 234 254
220 235 255
220 234 254
221 236 255
221 236 255
221 236 255
221 236 255
221 236 255
221 235 255
221 236 255
221 236 255
221 236 255
221 235 255
221 236 255
221 236 255
221 236 255
221 236 255
221 236 255
221 236 255
221 236 255
221 236 255
221 236 255
221 236 255
220 235 255
221 236 255
220 235 255
217 231 252
217 232 252
213 227 245
212 227 246
207 222 241
204 219 239
207 221 240
201 212 222
197 209 220
179 196 220
179 195 216
185 201 223
185 201 226
185 201 223
181 197 223
176 192 218
174 190 211
181 197 222
193 208 231
186 202 224
172 188 212
189 205 229
184 200 221
189 204 227
183 198 224
188 204 228
178 194 217
181 197 219
184 199 219
169 185 206
184 200 223
155 172 196
80 105 138
90 112 143
109 130 163
196 211 235
194 209 233
187 202 223
188 203 226
186 202 226
186 202 226
142 161 192
57 90 129
58 92 128
59 94 135
59 93 130
59 93 131
58 93 133
59 93 127
60 95 139
59 93 134
60 95 137
60 94 131
60 94 130
60 95 141
59 94 134
61 96 139
60 95 142
61 95 133
61 96 133
60 95 135
61 96 136
59 93 131
60 94 135
60 95 140
60 95 136
59 94 134
60 95 134
60 95 131
59 94 134
59 94 130
60 95 141
60 95 134
60 95 139
59 94 134
57 91 120
61 96 136
60 94 128
60 95 137
60 94 130
61 96 143
60 95 136
59 94 136
60 94 131
60 94 128
59 94 124
59 93 125
59 94 134
60 94 142
60 94 136
60 95 140
61 95 134
59 92 129
61 96 142
60 94 131
60 95 137
58 93 122
61 95 142
60 95 139
60 95 135
58 93 133
60 95 140
59 93 131
61 95 145
59 93 130
60 95 135
58 92 123
59 94 140
62 97 152
60 94 131
59 93 135
58 92 138
58 90 124
60 95 134
60 94 140
58 91 126
58 92 134
60 95 142
59 93 132
59 93 126
58 90 124
59 92 136
57 90 122
59 93 132
57 89 114
59 92 134
61 95 153
58 91 121
61 95 141
56 87 118
56 87 126
57 89 127
57 89 120
57 89 126
57 88 131
57 89 129
56 86 119
55 85 114
55 85 105
54 83 122
53 82 112
53 81 104
51 78 108
50 76 98
65 76 76
61 60 34
67 67 41
52 51 31
47 51 30
41 46 33
39 42 27
39 46 31
59 64 43
51 58 41
45 52 36
59 65 45
69 74 40
74 79 54
78 82 50
90 95 63
79 82 52
86 89 57
90 93 59
98 100 64
96 99 55
106 108 59
106 107 64
108 109 64
117 117 67
108 109 65
115 115 68
112 113 67
124 123 72
136 134 73
128 126 68
130 128 72
145 142 80
136 134 66
137 136 81
144 142 81
147 143 78
146 143 79
142 139 76
136 135 76
143 140 71
147 144 78
151 148 76
155 149 80
146 143 76
158 154 81
153 149 76
152 148 77
157 152 77
155 150 80
165 159 92
154 151 79
162 157 81
155 151 81
150 147 73
158 152 79
163 159 83
162 157 84
165 159 85
166 160 85
161 155 78
159 154 77
168 161 85
161 157 81
168 161 87
161 157 77
166 160 85
165 160 85
165 160 79
165 159 83
165 160 80
171 164 90
167 162 85
170 163 83
172 165 88
164 159 80
166 160 78
171 164 89
167 162 82
169 162 82
169 163 84
161 155 75
169 164 85
168 161 82
167 161 86
170 163 87
168 162 82
170 164 87
168 162 84
173 166 85
167 161 81
168 162 82
168 161 84
167 161 80
168 163 85
167 160 79
168 161 86
164 159 80
171 163 87
165 160 80
165 158 80
170 164 89
169 161 86
165 160 83
164 158 79
168 160 87
166 160 84
163 158 80
165 159 84
166 160 83
161 155 79
161 156 76
161 155 86
162 156 76
164 158 80
162 156 75
164 158 85
164 158 86
165 159 85
170 162 86
163 157 84
163 157 84
165 158 78
162 156 80
165 158 80
161 155 79
165 159 83
164 158 88
156 150 68
157 152 76
158 152 75
159 153 77
157 151 78
159 154 76
157 151 82
158 151 77
150 145 65
150 144 75
163 156 79
159 153 72
158 152 75
159 152 81
155 150 83
156 150 76
155 149 69
163 157 81
149 142 69
160 154 77
156 149 79
218 233 253
222 236 255
219 234 254
219 234 253
220 235 254
221 236 255
217 232 251
218 233 252
220 235 255
218 233 253
216 230 251
219 234 254
218 233 253
218 233 253
220 235 255
216 231 250
220 235 254
217 232 252
215 230 250
217 232 252
218 233 253
217 232 252
218 233 252
218 232 252
218 232 253
214 229 249
217 232 253
220 234 254
217 232 251
220 235 255
218 232 253
217 231 252
214 229 250
219 234 253
221 236 255
221 236 255
222 236 255
221 236 255
222 236 255
221 236 255
221 236 255
222 236 255
221 236 255
221 236 255
221 236 255
217 232 252
217 232 252
217 232 252
217 231 251
214 229 249
209 224 244
206 221 242
202 217 240
206 220 241
202 217 236
201 216 238
207 221 243
207 221 242
209 224 245
216 230 250
202 217 237
203 218 238
208 222 242
211 226 246
210 224 244
204 218 240
206 220 244
209 223 243
195 210 234
208 223 243
205 219 239
205 219 239
208 223 244
205 220 240
208 222 240
199 214 236
214 228 246
220 234 254
221 235 253
218 233 253
219 233 252
219 233 252
221 235 253
220 235 252
221 235 253
220 235 252
221 235 253
221 235 253
219 234 250
219 234 249
221 235 253
220 235 252
221 235 253
221 235 254
221 235 254
220 235 252
221 236 255
219 234 248
221 235 253
221 235 253
220 234 252
219 234 250
222 236 255
222 236 255
221 235 254
222 236 255
221 235 253
218 232 251
216 231 250
208 221 239
211 226 245
214 228 249
208 222 242
210 224 240
197 209 222
189 202 217
172 189 211
183 199 223
190 206 226
180 196 220
190 206 228
183 199 218
194 210 233
189 205 225
185 201 226
180 196 221
179 194 216
178 194 214
191 206 227
178 195 219
184 199 219
184 200 221
196 211 231
183 199 222
190 205 225
171 187 207
185 201 225
186 202 224
163 179 200
71 97 123
84 109 146
121 140 166
179 194 218
188 203 226
182 197 219
181 196 221
190 205 227
194 209 230
163 180 207
57 91 136
56 89 119
58 92 137
60 94 135
58 93 125
58 92 127
59 93 127
59 94 130
59 94 134
58 92 126
58 92 125
60 95 144
61 95 140
59 94 141
60 94 133
59 94 131
58 93 126
60 94 136
61 96 148
60 95 136
60 94 131
60 95 144
59 93 125
61 95 142
60 94 135
60 94 140
60 95 142
59 94 134
61 95 135
59 94 133
60 95 139
61 96 140
59 93 130
61 96 144
60 95 139
59 94 136
61 96 141
59 93 129
60 95 142
58 91 124
61 96 143
60 94 136
60 94 130
60 95 135
59 94 137
60 94 131
61 96 143
60 95 136
61 96 149
60 95 142
60 95 139
61 96 149
60 95 139
60 94 131
60 94 131
60 95 136
59 94 130
60 94 136
58 92 125
60 95 139
59 92 132
60 95 134
59 93 130
59 93 134
59 93 131
59 92 121
59 93 131
59 93 128
59 93 134
58 92 130
61 96 139
60 94 137
60 95 144
59 94 132
60 93 129
60 94 138
59 94 133
58 91 121
59 92 130
58 91 135
58 92 122
59 92 124
59 92 131
59 92 136
59 92 128
58 91 135
59 92 132
57 88 123
56 88 124
58 91 129
56 88 123
57 89 129
55 85 118
57 90 133
55 87 111
55 86 114
55 85 112
54 83 107
52 80 107
53 82 113
53 81 108
48 73 89
65 75 72
74 72 41
55 57 31
34 38 26
48 50 29
43 47 29
42 48 30
34 42 28
46 52 34
45 51 33
56 62 35
56 62 41
66 70 41
77 80 49
72 77 51
75 78 46
84 87 47
80 82 49
93 94 57
93 96 53
85 91 59
84 87 51
101 103 56
104 103 59
113 111 64
122 120 66
114 115 68
129 128 72
140 137 83
122 121 67
132 130 72
133 131 74
137 135 73
134 132 76
120 119 61
145 142 81
130 129 64
142 140 75
137 136 71
139 137 76
147 143 74
142 140 71
144 141 75
151 147 80
152 148 79
146 142 78
154 150 75
159 154 83
151 147 80
158 153 81
153 149 74
160 155 82
157 153 79
160 155 85
157 152 76
159 154 81
156 151 78
168 162 86
160 154 81
155 151 78
165 160 88
162 156 81
166 159 82
161 156 81
169 163 84
165 160 83
170 164 84
164 158 81
162 156 77
170 163 87
164 157 73
168 162 87
166 160 87
163 158 80
170 163 88
169 162 83
170 163 84
171 165 88
169 162 86
167 161 80
171 164 87
170 164 85
165 160 80
172 165 86
168 162 86
168 163 80
169 163 86
165 159 78
164 158 82
169 162 80
164 158 86
172 164 84
169 162 82
163 157 82
167 160 80
166 159 83
166 159 80
165 158 83
167 160 80
167 162 81
166 160 80
164 159 80
167 160 83
168 162 82
161 155 79
162 156 79
169 162 81
162 157 79
164 158 80
168 162 81
163 157 78
163 156 81
163 157 80
164 158 80
165 159 82
161 155 79
166 159 86
164 158 89
164 157 83
160 154 84
159 154 80
161 155 77
163 157 80
159 153 78
163 157 85
165 159 82
160 153 78
165 159 80
157 151 72
165 159 80
153 147 75
157 151 82
156 150 75
161 155 79
160 154 82
157 151 73
151 146 73
155 150 73
162 156 79
155 148 79
160 154 77
159 153 80
159 152 79
159 153 76
155 149 72
157 151 79
161 153 80
157 151 80
153 146 75
222 236 255
222 236 255
222 236 255
221 235 255
221 235 255
220 234 253
220 234 254
221 235 254
222 236 255
221 235 254
221 235 254
222 236 255
222 236 255
219 233 254
220 234 254
220 234 254
218 232 252
220 234 253
215 229 249
219 233 253
213 228 248
212 227 248
219 233 252
220 234 254
220 234 254
216 231 252
216 230 249
218 232 252
218 233 252
216 231 250
218 232 253
219 233 252
221 235 254
222 236 255
222 236 255
222 236 255
222 236 255
222 236 255
222 236 255
221 235 254
222 236 255
222 236 255
222 236 255
222 236 255
222 236 255
222 236 255
221 235 255
217 231 251
219 233 254
216 230 250
205 220 241
208 222 244
205 220 242
203 218 239
209 224 244
203 218 240
205 219 241
208 222 242
206 221 242
203 218 236
208 222 242
206 221 241
206 221 236
203 218 239
209 223 243
209 223 238
209 223 241
206 220 235
206 221 238
211 226 242
202 217 230
206 221 236
209 224 242
208 222 239
199 215 230
208 223 238
213 228 245
217 232 246
215 229 248
219 233 250
217 232 248
217 231 245
216 231 245
219 234 249
219 233 248
219 234 249
220 234 250
218 233 245
218 233 245
220 234 250
220 235 252
218 233 248
220 234 250
219 234 248
220 234 250
220 235 252
217 232 244
218 233 244
218 233 246
219 234 249
218 233 251
220 235 252
219 233 251
220 234 249
219 233 246
220 234 252
221 235 253
219 233 252
221 235 255
218 232 250
215 229 248
215 230 249
216 230 250
213 227 245
191 203 214
193 205 215
177 193 217
178 194 215
191 207 229
179 195 217
188 204 228
188 203 225
188 203 222
181 197 219
183 199 220
177 193 211
186 202 222
179 195 222
178 194 218
182 198 218
188 203 224
187 203 222
179 196 221
186 201 220
174 190 215
174 189 207
174 190 214
184 200 221
148 165 187
81 105 138
71 98 126
120 140 166
185 200 226
200 214 235
193 208 229
182 196 215
190 205 228
198 212 232
156 174 200
59 92 134
56 89 129
59 94 135
60 94 139
58 92 126
61 96 144
59 93 131
61 95 141
58 93 122
58 92 131
58 92 125
60 94 126
59 94 137
60 94 135
60 94 139
59 93 130
59 93 129
60 95 135
59 93 122
60 95 135
61 96 143
58 92 131
61 96 139
60 95 135
60 95 135
60 95 140
60 95 134
59 94 135
59 94 130
60 95 140
61 95 139
60 95 148
59 93 131
59 94 134
61 96 141
61 96 144
61 96 141
61 95 135
60 95 130
59 94 139
61 96 147
60 95 131
60 95 136
61 95 136
60 94 133
59 93 122
58 92 131
59 94 129
61 96 137
60 94 138
60 95 134
58 92 122
59 94 129
60 94 139
58 92 125
59 93 131
59 94 134
59 92 132
59 93 134
60 93 133
61 95 144
59 93 135
59 93 120
60 94 137
60 94 124
60 95 139
58 91 128
60 93 127
58 91 118
59 93 135
60 93 132
60 94 130
59 93 137
58 92 120
58 91 126
59 92 133
56 88 111
57 91 119
59 93 134
60 94 130
58 91 125
56 88 126
57 90 127
58 91 129
58 91 127
59 93 136
57 90 130
59 91 132
57 90 133
57 90 121
56 87 125
56 86 117
59 91 134
57 89 126
54 84 108
53 83 112
55 85 115
53 81 107
53 83 107
53 82 118
52 79 99
48 72 88
65 76 67
58 58 31
47 47 14
40 41 20
39 42 26
47 51 27
36 43 26
38 46 29
45 53 35
43 49 30
57 61 38
68 73 46
62 68 43
73 79 47
72 78 45
69 74 45
88 90 55
97 99 59
93 95 54
95 97 62
95 98 57
101 102 57
105 106 60
106 107 57
113 112 62
96 99 59
125 124 65
120 119 64
120 120 62
126 124 73
125 124 66
118 116 66
127 126 70
118 117 62
132 130 72
132 130 62
139 136 68
144 140 80
148 144 75
143 140 73
158 152 83
145 141 74
141 137 69
152 148 83
150 146 78
148 145 73
149 145 69
160 154 74
148 146 76
157 152 81
157 151 82
159 153 79
150 147 79
160 154 79
154 150 78
159 154 81
166 160 84
157 152 78
156 150 74
169 163 88
167 161 88
160 154 80
162 156 82
155 151 71
161 155 76
169 163 88
169 161 88
162 157 80
170 164 87
172 165 90
164 158 80
167 162 80
164 159 82
167 160 81
167 160 85
166 160 81
166 160 80
165 159 82
168 161 84
165 159 76
165 159 80
166 161 85
165 158 75
172 165 87
170 163 87
167 161 80
163 157 73
169 162 82
172 166 85
161 156 72
165 158 77
166 160 81
171 164 88
169 162 86
168 160 79
161 156 77
167 160 83
166 160 81
168 161 80
169 162 85
163 156 76
165 159 80
159 155 75
165 158 83
162 156 80
166 158 83
165 159 77
167 159 84
169 161 84
164 158 79
166 159 83
164 158 83
164 157 76
166 160 79
162 156 80
161 155 77
162 155 75
166 160 83
159 153 73
166 159 82
160 154 80
161 155 77
166 160 85
161 156 80
161 154 78
160 153 81
164 158 82
161 155 73
162 156 80
164 157 83
164 157 83
157 151 71
169 163 87
162 156 80
164 157 82
164 157 81
162 156 82
165 158 83
155 148 73
153 147 72
158 153 80
158 153 72
153 148 77
153 146 79
167 160 92
156 149 80
151 145 74
160 153 80
156 151 80
221 235 254
220 234 253
220 234 253
221 235 255
221 235 255
222 236 255
222 236 255
219 233 253
221 235 255
220 234 254
221 235 255
220 234 254
221 235 255
222 236 255
221 235 254
219 233 252
221 235 255
218 232 252
216 230 250
216 230 249
216 230 250
220 234 254
215 229 248
218 232 252
218 232 253
219 233 253
218 232 252
221 235 254
219 233 253
218 232 252
215 230 249
220 234 253
221 235 255
221 235 255
222 236 255
222 236 255
222 236 255
222 236 255
222 236 255
222 236 255
222 236 255
222 236 255
222 236 255
222 236 255
222 236 255
222 236 255
219 233 252
222 236 255
220 234 254
218 232 252
212 226 246
207 221 241
208 223 242
207 221 239
202 216 237
200 215 231
207 222 238
203 218 233
206 221 231
201 216 227
202 217 229
208 223 236
199 214 223
207 222 237
207 222 235
202 217 232
197 212 224
206 221 230
200 215 225
200 215 228
207 222 228
206 221 240
207 222 233
206 221 237
207 222 231
203 219 222
215 230 238
215 230 239
216 231 247
215 230 240
210 226 230
215 230 241
214 230 234
217 232 241
216 231 237
216 231 238
214 229 233
210 226 221
212 228 226
213 229 233
212 228 228
215 231 238
212 228 227
212 227 223
212 228 227
211 227 227
213 229 231
210 226 223
212 228 226
213 229 228
212 228 228
207 223 217
209 226 218
210 226 220
211 227 223
207 224 212
211 227 226
207 223 215
202 218 218
208 223 226
202 217 215
202 218 216
195 211 221
200 216 219
195 207 214
183 195 204
180 196 219
181 197 218
181 197 214
173 189 213
187 202 226
181 197 219
177 193 211
197 213 234
181 196 215
179 195 214
185 201 223
185 200 220
175 191 212
186 201 220
183 199 224
181 197 217
178 194 218
189 203 225
185 200 221
178 193 210
193 208 227
172 188 212
155 171 186
97 119 151
76 101 124
147 163 188
203 216 235
202 216 235
178 193 210
189 203 224
180 195 214
206 220 241
166 182 205
57 91 132
57 90 133
59 93 120
57 91 130
58 93 124
59 93 132
58 92 131
60 95 144
60 95 137
61 96 137
59 94 124
61 96 140
58 92 122
60 94 139
58 92 128
59 94 135
60 94 126
60 95 144
60 94 131
59 93 133
59 93 126
60 94 124
58 93 125
60 95 124
60 94 130
60 95 128
59 94 133
59 94 131
60 94 140
59 93 128
59 93 130
58 92 118
61 96 147
61 95 140
59 94 134
59 94 133
62 97 143
60 95 136
59 94 131
60 95 140
60 94 137
59 94 128
59 93 136
61 96 144
57 91 115
59 92 131
61 95 136
59 93 139
60 95 140
61 96 141
59 94 128
59 94 126
61 95 142
60 95 139
59 93 125
58 92 124
58 92 115
58 92 115
60 94 129
60 94 125
60 94 140
60 94 133
60 94 131
59 93 129
59 93 131
59 93 130
59 93 133
59 93 131
61 95 137
60 94 143
60 94 133
60 94 134
59 93 130
60 95 138
58 92 130
59 93 127
59 92 123
58 92 130
59 92 132
59 93 130
56 88 122
58 91 124
60 93 139
59 92 131
57 89 120
57 89 120
55 86 113
55 86 108
59 91 137
58 92 125
55 85 104
58 91 122
55 86 122
55 85 117
54 84 101
53 83 115
54 84 105
55 85 111
54 83 109
51 79 108
50 77 95
46 71 89
56 68 69
50 50 20
41 43 19
52 54 26
51 54 29
47 50 17
31 37 23
44 51 33
43 50 37
47 54 34
51 56 32
57 63 39
66 72 47
72 76 43
62 67 41
70 77 50
82 84 48
82 85 48
100 102 60
93 94 52
103 105 60
99 100 52
91 95 56
94 96 58
114 114 56
118 117 68
115 116 63
121 121 64
125 124 65
130 129 70
121 118 62
132 131 72
133 130 68
135 132 70
138 135 70
125 125 65
134 132 69
145 143 76
147 143 73
136 133 67
145 142 78
147 143 73
146 143 76
149 145 71
148 145 70
150 146 78
149 144 72
159 154 84
149 146 78
156 151 75
155 151 70
155 150 80
149 146 70
160 156 79
163 157 78
165 159 77
159 155 76
158 152 78
158 153 78
160 154 78
165 160 81
164 158 82
160 155 82
161 156 77
168 161 83
170 162 81
169 163 83
167 160 81
164 158 77
166 159 76
164 158 76
164 158 79
170 163 90
164 158 78
166 159 80
172 165 85
167 162 83
168 162 82
165 159 78
167 160 78
168 162 80
164 158 76
164 157 81
169 163 84
170 162 87
165 158 75
162 156 73
163 158 79
170 163 85
165 159 81
161 155 72
165 159 80
169 162 83
168 161 83
162 156 75
171 163 85
166 160 83
166 160 78
166 159 83
163 157 79
163 157 78
166 161 75
167 161 79
166 161 85
164 157 83
169 162 80
166 159 76
167 161 80
166 160 84
162 156 75
166 159 84
165 157 83
159 153 80
167 159 86
165 158 77
167 161 84
159 153 76
164 157 77
164 157 79
161 156 77
160 154 78
161 154 73
169 162 87
161 155 75
167 160 81
165 157 84
160 153 82
168 160 81
161 155 77
165 158 87
158 152 75
161 154 79
162 156 83
156 150 81
155 149 78
154 148 75
153 147 72
158 152 76
155 149 80
155 148 75
159 154 79
152 147 72
153 147 74
164 157 81
153 147 77
153 148 70
158 151 73
156 150 79
156 151 75
220 234 254
222 236 255
222 236 255
221 235 254
219 233 253
220 234 254
218 232 253
218 232 253
221 235 254
219 233 254
220 234 254
219 233 253
222 236 255
221 235 255
219 233 252
220 234 253
221 235 255
222 236 255
214 228 249
219 233 252
218 232 252
213 227 248
213 227 246
217 231 251
212 226 246
216 230 250
220 234 254
217 231 251
218 232 251
217 231 250
214 228 248
217 231 251
220 234 252
218 232 250
222 236 254
220 234 251
221 235 253
221 235 253
219 233 246
221 235 250
220 234 251
220 234 249
220 234 249
220 234 249
222 236 254
219 233 248
218 233 244
214 229 242
216 231 240
211 227 229
208 223 226
204 219 225
194 211 207
196 212 207
202 218 218
194 211 208
191 208 210
194 211 197
201 217 214
194 211 199
195 211 214
194 211 203
186 203 189
197 214 206
193 211 199
195 212 202
183 201 191
191 208 196
192 210 194
191 208 192
190 207 192
189 207 188
185 204 188
190 208 191
189 208 187
195 213 193
202 220 194
199 217 183
202 219 189
202 220 196
200 219 191
203 221 201
203 220 194
204 222 204
202 220 196
204 222 206
202 219 189
203 220 196
200 219 193
204 221 201
204 222 203
206 223 212
203 221 198
201 219 189
197 216 186
202 220 199
205 222 203
205 222 207
202 220 196
207 225 217
205 222 207
206 223 207
199 217 194
198 216 182
205 222 209
204 222 204
206 223 206
203 220 205
194 213 186
201 219 203
204 220 217
194 211 209
192 209 204
198 215 202
198 214 213
186 197 206
174 189 210
175 192 208
188 204 225
191 207 225
170 187 202
177 193 212
178 194 214
182 198 219
180 196 219
176 192 217
184 200 226
184 200 222
179 195 213
192 207 225
189 204 224
175 191 214
173 189 216
188 203 223
182 197 220
177 192 210
191 206 226
193 208 226
140 157 169
82 106 141
73 101 133
163 179 189
193 208 226
187 201 220
189 203 224
172 188 211
184 198 219
216 230 251
180 196 217
56 90 118
60 94 130
58 91 133
58 93 129
59 92 133
58 92 124
59 93 124
58 93 129
58 92 125
60 94 141
59 93 131
60 95 135
59 93 126
61 95 137
59 93 131
60 95 137
59 94 130
60 94 125
59 93 128
57 91 126
59 93 120
59 94 137
59 93 127
60 95 133
58 92 118
61 96 139
60 95 134
60 95 134
60 94 128
59 94 131
60 95 140
59 93 134
60 94 128
60 94 135
62 97 145
60 94 136
60 95 136
60 94 126
59 93 125
59 93 128
60 95 142
59 93 128
59 94 130
59 93 125
58 92 125
59 93 133
61 96 146
60 94 134
60 95 133
60 94 126
60 94 131
59 93 131
60 94 136
60 94 137
59 93 125
59 93 134
59 93 133
60 94 130
60 94 134
59 94 133
59 92 126
59 93 131
62 96 140
58 92 128
58 91 132
61 95 133
59 94 136
58 91 121
58 93 119
59 92 130
59 92 133
59 93 124
59 93 124
59 92 130
58 92 120
59 92 132
57 90 128
60 94 139
59 93 132
57 90 123
58 91 124
60 95 137
57 90 124
58 91 127
57 90 124
56 88 123
57 89 127
57 89 117
58 90 125
57 88 121
56 87 116
56 87 121
54 84 117
56 87 119
54 84 105
53 83 110
53 82 107
55 85 118
54 82 108
51 79 102
48 73 97
48 73 90
59 67 63
74 72 38
67 65 29
46 47 20
52 54 20
39 44 19
48 52 25
27 35 20
52 57 29
44 50 30
54 58 32
60 64 37
55 62 37
60 66 39
68 72 39
81 84 46
77 80 40
91 92 49
86 89 53
77 80 42
89 92 51
105 105 59
116 115 57
100 102 59
113 113 59
120 119 63
114 115 59
117 117 57
124 123 68
123 122 60
124 122 64
122 122 71
133 131 67
128 126 63
135 132 71
134 131 62
138 135 68
137 134 72
146 142 72
143 139 70
133 132 65
145 141 69
144 141 72
148 144 77
147 144 71
141 138 64
143 141 67
149 145 68
152 149 71
156 151 78
158 152 78
154 148 75
149 146 70
157 152 79
155 150 67
156 151 70
154 150 74
160 154 80
164 158 76
161 156 85
167 160 84
166 160 85
167 160 87
163 157 77
164 158 81
161 156 78
159 154 75
164 157 82
163 158 76
164 158 74
163 158 76
165 159 80
165 159 77
160 155 75
168 161 82
164 159 74
168 161 86
170 163 88
165 159 80
162 157 72
173 166 90
168 162 84
168 162 79
164 158 77
156 151 71
166 160 82
166 160 76
168 161 82
164 157 76
166 160 78
170 163 84
171 163 82
166 160 81
168 161 84
167 161 82
166 160 85
167 160 81
170 163 86
166 159 81
167 160 80
163 158 76
163 156 79
164 158 75
159 153 75
170 163 84
167 160 81
158 153 64
167 160 82
165 158 77
166 159 80
167 160 79
165 159 83
164 158 79
162 156 79
172 164 90
162 156 76
168 161 87
165 158 70
165 158 84
165 159 80
164 158 77
164 157 75
161 154 77
157 150 75
156 151 64
156 150 73
160 154 77
160 155 76
164 158 80
159 152 75
158 153 75
162 156 78
158 152 74
160 154 78
158 153 80
165 158 79
165 157 80
156 151 80
165 159 81
161 155 75
150 144 75
156 150 75
160 154 82
154 148 73
159 154 70
158 151 67
154 148 75
160 154 77
153 148 77
222 235 255
223 236 255
221 234 253
221 234 254
223 236 255
222 235 254
219 233 252
222 235 254
223 236 255
221 235 254
220 234 254
220 234 254
222 235 255
222 236 255
220 233 252
216 230 246
218 232 251
219 233 250
219 233 250
212 226 246
217 231 249
211 226 237
217 232 245
208 223 234
211 226 237
210 225 230
210 226 227
208 223 227
211 226 230
208 224 226
209 224 219
213 228 232
209 225 224
204 221 207
213 228 226
209 225 214
207 223 208
203 220 196
209 225 214
209 226 215
208 225 212
206 223 206
206 223 207
206 223 207
206 222 211
204 222 205
204 222 199
204 222 207
201 218 202
202 220 199
200 218 200
189 208 187
188 206 182
185 203 177
189 206 190
195 212 196
186 204 180
188 206 181
186 205 170
199 216 195
191 208 198
196 213 199
183 202 180
201 218 205
190 208 190
184 202 186
190 208 190
187 205 180
185 204 177
183 202 169
181 199 194
191 209 199
179 198 179
179 198 185
195 213 197
205 222 203
200 218 186
206 223 203
202 220 191
200 219 189
200 217 186
201 219 191
201 219 191
202 220 201
207 224 211
204 222 203
207 224 211
197 216 186
201 219 196
205 222 209
204 222 203
205 222 211
198 217 184
202 220 201
199 218 186
203 220 203
201 219 196
202 220 199
201 219 198
202 220 198
204 221 209
205 222 207
204 221 203
201 219 194
198 216 189
201 219 189
209 226 220
199 216 200
199 217 195
202 219 199
196 214 195
198 215 207
195 212 206
189 206 205
188 207 187
193 206 216
174 188 196
168 186 203
184 200 219
179 195 209
178 194 211
169 186 205
186 202 222
179 195 216
183 198 220
188 203 223
168 185 209
175 190 209
190 206 227
186 201 224
183 199 223
180 196 219
182 198 218
181 196 216
183 199 215
172 189 186
177 194 190
172 190 172
131 151 158
78 103 118
72 99 115
157 178 96
162 182 127
178 195 187
196 210 227
180 195 214
171 186 204
219 233 248
194 209 231
55 87 117
58 92 144
58 92 128
59 93 136
60 94 133
59 94 133
58 92 129
61 96 142
59 93 128
59 93 135
59 94 134
60 94 133
60 94 134
60 94 137
58 92 122
59 94 135
61 96 135
60 94 130
59 93 130
59 94 137
59 93 130
60 94 134
59 93 131
61 96 134
60 94 128
59 93 124
60 94 133
59 93 133
59 93 136
59 93 118
58 91 130
58 92 121
59 92 125
59 94 124
58 93 134
60 95 129
58 92 126
59 94 135
61 96 142
59 93 126
60 95 135
60 95 141
60 95 131
59 94 134
59 93 120
60 95 131
59 93 135
60 95 140
60 94 136
58 92 125
59 94 129
60 95 139
61 95 141
58 92 121
59 94 129
59 94 126
60 94 132
60 94 129
59 94 129
59 92 118
60 95 136
60 95 139
60 94 130
59 94 132
60 94 140
60 94 139
59 93 129
60 94 135
60 94 131
57 90 118
59 93 126
57 89 117
59 93 134
59 92 127
59 92 134
58 91 126
58 92 127
60 94 142
59 92 124
58 90 124
57 90 120
58 90 123
59 91 127
57 89 121
57 90 120
57 90 127
58 90 124
58 90 134
57 89 121
56 88 120
57 89 123
55 86 119
55 85 115
57 88 112
56 87 115
54 84 108
54 84 114
52 80 108
54 83 114
49 76 101
50 77 95
48 73 97
69 76 62
57 57 31
52 52 22
51 51 22
52 53 26
42 46 20
51 54 17
44 50 31
45 52 31
42 49 30
56 60 32
55 61 36
65 70 38
63 69 36
61 66 33
79 81 42
73 77 41
84 87 51
89 92 54
97 98 52
97 97 52
102 103 54
104 105 55
102 102 54
119 118 63
102 103 55
116 115 60
117 116 64
123 122 64
124 123 64
123 122 65
118 118 63
130 128 64
117 116 57
133 130 66
135 132 70
127 126 66
132 130 65
137 133 68
140 137 71
146 142 72
146 141 79
152 148 76
143 140 72
146 143 72
148 144 75
141 139 63
148 144 73
143 140 69
150 146 75
147 142 72
157 152 76
155 151 73
153 148 75
159 154 77
163 156 82
160 155 74
158 152 77
162 157 79
165 159 88
164 157 75
162 157 71
166 160 79
157 150 68
167 161 82
162 155 77
160 155 78
166 160 86
163 158 82
162 157 72
168 162 85
167 161 76
170 163 83
170 163 84
164 157 81
164 158 76
163 157 72
170 162 89
163 159 83
165 159 78
175 167 87
170 163 86
171 164 86
167 160 75
165 158 81
164 157 72
160 155 73
166 159 79
167 161 78
164 158 73
171 164 80
169 163 83
169 161 85
167 162 85
165 158 74
167 161 79
165 158 78
164 158 74
165 158 79
166 159 80
162 157 77
166 159 79
156 150 64
162 157 69
163 157 75
162 156 79
166 159 84
162 156 76
164 158 75
162 155 80
162 156 80
170 162 87
162 156 74
165 158 80
159 153 74
157 151 74
159 153 76
159 154 75
164 158 80
164 158 75
163 156 80
162 155 75
163 156 79
157 151 75
165 159 79
158 151 73
159 153 79
162 155 75
161 156 78
164 156 77
166 160 80
162 155 84
162 156 75
156 150 73
156 150 74
163 156 83
162 156 76
156 150 75
161 154 76
154 149 70
155 148 70
161 154 83
156 150 74
151 145 69
155 150 74
154 148 73
166 159 82
154 148 72
158 153 79
221 235 254
223 237 255
223 236 254
222 235 252
220 234 250
217 231 245
216 231 244
215 230 234
215 230 236
214 229 238
213 229 229
212 228 226
208 224 217
206 222 214
212 228 226
208 224 219
208 224 214
208 225 211
208 224 212
202 219 203
199 216 191
198 215 200
208 224 219
199 217 203
202 220 198
201 217 202
198 215 207
205 222 213
202 219 204
196 213 190
201 218 198
202 220 200
202 220 199
198 215 202
210 227 220
208 225 214
204 221 202
203 220 194
206 223 207
204 221 198
208 225 212
208 224 211
207 223 206
207 224 211
205 222 203
208 225 217
208 224 211
205 222 204
202 219 196
202 220 197
199 217 203
196 214 186
191 210 178
188 207 187
183 201 186
180 199 168
183 201 169
193 210 187
187 205 181
193 211 192
186 205 184
183 202 177
191 210 187
188 206 181
188 205 203
186 204 189
187 205 179
182 201 176
188 206 189
180 199 168
187 206 183
190 208 185
184 203 181
192 209 185
201 219 199
205 222 204
208 225 215
203 221 201
204 222 203
203 221 203
203 221 201
205 222 206
202 220 196
201 219 198
200 218 193
204 222 204
202 220 199
204 221 203
201 219 198
205 222 206
203 221 204
204 222 207
203 221 203
201 219 201
202 220 201
197 215 179
205 222 206
198 217 191
204 221 203
202 219 196
205 221 214
205 222 207
201 219 198
195 212 181
202 219 198
202 219 193
205 222 209
201 218 203
202 217 211
195 212 194
198 215 203
193 209 205
198 215 206
202 218 213
195 211 207
199 215 210
174 189 199
185 201 216
183 199 210
181 198 213
183 200 217
197 212 232
175 192 210
188 204 225
178 194 213
186 201 224
184 199 220
189 204 224
189 205 226
179 195 216
177 193 211
185 202 205
178 196 195
167 186 156
153 174 139
165 185 154
169 188 161
166 184 147
92 118 118
69 99 118
97 123 118
150 172 93
158 179 103
153 175 109
170 188 159
191 205 222
196 211 226
209 225 212
196 210 231
55 88 126
57 91 122
59 93 129
59 93 134
58 91 122
59 94 125
58 92 129
58 91 121
58 92 120
58 93 118
58 93 121
57 91 120
60 94 129
59 93 130
60 95 133
60 94 128
59 94 137
59 93 126
57 91 122
59 94 126
58 92 118
59 92 126
60 94 137
59 94 130
59 93 133
59 94 128
60 95 139
60 94 129
61 95 140
58 93 122
58 93 124
60 95 135
60 95 130
60 94 135
60 94 126
59 94 124
60 94 130
59 93 125
58 92 124
59 94 126
59 93 124
59 93 128
60 94 135
60 94 125
59 94 125
59 94 130
60 95 137
58 92 117
60 95 137
59 93 130
57 90 117
58 93 128
60 94 124
60 94 131
60 94 129
61 96 139
59 93 129
59 94 129
61 96 141
59 93 133
59 93 134
60 94 140
59 93 130
58 92 124
60 95 136
59 93 126
59 93 134
58 92 128
58 92 130
58 92 120
58 92 127
57 91 124
57 90 120
58 91 127
59 94 136
57 90 118
58 91 123
59 92 124
58 91 117
58 92 129
57 90 118
57 89 125
59 93 124
58 91 119
57 89 121
58 90 119
59 91 124
57 90 125
56 87 117
57 88 123
57 89 118
56 88 120
57 89 122
58 88 125
56 85 114
56 87 122
52 81 110
54 83 114
52 79 100
51 78 94
49 75 99
45 68 87
91 93 66
73 73 40
68 67 30
49 50 26
50 51 21
47 50 13
45 47 14
44 48 29
50 55 30
48 54 24
46 54 32
66 67 33
59 63 32
63 69 36
74 77 37
80 82 44
73 75 37
90 92 52
88 88 43
97 99 61
85 88 50
106 108 58
89 91 47
98 99 50
107 107 50
101 102 59
112 112 62
118 117 64
121 119 54
114 114 55
127 125 61
129 127 64
133 131 64
133 130 62
131 129 62
137 134 66
134 132 65
132 130 60
144 141 72
141 137 72
141 138 69
143 140 73
146 143 68
145 140 65
149 145 71
152 147 73
149 144 72
154 149 76
156 152 76
148 143 63
143 140 67
153 149 76
149 145 69
152 147 72
154 150 76
158 153 70
160 154 82
156 151 77
153 149 74
164 157 80
162 156 80
161 156 77
164 158 78
164 158 79
160 154 72
163 157 75
161 156 73
165 158 80
164 158 77
163 158 74
162 156 80
166 160 84
165 159 82
165 159 73
170 163 82
168 162 85
168 162 81
162 157 75
165 160 79
168 162 81
167 160 76
167 161 79
164 159 74
165 158 75
167 161 79
168 161 81
169 162 82
165 159 74
167 161 77
165 159 78
166 160 80
159 155 70
168 161 84
167 162 83
166 158 75
166 159 81
168 161 87
173 165 84
162 156 77
167 161 82
167 160 74
170 163 80
163 156 78
166 160 79
159 152 72
168 160 81
167 160 81
167 160 83
157 151 71
162 155 74
164 157 78
163 156 80
157 152 70
163 157 74
162 156 76
162 155 79
160 154 69
165 159 88
162 156 76
158 153 75
160 154 75
159 152 78
161 154 84
164 157 76
163 157 75
161 154 73
161 154 82
159 153 74
162 154 80
158 152 71
154 149 65
164 156 79
160 155 71
151 145 59
164 157 76
158 150 76
157 151 75
158 152 74
159 152 77
162 155 75
158 151 78
153 147 71
156 150 73
162 155 80
163 157 82
155 149 67
147 141 71
158 152 77
152 147 71
208 224 211
209 225 215
205 221 207
203 220 203
208 224 213
205 222 201
199 217 193
203 220 200
206 223 210
204 221 203
204 221 213
208 225 212
205 222 199
205 222 204
212 227 225
205 221 204
207 223 210
202 219 196
202 219 198
198 215 195
205 221 210
200 218 204
205 221 216
205 221 208
199 216 195
200 217 194
202 219 199
203 220 202
203 220 206
203 219 204
202 219 204
201 218 205
200 218 194
200 217 201
205 222 203
206 223 207
205 222 205
204 221 206
209 225 219
207 223 211
203 221 199
207 224 214
207 224 207
208 224 209
203 221 200
203 221 199
203 221 199
200 218 188
197 215 182
205 222 208
203 220 211
197 214 190
201 218 194
192 210 190
192 210 190
185 203 185
174 193 184
187 205 188
193 211 188
187 206 176
187 205 177
183 202 181
187 205 183
188 206 182
186 204 184
191 208 198
191 208 198
192 210 189
191 209 191
193 211 190
191 209 189
195 212 201
195 214 196
201 219 202
202 220 198
201 219 191
204 221 201
207 224 214
204 222 204
200 218 198
200 218 189
203 221 204
202 220 196
205 223 209
202 220 204
205 222 209
206 223 209
204 222 206
202 221 204
202 220 198
199 217 189
199 217 193
199 217 188
197 216 188
204 222 209
202 220 193
200 218 196
204 221 204
203 221 199
202 220 204
206 223 209
202 220 198
204 221 211
202 219 209
201 219 201
201 217 204
196 212 193
199 216 194
200 217 199
202 218 212
201 216 213
199 215 207
192 209 204
197 213 208
198 215 204
194 210 194
188 204 208
194 210 225
179 196 206
178 195 215
183 199 217
175 191 206
180 196 216
199 215 234
184 200 217
184 201 210
166 184 181
166 186 176
165 184 157
154 175 142
157 178 134
156 177 147
161 182 145
156 177 143
164 184 147
165 186 139
165 185 167
165 184 151
77 103 121
78 104 97
133 156 85
148 172 61
157 179 90
151 173 72
148 170 100
160 177 174
196 211 212
197 216 173
210 224 228
57 91 125
55 88 125
58 91 113
58 92 126
57 91 129
57 91 126
58 91 118
58 92 121
59 94 129
58 92 135
58 92 126
59 94 133
58 92 124
60 95 137
60 94 122
60 95 139
60 94 131
58 92 121
59 94 129
60 95 133
59 92 121
59 93 137
59 93 125
59 94 128
59 93 128
60 95 131
60 94 128
60 94 135
59 93 129
60 95 136
59 93 124
60 95 139
60 94 131
60 95 141
60 94 134
60 94 130
57 91 126
60 94 130
58 92 122
58 92 121
58 92 131
59 93 131
60 94 129
60 94 139
60 94 128
59 93 125
60 95 135
59 94 124
59 93 130
61 95 136
59 94 131
60 95 137
58 91 121
60 93 130
60 94 134
61 95 139
60 94 130
59 93 130
59 93 118
59 93 121
59 93 129
60 94 133
58 92 124
60 95 136
60 94 125
57 90 121
59 94 124
59 93 133
58 91 130
59 92 123
57 90 132
58 92 124
59 92 129
58 91 124
59 93 132
60 94 136
59 93 133
59 92 124
57 90 124
58 91 128
58 91 128
58 90 125
59 92 123
58 91 126
59 92 130
57 90 123
58 90 123
58 90 130
56 87 121
56 87 118
54 85 116
57 88 122
57 88 123
54 84 116
57 88 118
53 82 100
52 80 94
54 84 110
50 77 99
50 76 88
50 76 94
45 68 85
146 151 143
70 69 27
59 59 24
41 45 20
50 52 19
53 55 20
40 48 22
42 47 19
47 53 23
61 65 27
57 62 32
53 59 32
59 63 33
67 73 42
69 72 39
72 75 32
79 80 44
81 84 39
91 92 50
93 96 52
90 93 53
108 108 56
102 102 48
100 101 57
99 99 53
111 111 53
97 98 49
122 120 65
114 113 56
118 116 58
119 119 66
124 122 61
130 128 68
127 125 68
131 129 61
134 130 63
141 138 76
128 126 67
136 132 64
138 135 65
141 137 70
144 139 68
140 137 58
138 135 67
144 141 65
142 138 68
151 147 73
148 144 63
144 141 65
147 144 68
149 146 63
150 146 72
155 150 71
151 148 72
158 153 74
154 149 67
153 147 70
163 157 80
159 153 70
165 158 79
159 154 78
160 155 80
162 156 74
160 155 73
156 151 71
159 155 69
165 159 77
159 154 70
164 157 80
162 156 75
160 154 72
160 154 70
165 160 78
169 162 82
169 163 84
165 159 78
159 154 71
169 162 84
167 159 80
168 162 79
163 158 72
165 158 75
162 156 75
168 161 80
164 157 75
162 156 73
170 163 83
164 158 76
169 161 82
166 160 78
162 156 78
162 156 74
168 161 76
164 158 75
164 159 77
165 159 75
166 159 76
166 160 80
165 158 76
164 157 78
165 159 77
162 155 74
160 154 71
164 158 75
161 155 81
161 154 71
159 153 70
160 154 70
161 155 74
160 154 74
167 160 81
162 156 72
156 150 73
166 159 78
164 158 77
162 155 75
159 153 75
162 156 75
165 158 80
162 155 75
163 156 73
167 160 83
157 151 76
157 151 72
163 156 74
164 158 82
155 149 72
161 154 76
157 150 74
162 156 75
156 149 73
154 148 69
153 147 67
157 151 80
161 154 79
157 151 71
147 142 69
166 158 77
154 148 68
153 147 68
158 152 71
152 147 68
159 152 76
155 150 73
161 155 80
161 154 82
159 153 75
155 149 74
146 140 71
209 225 212
211 226 220
207 224 211
208 224 211
206 223 207
205 222 203
206 222 210
204 221 203
207 224 204
206 222 203
205 222 201
208 224 211
208 224 211
207 224 212
204 221 198
203 220 194
203 220 200
205 221 207
205 222 208
198 216 194
204 221 207
199 216 209
204 220 204
207 223 214
201 218 201
203 220 207
191 209 181
197 214 192
201 217 206
199 216 191
199 216 194
205 222 206
205 222 210
204 221 204
202 219 202
208 224 211
209 225 212
203 221 198
206 223 204
205 222 203
209 225 215
205 222 205
206 223 206
209 225 215
203 221 194
204 221 198
204 222 198
201 219 193
205 222 204
202 220 196
201 218 197
195 213 190
198 215 193
193 211 182
192 211 187
192 209 188
193 210 187
190 208 182
193 211 188
186 204 188
179 199 165
186 204 191
187 205 188
190 207 200
188 205 183
188 206 180
191 209 194
189 207 194
182 201 171
198 215 199
188 206 173
193 211 195
200 218 202
207 224 215
207 224 214
200 219 194
202 221 203
197 216 188
202 220 199
197 216 186
202 220 198
208 225 214
201 219 194
203 221 204
204 221 204
202 220 201
194 213 171
201 219 198
204 221 206
203 221 204
201 219 198
201 219 193
201 219 201
201 219 199
200 218 198
204 222 211
205 223 209
204 221 204
199 217 198
201 219 203
200 218 201
201 218 206
201 217 199
201 219 199
203 221 204
203 219 211
202 218 209
199 216 199
197 215 206
194 210 196
198 213 204
199 214 208
192 208 201
192 207 201
198 214 211
196 211 205
186 203 196
177 194 196
173 191 190
172 190 175
170 188 180
166 185 163
171 191 171
156 177 142
156 178 134
158 179 150
157 179 132
168 189 141
157 179 143
158 178 140
156 177 134
157 177 148
161 181 156
165 185 147
157 178 134
169 189 161
164 184 157
142 163 138
78 106 103
91 117 81
145 168 67
151 174 57
150 173 72
156 179 76
146 167 100
160 180 124
205 221 207
201 219 188
213 229 226
94 117 148
56 89 118
57 91 129
59 93 123
59 93 125
58 91 118
59 93 126
58 92 124
59 94 131
59 94 135
60 94 134
58 92 120
59 93 133
59 93 128
59 93 125
59 93 131
59 94 133
58 92 133
59 93 124
59 94 129
60 94 134
58 92 118
59 93 124
59 94 122
59 93 128
59 93 128
59 92 125
60 94 126
62 97 145
59 94 131
58 92 120
60 94 131
61 95 137
58 91 122
59 93 126
61 95 133
59 93 130
59 93 124
59 93 124
59 92 128
59 93 125
60 94 130
60 94 134
59 92 118
60 94 134
58 93 131
58 92 128
59 94 126
60 94 124
60 94 130
59 93 130
60 95 134
59 93 129
60 95 139
60 94 130
59 92 130
60 94 130
61 96 143
58 93 113
60 94 135
60 94 135
57 91 120
59 92 128
59 93 138
56 90 117
58 91 118
58 91 124
57 91 126
59 93 130
61 95 133
59 92 121
59 93 129
59 93 132
60 93 134
58 91 124
59 92 131
56 88 114
58 92 123
57 89 119
55 86 115
57 90 127
58 91 126
58 91 130
54 85 112
57 90 113
56 87 115
56 88 118
58 89 120
55 87 109
57 89 121
55 87 112
57 88 121
58 90 123
56 87 124
55 86 121
56 86 119
55 84 107
55 85 114
51 79 109
53 81 103
46 69 79
82 97 114
191 201 212
80 78 34
64 64 21
52 53 22
58 59 17
55 56 8
45 48 18
52 54 25
44 50 25
45 52 30
54 58 30
55 60 32
69 70 31
58 64 33
78 81 34
75 79 44
71 75 42
75 78 33
70 76 46
78 81 39
94 95 41
106 105 48
106 106 57
96 97 51
105 107 56
105 105 48
109 109 49
104 105 58
123 120 60
116 116 52
125 123 57
125 122 62
130 127 69
131 128 63
134 131 62
123 121 57
137 134 65
138 135 59
133 131 66
145 140 68
136 133 65
145 140 62
142 139 67
145 141 69
148 143 66
140 137 68
152 147 72
146 142 72
145 141 64
142 139 60
151 147 73
160 154 78
145 141 68
149 145 64
155 150 77
149 145 71
151 146 69
153 149 76
158 153 72
150 144 68
157 151 74
162 156 73
151 147 73
164 157 74
158 153 75
163 157 76
159 154 71
159 154 69
168 161 79
163 157 78
158 153 75
163 157 75
159 153 75
157 151 67
164 158 81
164 158 74
166 160 75
166 160 75
163 157 69
169 162 81
164 158 75
167 161 79
166 159 76
162 156 76
165 159 72
166 159 82
166 158 76
160 154 66
162 156 72
165 159 83
166 158 80
165 158 72
169 162 83
166 160 82
168 161 76
169 162 86
166 159 76
161 155 69
166 159 75
157 152 65
161 154 72
162 156 74
165 159 77
169 162 84
161 155 72
166 159 80
163 156 76
167 160 83
167 160 75
164 157 77
160 153 74
157 150 69
160 154 73
167 159 80
160 153 74
161 154 76
161 155 79
164 157 78
164 158 76
167 160 80
159 153 69
162 156 79
160 154 75
151 145 67
159 153 72
157 152 71
166 159 80
156 150 75
154 148 69
160 153 75
152 145 69
154 149 71
156 149 75
160 153 82
150 144 69
158 151 74
150 145 64
153 148 69
157 150 72
154 148 78
158 151 75
151 145 69
156 149 71
161 155 75
164 158 78
159 154 76
149 143 73
154 148 68
150 142 72
208 224 211
209 226 214
204 221 198
209 225 214
208 224 209
209 225 215
206 222 211
203 220 202
207 223 209
204 221 212
206 222 206
207 224 207
205 221 202
205 223 203
200 217 199
205 222 211
207 223 213
204 221 202
205 222 209
201 218 203
201 217 195
203 220 205
207 223 214
199 216 193
207 223 214
201 218 210
203 220 199
203 220 209
204 221 212
200 217 199
202 219 197
200 217 208
205 222 203
206 223 214
203 220 199
204 221 201
207 224 211
207 224 207
208 225 214
206 223 209
206 222 207
205 222 204
206 223 207
199 217 184
204 222 201
205 222 203
203 221 194
204 221 199
203 221 200
201 219 189
205 222 206
199 217 195
206 223 214
201 218 205
204 221 201
201 218 194
191 209 193
179 197 182
185 204 179
194 211 191
183 201 193
188 205 201
190 207 197
193 210 188
189 207 187
192 209 196
184 202 187
194 212 193
184 203 177
196 214 189
194 212 181
203 220 209
199 218 186
199 217 198
203 221 199
201 219 199
199 218 188
204 221 206
203 220 198
202 220 206
198 216 191
199 217 191
201 218 199
200 218 191
203 220 203
201 219 199
201 219 196
201 218 189
199 218 196
198 217 188
197 215 191
199 217 188
202 220 203
205 222 211
198 215 199
201 219 204
199 217 201
202 219 199
201 218 196
200 217 204
198 215 198
200 217 198
201 217 206
203 220 207
189 208 181
188 206 167
188 205 175
195 212 183
187 206 161
184 203 157
179 197 150
180 198 151
174 194 113
173 192 128
166 186 108
168 187 111
167 188 99
163 185 115
154 176 115
157 180 108
157 178 151
164 184 141
159 181 155
159 180 148
142 164 133
146 168 128
157 179 140
155 176 136
157 179 148
152 173 140
159 180 144
172 192 159
167 187 157
158 178 130
158 177 137
158 179 143
149 169 126
120 142 114
68 96 97
126 150 87
150 173 66
149 173 71
149 170 74
150 171 95
149 170 92
141 165 82
198 216 180
195 214 161
220 234 242
128 147 171
58 92 121
59 93 132
57 90 118
59 94 129
58 93 128
58 92 120
58 92 126
59 93 126
60 94 130
59 94 136
59 93 122
59 93 125
58 92 121
59 93 120
60 94 125
58 92 118
60 95 126
58 92 126
60 93 130
59 94 131
60 94 131
60 95 125
58 91 121
57 90 125
59 93 117
58 92 115
59 93 126
59 93 131
60 94 130
59 93 129
60 94 120
60 94 129
59 94 129
60 94 128
59 93 122
60 94 130
60 94 129
59 93 130
57 90 118
58 92 121
61 95 125
59 94 128
61 95 135
60 94 130
59 93 117
59 93 129
58 91 128
58 92 129
59 94 139
58 93 122
60 94 125
58 92 124
59 93 118
57 91 121
58 92 128
58 92 114
59 93 131
60 94 134
57 91 121
60 95 131
59 93 130
59 93 133
59 93 127
58 91 123
60 94 136
59 93 126
59 92 124
58 90 117
59 93 133
59 93 126
57 90 117
58 91 128
58 91 120
59 93 138
57 90 115
58 91 120
58 91 120
58 91 131
58 91 127
58 91 121
58 90 125
57 89 120
58 90 120
55 87 119
56 87 112
59 91 133
56 88 108
57 89 115
56 88 111
58 90 117
53 82 107
55 85 106
56 87 116
54 84 108
55 84 112
50 77 87
54 84 111
53 82 109
52 81 107
48 73 89
117 131 143
198 209 221
84 82 31
70 69 23
66 66 24
62 62 22
44 48 19
42 45 23
52 54 17
51 55 20
52 54 17
52 57 32
52 57 24
65 69 34
62 66 32
60 62 28
76 79 34
73 78 31
81 84 39
93 94 47
81 84 42
107 106 53
84 88 42
99 99 54
105 104 49
97 96 42
101 100 51
115 114 58
115 114 59
109 109 62
116 115 53
123 122 57
121 121 63
122 120 64
131 129 58
126 124 64
135 132 69
126 124 65
129 127 65
142 138 67
133 130 63
138 135 60
134 130 59
133 131 63
141 138 62
140 137 64
141 137 70
145 142 63
151 147 71
147 143 65
156 151 75
154 150 68
156 151 71
151 146 72
145 142 68
150 145 71
153 148 72
159 154 70
154 148 69
161 155 84
158 153 75
155 149 73
157 151 71
159 154 78
161 155 69
158 153 64
159 153 66
160 155 69
164 158 77
162 156 77
166 158 75
165 159 82
162 156 71
164 158 75
156 151 63
164 158 74
169 162 77
160 154 72
163 156 75
160 155 65
161 155 75
164 158 73
163 157 77
162 156 75
166 158 77
162 155 71
164 158 77
164 158 73
159 154 73
166 160 77
164 157 75
164 157 72
162 156 69
166 159 75
158 153 71
165 159 68
166 159 82
163 157 71
165 159 79
167 158 83
161 156 73
161 156 72
165 158 75
165 158 75
165 159 75
163 157 75
160 153 69
167 161 79
164 157 78
163 157 72
159 153 75
160 154 77
158 152 73
161 156 72
165 159 77
167 158 84
163 157 75
158 152 72
159 153 69
161 155 77
161 154 72
155 150 71
153 148 73
158 152 72
157 151 73
157 152 65
161 155 77
167 159 72
162 155 75
157 151 71
158 152 69
157 151 69
156 150 72
153 148 68
154 149 65
153 147 75
163 156 71
156 149 72
159 152 73
152 146 74
163 157 77
164 157 80
158 152 68
152 146 70
153 148 67
157 150 73
151 144 72
148 141 72
154 149 66
164 156 79
190 210 140
191 211 149
198 216 177
197 215 174
194 213 161
201 218 184
201 219 188
199 217 190
204 221 202
206 222 217
207 223 213
196 214 171
204 220 207
205 222 204
206 223 203
206 223 207
203 220 198
202 219 203
206 223 214
204 221 203
199 217 199
207 223 211
201 218 210
201 219 193
208 225 221
200 217 200
204 221 203
200 217 210
210 226 215
198 216 190
201 218 198
202 219 202
204 221 209
205 222 214
206 222 214
202 220 196
204 222 207
205 223 207
203 220 199
208 225 212
208 225 219
205 223 209
204 221 201
209 225 217
204 222 206
202 220 196
207 224 209
201 218 188
204 222 201
206 223 207
205 222 199
203 220 196
203 220 206
200 217 199
203 221 207
199 216 195
200 217 200
203 220 205
196 214 207
195 212 199
191 210 188
182 201 180
190 208 190
192 209 202
190 208 186
193 211 192
194 212 180
197 215 194
197 216 188
200 219 194
203 221 204
203 220 204
203 220 201
205 223 212
207 224 211
205 223 211
201 219 188
205 223 207
203 221 204
200 219 193
198 216 186
208 225 218
201 219 196
199 217 203
203 221 204
203 220 196
200 217 201
202 220 201
204 222 212
196 216 194
196 215 184
192 212 167
190 210 159
190 210 161
185 206 151
190 210 161
190 211 167
186 207 157
176 197 117
182 203 130
175 197 111
175 197 111
176 198 99
170 193 92
174 196 111
174 195 105
174 197 102
173 194 108
170 191 117
172 193 102
166 187 115
169 189 105
170 190 108
167 188 107
165 185 102
161 181 107
166 184 110
163 183 124
157 180 136
151 174 118
151 173 130
158 180 118
148 169 131
153 175 142
146 168 127
159 181 133
158 180 125
153 176 128
149 171 139
152 175 118
157 178 152
170 191 153
157 178 126
164 184 146
151 171 134
166 184 159
166 187 134
92 116 117
99 123 85
153 175 57
146 169 77
150 173 57
155 179 54
155 177 83
152 174 82
160 183 66
202 219 182
199 217 175
222 235 249
148 165 188
58 91 125
55 87 107
57 91 121
58 92 125
57 90 113
57 91 122
60 94 126
56 90 108
57 90 120
57 91 121
60 94 134
58 91 129
58 91 133
58 92 126
58 92 120
59 93 135
60 94 130
57 90 114
58 92 125
58 92 128
58 92 125
59 94 125
58 92 122
59 94 126
60 94 133
59 93 129
59 93 130
60 95 134
59 93 126
58 93 126
61 96 137
56 88 111
59 93 125
60 94 139
59 93 118
60 94 134
57 91 118
58 92 117
58 92 121
59 92 125
57 90 110
59 92 124
59 94 134
60 94 134
59 93 131
57 91 118
59 93 126
58 91 120
59 93 139
57 90 117
58 92 114
58 91 120
61 95 136
59 93 126
60 94 133
59 93 125
59 93 126
60 94 129
59 94 131
60 95 131
59 92 121
59 93 128
59 92 128
57 91 122
59 92 120
59 93 128
59 92 128
58 91 117
57 90 117
58 91 120
57 89 113
59 92 134
58 92 129
58 91 125
59 93 124
57 90 121
57 90 124
58 91 121
58 91 134
59 92 125
58 90 117
56 88 117
57 90 122
57 90 122
58 90 126
55 85 118
56 88 114
57 88 117
58 90 126
57 89 110
56 87 113
56 87 121
56 86 110
55 84 116
52 81 103
54 83 122
52 80 99
54 82 94
49 75 95
47 71 81
147 160 173
220 232 250
87 86 54
79 78 29
69 69 14
56 56 15
53 55 13
54 57 17
48 51 13
50 56 21
52 57 24
51 53 19
52 57 17
68 71 28
61 66 29
66 71 35
65 70 37
78 80 33
84 86 46
91 92 41
86 88 38
78 81 43
92 94 46
93 94 41
93 94 49
101 102 48
92 93 47
107 107 50
116 115 54
115 115 50
113 112 59
127 123 64
121 120 56
119 118 53
134 131 65
139 136 60
127 124 54
127 126 55
132 130 61
138 135 65
142 138 69
139 136 63
137 135 62
136 135 64
142 138 70
144 139 69
148 143 65
152 148 67
146 142 70
150 145 63
152 147 70
147 142 63
153 147 64
148 143 68
148 144 66
150 145 65
151 146 73
159 153 72
152 147 58
154 149 65
159 154 78
162 156 75
150 145 71
159 154 74
161 155 77
157 152 71
155 150 66
162 156 73
164 158 77
156 152 65
166 159 81
165 159 72
159 154 73
159 153 71
159 153 66
162 155 78
158 151 71
166 159 74
163 156 75
168 161 80
164 158 75
162 157 72
165 159 70
170 163 82
166 159 75
165 158 73
161 156 71
167 160 74
167 160 75
165 159 73
161 155 67
164 158 74
165 159 78
167 160 75
162 157 70
163 156 75
161 155 75
162 156 79
167 159 81
168 161 79
168 161 81
163 158 73
161 155 72
161 155 67
168 161 83
167 160 80
165 158 73
166 159 76
165 159 75
165 159 77
157 151 70
162 155 75
166 159 84
159 153 66
162 155 75
159 152 72
163 157 75
163 158 75
160 154 71
166 158 78
160 154 70
161 156 74
161 156 72
159 153 69
159 152 74
157 151 68
159 151 74
157 150 73
160 154 72
155 149 72
159 152 70
152 146 63
157 150 76
161 155 79
158 152 71
158 151 77
150 145 63
158 151 73
157 150 75
154 147 67
158 152 72
155 149 73
155 150 61
148 142 64
160 153 80
151 145 69
156 149 72
158 153 71
149 143 65
155 149 70
186 207 139
185 206 118
188 208 135
187 208 140
186 207 126
189 210 140
188 208 148
186 207 134
185 206 134
182 204 129
185 206 125
185 206 131
185 206 146
188 209 148
185 206 126
195 214 165
194 214 170
193 213 169
193 212 156
199 217 183
199 216 192
193 211 175
197 215 181
194 212 181
198 215 201
197 215 181
206 222 213
208 225 220
202 219 206
200 217 200
202 220 197
202 219 198
197 216 194
199 217 191
201 218 195
204 221 204
207 223 209
207 224 206
208 224 204
207 224 214
204 221 207
202 220 194
202 219 196
206 223 206
203 221 196
204 222 201
203 221 198
204 221 198
201 219 189
205 222 203
204 221 207
205 222 201
206 223 212
204 221 204
198 217 196
197 215 188
200 218 195
196 214 184
199 217 204
200 217 207
198 215 198
199 217 197
203 220 205
198 216 195
194 213 177
199 217 197
199 218 189
196 215 179
198 217 189
201 219 194
191 211 167
195 213 177
190 210 165
191 211 157
195 214 177
186 208 142
188 209 149
189 211 163
187 208 149
187 208 147
182 204 128
183 205 135
179 202 111
179 203 108
183 206 133
181 204 114
178 200 99
178 202 120
176 200 102
177 200 105
175 199 99
177 200 114
176 199 102
176 200 105
179 202 102
175 199 95
172 195 72
175 198 117
179 202 125
171 195 72
176 199 105
174 197 102
176 199 114
175 198 105
174 196 105
174 195 108
173 194 99
171 193 111
167 189 102
171 193 95
158 178 105
166 188 107
167 187 102
169 192 80
164 186 107
165 187 108
165 187 115
157 177 80
154 176 125
150 172 124
154 176 125
158 180 130
157 178 142
156 178 130
154 176 130
155 177 118
152 173 129
149 171 111
151 172 139
159 180 135
160 181 129
156 177 132
162 183 144
156 176 140
159 181 131
166 185 153
150 171 124
81 108 101
140 163 78
148 171 60
146 170 46
155 177 52
140 164 58
145 167 94
153 175 90
176 199 80
196 215 167
197 216 171
219 233 240
164 181 182
57 90 110
55 88 109
59 93 130
59 93 130
58 91 125
59 93 128
58 92 124
57 91 113
58 92 124
58 92 124
59 94 128
59 94 125
57 90 120
59 92 124
58 92 118
59 92 120
58 92 128
58 92 120
59 93 130
59 93 129
60 94 135
60 94 133
59 93 126
60 94 133
58 92 121
57 91 120
58 92 118
58 93 125
59 93 129
58 92 113
60 95 134
59 94 126
60 95 134
57 90 120
59 93 118
57 90 122
57 91 115
60 94 130
58 92 110
60 94 121
60 94 131
58 92 117
63 98 149
58 92 125
58 92 125
59 94 131
59 93 128
59 93 120
59 93 126
60 94 128
57 91 122
59 93 121
59 92 122
57 90 121
59 93 118
59 93 126
59 94 133
58 91 113
58 91 120
59 92 126
59 94 128
57 91 120
59 93 128
59 93 130
59 93 128
60 94 134
58 91 121
59 93 132
59 92 121
59 92 131
56 89 120
58 91 125
59 93 130
59 92 131
58 91 129
58 91 132
58 91 123
58 91 120
58 90 124
59 93 124
58 90 118
58 91 120
58 91 119
58 90 121
56 88 115
56 88 113
58 90 122
56 86 112
54 85 106
57 89 120
55 85 114
56 87 119
55 86 107
56 87 116
54 83 97
53 82 107
53 81 105
50 77 87
49 75 88
47 72 86
178 192 187
217 231 233
121 125 105
92 89 29
57 58 13
64 64 25
64 65 22
58 62 18
54 57 10
47 51 18
58 63 24
61 64 28
49 53 22
61 65 26
63 66 30
75 76 24
67 69 28
84 85 34
78 81 40
86 88 39
78 81 44
88 90 33
116 114 55
93 94 38
101 101 47
102 101 41
96 99 50
118 116 59
102 102 50
104 103 46
123 121 58
126 123 56
120 118 58
126 124 62
122 122 50
120 117 48
135 131 59
135 132 59
131 128 59
130 128 50
131 128 61
136 134 63
136 134 60
142 138 63
146 142 64
141 137 69
142 139 60
153 147 73
141 137 55
153 148 73
148 143 67
149 144 64
145 141 68
150 145 64
148 144 61
154 149 72
152 147 68
151 145 70
157 152 68
154 149 67
154 149 62
149 145 67
154 149 69
159 154 71
159 153 73
158 153 72
157 152 69
152 148 61
159 153 68
157 151 71
162 156 75
162 156 76
161 155 73
163 156 75
162 156 75
163 156 73
168 162 76
163 157 71
161 155 75
164 157 74
162 156 74
163 156 80
168 161 78
168 161 78
163 157 66
167 160 78
160 155 63
164 158 75
163 157 74
168 161 84
161 155 70
160 154 77
165 159 71
164 157 75
164 157 75
160 154 73
162 156 70
165 157 80
162 156 76
164 157 75
164 158 71
162 155 75
163 157 68
162 156 79
159 153 70
155 150 62
163 156 65
160 153 78
158 152 70
159 153 70
163 156 76
158 152 68
163 156 74
156 151 69
161 154 74
158 152 68
158 151 76
164 158 72
160 154 65
162 155 73
161 154 72
164 158 74
157 151 74
159 152 73
153 147 69
152 146 66
160 154 72
158 151 70
162 156 73
164 156 77
155 149 66
159 153 75
160 152 75
155 149 75
157 150 75
160 154 79
162 155 76
151 144 64
154 146 72
153 147 71
149 143 69
151 145 69
158 151 74
152 145 68
155 148 73
151 145 63
148 142 66
145 141 60
161 155 77
149 142 67
190 210 147
189 209 143
185 206 121
187 208 144
184 206 122
183 204 115
183 205 130
187 208 136
184 205 133
185 206 139
184 204 126
184 206 124
177 198 104
179 201 117
180 202 102
185 206 118
184 205 115
182 203 130
186 208 141
184 205 117
184 205 130
181 203 103
182 204 122
178 200 97
177 200 108
175 197 97
180 202 112
178 200 122
173 196 93
174 196 105
177 200 103
179 200 126
181 203 125
182 204 115
183 205 134
180 202 110
186 207 128
185 206 122
186 208 140
184 206 122
189 209 140
187 208 135
187 208 142
185 207 128
180 202 120
185 206 133
184 205 125
182 204 105
183 204 111
183 205 125
180 202 97
184 206 122
183 205 141
179 202 84
182 205 128
180 203 117
182 204 117
175 198 108
179 202 114
180 203 124
178 201 99
178 201 103
180 203 114
179 202 88
179 202 105
179 202 99
179 202 95
179 203 108
178 200 102
181 204 128
179 203 125
178 201 95
180 203 105
179 203 117
182 204 133
178 202 125
180 202 111
179 202 108
179 202 114
180 202 108
179 202 114
178 201 111
177 200 95
176 199 92
175 199 99
178 201 111
176 199 108
177 201 108
176 200 95
177 201 122
172 195 72
176 199 128
176 199 105
177 200 111
174 197 108
176 199 102
175 197 99
174 197 92
176 199 122
174 197 111
174 197 111
175 198 122
179 201 122
170 192 80
172 195 111
174 197 111
172 195 125
169 191 88
169 192 95
170 191 99
168 189 133
168 189 80
165 187 95
169 191 95
172 194 117
157 179 90
167 188 94
161 182 108
159 181 118
152 175 129
153 175 117
161 183 135
163 183 154
153 175 135
151 172 136
159 180 131
149 171 126
160 182 130
160 181 133
158 180 130
157 178 130
158 179 134
154 176 133
153 173 140
167 187 145
151 172 134
134 156 105
125 149 67
142 166 47
144 168 60
148 171 64
146 169 66
148 170 65
160 182 103
165 187 65
178 200 72
197 215 169
183 204 102
175 198 0
159 183 37
56 89 111
54 86 111
56 89 125
58 92 122
57 91 108
57 91 108
58 91 118
59 92 119
56 89 115
59 93 126
59 94 124
58 91 111
59 93 126
59 94 126
61 95 143
59 93 126
60 94 131
60 94 133
59 93 128
60 94 130
59 94 129
60 94 131
61 96 143
58 92 128
59 93 121
59 93 124
59 94 125
60 94 128
58 92 126
58 92 118
58 92 128
60 95 130
60 94 129
59 93 135
59 93 130
58 91 117
60 95 128
60 94 135
60 94 131
58 91 121
59 92 125
59 93 118
59 94 131
57 90 120
60 95 133
59 93 124
61 95 136
57 91 117
58 92 115
60 94 131
59 93 124
59 94 128
58 92 122
61 95 136
58 92 125
57 90 115
58 92 121
58 92 113
60 94 126
56 90 108
59 93 130
59 93 118
58 91 128
58 90 117
59 92 124
58 91 124
58 92 125
58 91 123
59 93 134
58 91 128
57 90 111
59 92 129
57 89 118
59 92 131
56 89 111
57 88 113
56 89 115
58 91 122
56 87 113
57 89 126
55 87 114
59 92 124
57 89 127
57 89 122
58 89 130
57 90 119
56 88 120
55 86 117
55 87 120
54 84 103
56 87 113
55 85 107
54 84 116
52 81 104
53 82 98
51 78 97
53 82 96
53 82 105
49 76 90
49 75 85
166 188 22
174 198 0
147 159 38
75 74 38
78 76 29
61 62 25
52 54 20
46 48 15
58 61 19
49 53 16
53 55 13
56 58 15
57 61 19
58 63 22
69 73 32
74 75 27
65 68 27
60 66 37
62 67 34
76 79 33
86 87 35
73 76 31
97 98 42
101 100 46
105 104 46
100 101 46
119 116 52
108 107 54
107 106 52
128 126 55
108 107 41
109 108 48
124 122 59
123 122 44
126 124 59
132 128 65
119 117 45
129 126 51
137 134 60
134 131 62
126 124 53
132 130 57
134 130 63
136 132 67
135 130 60
141 138 52
144 141 60
145 142 66
146 141 56
142 139 59
143 139 61
151 146 66
156 150 72
146 142 69
149 144 64
148 143 59
149 144 64
152 146 69
155 150 64
153 147 65
154 149 70
155 150 72
159 153 78
153 149 60
156 150 69
157 151 67
157 152 62
160 154 71
164 157 75
156 150 70
158 153 74
165 158 81
159 153 65
158 152 67
156 151 65
158 152 73
151 147 54
162 155 68
161 156 78
158 152 69
166 160 74
165 158 78
164 158 71
164 158 73
162 156 74
162 156 77
162 156 70
168 162 83
165 158 73
165 158 74
155 150 68
164 158 75
163 157 73
163 156 75
165 158 78
164 156 72
160 154 66
162 156 71
158 153 74
162 156 75
162 156 75
165 158 73
158 153 66
171 164 81
159 153 69
162 155 78
160 155 68
159 152 70
159 152 68
159 153 78
161 156 74
160 154 71
161 155 73
158 152 66
164 158 72
164 157 76
159 152 69
166 159 76
156 150 68
159 152 75
162 155 76
160 154 72
159 152 74
160 154 80
162 155 74
159 153 76
151 146 61
151 145 67
163 156 81
162 156 79
151 146 66
158 152 76
153 147 62
160 154 75
153 148 65
147 142 63
148 143 64
154 148 70
162 155 78
157 151 75
151 147 64
151 145 68
160 153 71
150 144 65
154 148 71
158 151 77
155 148 74
155 149 71
151 146 62
154 148 76
191 210 142
190 210 147
191 210 148
187 208 133
187 207 131
188 209 140
183 204 121
185 206 120
186 207 149
186 208 130
185 205 129
185 206 131
180 201 110
185 206 129
180 202 104
183 205 117
178 201 100
180 203 99
179 202 105
182 203 121
183 205 124
181 203 131
177 200 120
182 204 109
181 203 113
175 198 95
179 201 103
178 199 105
175 198 105
172 195 100
177 199 110
175 198 84
173 195 110
178 200 122
185 207 133
176 199 110
181 204 126
180 202 108
179 202 111
181 203 105
183 205 120
185 207 130
182 205 114
177 199 76
180 204 114
180 203 114
180 203 105
182 205 114
181 204 114
181 204 108
180 202 105
180 202 117
178 200 92
179 202 92
181 203 121
180 203 114
182 204 128
179 202 95
179 201 107
177 200 111
183 205 122
180 203 111
181 205 122
182 205 122
181 203 111
180 202 105
178 201 99
176 200 99
180 203 111
181 204 120
179 203 105
181 204 111
180 203 114
174 198 92
178 202 105
177 201 108
177 200 117
178 201 105
178 202 117
178 202 105
175 199 95
177 201 95
177 200 111
175 199 117
174 198 88
173 197 95
175 199 99
177 199 111
175 198 114
180 203 125
173 197 99
172 195 95
174 197 114
179 202 114
174 197 95
175 199 114
175 198 120
172 197 95
173 195 92
172 195 111
175 198 120
172 196 108
171 194 114
175 198 114
170 193 105
170 193 108
166 188 88
167 190 92
171 193 99
172 194 122
166 188 105
170 192 125
168 191 92
164 184 95
166 187 92
163 185 108
169 190 102
165 187 120
163 184 139
153 175 117
146 168 115
156 179 120
149 172 129
152 174 128
150 172 120
157 179 130
162 184 133
155 177 125
157 180 126
160 181 135
159 180 126
146 167 118
158 179 143
154 173 156
159 181 111
158 179 113
134 157 67
149 174 36
152 176 42
144 168 64
143 167 62
152 174 51
156 178 55
153 175 78
177 200 67
178 201 80
195 214 159
176 199 51
173 197 0
175 198 0
74 103 98
55 88 109
55 88 110
57 90 118
56 89 115
58 92 117
57 90 115
59 93 129
58 92 128
59 93 133
57 90 116
55 88 102
58 92 125
59 93 118
58 91 122
59 93 133
59 93 128
57 91 111
58 91 121
59 93 128
57 90 122
59 93 126
58 93 128
58 92 122
58 91 114
60 94 120
59 93 124
58 91 117
58 92 113
59 93 120
59 93 126
57 91 107
58 92 128
59 93 133
59 93 125
56 89 108
60 94 124
59 93 130
60 94 129
56 89 94
57 90 114
58 92 128
57 90 118
58 92 125
59 93 122
60 95 134
59 93 122
58 91 120
59 93 131
60 94 129
58 92 124
58 91 120
57 91 118
59 94 128
59 92 125
60 94 129
57 90 122
57 90 105
59 92 130
59 92 126
57 90 118
58 92 129
60 94 129
59 92 128
59 93 120
58 91 115
60 94 134
58 92 120
57 90 113
58 91 126
59 93 134
57 89 120
58 92 128
58 91 117
58 91 129
56 89 123
59 92 125
57 90 123
59 91 123
59 92 128
56 88 114
57 90 121
57 88 128
57 90 121
55 86 108
55 86 115
57 89 123
57 89 113
55 86 113
56 86 108
55 86 100
53 83 97
53 82 102
52 81 101
53 81 105
52 81 101
52 80 104
49 76 99
46 70 76
69 88 56
175 198 0
174 197 0
164 183 19
86 83 31
78 76 31
65 65 22
70 70 22
67 69 16
65 68 22
48 51 23
67 70 19
56 57 17
70 75 26
60 64 15
63 65 22
58 61 35
74 77 32
87 86 29
75 77 34
79 83 33
87 88 40
94 94 35
101 98 43
92 94 35
106 106 49
104 104 46
103 104 53
98 100 45
104 104 41
112 111 45
113 112 45
119 118 55
132 129 62
135 132 61
116 115 50
125 122 54
127 125 61
130 127 57
127 124 51
130 128 56
126 123 52
126 123 47
135 131 66
139 137 53
144 141 56
144 138 63
141 138 54
140 135 61
140 137 57
144 140 61
146 142 60
145 140 55
151 145 68
154 149 72
147 142 66
151 146 70
141 136 62
143 138 63
146 143 60
146 142 65
161 155 69
158 152 70
151 146 69
153 148 64
160 154 71
164 157 71
156 150 69
160 153 75
155 150 59
159 154 68
152 148 66
164 158 71
155 150 62
158 152 67
156 150 63
155 148 65
157 151 70
164 157 76
156 151 58
159 153 64
162 156 69
161 155 71
166 159 80
162 156 73
160 155 69
159 153 66
161 155 69
161 154 69
156 151 63
161 155 67
164 157 77
163 157 76
161 155 71
161 155 67
162 156 65
159 154 68
165 157 76
162 155 70
158 152 68
164 156 76
165 158 77
155 150 65
163 157 72
162 155 73
161 155 71
157 151 73
161 155 72
160 154 72
160 155 67
163 155 67
162 156 74
155 150 68
159 153 70
162 156 76
157 152 67
159 154 73
159 151 70
163 157 82
160 154 72
161 155 72
153 147 62
152 147 69
151 145 72
161 154 75
155 149 62
156 150 66
162 156 76
154 147 65
151 145 60
157 150 69
154 147 66
162 156 73
154 148 71
157 150 66
158 151 75
153 146 64
157 151 66
160 153 74
156 149 68
150 144 65
150 144 69
161 154 75
153 147 65
158 152 72
153 146 72
153 147 68
156 149 74
151 144 68
152 145 67
154 148 68
188 209 133
188 209 143
190 211 154
189 209 145
185 206 125
185 206 124
189 209 141
183 204 114
184 205 135
180 202 113
177 199 95
184 206 126
187 208 137
185 206 122
182 204 115
183 204 117
183 205 117
184 206 135
181 203 120
180 202 111
178 201 118
183 205 136
182 204 118
178 200 114
178 199 107
177 200 92
176 198 99
175 197 103
178 200 118
172 195 108
179 202 100
178 200 110
180 203 108
172 194 96
179 201 121
179 201 113
178 201 140
180 203 103
183 205 120
182 204 111
178 201 92
181 204 120
181 204 108
179 202 95
181 204 105
182 204 122
179 202 102
180 203 105
178 201 95
182 204 120
178 201 108
179 203 114
181 204 105
178 201 95
179 202 102
179 202 114
176 200 90
180 203 120
179 202 105
180 203 114
177 199 102
180 203 105
176 200 95
178 201 122
180 203 108
178 202 105
180 204 114
180 204 135
179 202 111
176 200 80
177 201 111
178 201 105
176 200 105
178 202 117
177 201 120
175 199 105
174 197 117
178 201 105
177 201 125
176 199 105
177 200 105
178 202 114
176 199 92
176 199 92
174 197 95
177 201 105
176 200 122
176 200 120
177 199 114
175 199 114
177 200 105
175 198 88
175 199 120
174 198 95
173 197 84
170 193 111
175 198 114
173 197 120
173 196 84
171 194 102
174 196 95
170 193 102
165 188 99
168 191 108
172 195 95
174 195 99
164 187 99
172 195 117
166 189 105
169 190 99
171 193 102
164 186 72
169 191 105
167 189 76
161 182 88
169 192 95
168 190 110
163 184 95
170 191 141
165 185 142
148 169 126
164 186 151
158 181 131
151 174 135
144 167 113
146 169 115
155 178 136
151 173 127
151 172 119
167 188 142
152 174 120
163 185 142
167 187 143
164 184 142
156 176 130
159 180 110
141 164 51
144 165 36
146 169 46
150 173 66
152 174 65
141 165 64
152 174 65
166 188 84
172 196 25
184 205 105
188 208 133
174 198 0
173 197 0
174 197 0
117 142 101
60 94 122
56 89 123
57 90 128
55 88 110
58 92 128
56 89 120
58 92 131
59 93 118
57 90 108
58 92 124
59 93 115
58 91 120
58 92 120
58 91 117
58 92 130
58 92 117
57 90 120
60 94 133
58 92 125
58 91 120
59 94 130
59 92 118
59 94 122
58 92 120
58 91 118
56 89 114
60 94 135
60 94 131
57 91 114
58 92 122
59 93 125
59 92 121
59 94 126
58 91 120
59 94 130
59 93 117
59 93 124
58 92 124
59 93 129
59 93 125
58 92 121
58 93 121
59 93 128
59 93 124
59 94 131
59 93 133
59 92 124
60 94 129
57 90 121
57 91 107
59 92 128
57 90 115
59 93 133
60 94 132
59 93 133
58 91 123
59 94 130
57 90 116
59 92 124
59 93 130
59 92 124
58 91 121
61 95 133
58 90 125
59 92 121
58 92 124
58 91 118
59 92 133
58 92 116
58 91 123
58 91 126
59 92 126
57 90 120
56 89 113
59 92 128
58 92 117
57 90 125
57 90 127
57 90 125
57 90 128
56 87 110
57 89 113
58 91 118
58 91 118
55 87 117
56 88 115
57 89 124
52 82 110
55 86 109
55 85 113
54 83 108
55 85 101
53 81 92
51 80 97
52 81 98
50 76 89
51 78 97
49 76 85
107 128 51
175 198 0
174 197 0
172 196 0
100 99 33
84 82 32
69 68 20
64 64 16
63 64 23
74 73 23
57 59 22
60 62 19
39 46 22
56 58 21
58 60 19
63 66 22
72 74 18
69 70 22
71 74 30
85 86 28
95 94 47
95 94 35
97 97 41
88 89 35
89 90 39
102 102 43
106 105 45
109 107 43
108 107 43
120 118 52
109 108 46
124 121 51
123 122 46
115 114 48
122 120 53
119 118 53
126 123 58
124 122 53
132 129 60
134 131 57
136 132 66
133 130 57
141 136 58
134 132 60
140 137 61
138 134 61
142 138 62
140 135 54
146 142 54
136 133 49
141 137 62
142 138 58
147 142 60
147 141 65
155 150 68
149 144 59
156 150 75
152 147 66
154 149 65
155 151 71
154 149 69
153 148 65
159 153 68
156 150 71
158 153 69
156 150 70
151 146 62
154 149 70
162 156 69
157 151 68
159 153 72
150 145 62
160 154 70
156 152 53
160 153 72
156 151 54
162 156 73
160 154 69
159 153 64
161 155 72
164 157 76
158 153 63
156 150 61
161 155 64
160 154 69
157 151 64
169 162 81
160 154 65
162 156 67
158 152 66
161 156 73
166 159 73
156 151 64
165 158 72
165 158 72
163 156 70
161 155 75
157 151 65
156 150 69
161 154 67
166 159 75
163 156 76
160 154 69
156 151 65
162 154 73
168 160 74
154 149 60
157 152 62
163 157 70
162 155 72
154 147 61
162 155 75
165 158 69
160 153 71
163 157 68
153 148 62
164 158 76
158 152 68
156 150 66
163 157 75
162 155 68
154 148 63
157 150 75
162 154 81
162 155 70
154 149 66
158 151 72
158 151 71
165 158 75
158 152 63
159 151 77
163 156 75
154 147 67
159 152 71
158 151 67
155 149 67
154 148 75
153 147 67
145 139 68
151 146 65
156 149 70
153 147 71
158 151 74
161 154 73
153 147 69
146 141 63
144 139 59
146 140 66
154 147 64
153 148 65
156 149 70
191 210 142
184 206 122
187 208 142
185 206 124
187 208 134
186 207 140
191 211 147
189 209 150
185 206 130
183 204 124
189 210 147
179 201 94
187 208 147
185 207 144
181 203 103
181 203 111
185 206 126
188 209 137
185 206 135
182 204 114
182 204 102
178 201 118
180 202 135
176 198 102
178 200 102
178 199 121
176 198 115
177 200 107
180 202 120
179 202 113
178 200 121
177 199 97
178 201 105
177 199 115
177 200 102
178 201 126
177 200 95
183 205 126
182 204 108
185 206 125
182 205 133
184 206 125
181 204 111
179 201 100
181 203 102
180 203 108
180 204 111
181 203 122
179 202 99
179 201 88
177 201 111
178 201 92
178 201 88
181 203 108
177 200 108
180 204 122
180 202 99
176 200 105
178 201 95
179 201 105
178 201 99
177 200 105
177 200 99
177 201 92
179 202 114
179 203 117
177 201 108
177 200 102
176 199 92
179 202 88
173 197 95
176 200 111
178 201 117
177 200 117
176 200 95
176 200 108
175 199 105
178 202 108
174 198 102
177 201 111
177 200 95
178 202 117
175 198 92
173 198 122
177 200 120
177 201 120
173 196 92
169 193 88
174 198 114
173 196 88
172 194 84
174 198 108
170 193 76
173 197 92
169 194 88
172 194 111
172 194 95
170 193 105
172 195 114
172 196 92
175 198 102
175 198 108
171 195 105
168 191 117
173 197 108
167 191 105
170 192 120
169 192 108
168 191 111
164 187 108
167 190 102
169 192 92
169 191 84
162 184 99
166 187 88
174 197 117
167 189 102
160 181 102
155 175 110
164 186 125
148 170 115
150 173 124
157 178 141
159 182 124
154 175 124
150 173 125
152 175 133
152 174 131
155 177 136
154 176 131
153 174 134
151 172 148
156 177 136
160 182 124
157 179 131
141 163 74
137 160 44
139 163 44
151 173 57
136 160 54
154 177 47
152 175 55
165 188 76
175 197 62
177 200 76
184 205 120
179 201 72
175 198 0
174 197 0
174 198 0
136 159 71
57 90 111
55 87 110
56 90 110
57 90 113
57 90 115
58 91 123
58 91 118
60 94 130
57 90 111
57 91 118
59 93 131
58 91 115
59 94 130
58 92 126
59 93 122
59 93 126
58 91 131
57 90 120
58 91 111
58 92 121
59 93 125
57 91 110
59 93 131
59 92 128
58 92 122
59 93 124
59 92 126
59 93 124
58 92 117
58 92 124
57 91 111
57 91 113
58 93 125
59 93 125
57 91 114
58 92 126
59 93 122
59 94 126
58 91 115
58 92 118
58 92 115
58 92 124
58 92 117
60 94 126
59 92 122
58 92 117
59 94 124
58 92 121
58 91 126
59 92 122
57 91 118
59 93 125
58 92 122
57 91 118
57 90 108
57 90 118
59 92 125
59 92 130
60 95 137
59 92 131
59 93 129
59 93 128
58 92 130
58 91 113
58 92 124
58 92 124
57 89 117
59 92 126
58 91 122
56 88 104
58 92 120
58 91 122
57 90 116
58 92 121
55 86 109
57 90 116
56 89 113
56 89 115
56 87 105
56 88 113
56 87 100
58 90 120
59 91 123
58 89 126
53 83 100
55 87 111
55 85 114
56 88 120
57 89 124
53 83 105
52 81 89
53 82 103
53 81 93
52 80 107
49 77 85
51 79 93
50 75 88
46 69 79
143 164 46
176 199 0
173 197 0
175 198 0
139 151 28
76 75 25
85 83 38
70 71 22
73 72 20
74 73 20
66 68 16
59 61 16
60 64 19
73 75 15
54 58 20
61 64 22
66 68 26
79 77 24
74 77 23
81 83 29
90 91 37
97 96 35
86 87 37
92 92 41
96 96 34
85 88 40
101 102 43
98 98 40
112 112 46
114 113 47
109 108 39
112 110 49
111 109 42
124 121 51
120 119 47
125 122 53
126 124 53
121 118 51
134 131 56
123 121 53
126 124 55
138 134 62
133 131 49
126 124 50
134 131 53
127 125 46
146 142 53
133 131 44
142 139 56
139 135 59
151 146 67
144 140 58
145 140 59
150 145 66
146 142 69
146 141 63
157 150 69
154 149 62
144 140 65
160 153 73
155 149 64
155 150 71
147 143 55
154 148 70
159 152 66
157 151 69
153 148 66
149 144 57
154 147 71
156 150 67
156 152 58
158 154 66
160 154 75
155 149 69
158 152 67
159 153 62
159 153 72
159 154 66
162 156 64
158 153 64
158 152 70
158 152 60
161 156 64
160 154 63
165 158 76
153 148 57
164 157 72
153 148 61
165 158 67
156 148 71
166 159 75
166 158 73
162 155 67
163 157 67
160 154 72
157 152 62
161 154 65
160 154 67
163 158 72
160 154 73
156 151 64
161 154 67
156 150 66
160 154 69
157 151 65
160 155 71
160 154 63
159 153 66
167 159 77
160 153 72
159 154 64
158 151 68
160 153 66
156 150 60
160 153 73
153 147 57
155 149 65
162 155 72
161 154 66
150 144 61
159 153 67
162 155 74
150 144 63
150 143 64
157 151 71
162 155 72
153 148 62
153 148 71
155 149 63
160 153 75
153 147 67
153 148 66
155 150 70
151 146 69
161 154 77
154 148 69
159 154 67
156 150 71
160 152 73
155 150 71
152 146 63
157 151 73
147 140 63
151 145 64
152 146 74
152 144 71
155 149 68
149 143 61
157 151 68
155 149 70
149 143 64
184 206 117
189 209 137
187 208 134
181 202 120
186 207 134
188 208 133
186 207 120
183 204 130
186 207 122
185 206 129
181 203 94
186 207 135
184 205 129
183 205 114
182 204 118
186 207 122
181 203 102
186 207 134
180 202 118
181 203 122
182 205 124
183 205 121
181 203 102
181 203 117
182 204 124
180 202 118
177 199 118
175 197 109
175 197 107
174 198 94
174 197 102
174 197 110
174 197 102
178 200 108
178 201 111
174 197 86
180 203 129
182 204 120
182 204 125
179 202 111
184 206 122
180 202 114
182 205 121
181 204 105
182 205 130
181 204 117
180 203 110
173 197 62
178 201 105
178 202 99
178 201 102
180 203 108
176 199 95
179 202 117
177 200 95
178 202 114
175 199 108
177 202 105
180 204 117
176 200 105
179 203 105
177 200 120
180 203 125
178 202 114
178 202 105
173 196 95
176 200 95
177 201 125
178 201 99
177 201 95
174 198 88
176 200 108
177 201 102
179 203 130
175 200 114
180 204 117
177 200 120
176 199 105
175 199 92
174 198 99
176 200 114
176 200 120
177 200 125
175 199 80
177 201 120
176 199 102
174 197 95
174 198 99
172 196 88
173 196 117
176 199 114
175 199 111
175 198 108
176 199 111
169 193 88
177 200 120
170 194 99
169 192 99
172 195 108
170 193 72
174 198 111
171 194 80
173 196 108
170 194 99
174 197 92
171 194 108
173 197 125
173 196 102
164 186 72
167 190 108
172 195 122
164 186 102
168 190 105
172 194 120
160 183 84
168 190 105
167 187 120
166 187 117
162 184 118
165 186 131
161 181 124
155 178 115
160 182 143
151 174 121
153 176 122
150 172 127
160 181 144
160 181 131
155 177 129
152 173 148
163 182 133
161 182 148
156 176 141
152 175 113
153 175 84
128 150 60
138 161 25
138 161 49
136 158 58
148 171 51
153 177 40
160 182 40
171 194 57
172 195 72
176 199 62
186 207 128
174 197 36
171 195 0
173 197 0
173 197 0
171 194 0
61 93 119
55 87 106
56 89 112
58 92 126
55 87 106
55 88 103
55 87 105
56 89 115
57 91 113
55 88 103
59 93 122
58 91 120
54 87 97
57 91 113
58 91 118
59 93 131
58 92 125
59 93 124
59 92 130
60 94 133
59 92 117
58 92 113
58 92 117
58 92 121
59 93 125
59 93 121
58 92 117
57 90 114
57 90 121
58 92 118
58 92 124
58 91 122
60 94 131
59 93 130
59 93 117
57 90 114
59 92 118
58 92 124
58 92 110
58 92 121
58 92 129
60 94 131
58 92 117
60 94 135
60 94 130
59 92 120
59 93 130
58 92 121
59 93 128
56 88 107
58 91 125
58 92 122
56 89 114
58 91 126
58 92 120
58 91 128
58 92 122
58 92 118
58 91 115
58 91 113
58 91 133
58 91 124
60 94 128
58 91 120
59 92 124
58 91 118
57 89 116
58 91 114
58 91 124
58 92 123
58 91 117
55 88 107
59 92 121
57 89 113
58 91 125
57 90 121
58 90 109
56 89 109
55 87 115
55 86 109
56 88 113
54 85 100
55 87 110
58 90 119
57 89 114
56 87 110
55 86 111
54 84 105
54 85 110
55 86 112
52 82 90
51 79 96
51 79 99
52 80 93
51 78 99
53 81 108
47 71 75
54 76 81
166 189 11
175 198 0
174 197 0
172 196 0
160 179 28
92 90 34
72 70 20
72 71 25
66 66 22
72 73 18
62 62 16
65 65 16
65 66 14
69 70 21
66 66 19
70 72 23
73 75 15
80 81 32
60 64 22
67 70 27
88 88 30
80 82 21
81 83 38
91 91 26
97 96 33
91 92 36
107 105 51
90 91 37
98 97 37
112 109 47
106 106 44
109 108 47
112 110 47
121 118 45
112 110 49
127 124 47
127 124 57
115 113 47
135 132 50
118 117 55
120 117 44
131 129 45
132 128 59
128 125 48
134 131 49
140 136 63
146 141 58
139 134 62
138 135 56
144 139 61
145 140 57
146 141 65
146 141 62
145 140 54
153 148 69
146 142 57
151 145 65
148 144 60
144 140 54
152 147 65
153 148 59
153 147 64
149 144 66
152 147 64
156 150 63
151 147 51
150 145 57
152 146 61
158 151 62
159 153 70
161 155 64
151 146 59
155 149 59
163 157 70
161 155 67
160 154 64
160 154 69
161 155 73
155 150 71
152 146 67
163 156 74
164 158 71
154 149 60
162 155 71
155 150 58
156 151 64
163 156 70
163 157 71
157 151 62
152 147 63
159 153 65
158 151 68
160 154 71
160 153 65
163 156 70
166 159 78
162 154 67
161 155 65
160 154 67
158 153 60
159 153 66
160 154 68
163 156 71
151 145 58
160 154 74
160 154 73
150 145 62
161 155 67
166 159 77
155 149 67
160 154 63
154 147 63
158 153 71
158 153 65
153 146 65
154 147 65
159 152 68
153 147 59
156 150 71
158 152 64
157 151 61
163 155 73
153 148 69
155 150 65
148 143 66
158 152 66
156 150 62
164 157 75
153 147 70
157 151 66
157 150 70
154 148 63
157 150 74
148 143 65
155 148 68
145 139 66
151 145 65
151 145 67
151 145 65
152 145 67
151 145 64
151 146 69
153 147 65
149 143 66
157 152 70
152 146 63
149 143 72
152 145 69
156 150 68
150 144 70
153 146 67
181 203 95
183 205 111
194 213 161
189 209 140
191 210 145
186 207 122
190 210 144
182 204 120
189 209 144
180 202 110
187 208 143
184 205 118
184 205 121
185 206 140
182 204 124
180 202 124
184 206 122
180 201 114
180 202 103
177 200 100
179 201 107
180 202 114
183 205 134
181 203 117
179 201 108
178 200 121
175 198 118
180 202 129
180 202 115
178 201 120
175 198 113
177 200 116
180 202 124
177 199 120
176 199 114
179 202 110
178 200 117
179 202 115
182 204 128
185 207 140
186 208 147
184 206 125
181 204 117
179 203 111
180 203 99
180 203 107
180 203 102
181 203 122
178 201 84
176 199 76
176 199 88
177 201 95
178 201 95
176 200 92
176 199 84
175 199 95
177 200 105
180 203 125
177 201 114
178 201 105
178 201 102
174 198 95
177 201 111
181 204 133
177 200 95
176 200 84
178 202 122
178 201 122
177 200 114
176 200 102
175 199 99
174 197 88
177 200 102
173 198 114
176 200 111
180 204 135
175 200 122
175 200 117
177 201 120
175 198 108
173 197 105
173 197 99
174 198 105
174 198 88
171 194 114
174 198 99
176 199 102
173 196 88
177 201 128
176 201 111
175 198 105
172 195 102
171 195 92
175 198 99
173 197 99
173 197 130
175 199 117
171 196 105
172 195 114
172 196 95
171 196 122
170 193 114
173 195 108
169 192 99
166 189 95
170 193 99
168 191 95
169 191 92
170 193 92
169 193 114
161 183 84
165 188 102
162 185 84
170 192 105
172 194 117
160 182 105
164 186 108
161 182 114
170 192 140
160 180 117
163 183 133
149 170 92
156 177 142
150 171 108
159 182 132
152 174 130
154 177 134
160 182 153
150 172 120
167 187 157
158 179 131
168 187 155
164 185 123
151 173 125
144 166 67
130 152 31
149 172 31
139 163 57
143 165 51
143 166 18
149 172 42
170 193 25
170 193 62
174 197 57
182 203 108
184 206 114
175 198 0
175 198 0
174 197 0
174 197 0
174 198 0
109 134 92
57 89 113
58 92 125
55 88 106
58 91 105
57 90 109
58 91 125
56 89 113
58 91 122
57 90 107
58 91 115
58 92 115
57 91 121
58 92 113
58 92 125
58 91 115
56 89 105
57 91 120
56 89 110
58 92 130
59 92 129
58 91 118
56 90 107
58 91 122
61 95 140
57 90 114
58 92 118
58 92 120
58 92 126
59 94 126
58 91 118
56 89 105
57 90 126
60 94 129
59 93 128
59 93 117
56 89 105
59 93 128
59 92 128
58 91 118
58 91 130
59 92 121
58 92 128
60 95 134
60 94 131
59 92 120
58 91 113
57 90 121
58 92 121
58 92 124
59 93 130
57 90 110
59 93 124
59 93 126
59 92 125
58 91 117
58 92 113
58 92 117
58 91 110
58 91 120
58 92 120
60 94 139
57 89 123
57 89 117
59 93 128
56 89 122
57 90 118
57 90 115
58 92 119
59 92 123
57 90 119
57 88 115
57 90 122
58 91 124
58 92 121
57 90 110
56 88 118
55 87 111
55 87 113
56 88 111
56 87 116
58 90 117
55 86 107
56 87 110
53 84 101
53 83 93
55 87 112
55 85 112
53 83 101
54 85 108
53 84 104
53 82 108
51 79 96
50 77 97
48 75 88
52 79 92
47 72 79
97 115 49
171 195 0
173 197 0
175 198 0
173 196 0
174 197 0
109 115 35
88 85 33
77 76 28
69 68 23
80 80 28
74 72 16
64 65 7
59 61 14
71 71 15
74 73 13
66 69 11
74 75 20
76 77 20
70 71 21
76 75 24
64 68 26
89 89 35
90 88 26
77 79 29
100 99 43
91 93 38
109 108 31
103 100 40
97 97 33
110 109 46
105 104 42
117 116 39
109 108 37
109 108 43
121 116 49
112 111 46
113 113 51
130 126 59
117 116 43
116 115 42
124 120 48
129 127 52
126 124 46
127 124 52
137 133 57
136 131 59
147 141 60
145 141 57
138 134 52
139 135 56
144 140 56
150 145 64
148 143 63
149 144 61
148 143 55
146 142 53
148 143 58
143 140 55
156 149 71
152 147 57
147 143 61
151 146 61
157 150 65
150 144 63
150 145 60
155 150 58
152 148 46
152 146 60
156 151 70
153 148 61
149 143 61
155 150 60
161 155 68
161 154 70
164 158 64
162 155 69
155 150 59
164 157 74
153 147 53
156 151 58
163 156 64
156 150 64
156 151 63
158 153 63
161 155 66
161 154 61
162 156 63
160 153 75
159 152 64
155 149 67
155 149 61
156 151 59
154 150 62
156 151 56
162 155 65
154 148 60
163 157 71
162 156 65
162 157 67
160 154 70
154 149 59
158 151 67
153 146 68
150 145 59
164 157 72
164 156 74
157 150 69
161 154 72
169 162 77
156 151 61
157 151 57
160 154 69
155 148 73
157 150 67
157 151 65
157 151 66
151 146 58
159 152 74
155 148 64
157 150 63
153 147 66
165 158 75
152 147 60
151 146 60
150 145 59
154 148 64
154 148 65
153 147 65
156 151 63
155 148 63
156 149 64
153 146 64
156 150 68
156 151 67
154 148 69
147 142 62
154 147 66
153 147 64
158 151 72
150 144 59
147 141 57
160 152 73
150 145 63
154 148 71
155 149 64
148 141 65
154 147 66
149 143 61
153 147 61
157 151 68
156 149 70
186 207 126
182 204 118
181 203 102
187 207 136
186 207 137
187 208 139
189 209 137
185 206 130
190 210 140
183 205 120
186 207 136
183 205 117
181 204 118
182 204 110
187 208 140
181 203 113
183 205 122
185 207 133
186 208 145
180 202 115
181 203 107
184 205 120
180 202 111
176 199 103
180 202 141
186 207 129
182 204 131
177 200 125
176 199 102
178 200 118
177 199 126
173 196 107
177 200 124
177 199 120
177 200 120
175 198 107
179 202 110
179 202 115
173 196 95
179 202 113
182 205 122
177 200 84
185 206 130
182 204 117
178 201 114
181 204 114
180 203 114
179 203 114
180 202 99
176 200 88
179 202 125
178 202 102
175 199 84
181 203 111
177 201 102
178 202 114
177 200 88
175 198 92
177 201 88
177 200 99
175 199 102
178 201 88
176 199 114
175 200 95
177 201 99
178 202 120
177 200 120
175 200 111
173 197 95
177 201 105
178 202 105
172 196 105
176 201 111
177 201 122
176 201 120
177 202 122
173 197 120
176 199 114
177 201 114
172 196 99
179 202 114
174 198 105
172 195 84
172 196 99
174 198 111
174 198 108
173 197 92
169 193 95
178 202 120
174 198 137
177 200 95
173 197 111
171 194 105
174 199 122
176 199 114
173 197 92
168 192 102
171 195 88
176 200 125
168 192 99
172 195 105
167 191 111
166 190 92
166 190 80
167 191 92
163 187 88
166 190 117
166 190 92
170 193 84
172 195 114
166 189 117
170 193 92
167 190 99
167 190 99
163 187 105
168 189 122
161 182 122
166 186 125
167 189 114
160 181 88
168 189 120
160 180 111
149 169 92
156 177 144
159 180 142
153 174 139
153 175 125
159 180 126
154 175 136
156 177 140
163 183 145
161 182 138
147 169 102
154 176 84
134 157 42
137 160 44
136 159 51
136 158 44
142 164 44
156 178 44
166 190 25
171 193 44
172 195 84
178 200 62
181 203 114
177 200 57
173 197 0
172 196 0
174 197 0
172 196 0
177 199 0
147 171 67
54 86 108
55 88 100
57 91 115
54 85 103
58 91 111
55 88 110
56 89 105
57 91 115
56 89 115
56 88 113
57 91 114
59 93 124
59 93 128
58 92 110
58 92 113
56 90 113
56 90 117
58 91 120
58 91 118
58 91 125
57 90 122
58 91 126
58 92 125
55 88 110
56 89 111
57 91 121
58 92 121
57 90 120
58 92 120
59 93 121
59 92 121
58 91 121
58 91 103
58 92 115
58 92 118
57 90 108
59 92 121
57 90 114
58 91 115
58 91 110
58 92 118
58 91 115
57 91 110
56 89 117
57 89 115
57 90 110
56 89 105
57 91 110
60 94 129
58 92 125
58 91 120
58 92 125
58 91 113
59 92 130
57 90 113
61 96 141
59 92 118
58 91 118
59 93 128
57 90 115
58 91 104
58 92 118
59 92 128
57 90 126
58 91 111
57 89 110
56 88 113
55 86 121
56 89 116
56 87 108
56 89 110
56 89 114
55 85 107
57 89 113
57 90 124
56 88 109
54 84 112
55 87 110
56 87 117
57 88 109
55 85 108
56 87 109
57 89 121
55 86 102
55 87 104
57 88 115
55 85 104
54 84 104
52 83 96
54 83 106
54 83 102
51 79 95
52 81 94
52 80 99
50 76 90
48 73 75
143 164 43
174 196 0
175 198 0
174 197 0
175 198 0
172 197 0
154 171 28
92 91 31
75 74 26
74 73 23
79 79 23
76 75 24
62 63 21
58 61 9
74 74 10
68 70 19
67 70 18
76 77 23
75 77 25
67 67 26
81 83 22
83 81 18
69 71 20
91 89 32
87 87 33
92 93 27
104 103 27
96 95 33
99 99 40
99 99 32
104 103 31
95 94 38
113 112 34
102 102 38
121 119 45
123 122 45
108 106 38
118 115 44
129 125 48
120 117 38
109 108 45
119 117 44
124 122 48
123 120 46
129 127 51
126 124 45
140 136 51
146 142 59
140 136 57
135 132 51
136 133 53
137 133 45
141 137 53
147 142 55
144 139 50
141 137 59
145 141 51
140 136 47
148 143 65
137 133 41
144 140 55
151 147 57
145 140 55
145 141 53
148 143 66
150 145 61
151 146 50
152 147 60
154 148 62
155 150 61
160 153 70
162 156 65
155 149 66
152 146 62
152 147 58
152 147 53
157 151 66
161 154 65
147 142 53
155 150 58
156 151 57
158 152 66
163 157 65
160 153 66
153 147 51
158 151 69
154 150 56
159 152 69
157 151 62
162 156 62
159 153 73
153 148 60
165 158 71
162 156 68
157 150 60
162 156 65
159 154 63
158 152 65
158 152 59
161 154 66
155 150 65
150 145 53
158 152 68
158 152 67
159 152 67
160 153 65
161 155 69
161 155 68
159 153 66
154 149 70
157 152 61
161 155 68
155 148 62
160 154 66
157 150 64
159 154 74
157 150 70
154 148 63
158 151 59
159 153 68
157 150 71
156 150 66
159 153 66
151 146 54
159 152 61
147 140 60
160 153 70
159 153 72
155 147 68
163 156 77
151 145 68
149 144 61
158 151 70
155 148 61
154 147 60
156 148 70
150 143 64
146 141 53
150 144 63
157 151 60
147 141 63
156 150 71
151 145 59
159 152 67
149 144 61
152 146 73
153 146 67
150 144 63
153 147 69
151 146 66
147 141 72
152 146 64
185 206 125
183 205 126
184 206 120
186 207 128
189 209 135
191 211 144
185 207 134
183 205 131
186 207 136
179 201 94
189 210 151
181 203 118
184 205 114
179 201 97
179 201 118
184 204 137
181 203 120
182 203 134
182 203 108
183 205 121
181 202 110
182 204 133
186 207 141
180 202 115
175 197 107
184 206 134
182 203 133
173 196 107
177 200 115
172 195 110
182 204 131
174 197 97
173 197 119
180 202 123
177 201 113
172 196 90
181 204 131
178 201 105
178 201 103
179 202 124
182 204 120
180 203 120
184 206 128
181 204 128
178 202 99
180 203 105
180 203 99
178 201 105
180 203 111
173 196 95
177 201 80
179 201 108
179 202 102
178 201 99
180 203 120
179 202 108
177 201 88
180 202 120
179 202 111
177 200 111
176 200 102
176 200 111
176 200 102
174 199 102
174 198 88
178 201 114
178 201 117
173 197 92
177 202 105
175 199 102
178 201 99
175 199 102
174 199 117
177 202 125
178 203 117
172 197 128
176 200 120
174 198 102
175 199 102
172 196 117
176 200 117
171 196 102
173 197 88
174 197 105
173 197 102
174 198 111
174 199 114
174 197 95
173 197 95
174 199 108
173 197 99
171 194 117
173 197 117
172 197 111
173 198 105
171 194 128
171 194 88
175 199 117
169 193 95
169 192 99
175 198 108
167 191 92
169 193 114
171 195 140
171 195 114
162 186 80
164 187 102
173 195 102
167 191 111
166 190 95
167 190 92
170 194 108
169 192 122
167 189 108
161 183 102
159 180 76
164 185 111
157 177 105
166 187 130
162 183 125
162 183 114
163 184 99
155 176 108
150 171 117
148 169 124
152 173 125
160 182 135
154 175 126
149 169 115
156 177 128
157 177 138
162 184 128
146 167 102
126 149 57
138 160 25
137 160 36
136 159 31
143 166 31
160 182 12
164 186 25
164 187 25
172 194 76
170 193 62
175 198 57
182 203 102
175 198 0
174 198 0
172 195 0
174 197 0
174 197 0
174 198 0
171 194 25
74 102 103
58 91 110
56 89 103
56 89 110
56 89 107
57 90 117
57 90 111
58 92 130
56 90 110
59 93 125
55 88 100
56 89 100
58 91 118
57 91 115
57 90 115
57 90 108
59 93 129
59 93 121
58 91 115
57 90 120
57 90 110
57 90 115
57 90 113
58 91 113
56 88 103
59 92 122
58 92 118
57 90 110
59 93 128
57 91 128
58 91 122
57 90 110
58 92 114
57 90 118
57 90 111
58 92 115
57 90 115
57 91 115
57 91 125
57 90 113
57 91 108
58 92 114
60 95 125
57 90 120
56 88 103
57 90 118
59 93 125
58 91 110
59 93 120
56 89 113
57 91 114
58 91 114
58 92 115
58 92 117
58 91 129
58 91 122
57 90 114
58 92 117
58 92 110
57 90 126
58 91 117
59 92 129
57 91 110
56 89 115
58 91 117
60 94 126
56 88 111
57 90 115
57 89 108
58 91 121
57 90 110
54 86 110
55 87 116
55 88 96
55 87 103
57 90 114
56 89 107
57 89 118
55 85 102
55 86 100
54 85 107
56 87 112
55 86 109
55 86 113
55 86 107
58 90 121
53 83 101
55 85 101
54 84 110
50 78 97
54 84 98
53 83 101
51 78 100
47 73 86
46 71 81
65 86 61
170 194 0
172 195 0
172 195 0
169 193 0
173 196 0
175 198 0
172 195 0
110 115 33
90 89 28
78 76 30
64 64 24
78 78 23
75 74 14
71 69 3
72 73 22
68 68 10
76 77 19
69 70 17
69 70 23
73 76 25
76 76 22
75 76 16
81 82 27
76 77 28
86 88 25
92 93 30
101 100 35
99 98 32
96 94 32
91 92 30
109 106 42
99 99 37
101 102 34
105 103 36
117 115 45
105 104 33
114 112 38
123 119 53
116 115 43
111 111 47
124 120 39
120 117 48
126 125 49
128 126 47
137 133 46
140 136 57
132 129 50
128 125 46
141 136 56
139 134 53
133 129 51
134 129 57
139 134 50
138 133 54
144 140 56
150 145 61
137 133 53
153 147 63
147 143 56
145 140 51
133 130 49
146 142 55
155 149 67
149 143 61
150 144 60
154 147 63
153 147 58
156 149 61
159 152 64
152 147 60
156 151 60
151 146 51
156 149 58
157 151 56
163 157 70
151 146 51
150 144 57
155 150 58
156 150 65
154 148 49
153 147 61
156 151 63
159 153 67
161 153 66
154 148 57
159 153 64
152 147 59
159 153 65
159 153 62
160 154 62
157 151 59
162 156 68
159 153 65
158 151 71
160 153 64
164 158 67
157 152 59
153 146 65
158 152 66
156 151 60
160 153 67
156 151 56
156 150 65
158 152 62
159 153 67
161 154 65
158 151 66
160 153 64
162 155 69
155 149 69
169 162 79
163 156 67
152 145 62
158 151 66
160 154 72
154 149 68
147 142 64
161 154 68
155 148 63
159 152 68
151 145 61
162 155 64
162 155 68
158 151 69
156 148 68
151 145 60
150 144 65
153 147 62
159 151 68
156 151 60
155 149 64
152 146 67
155 149 63
151 145 57
148 143 61
156 150 66
149 143 59
157 150 65
150 144 61
148 143 61
151 145 65
150 145 63
158 150 67
152 145 65
154 147 66
150 144 63
151 145 60
159 152 73
156 150 68
154 147 68
140 135 58
153 147 67
185 206 129
187 208 135
182 204 102
182 204 115
187 208 139
190 210 147
192 212 160
185 206 134
186 206 133
182 204 108
185 206 130
183 205 114
184 206 122
180 203 115
177 200 111
183 205 126
182 204 131
178 200 108
184 206 137
179 201 117
179 202 111
181 203 121
180 203 115
184 206 136
180 203 118
180 202 111
177 199 95
178 200 118
177 200 94
174 197 110
177 200 108
178 201 113
177 200 113
176 199 115
177 201 117
178 201 129
175 198 97
180 203 118
178 201 122
180 202 115
179 201 110
177 200 102
182 204 120
180 203 105
181 203 108
180 202 105
181 204 120
181 204 114
178 201 108
179 203 111
178 201 99
179 202 114
176 200 88
177 201 95
173 197 99
175 199 80
175 200 95
175 199 108
173 198 80
178 202 102
173 197 99
176 199 95
179 202 114
177 201 102
177 200 111
175 199 102
177 201 111
175 199 102
179 203 122
176 201 99
171 195 84
173 197 76
176 200 114
175 199 105
177 201 114
176 201 128
175 198 114
172 196 92
179 203 117
176 200 108
176 200 95
173 197 95
176 201 117
172 196 120
170 194 88
174 197 88
174 198 117
175 198 102
170 194 105
172 195 102
173 197 114
169 194 99
170 194 108
172 194 102
172 195 105
168 193 114
167 190 111
171 195 99
163 187 88
171 194 114
166 191 102
168 192 120
164 188 92
171 195 102
168 192 120
166 191 111
165 189 84
165 189 99
169 194 105
166 190 120
169 192 111
174 198 130
167 190 120
168 191 117
166 188 111
163 185 95
167 189 111
161 183 117
165 188 111
165 187 114
149 170 108
156 177 92
168 189 122
153 173 102
154 174 102
153 173 121
152 172 105
151 170 142
152 173 131
161 181 136
150 171 114
143 164 103
122 144 67
124 146 31
130 153 42
131 153 31
149 170 0
163 184 44
155 177 0
163 186 44
167 190 36
170 192 57
178 200 88
183 204 117
179 201 88
172 195 0
172 196 0
169 193 0
173 196 0
170 194 0
174 197 0
172 195 0
125 150 78
57 90 117
55 88 102
55 87 102
57 90 107
56 88 103
57 90 110
58 91 117
59 92 121
57 91 99
59 93 118
56 89 105
59 92 121
57 90 113
58 92 124
59 92 124
57 91 117
57 90 121
58 91 117
57 91 110
56 90 107
57 91 115
59 93 121
59 92 120
59 94 124
60 93 126
57 90 114
58 92 120
58 91 110
56 89 102
57 91 114
57 90 110
58 91 122
59 93 124
58 91 121
58 92 121
58 91 120
57 90 103
58 92 114
61 95 134
59 93 126
58 92 125
58 91 113
58 91 113
57 90 115
57 90 121
56 89 114
58 92 124
58 92 115
59 92 125
58 92 121
57 91 120
56 89 102
59 92 129
59 92 113
56 89 115
58 91 118
58 92 124
59 92 118
57 89 108
55 87 103
57 90 124
57 90 113
56 88 113
56 88 101
58 92 114
57 90 107
59 92 123
56 88 114
57 89 112
56 89 101
55 87 104
55 86 104
55 87 116
58 90 124
57 90 118
54 85 93
56 89 113
54 86 106
56 87 103
58 91 120
55 86 100
55 87 109
56 88 113
56 88 108
56 88 117
53 83 102
53 83 105
52 81 110
52 80 93
51 79 100
51 79 89
51 79 95
48 73 72
45 69 68
133 155 53
174 197 0
174 197 0
172 195 0
171 195 0
171 195 0
172 195 0
172 195 0
151 167 33
96 92 38
86 82 33
88 86 30
81 79 22
82 81 15
81 80 12
67 67 17
69 72 13
67 68 15
81 82 22
76 77 17
75 77 19
81 82 14
91 90 20
72 75 21
85 85 18
86 87 27
97 96 23
90 90 29
98 99 34
100 100 33
97 97 32
108 107 37
105 103 35
102 100 38
111 109 42
114 111 45
114 113 45
121 118 47
106 104 38
116 114 38
120 118 41
115 113 37
130 126 60
121 120 43
129 127 45
124 122 48
126 124 39
131 128 49
134 129 56
135 132 44
139 135 53
147 143 60
140 135 54
139 135 45
141 136 55
140 137 54
146 140 56
145 141 57
155 149 57
147 141 56
148 143 50
143 140 45
153 148 63
142 137 52
150 144 55
143 139 52
149 144 54
154 148 61
147 142 50
149 144 53
160 153 63
154 148 62
156 149 62
155 150 60
149 144 49
152 147 59
154 148 60
151 145 60
157 151 57
155 149 63
157 151 68
153 146 61
154 148 63
159 152 67
154 149 56
159 152 65
158 152 66
155 150 56
151 145 53
148 142 56
161 155 65
147 141 53
162 155 69
162 154 67
160 152 59
156 150 68
153 147 58
156 150 58
153 148 58
153 147 59
156 150 58
158 151 63
160 154 69
156 150 59
153 147 61
154 148 61
151 145 59
155 151 56
159 153 63
151 147 59
149 144 60
155 148 64
157 151 61
154 147 69
157 151 67
160 154 63
154 147 62
156 150 61
157 150 66
154 147 61
151 145 62
152 146 58
159 152 67
161 154 75
155 149 62
154 148 56
148 143 57
160 154 67
151 144 61
151 146 56
158 151 70
156 150 66
161 154 71
152 147 61
152 146 57
150 144 59
149 143 61
147 141 61
152 145 63
150 145 65
149 143 63
153 147 61
147 141 60
159 151 70
144 138 59
155 149 65
155 149 63
141 134 60
145 139 59
159 153 65
156 148 66
141 135 57
141 134 60
182 203 99
185 205 118
184 206 120
186 207 117
179 201 97
184 205 114
189 209 141
184 206 117
182 203 115
185 206 125
185 205 120
184 206 125
182 204 121
181 203 128
183 205 125
179 201 108
180 202 129
182 204 125
182 204 128
182 204 120
182 204 131
181 203 113
183 205 120
178 201 100
182 205 126
181 202 95
181 203 120
177 199 111
178 200 114
179 202 117
176 199 113
174 197 131
175 198 95
177 200 124
174 197 108
178 201 124
171 195 74
176 198 110
171 195 76
177 200 107
177 201 97
184 206 128
182 205 120
177 200 95
177 200 84
178 202 117
179 203 120
179 203 117
177 200 114
179 202 114
180 203 122
177 201 99
175 199 92
176 200 117
175 200 105
177 200 92
177 200 92
175 199 102
174 198 92
172 197 84
176 200 92
175 199 108
178 201 92
179 203 133
176 200 108
175 198 88
175 199 117
178 202 122
175 199 80
178 202 135
173 198 122
177 201 105
177 201 117
175 199 111
178 202 117
177 202 114
177 201 120
175 198 108
176 199 133
174 198 120
172 196 92
177 200 111
175 200 117
172 195 120
177 200 108
175 199 130
179 204 147
174 198 108
170 195 105
173 198 108
172 196 114
171 196 117
167 191 111
175 200 128
170 194 111
176 200 105
167 190 84
170 194 92
168 192 99
165 188 84
164 188 102
170 194 88
169 193 102
162 186 99
169 194 108
169 193 108
171 194 108
171 195 95
161 184 92
168 192 102
171 193 105
166 188 92
171 193 105
169 193 120
158 179 92
172 195 111
165 186 95
163 186 92
159 180 99
162 184 108
164 185 117
165 186 130
166 187 133
165 185 125
160 181 102
160 181 120
165 184 137
161 180 125
162 181 140
149 168 100
152 172 111
148 169 80
133 154 25
139 159 18
138 159 0
154 177 0
149 170 0
158 180 0
158 180 0
162 185 0
168 190 51
173 196 67
166 189 51
181 202 117
172 196 0
173 197 0
173 196 0
173 195 0
172 195 0
172 196 0
174 197 0
172 196 0
161 184 36
56 87 90
54 86 111
53 84 100
58 92 117
56 89 111
57 91 114
56 89 115
58 91 111
56 89 100
55 88 102
57 90 113
56 88 100
58 91 108
57 90 110
59 93 115
58 92 114
57 90 105
59 93 115
58 91 108
57 90 108
57 90 103
57 90 115
59 93 124
57 91 113
59 93 131
58 92 120
58 91 113
56 89 110
57 91 105
60 94 118
56 89 110
57 90 103
57 90 117
58 91 124
57 90 113
58 92 114
56 89 108
59 93 121
57 90 108
58 91 114
57 90 124
57 91 114
58 91 120
58 91 121
56 89 114
59 93 128
57 91 120
57 89 118
59 92 131
56 88 102
58 92 126
58 91 120
58 91 124
56 88 92
56 88 115
58 91 115
57 91 114
57 91 108
55 88 105
58 91 121
58 92 123
58 92 121
58 91 118
58 91 125
58 92 121
57 89 109
57 90 117
57 90 114
57 90 115
54 86 107
55 86 99
54 85 95
58 91 116
58 91 120
54 85 108
56 87 101
54 85 110
53 83 96
56 88 107
55 86 107
55 86 103
56 88 116
54 85 103
54 83 111
52 81 101
51 80 89
56 86 116
52 80 93
51 78 77
51 79 97
51 78 78
51 78 89
47 73 74
54 76 74
167 190 8
171 194 0
171 195 0
174 197 0
173 195 0
174 197 0
173 196 0
173 196 0
174 197 11
109 113 30
106 101 32
86 83 22
71 70 21
81 76 24
75 73 18
72 71 13
68 68 4
73 73 17
70 70 16
86 87 23
77 78 20
81 80 22
81 81 22
85 84 22
82 83 23
84 84 19
80 81 31
98 96 35
98 98 30
105 103 39
102 101 35
95 96 31
100 98 29
108 106 41
101 101 34
116 115 30
120 116 49
118 115 37
113 108 41
114 112 35
119 116 46
125 122 52
118 116 36
133 128 53
129 126 37
133 129 36
136 133 57
131 128 47
135 131 45
136 131 50
139 134 53
137 133 57
132 128 45
141 137 57
141 136 51
139 134 50
146 142 42
138 134 49
144 138 57
149 144 53
142 137 52
144 139 55
145 140 55
147 143 54
145 140 52
145 140 49
141 137 49
147 141 51
145 141 46
154 148 60
154 149 58
151 146 57
150 145 64
148 142 52
152 146 62
159 153 58
153 147 60
155 149 57
157 151 67
151 145 58
152 146 58
151 144 57
153 147 61
157 151 59
153 149 54
153 148 53
160 153 67
155 149 56
164 157 71
157 150 59
157 152 62
158 152 63
154 148 60
151 145 57
155 149 62
158 152 64
153 148 58
157 151 57
160 154 66
153 146 62
156 148 63
149 144 63
157 150 65
154 148 61
156 149 63
156 150 57
161 154 68
159 152 66
163 156 64
151 145 54
144 138 53
155 149 64
154 149 57
158 151 60
160 153 65
156 150 64
159 152 66
149 144 62
155 148 62
153 147 62
158 152 69
158 151 70
159 152 65
161 154 67
153 148 63
157 151 59
149 144 54
152 145 67
160 153 75
157 150 63
151 144 62
146 141 58
155 149 64
151 146 60
155 148 65
156 149 76
151 146 67
154 147 63
155 149 63
146 141 56
155 149 58
151 145 57
147 141 57
147 143 57
154 147 72
150 145 63
150 144 59
152 146 62
152 145 60
151 145 73
147 141 64
150 144 62
145 140 56
174 198 0
182 204 99
181 203 108
182 204 108
185 206 130
185 206 125
183 205 121
189 210 148
190 210 151
190 210 153
187 208 131
180 201 126
183 205 115
184 206 122
186 207 135
181 203 105
184 205 133
182 204 126
180 202 108
176 199 105
181 204 111
178 201 88
180 203 114
180 203 114
177 201 110
184 206 130
180 203 115
181 203 108
183 205 130
177 200 92
181 203 111
176 199 113
175 199 120
175 198 124
175 198 111
172 196 82
176 200 97
178 201 113
177 200 125
177 201 105
176 199 115
180 202 115
180 203 117
180 203 125
179 202 102
183 205 128
179 202 111
183 205 133
180 203 133
180 203 108
180 203 111
177 200 108
180 204 125
176 200 108
176 200 99
179 202 111
178 201 108
176 199 92
175 199 92
176 200 84
177 200 99
175 199 102
177 201 120
176 199 88
174 198 84
175 200 108
175 200 84
174 199 108
174 199 120
176 201 114
175 199 102
173 197 95
173 197 117
172 196 95
170 195 105
171 196 108
177 202 120
171 196 99
171 195 99
173 198 88
171 196 122
175 200 105
170 195 105
175 199 122
174 198 105
170 195 102
175 199 108
172 197 102
175 199 108
172 196 99
172 196 105
171 196 92
171 196 105
173 197 114
168 193 95
169 194 108
163 189 99
170 195 108
166 190 102
167 191 95
165 190 92
167 191 108
168 193 111
169 192 84
169 194 125
166 190 95
169 193 95
172 195 128
171 195 102
165 188 108
169 192 117
166 189 105
167 190 88
163 187 117
167 189 102
165 187 128
162 185 108
169 191 108
160 183 108
154 175 102
162 184 120
165 186 133
150 170 108
162 183 135
157 177 114
164 184 120
164 184 135
157 176 122
158 177 120
152 171 102
152 172 95
148 168 0
134 154 0
118 139 0
141 162 0
143 164 0
146 168 36
154 177 0
158 179 0
167 189 36
168 191 62
169 191 76
183 204 125
181 203 92
174 197 0
175 198 0
174 197 0
173 197 0
173 196 0
170 193 0
173 197 0
171 195 0
173 197 0
116 140 77
55 87 101
56 89 100
57 90 117
55 88 106
57 90 107
56 90 107
56 89 102
57 90 112
57 90 115
55 87 109
57 91 107
58 92 108
57 91 110
56 89 110
58 91 120
57 90 111
57 90 108
57 90 115
56 89 102
57 91 111
58 91 113
57 90 107
57 90 114
60 94 115
57 91 111
58 92 114
57 90 121
59 92 126
58 91 118
58 92 118
58 91 120
59 92 118
59 92 118
57 90 108
59 92 125
57 90 113
57 90 115
57 90 115
57 90 108
59 92 117
56 89 115
57 89 114
59 93 130
56 89 110
57 90 114
58 91 125
59 93 123
59 93 128
57 90 113
59 92 126
56 89 111
58 90 121
59 91 126
56 89 118
58 92 113
56 88 109
58 91 122
56 88 110
57 89 103
56 89 113
55 87 100
58 91 124
57 90 113
57 91 120
58 91 125
55 87 108
57 90 113
58 90 111
58 91 124
55 87 104
56 88 111
57 89 117
56 88 113
56 88 111
57 89 112
56 88 111
59 93 123
54 86 96
55 86 112
55 86 104
56 87 103
55 86 110
52 81 90
52 81 98
53 83 106
54 83 99
53 83 108
52 81 96
52 79 84
49 75 81
52 80 82
47 73 69
117 137 58
170 194 0
171 194 0
168 191 0
172 194 0
172 195 0
172 195 0
169 192 0
174 197 0
174 197 0
144 159 19
95 92 40
79 78 18
73 72 21
78 77 23
85 83 18
60 61 8
51 52 6
74 73 14
83 83 18
78 78 17
78 79 19
67 69 15
76 77 22
91 89 22
86 86 22
83 84 26
85 87 19
93 94 37
99 98 20
98 97 23
103 102 34
112 109 24
102 101 26
105 104 30
110 110 36
114 112 29
109 106 33
114 111 39
118 115 42
114 113 42
123 120 38
120 116 42
118 116 39
131 126 47
129 126 48
126 122 37
131 127 51
134 130 51
132 129 49
126 122 43
132 129 43
132 128 48
134 129 47
131 128 49
138 135 42
135 131 54
141 136 51
129 126 45
141 135 50
143 138 49
142 137 49
145 140 56
152 146 56
149 143 54
151 145 61
148 142 55
149 144 53
148 142 52
142 137 53
148 142 58
153 146 54
153 146 60
153 146 58
155 148 58
157 150 64
147 141 44
151 145 60
150 144 52
158 151 66
156 149 63
146 141 54
155 149 63
153 147 60
151 145 53
154 149 62
158 152 65
156 150 61
155 149 63
157 151 63
158 150 67
158 153 59
162 155 63
157 150 61
155 148 65
154 148 61
149 143 59
157 151 62
162 155 66
151 146 52
155 149 61
152 147 56
165 157 73
159 153 65
152 146 60
156 149 61
157 150 71
154 147 58
151 145 62
150 145 51
163 157 65
157 150 66
156 151 58
157 150 60
150 145 54
149 144 56
161 153 64
152 146 54
155 150 62
149 142 62
160 153 67
159 152 67
151 145 57
147 142 60
155 148 65
149 144 53
157 150 71
148 142 59
151 145 66
150 144 60
159 153 64
155 149 66
154 148 69
145 141 51
156 150 66
155 150 65
150 145 61
153 147 59
151 144 66
148 142 49
148 142 56
151 145 62
152 145 69
152 147 57
143 137 60
145 138 54
153 147 64
150 145 53
147 142 60
153 147 62
152 146 67
151 145 66
147 140 64
138 133 56
174 198 0
176 199 44
182 204 111
182 204 113
185 207 122
184 205 126
178 200 92
187 208 141
189 209 149
185 207 136
185 206 131
186 207 142
182 204 117
184 205 124
188 209 141
182 203 111
183 205 122
180 201 102
178 200 113
180 202 108
184 206 126
181 203 131
179 201 120
182 205 117
181 202 128
179 202 121
182 204 121
182 204 121
180 203 121
182 204 135
178 201 105
182 205 137
176 200 92
178 202 108
177 200 126
179 202 120
175 198 121
173 196 107
176 199 117
178 201 110
178 201 118
178 201 99
179 202 117
180 203 122
175 197 111
177 201 108
178 202 102
180 203 130
184 206 130
180 203 117
178 202 120
176 200 99
178 202 108
177 201 108
177 199 95
177 202 130
179 202 122
177 201 99
178 201 111
177 200 111
176 199 111
176 201 108
175 198 102
174 199 99
173 198 102
175 198 99
172 197 111
176 200 117
176 200 114
173 198 114
171 195 67
174 198 99
172 197 99
171 194 92
171 196 84
174 198 105
172 197 108
172 198 108
175 200 120
175 199 111
174 197 76
174 198 114
172 197 108
175 199 108
171 195 102
173 197 84
171 196 99
173 197 111
172 197 84
170 194 92
169 194 105
163 187 88
170 195 88
173 197 92
170 195 99
168 191 80
169 193 92
168 194 105
168 193 111
168 192 99
170 195 99
168 192 84
167 191 76
166 190 92
166 190 80
163 188 92
165 190 95
166 190 114
170 192 88
169 192 117
171 196 130
168 191 122
166 189 111
160 182 95
160 183 102
162 184 117
162 184 130
170 193 108
154 175 114
163 185 117
161 183 117
159 180 102
164 185 128
168 188 130
164 184 128
156 175 108
163 184 130
164 183 133
162 182 128
162 182 105
135 154 57
129 150 0
142 162 0
146 167 0
153 175 0
149 171 0
159 182 25
159 182 25
161 184 44
169 190 72
167 189 72
173 196 51
180 202 95
174 197 0
172 196 0
171 194 0
174 198 0
170 195 0
173 197 0
173 196 0
174 197 0
170 193 0
172 195 0
158 182 46
52 83 90
55 87 102
56 88 95
56 89 105
55 88 99
58 92 112
58 91 121
57 90 103
56 88 99
58 91 117
57 91 107
56 89 105
55 88 102
57 89 114
56 89 107
59 93 125
58 91 118
56 89 115
58 92 122
55 88 103
57 90 103
58 91 124
56 89 99
55 88 107
58 91 124
57 91 117
57 90 113
57 90 113
55 88 105
58 91 113
56 89 111
56 89 103
55 87 99
58 92 114
58 92 125
55 88 118
59 93 121
57 90 120
58 91 114
55 86 100
57 91 118
56 89 113
57 91 115
57 90 120
57 90 121
58 91 122
57 90 121
57 90 111
57 91 115
57 89 113
57 90 118
57 90 118
59 93 122
57 90 110
59 93 126
57 90 121
56 89 102
58 91 124
58 92 114
59 93 116
57 89 106
57 89 111
57 90 102
57 90 115
57 89 105
57 90 114
58 90 114
57 89 120
57 89 111
58 90 123
55 88 101
55 86 110
57 90 118
55 85 98
56 88 107
57 89 113
56 88 115
56 87 108
56 87 105
54 84 97
52 83 92
56 87 113
54 84 107
53 84 97
51 80 89
53 81 101
51 79 96
53 82 90
51 79 99
49 75 79
49 74 77
48 72 65
156 177 32
171 194 0
173 196 0
172 195 0
171 194 0
171 196 0
170 195 0
170 193 0
169 192 0
173 197 0
171 194 0
108 114 30
99 97 29
73 71 21
90 87 33
77 75 21
79 79 11
69 68 16
81 80 16
83 82 15
82 81 18
76 76 14
83 83 23
87 87 25
96 94 21
82 82 19
83 82 15
90 90 26
82 82 21
97 95 19
91 91 29
99 99 19
104 103 31
109 106 38
108 106 39
110 107 37
115 111 33
113 111 24
110 107 25
120 118 46
110 109 26
128 124 40
120 118 42
122 118 33
132 127 43
131 128 41
122 119 33
125 120 45
130 127 50
136 131 48
127 124 45
136 132 49
136 131 49
141 136 41
129 126 45
141 136 53
140 135 45
144 139 42
141 135 50
142 135 45
144 139 54
142 136 58
134 131 40
141 136 42
148 143 52
143 139 53
138 135 49
140 136 42
152 146 58
152 146 57
149 144 55
146 140 44
153 147 52
150 144 59
154 147 53
154 149 58
152 147 56
149 143 45
158 153 62
150 145 59
155 148 57
151 146 58
151 145 53
163 155 70
151 146 57
158 153 60
151 146 61
149 143 53
151 144 56
156 150 63
152 146 54
161 154 64
155 148 64
148 143 48
157 150 65
148 142 52
154 147 63
151 145 54
157 152 58
161 155 66
153 146 53
151 145 58
150 144 49
148 143 49
152 145 60
159 153 62
156 150 60
155 149 56
159 153 67
154 148 64
147 141 49
158 152 62
153 148 61
149 142 51
158 150 60
154 147 63
149 144 53
159 152 62
150 142 61
159 152 65
155 149 58
157 151 63
155 150 64
150 144 61
149 142 58
148 141 60
158 150 66
154 148 59
154 148 56
144 139 56
149 143 58
158 151 66
150 144 59
147 141 59
152 146 64
152 146 61
150 143 61
157 150 66
146 140 57
152 145 65
150 145 62
150 144 54
157 150 69
158 151 65
149 144 64
146 141 54
156 150 66
153 147 65
152 146 68
149 143 69
155 148 69
153 146 69
148 142 64
144 138 62
173 197 0
175 198 0
178 200 67
183 205 111
178 201 103
183 205 126
184 206 131
179 202 94
185 207 133
185 206 131
187 207 135
183 204 126
183 205 124
184 205 142
185 206 130
183 205 131
181 203 118
184 206 144
182 204 125
180 202 120
180 202 111
183 206 129
182 205 130
183 205 122
179 202 114
180 202 114
179 202 121
181 203 120
178 201 92
182 204 128
177 200 97
179 202 128
179 202 99
179 201 108
178 201 118
175 198 100
178 201 117
173 196 86
179 202 113
179 202 120
177 201 108
181 204 111
179 202 122
183 206 135
184 206 128
179 202 108
179 202 111
180 203 128
180 202 99
177 200 80
179 202 108
179 202 120
175 199 108
176 200 111
176 199 102
177 202 120
178 201 108
175 199 95
173 197 102
176 200 99
175 199 95
175 199 105
176 200 95
175 199 102
177 200 92
173 197 108
176 201 122
174 198 105
176 200 88
176 200 99
175 199 102
174 199 105
172 196 95
172 197 95
173 197 84
171 196 105
171 194 76
169 194 95
170 194 84
174 198 95
171 195 92
171 196 95
173 198 102
167 192 108
168 192 88
171 196 111
169 194 105
169 194 80
173 198 105
168 193 99
170 195 76
168 192 111
170 194 80
169 194 117
170 194 88
169 195 125
171 195 99
174 199 99
170 195 105
168 193 102
164 188 84
163 187 88
172 196 99
164 188 84
170 194 99
166 190 133
170 194 117
168 191 125
166 190 114
163 186 120
170 195 117
159 183 111
162 187 95
167 190 122
171 194 117
163 185 120
172 195 128
165 188 117
160 183 105
159 181 128
161 183 128
164 185 144
166 186 128
160 181 111
158 178 122
166 186 140
161 182 114
151 171 95
152 171 102
146 166 57
137 157 0
134 155 0
142 163 0
140 161 0
144 166 0
143 165 0
151 172 36
158 180 44
161 183 62
167 190 62
170 193 80
180 201 111
172 196 51
171 196 0
170 194 0
171 196 0
172 195 0
168 192 0
173 196 0
172 196 0
174 197 0
173 196 0
173 196 0
172 195 0
101 126 90
56 89 98
57 90 103
55 87 97
55 87 112
54 85 99
55 87 106
55 88 105
55 88 105
57 91 117
56 89 100
57 90 114
56 89 110
57 90 110
59 92 124
59 93 118
56 89 107
55 88 100
59 92 118
58 91 117
55 88 99
58 91 115
57 89 113
57 91 110
58 91 118
59 92 115
57 90 105
58 92 114
57 89 111
56 88 115
58 91 115
59 93 121
55 88 100
56 89 110
57 90 108
59 93 132
57 89 122
56 89 108
58 91 121
56 90 103
58 91 115
58 92 115
56 89 111
57 90 107
58 92 125
57 90 111
58 91 114
57 91 113
57 90 120
57 90 114
56 88 108
57 89 111
57 89 107
58 91 124
56 89 107
59 92 122
55 87 103
55 87 107
57 91 120
56 88 108
57 89 115
58 90 121
56 89 118
57 89 116
55 88 98
58 91 121
56 89 110
56 88 114
55 87 101
55 87 97
56 87 114
56 87 107
54 84 104
55 87 107
58 91 124
56 88 110
55 86 110
54 84 96
53 83 93
54 85 103
54 83 105
55 85 105
54 85 106
51 80 94
53 83 89
52 81 94
52 82 96
51 79 87
47 72 71
48 74 76
49 76 82
106 125 38
171 194 0
167 190 0
171 193 0
170 191 0
168 191 0
171 195 0
170 194 0
172 195 0
169 191 0
169 191 0
173 196 0
161 181 20
93 89 28
86 84 25
85 84 30
91 89 21
82 80 18
82 79 12
86 84 15
84 82 14
70 70 14
78 79 12
82 81 12
86 84 19
75 78 18
85 85 22
87 86 28
91 89 14
95 94 13
97 95 26
89 90 25
107 105 34
107 105 24
108 106 34
97 96 34
103 102 29
101 100 32
114 112 42
124 121 28
117 115 22
114 112 28
118 116 37
124 120 38
120 118 32
123 121 31
123 120 38
128 125 42
131 126 45
127 124 43
130 127 41
132 127 50
137 133 47
128 123 41
131 127 49
133 129 47
133 131 38
134 131 48
140 135 45
134 130 39
146 140 54
142 137 48
143 138 44
144 138 55
144 139 49
144 139 57
148 143 57
150 143 57
137 133 45
140 135 42
146 140 43
145 140 54
147 140 51
147 143 43
152 146 56
152 146 49
147 144 37
146 140 57
148 142 52
151 146 52
154 147 53
147 142 56
150 145 51
152 146 51
151 145 52
151 145 49
155 149 57
154 147 53
155 148 52
150 145 56
154 148 61
148 143 52
153 146 53
153 147 56
156 150 59
151 145 56
149 143 60
159 153 62
151 144 54
154 148 58
151 146 54
154 149 56
154 148 60
158 152 57
149 143 59
154 149 59
158 152 61
153 147 58
152 145 54
151 146 56
150 145 53
156 150 60
151 145 59
153 147 61
158 152 60
156 150 65
150 145 56
149 144 54
152 147 49
151 145 63
159 151 65
156 150 63
149 143 52
150 144 60
152 144 65
157 149 66
158 152 62
154 147 62
152 145 62
155 148 58
158 153 61
150 144 59
155 148 64
153 146 62
144 140 56
150 145 61
154 147 64
147 142 58
144 139 51
159 151 72
152 145 65
148 143 59
152 146 67
152 146 61
154 147 61
149 144 63
148 142 60
144 139 49
147 141 58
149 143 62
146 139 63
144 138 53
149 142 67
148 142 58
144 139 58
174 197 0
175 198 0
174 197 0
179 201 72
179 202 92
183 204 114
185 207 133
183 204 115
181 203 102
183 205 111
187 208 145
188 208 153
183 204 120
185 206 137
186 207 136
181 203 113
185 207 130
186 207 139
181 203 103
181 203 117
183 205 134
183 205 130
181 203 136
181 202 122
182 204 129
178 201 114
180 202 125
180 203 118
181 204 117
180 203 122
178 200 108
180 203 117
176 199 103
174 198 103
178 201 115
178 201 118
179 202 129
180 203 126
181 203 124
180 203 105
182 205 135
178 201 95
177 200 95
179 203 114
178 200 108
180 203 125
179 202 114
179 202 108
180 203 120
178 202 108
174 197 95
178 202 117
175 199 105
177 201 102
179 203 130
174 199 111
176 200 111
173 197 108
178 202 114
177 200 99
175 199 80
173 197 99
176 200 99
176 200 105
173 197 95
171 196 111
176 200 99
173 197 102
172 196 88
172 195 88
173 198 125
170 196 111
175 199 102
174 198 95
171 196 95
172 196 92
173 198 88
173 197 102
172 197 95
172 197 99
173 197 117
174 199 105
171 196 108
173 198 99
172 196 111
168 192 88
171 196 117
171 198 117
169 194 92
168 194 111
167 191 92
168 193 99
164 189 95
171 197 111
169 192 80
170 195 102
172 196 117
169 194 95
166 191 114
171 195 88
169 193 92
166 190 105
172 195 122
171 195 120
167 191 105
165 189 111
164 188 95
170 193 111
168 192 92
165 188 114
169 192 135
159 182 95
162 185 92
168 191 117
174 198 137
160 183 102
169 192 111
169 192 133
162 184 99
158 179 105
162 184 125
170 192 147
166 188 137
173 194 135
166 187 130
166 185 128
154 175 114
161 181 117
157 177 84
133 153 0
138 159 0
142 163 0
141 162 0
148 170 0
153 175 0
152 175 0
154 177 0
162 184 44
174 195 76
164 186 44
173 196 92
180 201 108
170 195 0
172 195 0
171 194 0
173 197 0
171 195 0
170 194 0
172 196 0
170 193 0
172 195 0
171 195 0
169 193 0
171 195 0
157 181 36
60 89 90
54 86 98
54 86 104
53 85 107
57 90 111
56 89 97
53 84 103
56 88 113
57 90 111
57 89 120
56 89 113
55 88 106
57 91 115
57 90 113
56 89 108
56 88 113
58 91 115
56 88 113
59 93 122
54 85 92
57 91 114
59 93 118
55 88 111
58 91 114
58 92 121
57 90 115
56 89 114
58 92 120
58 91 117
56 89 105
57 89 108
59 93 117
55 88 103
57 90 105
57 90 113
57 90 113
57 90 111
57 90 111
57 91 114
58 91 121
58 92 118
58 91 118
55 87 103
57 90 100
57 90 114
57 90 118
57 90 120
54 86 101
59 93 128
58 91 117
56 88 110
56 88 115
57 90 110
57 90 107
57 89 111
57 90 108
57 89 113
55 87 101
56 89 111
55 88 105
56 89 102
56 88 104
56 88 107
56 88 107
57 88 117
56 87 103
56 88 107
55 86 105
56 88 114
56 88 110
55 87 107
54 85 91
53 84 95
55 86 113
54 84 94
54 85 103
54 85 102
57 90 120
55 86 100
52 82 91
52 82 96
53 83 100
53 82 99
49 76 80
53 82 96
53 83 91
49 77 88
49 74 83
50 78 82
54 75 67
160 181 26
169 192 0
172 194 0
164 187 0
170 192 0
170 192 0
170 194 0
167 190 0
172 194 0
172 195 0
171 193 0
172 195 0
170 193 0
132 144 25
86 83 24
96 92 32
91 89 27
85 83 20
85 83 16
81 78 20
75 75 12
72 70 15
95 93 24
74 74 0
77 77 20
86 84 14
82 81 14
99 96 19
91 89 20
97 95 17
93 91 30
99 95 42
92 90 23
89 88 29
109 106 28
116 114 32
107 106 28
98 97 27
106 105 16
112 110 32
115 112 37
109 108 31
121 119 33
123 120 37
129 126 41
125 120 43
132 127 48
132 128 39
124 120 33
122 119 31
121 117 40
123 120 36
134 130 38
140 135 46
121 118 32
125 121 35
136 131 51
131 127 42
143 139 42
151 144 57
137 133 38
136 130 47
141 136 44
143 138 41
144 138 56
142 136 51
136 133 38
144 140 47
148 142 52
152 147 55
149 143 49
149 143 55
146 142 42
142 138 46
143 137 55
145 141 51
158 151 61
142 136 52
149 144 53
147 141 51
151 146 53
151 145 52
158 152 59
152 145 56
159 153 66
153 148 53
152 146 58
151 144 49
153 146 58
160 153 66
153 148 58
152 145 60
147 140 53
150 143 58
148 142 51
152 145 57
151 146 54
153 146 61
152 146 53
155 147 59
157 150 62
157 149 64
156 150 57
151 144 57
153 145 60
148 143 45
148 141 62
160 154 57
156 150 59
152 145 60
155 150 56
154 147 64
153 147 60
148 142 54
153 147 60
156 150 59
152 145 57
154 147 65
161 155 61
146 141 41
153 146 61
144 138 53
147 142 56
154 149 56
161 154 67
151 144 62
153 148 57
156 149 61
154 147 57
150 144 60
160 151 66
145 139 60
156 150 62
145 139 51
155 148 62
150 145 54
151 144 58
149 143 58
148 143 62
148 142 56
153 146 73
157 150 67
147 140 63
145 138 56
153 147 64
142 136 59
156 149 66
150 142 60
144 139 58
145 139 56
149 142 63
133 129 39
144 138 56
146 139 58
149 144 67
175 197 25
174 197 0
174 197 0
174 197 25
178 200 72
183 205 126
183 205 111
183 205 114
183 205 117
180 202 110
183 204 120
187 208 137
189 210 147
183 205 124
188 209 149
186 208 137
183 204 118
182 204 128
182 204 128
179 202 114
188 208 141
180 202 105
180 203 117
180 203 113
178 200 115
178 202 117
181 203 120
180 202 114
181 204 126
181 204 111
183 206 130
178 201 102
179 202 114
180 203 117
178 202 108
178 201 99
179 203 117
180 204 137
177 201 111
181 203 117
181 204 117
180 203 122
181 204 140
179 203 117
176 200 102
182 205 133
180 204 128
180 203 130
177 201 105
178 201 117
178 202 117
181 204 117
178 202 125
180 203 128
176 199 99
178 202 111
175 199 111
172 196 95
179 202 137
176 199 102
178 202 122
176 200 114
175 200 105
174 198 88
172 197 92
175 199 102
174 198 92
172 196 105
174 198 108
169 194 105
173 197 105
173 198 108
169 194 108
173 198 95
171 196 102
172 196 105
174 199 102
173 197 102
170 195 99
169 194 99
170 194 102
175 200 111
173 199 122
170 195 92
170 195 95
170 196 105
168 192 76
171 196 92
168 192 95
166 190 102
165 190 111
169 195 108
171 195 84
166 189 72
171 196 135
167 192 99
167 192 88
168 192 99
170 195 111
170 194 128
170 194 102
168 192 108
169 192 114
170 194 108
169 191 99
167 190 102
167 192 114
171 195 108
160 184 114
165 188 95
167 191 120
166 190 111
164 188 95
166 190 108
159 182 111
168 191 128
169 191 105
169 191 122
171 193 117
161 182 111
167 188 117
168 190 130
157 178 111
163 183 128
165 185 105
162 183 122
164 185 128
145 165 80
138 159 25
150 171 0
130 151 0
142 164 0
141 162 0
155 177 36
150 172 0
156 178 0
154 178 0
158 180 67
167 189 67
161 183 67
182 203 117
169 193 25
171 194 0
168 192 0
169 194 0
172 195 0
174 198 0
170 193 0
172 195 0
166 190 0
171 194 0
168 191 0
170 194 0
170 194 0
175 197 0
119 143 70
55 87 102
54 86 95
55 88 102
55 87 103
54 86 100
58 91 118
56 88 105
59 94 126
58 92 114
56 89 109
56 88 97
57 90 111
54 86 99
58 91 105
55 87 108
58 92 110
58 91 118
56 89 100
55 87 110
58 91 111
56 89 102
57 90 108
58 92 121
59 92 114
56 89 100
57 90 99
56 90 108
58 91 114
56 89 110
56 89 102
56 89 114
57 91 113
57 89 110
58 91 111
56 88 107
57 89 110
55 88 100
57 90 110
55 88 110
57 90 108
57 90 102
57 90 111
56 89 115
57 91 108
56 88 107
56 89 105
55 88 94
58 91 121
54 87 102
56 89 102
58 91 117
54 86 88
56 89 102
57 89 103
55 88 97
56 88 104
55 87 102
57 91 110
58 92 123
56 89 109
54 85 96
56 89 111
55 87 110
57 89 111
55 86 94
56 88 107
54 85 105
54 85 105
54 86 102
55 85 98
54 84 99
54 86 107
54 85 93
55 86 113
54 85 98
55 86 110
54 84 83
56 87 108
54 85 103
52 82 91
49 77 81
52 80 101
55 85 102
50 78 92
50 77 84
53 82 94
50 78 78
47 72 73
123 142 53
166 189 0
170 192 0
169 191 0
172 195 0
168 190 0
168 191 0
171 194 0
169 193 0
168 190 0
166 187 0
170 192 0
165 187 0
171 194 0
166 188 11
106 106 34
74 74 25
87 85 32
92 88 32
72 72 25
67 67 22
88 84 29
80 77 18
92 89 14
78 76 11
87 86 14
83 81 10
82 81 12
89 89 11
79 78 16
76 77 16
87 85 20
100 98 17
98 95 30
92 91 22
95 93 29
99 98 23
105 102 21
100 100 24
105 104 28
114 110 34
114 109 33
115 113 27
117 113 30
112 110 33
115 113 29
124 120 32
121 117 44
123 120 31
130 126 45
129 125 38
118 114 38
122 118 38
121 117 38
132 129 32
134 130 51
135 130 49
137 132 45
134 130 31
135 131 52
134 130 44
143 137 48
142 137 47
136 131 50
140 134 41
137 133 47
140 135 49
142 137 49
139 133 45
143 137 49
139 134 41
148 144 54
152 144 55
144 138 47
148 142 44
146 141 49
153 146 53
145 139 52
150 145 49
146 140 45
143 137 47
158 152 59
149 143 53
147 143 48
152 145 58
154 146 53
147 141 53
148 141 60
155 150 53
152 147 51
159 152 63
156 150 61
145 139 49
158 151 58
148 142 53
152 146 56
153 146 67
157 150 57
154 148 58
152 146 48
153 148 54
148 142 51
153 146 65
155 149 58
155 148 58
154 148 63
148 143 51
150 144 58
144 140 47
152 145 51
152 146 58
150 143 58
149 143 56
148 143 49
152 145 56
141 136 45
153 147 59
155 149 56
149 143 56
149 144 54
151 145 54
151 144 58
149 143 61
151 144 58
150 144 53
147 140 54
152 145 59
153 147 64
154 148 61
151 144 65
156 150 64
146 141 56
145 139 45
151 144 66
153 147 63
156 150 67
147 142 56
155 148 61
142 137 47
153 147 61
149 144 61
154 147 59
147 141 54
149 143 54
153 146 62
158 151 66
151 144 61
145 138 58
147 141 58
141 136 58
151 145 60
148 142 58
148 142 60
153 147 69
149 144 60
142 135 61
173 197 0
175 197 0
172 196 0
175 197 0
176 198 0
178 200 88
184 205 115
182 204 114
184 205 130
181 203 120
179 202 107
179 201 92
186 207 129
187 209 150
187 208 140
187 208 144
184 206 134
182 203 133
184 205 120
184 206 130
179 201 115
180 202 118
183 205 124
179 202 117
181 203 111
182 204 117
178 201 118
180 203 125
184 206 135
178 202 111
179 202 105
179 201 102
180 203 122
181 203 122
182 205 130
179 202 108
177 201 95
178 201 80
179 203 128
178 202 120
180 203 125
178 201 102
179 202 117
178 201 114
178 201 111
177 200 84
176 200 95
180 204 133
181 204 117
176 200 114
179 203 114
179 203 128
176 199 111
178 202 117
181 205 147
177 200 114
175 198 114
180 203 130
176 200 99
178 202 128
176 200 117
176 199 114
177 203 135
176 200 108
173 198 88
175 199 80
174 198 111
172 197 102
173 197 95
171 197 92
175 200 105
172 197 95
174 199 105
175 200 128
171 196 95
172 196 99
172 196 105
173 197 92
171 196 80
169 194 72
171 195 99
174 198 120
168 192 95
172 197 117
173 199 117
171 196 125
174 199 99
170 195 111
168 194 108
172 196 88
168 193 108
172 198 105
173 197 108
170 194 80
171 194 99
165 190 84
172 196 111
170 195 122
169 193 102
170 194 102
165 189 88
170 194 95
170 194 111
163 186 80
167 191 108
171 195 117
167 191 105
170 194 111
167 189 114
170 194 130
168 192 111
169 193 125
166 189 117
162 184 114
168 190 117
168 191 125
168 189 114
170 193 105
167 189 120
168 189 125
166 187 120
167 188 135
169 190 122
173 193 144
163 184 95
165 185 125
154 175 84
132 153 0
137 159 0
144 165 0
142 162 0
147 168 0
154 176 0
149 171 25
155 176 25
153 176 0
164 186 57
166 188 76
172 193 99
171 194 88
174 197 67
171 195 0
171 194 0
170 193 0
171 195 0
173 196 0
170 193 0
164 188 0
171 194 0
164 188 0
168 192 0
170 194 0
171 194 0
168 191 0
171 194 0
165 188 25
79 105 94
56 88 100
55 88 96
57 91 108
51 82 94
54 86 84
54 86 94
56 89 111
57 90 117
56 88 97
56 89 107
58 92 117
57 89 105
57 90 107
56 88 113
55 87 94
57 91 117
57 89 115
56 88 103
58 92 107
55 88 110
55 88 110
57 91 107
57 91 103
56 89 105
56 89 113
56 88 113
59 93 118
57 90 102
57 91 107
57 89 111
56 89 108
55 88 90
57 91 113
57 90 103
57 90 115
56 88 110
56 88 99
57 91 121
55 87 105
56 89 108
57 90 110
57 89 108
56 89 103
57 90 113
55 88 97
56 89 117
55 88 107
58 92 117
56 88 115
54 86 107
57 90 111
55 87 113
58 91 118
56 89 99
58 91 111
57 90 117
57 89 100
57 90 111
56 89 111
56 89 103
54 85 95
54 85 89
55 88 100
55 87 102
55 87 95
56 88 105
56 87 117
57 90 116
56 88 102
54 85 101
52 82 95
54 84 99
51 80 89
54 84 99
53 83 94
53 83 101
53 82 97
55 86 99
53 82 98
55 86 108
53 82 108
53 82 94
53 82 97
49 77 87
49 76 78
48 74 73
78 99 63
163 185 0
166 190 0
169 192 0
166 188 0
164 187 0
168 190 0
170 192 0
166 188 0
164 186 0
167 189 0
165 186 0
165 188 0
171 194 0
168 190 0
166 189 0
158 176 19
94 91 26
81 78 22
81 78 29
92 90 27
78 77 20
75 72 14
74 75 16
97 93 14
82 81 12
77 77 14
88 87 21
91 88 15
78 77 12
74 74 16
86 87 19
90 88 24
94 93 21
107 104 33
107 105 22
101 100 23
95 94 22
101 100 28
113 111 24
108 104 34
117 115 32
114 111 32
112 110 30
120 116 40
126 123 30
119 117 35
116 112 32
111 109 33
122 118 35
120 117 27
129 125 38
132 127 45
132 128 40
132 128 38
134 128 34
123 119 38
132 128 39
130 125 44
135 129 41
136 132 39
141 137 36
135 130 37
137 132 42
132 127 41
130 125 42
147 140 51
147 142 46
136 131 37
141 136 42
142 137 45
142 137 44
147 141 53
140 136 37
149 144 45
150 144 49
141 136 42
141 136 46
144 138 51
144 139 44
147 141 53
148 142 47
150 143 54
152 147 54
153 146 49
149 142 53
145 141 41
143 139 48
148 143 51
157 151 57
147 141 47
151 145 53
156 150 53
149 143 53
145 139 37
156 149 62
149 142 53
148 140 54
154 146 57
151 145 51
149 143 49
143 137 57
148 143 51
156 150 53
152 146 56
153 146 54
146 140 53
148 142 61
154 147 54
153 147 58
150 144 58
152 145 61
149 144 54
150 144 52
151 145 57
154 148 59
152 147 51
150 145 51
151 144 59
155 148 60
150 144 53
155 149 59
150 144 47
152 146 53
143 138 51
156 149 62
151 145 56
153 147 54
150 144 52
158 151 67
146 140 54
139 133 57
151 145 57
150 144 53
142 136 56
153 146 61
154 148 58
144 139 51
143 138 54
147 141 56
143 137 53
149 142 56
150 144 62
148 142 60
150 144 61
144 138 57
155 148 63
149 144 57
146 139 62
142 136 59
147 140 65
146 140 58
158 150 73
151 143 66
141 136 56
148 143 58
149 143 62
172 196 0
174 198 0
174 198 0
173 197 0
175 198 0
178 200 0
177 200 84
180 203 105
179 201 102
184 205 121
180 202 88
183 205 114
178 201 86
184 205 134
180 202 105
184 206 140
184 206 140
182 203 128
185 207 139
180 202 111
186 208 142
181 202 129
182 204 111
180 202 129
176 199 111
181 204 126
178 201 122
179 201 114
179 203 111
183 205 130
182 204 125
180 203 120
183 206 130
178 202 108
181 204 114
179 202 117
179 202 108
178 201 108
180 203 117
176 199 99
178 202 108
177 200 102
179 202 99
180 203 120
177 200 105
181 204 125
177 200 92
176 199 114
176 200 120
178 202 120
179 203 117
177 201 117
175 199 92
176 199 114
176 200 108
179 203 125
178 202 125
178 201 114
173 197 95
177 201 111
176 200 114
177 202 128
174 198 92
181 206 149
177 201 111
173 196 111
173 198 108
177 201 122
174 198 111
171 196 114
174 200 122
171 196 92
171 195 108
172 197 105
171 196 117
169 194 95
173 198 105
170 195 122
175 199 95
171 196 95
174 198 108
168 193 80
168 193 111
168 192 105
165 190 102
169 194 108
171 197 111
170 196 108
166 191 102
166 191 111
168 192 105
168 193 105
172 196 88
169 193 114
171 195 105
171 196 135
174 198 111
167 191 105
171 195 95
174 197 111
171 195 108
170 193 122
163 186 102
168 191 105
172 196 135
166 190 99
167 191 117
167 190 84
161 184 95
166 190 84
163 187 128
168 192 122
168 190 99
170 193 117
161 184 114
167 189 120
166 188 120
167 189 114
163 184 105
172 193 120
172 193 135
168 188 133
165 185 125
168 189 114
165 185 108
159 179 67
145 167 25
148 169 0
137 158 0
145 167 0
143 165 0
144 165 0
149 170 0
153 175 36
157 179 36
165 187 36
171 192 76
160 183 25
165 187 51
176 198 88
168 192 0
169 193 0
169 193 0
170 193 0
169 193 0
170 193 0
169 193 0
171 195 0
169 192 0
168 192 0
165 189 0
171 195 0
168 191 0
169 193 0
168 191 0
172 196 0
141 164 47
53 84 88
53 83 80
55 87 94
55 87 96
56 89 117
56 89 107
53 84 105
56 89 107
55 87 96
56 89 108
56 89 100
55 86 110
59 93 126
57 90 117
55 88 110
55 88 100
56 90 95
58 92 114
53 85 90
58 92 103
54 85 94
56 89 103
56 88 113
56 89 113
58 91 117
56 89 117
57 90 108
56 88 104
59 93 114
57 90 111
57 90 120
57 89 111
57 90 113
55 87 107
55 88 105
56 88 103
56 89 108
55 87 107
56 89 111
58 91 113
58 91 114
53 85 95
57 90 107
56 89 110
55 88 100
55 87 103
57 90 118
56 89 101
56 88 103
56 89 111
56 88 113
57 90 115
57 91 108
56 88 100
57 90 114
54 86 97
56 87 113
55 87 100
57 90 105
54 84 104
56 87 118
54 85 90
56 88 118
57 89 112
54 84 94
54 85 108
58 91 123
56 89 102
56 88 114
54 84 94
55 86 106
52 81 94
54 84 98
53 83 103
53 82 100
53 83 107
52 81 94
53 83 98
53 83 93
50 78 90
50 78 92
52 80 97
48 74 76
51 80 89
46 71 76
48 74 69
131 151 32
167 188 0
163 184 0
167 189 0
165 187 0
169 191 0
162 185 0
169 192 0
164 184 0
166 186 0
165 187 0
170 193 0
167 188 0
167 189 0
165 186 0
165 186 0
169 192 0
132 143 22
104 99 36
95 91 38
81 79 8
82 78 19
84 82 12
85 84 11
85 84 12
81 78 12
78 78 11
73 71 3
99 97 16
78 78 8
90 87 19
85 84 6
98 96 18
85 83 24
101 99 29
105 103 21
93 93 22
105 101 19
93 92 27
119 116 23
104 102 25
103 101 28
123 119 33
110 109 31
109 106 29
116 112 33
111 107 35
115 113 31
118 114 33
122 119 34
124 120 33
130 125 38
121 119 36
131 127 45
126 123 31
131 126 44
133 129 33
128 124 40
132 127 37
131 125 38
141 136 53
123 121 24
132 128 39
145 140 39
138 132 42
142 136 53
141 137 50
140 135 42
137 132 45
137 132 40
139 135 40
144 140 45
140 134 36
146 142 42
144 138 45
146 141 51
145 139 62
146 140 48
138 132 32
143 137 42
150 144 53
146 139 37
146 141 41
148 143 44
149 144 42
147 140 52
151 146 49
147 141 56
146 139 49
148 142 48
150 143 51
150 143 52
142 138 39
151 145 59
153 148 54
152 147 49
150 144 54
156 148 65
149 143 48
153 146 56
152 147 52
149 143 56
148 143 41
153 147 54
152 146 54
143 137 39
150 143 54
155 149 60
151 145 52
152 145 49
144 138 52
150 144 57
151 146 49
152 146 48
151 146 58
150 144 53
153 148 57
149 143 53
150 144 52
157 150 56
148 142 44
150 144 51
156 149 56
149 142 59
145 140 51
142 136 49
149 144 57
150 145 49
149 143 48
152 145 61
153 148 63
143 139 45
142 136 44
137 132 49
150 144 63
152 145 53
153 147 58
146 139 54
153 147 60
148 142 57
149 144 54
157 149 66
145 140 54
146 139 57
137 131 49
139 134 44
139 133 52
151 145 60
151 145 56
147 141 60
144 137 56
143 137 49
141 136 58
148 141 57
134 127 51
147 141 60
143 135 60
174 197 0
172 196 0
174 197 0
172 196 0
176 199 0
174 197 0
172 196 0
176 199 62
182 204 118
177 200 88
183 205 124
181 203 105
183 205 117
177 200 76
180 202 114
186 207 125
185 206 128
183 204 133
185 206 141
182 204 129
183 205 122
182 204 124
183 205 121
180 202 128
182 203 129
178 200 92
182 205 128
179 202 92
179 201 97
181 203 131
181 204 126
181 204 120
181 204 120
179 203 120
179 202 111
181 204 117
180 203 102
180 204 130
176 201 105
176 201 117
179 202 105
180 203 128
178 200 99
177 200 102
178 201 105
178 201 117
176 200 105
174 198 111
173 197 95
179 202 111
179 202 120
179 203 117
176 200 92
175 199 117
177 200 122
178 202 111
176 199 105
174 197 88
176 200 105
175 199 102
176 201 120
176 199 111
174 197 105
179 201 108
178 202 133
173 198 102
175 199 114
175 199 108
172 197 105
174 199 120
174 200 114
173 197 111
171 195 111
172 197 108
175 199 111
175 198 92
172 197 108
170 196 114
171 196 111
168 193 92
171 197 120
172 197 95
167 191 84
168 193 92
172 197 111
171 196 99
167 191 92
173 197 122
163 188 92
169 192 88
167 191 95
172 196 114
169 195 125
167 191 99
170 195 105
171 194 105
173 197 133
169 193 108
174 198 114
169 192 122
171 195 120
168 192 108
172 197 133
165 188 92
163 186 88
167 191 105
169 192 130
171 195 128
167 189 99
167 191 114
164 187 108
172 195 99
168 191 117
170 193 105
172 195 133
174 196 151
167 189 130
171 192 130
168 189 117
172 192 147
162 182 133
167 187 117
160 182 95
164 185 108
151 172 62
134 155 0
140 161 0
147 167 0
141 162 0
158 179 0
148 169 0
157 178 25
147 167 44
159 180 25
159 181 0
159 182 36
160 182 62
164 187 57
177 199 88
169 193 25
170 194 0
168 193 0
169 193 0
171 194 0
170 193 0
169 191 0
168 192 0
169 192 0
169 193 0
169 192 0
170 193 0
163 186 0
171 194 0
166 190 0
168 191 0
162 186 0
168 191 0
110 134 65
55 86 92
52 83 88
52 84 76
55 87 99
55 87 97
56 88 102
56 89 108
56 89 103
56 89 107
56 89 107
56 89 105
56 89 100
52 83 86
56 89 110
54 86 99
55 88 102
56 89 105
55 88 110
56 89 94
57 90 102
57 90 114
56 89 111
54 85 108
57 90 107
55 88 100
57 90 113
56 89 120
57 89 103
57 91 117
58 91 110
58 91 117
54 85 100
55 87 113
58 91 102
56 89 102
56 89 108
58 91 111
56 89 108
55 87 108
57 90 115
56 89 107
58 91 117
55 87 88
56 89 113
57 90 114
56 89 113
56 88 99
58 90 107
56 88 113
56 89 117
57 90 105
54 85 94
55 86 103
56 88 111
53 85 96
54 85 89
54 85 99
57 89 114
56 88 97
53 84 88
55 87 87
53 84 94
56 88 112
56 88 119
51 81 88
54 85 98
56 88 111
54 86 97
54 85 99
56 87 106
54 85 97
56 87 110
53 82 104
52 81 89
54 85 89
52 82 92
53 83 91
54 84 112
53 82 98
51 79 89
49 78 82
48 75 79
48 74 75
46 71 71
106 125 63
163 182 0
164 186 0
168 189 0
161 182 0
158 179 0
166 187 0
165 188 0
167 189 0
165 187 0
166 188 0
165 188 0
167 188 0
161 181 0
167 188 0
166 186 0
167 189 0
165 186 0
163 185 0
125 130 32
97 92 33
77 75 25
82 79 20
86 85 23
83 81 19
82 80 30
88 86 15
86 85 0
88 85 14
73 72 3
88 87 14
85 82 18
100 98 16
101 99 11
99 95 19
100 98 22
103 100 20
92 91 16
96 94 19
101 100 24
101 100 14
106 103 18
110 106 16
109 107 14
106 104 29
104 101 26
116 113 33
108 106 29
121 117 32
100 98 21
111 109 26
120 117 32
115 112 29
130 126 38
116 112 33
125 121 38
124 120 29
134 130 45
131 128 39
131 127 35
127 122 43
129 124 33
135 131 36
132 127 35
136 132 37
132 128 43
132 127 37
150 143 48
135 132 45
143 138 45
143 138 49
145 138 47
147 142 46
151 144 56
140 135 41
155 148 54
141 136 45
146 140 41
148 142 47
148 143 51
141 135 42
135 130 41
138 133 49
144 138 51
146 142 44
140 135 42
140 135 36
150 145 48
144 139 34
148 142 44
147 141 47
141 136 41
139 134 42
145 140 45
141 136 42
151 144 48
150 145 51
145 139 48
146 141 47
149 143 44
147 142 52
148 142 45
144 139 47
151 145 56
149 145 48
142 136 47
149 144 48
146 141 44
154 149 56
153 147 56
145 139 48
150 144 51
149 143 52
146 140 51
154 148 59
145 139 47
150 144 58
141 135 47
158 151 58
157 151 63
149 142 58
146 141 53
150 145 54
145 140 53
151 145 59
151 145 49
150 144 51
143 138 52
149 144 51
150 143 57
146 140 58
152 146 48
148 142 51
153 148 54
149 144 51
144 138 52
146 140 54
148 141 64
139 135 41
147 140 57
148 142 57
141 135 53
151 144 63
150 144 58
148 142 53
146 140 52
142 137 51
141 136 56
147 140 60
153 146 63
156 150 62
152 145 60
142 136 54
148 143 56
137 131 54
143 136 56
155 148 64
145 140 56
173 197 0
174 198 0
173 196 25
171 195 0
172 196 0
173 197 25
173 196 25
174 197 0
175 197 67
180 202 92
179 202 99
182 203 108
182 204 115
179 201 88
182 204 114
183 205 114
184 205 125
185 205 117
191 212 159
182 204 117
181 203 111
185 207 142
184 205 128
183 205 133
178 201 105
179 202 111
179 202 118
180 202 110
177 199 120
182 204 125
180 203 108
176 199 88
175 198 111
181 204 125
181 204 117
180 203 111
183 206 133
176 200 111
183 205 133
178 201 117
178 202 128
180 202 111
180 203 114
179 202 117
176 200 95
176 199 114
176 199 105
176 200 92
176 199 114
176 200 114
179 202 120
176 200 125
177 201 105
180 203 130
180 204 142
178 202 120
173 196 88
174 198 102
178 202 108
175 199 111
172 196 108
175 198 105
175 198 105
177 201 128
179 202 120
174 198 102
172 196 84
174 198 125
175 199 99
177 200 102
174 198 92
174 198 108
171 196 102
171 196 92
173 198 120
173 197 125
171 195 88
170 195 122
174 198 117
171 195 84
170 194 67
174 198 130
172 197 120
174 198 102
170 193 105
170 195 117
169 192 102
170 194 111
170 194 95
171 195 114
166 190 117
168 191 95
170 193 102
174 198 125
173 197 105
166 189 105
168 191 102
172 196 117
174 197 125
175 198 130
170 194 114
164 188 125
172 196 133
175 198 111
169 192 122
168 191 117
178 202 133
170 193 102
170 193 99
165 188 122
166 189 111
166 189 114
166 190 117
170 192 105
167 189 111
169 191 108
163 185 108
166 187 144
166 187 133
161 181 128
159 179 111
160 180 99
160 182 95
157 177 57
146 167 0
140 160 0
136 156 0
146 168 0
145 167 0
151 172 25
145 166 25
152 174 0
156 178 25
159 181 0
167 190 44
161 183 44
166 189 51
173 194 88
172 195 25
167 191 0
166 189 0
168 191 0
171 194 0
170 193 0
162 186 0
166 189 0
170 193 0
168 192 0
161 185 0
167 191 0
165 189 0
169 192 0
169 193 0
170 192 0
167 191 0
165 189 0
168 191 0
161 185 18
78 106 88
52 83 86
53 84 83
57 90 110
55 87 98
55 87 105
54 86 82
53 85 83
55 87 99
57 90 113
54 86 102
54 85 94
56 89 99
56 88 102
55 87 100
55 87 94
57 91 117
57 90 113
55 87 102
56 89 113
57 90 118
56 89 105
54 85 95
55 87 98
56 89 108
55 88 103
55 88 103
57 90 110
55 88 95
56 89 107
55 87 100
55 88 108
56 89 108
56 89 103
56 89 105
56 89 102
55 88 108
55 86 99
57 91 113
57 89 103
56 88 115
56 88 103
56 89 94
53 84 86
56 89 111
55 86 88
54 87 102
55 88 105
54 86 103
57 90 115
57 90 114
56 88 105
56 88 92
57 90 113
55 86 94
56 89 108
55 87 111
57 89 108
53 84 105
55 87 100
56 87 105
55 86 105
55 86 105
56 88 109
54 85 102
52 82 87
54 84 88
54 85 103
53 83 98
54 85 93
54 84 101
52 81 96
55 86 95
53 84 94
50 78 89
54 85 104
53 82 96
50 77 76
53 83 96
52 80 94
53 82 97
47 73 77
47 73 66
63 85 59
159 180 18
167 187 0
151 171 0
162 184 0
161 184 0
167 188 0
162 184 0
158 179 0
167 188 0
160 181 0
160 181 0
162 183 0
166 186 0
163 185 0
165 186 0
167 190 0
162 182 0
168 189 0
162 183 0
161 181 0
111 112 30
94 90 31
94 90 37
92 88 25
86 84 16
80 78 18
82 81 12
87 83 11
93 90 18
84 83 11
100 96 8
85 84 12
90 88 12
91 87 16
98 96 11
89 88 16
95 94 16
103 100 24
91 90 16
89 88 8
108 107 20
105 102 28
99 97 19
112 109 24
107 105 16
106 105 21
107 104 16
113 110 23
109 108 28
112 109 26
118 115 24
120 117 27
119 114 30
134 130 41
123 118 22
126 121 36
117 113 36
124 120 28
131 127 30
132 127 38
131 126 35
135 130 42
137 133 38
131 125 38
135 130 41
124 118 34
141 135 37
135 130 37
133 128 33
135 131 44
141 135 50
140 136 39
139 133 32
145 138 44
150 144 47
144 140 39
143 139 47
136 132 41
141 136 45
148 142 44
142 136 52
147 142 39
140 134 42
151 143 53
147 142 48
151 145 56
145 139 41
148 142 48
144 138 42
147 143 49
148 142 49
147 140 52
137 133 37
147 142 48
145 140 45
141 135 48
152 147 47
147 141 49
148 143 48
140 136 39
153 146 53
148 143 52
152 145 53
147 142 44
149 143 53
149 143 56
150 144 52
145 138 51
153 147 54
147 141 54
155 147 56
145 140 44
151 145 52
147 141 48
151 145 60
149 142 53
147 143 39
154 147 59
154 147 59
149 143 49
152 145 53
154 147 58
149 142 59
150 145 53
140 135 47
149 143 53
140 135 49
143 137 52
148 141 56
148 144 48
151 143 54
152 145 57
140 134 48
146 141 56
149 142 58
144 138 57
150 143 59
144 139 53
153 146 57
155 149 51
146 141 52
144 137 53
146 141 51
145 137 59
153 147 59
149 142 61
148 142 62
147 141 60
145 140 52
135 130 52
148 142 60
143 137 51
153 146 67
140 134 51
141 136 53
153 146 59
145 140 58
151 145 60
173 196 0
173 196 0
174 198 0
175 198 0
173 197 0
171 195 0
174 197 25
175 198 25
172 196 0
176 199 62
175 198 84
178 201 92
181 204 113
179 202 108
179 201 110
179 202 95
183 205 120
184 206 128
184 206 122
187 208 137
178 201 113
185 206 135
182 204 143
179 201 111
185 207 133
182 205 135
180 202 117
181 203 108
181 204 105
181 203 125
184 206 135
181 204 140
180 203 105
181 204 125
179 202 120
179 202 122
183 206 137
176 199 102
179 202 111
176 199 111
176 199 111
179 203 114
180 203 111
180 203 128
177 201 111
178 201 99
176 199 102
179 203 130
181 205 125
178 202 130
176 200 95
176 200 117
179 203 125
174 198 114
176 200 95
176 200 111
178 202 114
177 200 105
178 201 105
174 197 92
175 200 108
177 200 111
178 202 111
175 199 114
176 200 105
175 199 95
179 202 111
174 196 92
176 200 133
172 196 111
173 198 125
175 197 99
175 198 128
174 198 122
173 197 92
174 199 140
175 199 111
173 198 117
172 197 99
174 199 122
174 198 125
175 200 102
171 195 122
175 199 128
172 195 114
170 195 111
174 198 117
175 198 108
167 191 105
165 189 102
173 196 108
175 199 125
172 195 117
165 189 95
168 192 117
172 196 122
168 191 117
170 194 125
172 196 117
173 197 128
168 191 99
171 194 111
169 193 117
167 191 95
166 189 120
170 194 122
163 186 102
170 192 111
169 191 114
173 195 111
168 191 111
169 192 114
167 189 122
166 188 99
167 189 130
161 181 117
162 183 130
171 191 137
169 190 137
161 182 117
161 181 114
169 189 92
144 165 44
132 152 0
145 165 0
149 171 0
146 166 0
154 175 0
151 172 0
155 176 25
155 177 0
156 176 25
160 181 0
158 180 44
165 186 72
168 190 57
170 192 84
169 192 51
166 190 0
167 190 0
170 192 0
165 188 0
167 191 0
169 192 0
164 188 0
164 187 0
165 190 0
170 194 0
165 188 0
168 192 0
161 185 0
168 191 0
169 191 0
166 190 0
165 188 0
163 187 0
162 184 0
164 186 0
141 163 51
58 88 92
54 86 99
53 85 86
54 86 90
56 89 102
54 87 90
52 83 75
55 87 103
56 88 94
55 88 105
54 86 90
56 88 103
56 88 90
55 88 95
56 88 107
56 89 97
55 87 108
54 86 103
57 90 110
53 84 94
55 87 102
54 87 105
57 90 111
57 89 110
57 90 105
55 87 90
54 86 99
56 89 105
58 92 120
55 88 100
57 89 107
54 86 94
57 90 105
56 88 113
55 87 103
55 87 103
54 86 103
58 91 107
57 90 120
57 90 110
54 86 88
56 88 102
56 88 108
57 90 120
54 86 99
55 87 104
56 88 107
53 84 97
55 87 103
57 88 113
55 87 101
55 87 86
55 87 105
55 88 107
56 87 107
55 87 108
53 83 90
56 88 113
55 87 107
54 86 108
54 85 108
53 84 96
52 82 98
52 83 99
53 83 85
53 85 99
54 84 92
54 85 98
52 81 86
53 83 98
52 82 91
53 83 85
52 80 81
53 83 90
54 84 94
52 81 93
52 81 91
51 79 87
47 74 69
50 78 87
50 76 79
55 77 71
147 168 18
161 181 0
155 174 0
154 175 0
163 184 0
157 177 0
161 181 0
157 177 0
161 183 0
164 186 0
164 184 0
164 186 0
162 183 0
160 182 0
160 179 0
166 186 0
165 185 0
169 190 0
160 181 0
162 183 0
160 182 0
150 169 0
99 95 36
86 84 11
93 90 26
94 90 16
86 84 16
89 87 8
70 69 8
78 76 16
87 83 14
89 89 18
86 82 14
85 83 12
85 84 5
86 84 8
76 76 20
102 99 12
96 94 14
88 86 11
98 97 14
110 105 22
112 109 19
104 102 23
112 109 22
112 108 12
118 114 28
115 110 22
111 106 21
119 115 25
122 118 28
113 110 29
120 117 34
113 109 29
122 119 31
127 123 29
125 121 31
122 118 32
120 117 32
134 129 32
130 125 25
130 127 30
134 130 33
139 134 36
138 133 33
134 129 37
129 124 37
131 127 38
135 130 37
136 132 37
134 129 41
140 134 42
136 131 38
126 122 37
140 136 39
129 125 36
140 135 41
136 130 39
136 131 37
146 140 43
143 138 45
138 134 41
147 142 41
145 139 41
139 135 42
145 140 44
139 134 42
143 138 44
144 138 51
151 145 49
141 134 42
150 144 45
150 144 54
150 142 51
144 138 45
141 134 49
146 141 45
146 140 44
141 137 44
151 145 52
150 144 49
149 143 49
153 147 49
150 144 48
148 142 56
152 147 51
154 147 58
152 145 51
148 143 52
149 142 57
143 137 51
149 143 48
154 147 54
146 142 52
146 141 44
152 146 53
145 139 45
153 147 52
151 145 56
144 138 48
144 138 54
139 134 51
150 143 52
145 139 51
141 135 37
139 135 42
143 137 47
152 146 52
151 145 61
141 136 47
151 145 57
147 141 58
147 140 56
153 147 63
154 147 57
146 140 56
148 142 61
149 142 59
141 134 52
152 145 59
148 141 53
149 142 54
146 139 54
146 139 66
145 139 58
138 132 49
140 135 49
148 142 56
152 146 62
142 135 52
139 134 49
145 139 58
147 139 56
151 145 64
140 133 52
145 139 57
142 138 52
141 136 49
143 137 54
174 196 0
174 197 0
173 196 0
175 198 0
172 195 0
174 197 0
172 196 0
172 196 0
172 196 0
174 197 0
174 197 44
179 202 92
183 205 111
183 205 114
181 203 108
182 203 111
180 203 102
179 201 99
181 203 99
187 208 137
182 204 128
184 205 125
184 206 136
183 205 128
181 204 122
185 206 125
185 207 137
184 206 137
178 201 120
178 200 88
180 203 105
182 205 128
179 202 108
182 204 130
179 203 128
178 202 111
178 201 117
180 203 120
177 201 117
179 202 122
179 202 120
177 201 133
179 202 111
180 202 111
178 201 92
180 204 133
175 198 111
178 201 128
178 202 114
172 195 114
177 201 108
179 202 117
177 200 117
175 198 114
176 201 120
176 199 108
177 202 122
174 198 108
176 200 117
172 196 111
176 201 120
177 201 120
175 199 120
176 200 117
175 200 111
175 199 108
173 196 88
177 200 125
173 197 105
175 199 99
177 201 128
173 198 120
175 199 114
171 196 125
170 194 122
173 196 105
171 195 111
174 197 108
175 198 117
176 200 147
173 198 117
171 195 105
170 195 99
172 196 117
171 194 99
172 195 105
174 198 108
175 198 114
171 196 117
175 198 114
171 195 111
169 193 99
169 192 95
169 193 114
167 191 105
167 192 114
170 193 114
169 193 95
165 189 108
171 195 117
171 195 117
170 194 122
164 187 102
170 193 128
169 192 105
171 195 120
162 184 120
166 190 111
166 188 120
170 193 114
166 189 128
169 190 133
165 186 111
167 188 117
170 190 133
170 190 137
169 190 151
168 188 108
164 185 111
167 188 133
160 181 111
146 166 0
150 171 0
148 167 0
143 164 0
135 155 0
144 164 0
152 173 0
148 169 0
152 172 25
154 175 0
156 177 0
161 182 51
161 182 57
162 184 51
169 191 67
170 193 62
166 190 0
165 189 0
170 193 0
169 193 0
166 189 0
165 189 0
164 187 0
169 193 0
167 190 0
165 188 0
168 191 0
163 187 0
161 184 0
160 184 0
163 186 0
166 188 0
163 187 0
167 190 0
162 186 0
159 183 0
162 185 0
163 187 0
130 154 60
50 80 84
54 86 99
55 86 97
55 87 97
55 87 103
53 83 94
55 87 86
55 87 99
55 87 98
55 87 94
56 88 97
54 86 92
55 87 95
55 88 100
55 87 92
54 86 90
53 85 95
56 89 99
55 87 100
57 89 107
55 88 100
56 89 103
55 87 105
55 87 92
55 86 100
55 87 100
55 88 111
55 87 90
55 88 102
55 87 95
57 90 114
57 89 117
56 89 110
55 87 103
56 89 107
58 91 124
56 89 107
55 87 95
56 89 107
55 87 105
56 88 99
54 85 95
54 86 103
54 85 97
55 87 97
56 88 107
57 90 108
56 88 107
55 86 110
54 85 97
55 87 94
56 89 101
55 87 105
54 86 102
56 89 103
53 84 92
54 85 97
55 87 100
55 87 103
53 84 96
57 90 102
55 86 108
52 82 90
53 83 94
56 88 100
54 84 103
54 84 93
54 85 90
52 80 87
51 81 94
52 82 93
52 81 88
51 80 81
51 80 87
48 75 68
49 77 77
48 75 80
49 76 79
49 75 77
44 67 67
122 143 57
157 178 0
154 176 0
156 177 0
161 183 0
156 176 0
158 180 0
161 182 0
156 177 0
156 175 0
163 184 0
161 181 0
159 179 0
155 176 0
163 183 0
164 182 0
160 179 0
164 185 0
158 176 0
159 179 0
163 182 0
159 180 0
157 177 0
138 153 16
97 93 32
71 67 8
90 86 18
86 85 0
87 83 20
69 68 3
83 80 11
92 89 16
87 84 14
91 88 3
83 83 11
83 81 16
88 86 0
90 87 8
87 84 3
105 101 11
99 98 22
91 91 21
98 95 12
102 101 24
99 98 21
99 97 14
109 106 20
113 110 27
114 112 18
117 115 18
110 107 31
110 106 23
127 125 30
108 105 29
113 109 24
114 111 21
123 118 24
119 116 31
124 119 28
114 110 28
123 120 24
132 128 34
126 122 33
124 118 38
129 125 31
137 131 34
130 128 30
127 122 37
134 130 34
130 125 34
132 127 28
135 130 34
137 131 37
140 135 42
139 135 37
140 135 32
141 135 38
135 130 37
139 133 36
140 134 44
131 126 39
142 136 45
133 129 32
136 132 34
144 139 47
148 140 50
144 139 45
144 138 47
148 143 30
141 136 41
146 140 49
142 137 41
146 140 42
139 133 37
151 144 52
148 141 52
152 146 45
151 144 41
145 140 45
150 144 45
154 148 45
143 137 32
145 139 49
144 137 42
148 141 51
147 141 42
142 137 48
145 140 45
140 134 47
149 143 51
143 137 48
151 145 47
147 140 56
145 139 44
152 146 57
147 140 54
153 146 51
149 142 54
147 141 51
138 132 48
148 142 45
143 138 47
148 142 49
143 137 48
143 136 56
144 136 51
142 136 48
144 137 54
143 138 42
148 141 52
140 134 45
143 138 45
145 138 56
143 138 47
140 135 42
148 142 56
143 138 49
144 138 56
137 130 52
140 135 52
153 146 63
141 136 45
143 138 51
138 133 51
145 138 53
146 140 52
142 137 48
142 137 45
144 139 53
138 134 39
153 147 60
139 132 56
148 141 59
143 136 58
140 136 51
149 143 54
130 124 44
137 131 45
140 135 52
139 135 52
173 197 0
173 196 0
174 197 0
175 198 0
172 195 0
173 196 25
172 196 0
173 196 0
172 195 0
169 193 0
174 197 0
175 198 25
176 198 72
180 202 102
175 198 76
181 203 111
180 202 102
180 202 114
177 199 90
179 202 105
184 206 130
185 206 142
185 206 142
186 207 140
179 201 117
183 205 135
182 205 120
182 204 120
183 206 128
181 204 125
183 205 128
179 201 95
183 206 130
180 202 111
183 205 140
180 202 128
180 203 122
180 203 117
182 205 130
178 201 120
180 203 120
177 200 120
178 201 120
176 200 99
176 199 120
175 198 105
177 200 120
179 201 102
180 203 125
172 197 108
177 200 99
180 204 140
177 201 105
179 204 142
176 199 102
177 199 120
174 196 88
173 196 108
173 197 99
180 203 117
173 197 88
176 199 111
175 199 120
174 198 111
171 195 99
176 201 111
176 200 111
174 198 120
175 198 128
178 202 108
174 198 111
175 200 122
174 198 114
177 201 114
171 195 102
172 197 111
177 200 122
172 195 105
172 195 111
173 197 125
172 197 128
174 198 108
173 197 102
174 198 105
175 199 114
168 192 117
175 200 122
169 193 99
171 195 108
172 196 125
171 194 120
172 195 125
172 197 117
171 194 122
165 189 135
170 195 122
168 191 111
163 186 95
168 192 108
167 190 120
164 187 120
164 186 108
169 192 122
168 191 133
169 192 105
167 189 111
168 191 111
168 191 125
175 197 125
171 194 120
170 192 117
167 188 114
170 192 130
164 185 108
167 187 133
168 188 111
169 190 92
164 184 99
165 185 92
153 174 72
151 171 36
141 161 0
143 163 0
151 172 0
146 167 0
149 170 0
148 169 0
149 170 25
146 166 0
152 173 0
156 178 25
157 179 51
164 185 44
164 186 51
161 183 88
165 186 76
169 191 0
169 193 0
168 191 0
167 191 0
165 187 0
166 190 0
169 192 0
165 189 0
165 189 0
158 181 0
162 186 0
165 188 0
164 187 0
161 184 0
157 180 0
162 186 0
162 186 0
164 189 0
164 187 0
164 188 0
164 186 0
163 185 0
162 185 0
159 182 0
109 132 64
54 85 92
53 84 96
50 81 88
51 82 72
55 87 88
55 87 102
54 87 97
55 87 94
55 87 107
56 88 99
55 87 102
54 85 95
53 85 99
55 88 99
55 87 102
53 84 92
55 88 99
56 88 99
54 86 95
56 88 103
54 85 96
55 87 99
58 91 117
55 88 99
55 87 102
52 83 92
56 88 99
54 86 97
53 84 94
56 88 105
54 87 108
55 87 95
56 88 103
54 86 94
55 87 97
54 86 95
53 85 92
57 90 102
54 86 108
57 90 110
57 89 108
54 86 97
56 89 100
56 89 100
55 87 99
54 86 94
56 89 100
54 85 103
57 89 114
54 86 95
56 89 94
55 88 102
53 85 95
55 88 99
54 86 92
53 84 87
54 86 107
55 87 111
55 85 107
55 87 110
54 86 94
51 81 81
57 89 116
52 82 90
54 85 107
54 84 97
52 82 103
53 84 95
51 80 92
52 82 83
51 80 80
51 80 85
51 79 82
48 76 77
47 74 77
45 70 70
50 78 82
46 71 66
102 121 55
157 177 0
148 166 0
155 173 0
154 174 0
160 182 0
157 178 0
155 174 0
157 176 0
163 183 0
154 173 0
158 178 0
149 166 0
160 178 0
161 182 0
161 182 0
163 183 0
163 183 0
162 181 0
165 184 0
159 178 0
159 179 0
159 179 0
156 177 0
165 185 0
131 142 19
96 90 30
88 85 19
91 85 28
88 85 19
75 72 11
90 86 16
88 85 21
91 87 16
90 86 14
86 84 11
98 95 0
96 92 8
99 98 14
96 93 14
100 97 8
95 93 18
106 102 0
100 95 0
104 100 18
105 101 30
109 107 22
99 97 24
108 103 18
120 115 16
113 111 24
124 120 27
115 112 19
110 106 16
115 111 22
123 119 30
121 118 19
120 116 32
123 120 24
113 110 26
133 128 32
125 122 29
131 127 26
128 125 19
135 130 29
131 128 30
130 127 36
129 124 35
121 118 18
126 122 32
132 128 42
127 123 22
128 125 32
137 132 39
131 127 25
136 131 30
126 123 25
130 127 28
141 136 49
146 140 42
137 132 36
136 131 28
144 138 44
146 140 45
138 132 36
145 138 37
137 131 30
136 131 42
149 143 45
145 137 42
144 139 41
137 133 41
140 134 37
139 132 42
143 137 45
139 134 45
149 144 44
146 141 44
143 137 39
144 139 44
148 142 42
141 135 49
147 142 53
140 135 45
142 136 37
149 143 47
144 139 44
140 134 49
137 132 47
145 140 51
145 140 39
157 150 53
145 139 48
147 141 49
145 139 44
142 137 45
152 146 52
152 145 51
148 143 51
147 141 49
152 145 53
146 140 48
140 134 48
149 142 51
141 135 45
153 146 51
153 147 48
141 136 52
144 139 56
153 146 63
149 142 57
147 142 48
145 139 51
151 144 62
146 140 57
137 131 45
141 135 42
145 139 54
136 131 49
150 144 54
143 136 53
147 141 49
144 137 52
143 137 51
142 136 48
146 140 56
142 135 49
139 133 52
147 141 49
140 134 52
139 133 52
147 140 60
147 141 54
145 138 53
138 132 48
139 133 47
140 134 53
141 135 51
138 133 44
138 133 49
133 127 45
174 197 0
174 197 0
171 195 0
171 195 0
173 197 0
174 197 0
175 197 0
173 196 25
173 197 0
173 197 0
171 194 0
172 195 0
172 195 0
176 198 57
177 200 92
180 203 95
180 201 105
183 204 111
183 205 122
180 202 111
182 203 105
182 204 125
186 207 140
185 206 120
182 204 133
181 204 117
184 206 128
181 203 114
181 203 122
185 207 135
183 205 120
180 203 108
182 204 128
179 203 105
182 204 114
173 196 105
180 202 120
181 203 128
183 206 135
176 200 114
180 203 120
180 204 120
182 204 137
186 208 155
179 202 125
179 202 120
179 202 108
178 201 125
177 200 111
178 201 120
175 199 117
178 201 114
177 200 125
178 201 105
178 201 120
174 198 111
173 198 125
178 202 142
173 197 108
175 200 102
175 198 102
175 199 120
171 195 92
173 197 117
175 199 117
173 197 114
173 196 99
174 198 122
171 196 120
176 200 108
176 199 117
172 196 92
176 199 105
174 198 117
173 198 125
174 197 111
169 192 84
175 198 117
173 197 99
175 198 102
173 197 120
176 200 114
174 198 111
172 194 117
171 196 125
171 195 125
167 190 92
166 189 114
168 192 108
172 196 108
170 192 102
174 197 120
172 195 102
170 194 125
167 189 117
172 195 122
168 190 108
173 196 125
171 194 125
171 195 140
171 195 111
168 190 117
173 195 108
166 189 105
168 191 105
167 189 108
165 187 102
168 190 114
167 188 102
172 193 125
176 198 133
169 191 114
164 185 102
177 198 159
167 188 128
163 184 108
155 177 99
164 184 105
159 179 62
146 166 0
148 168 0
149 169 0
134 154 0
148 169 0
144 165 0
149 170 0
156 177 0
149 171 36
155 176 36
154 175 57
161 182 51
157 179 62
169 189 76
169 190 67
167 189 62
172 194 0
169 192 0
168 191 0
166 190 0
167 190 0
163 187 0
168 191 0
167 189 0
159 182 0
165 189 0
163 185 0
166 189 0
164 186 0
161 184 0
165 188 0
161 185 0
169 192 0
162 185 0
165 188 0
154 176 0
163 186 0
163 187 0
163 185 0
157 180 0
153 176 0
149 172 0
87 111 65
55 87 94
52 82 78
52 83 88
53 84 88
55 87 95
52 83 86
53 84 82
56 88 105
54 86 96
54 85 90
54 85 94
55 88 103
57 90 118
54 86 84
54 85 102
56 88 100
56 88 108
54 86 102
54 87 78
54 86 95
55 88 100
54 86 100
54 86 99
56 89 103
55 87 95
55 87 108
54 86 94
55 88 102
52 83 80
56 89 107
56 89 103
53 85 94
55 86 105
57 89 108
54 86 95
55 87 102
57 90 105
56 89 102
55 86 97
54 85 95
53 84 97
54 86 100
54 86 99
53 84 95
55 87 103
55 87 97
52 83 80
56 88 103
55 87 102
56 88 100
52 83 92
55 87 108
54 87 100
53 84 87
51 81 83
55 86 107
52 82 92
52 82 86
54 85 94
52 82 83
53 83 97
55 87 99
52 82 90
53 84 97
52 83 80
53 83 87
51 80 92
49 77 75
49 76 81
53 82 93
51 80 85
47 74 66
52 81 99
49 77 67
46 73 72
46 71 65
89 109 51
148 168 0
156 174 0
150 168 0
156 174 0
150 169 0
157 176 0
149 170 0
149 167 0
152 172 0
152 171 0
150 170 0
158 178 0
151 171 0
157 176 0
157 175 0
156 175 0
161 180 0
157 174 0
155 174 0
157 175 0
154 171 0
161 180 0
162 181 0
154 172 0
159 180 0
156 176 0
130 135 16
97 93 28
90 84 21
84 82 18
82 79 18
86 82 11
94 90 26
86 84 16
88 85 20
97 93 16
79 76 14
88 85 8
99 96 14
91 89 16
90 86 8
88 86 8
93 91 16
98 96 14
92 87 8
106 103 14
101 99 18
116 111 11
101 97 8
109 105 27
110 107 18
104 102 27
108 105 11
105 102 21
103 101 18
115 111 18
119 117 25
105 102 0
121 118 22
119 114 19
118 114 29
118 113 35
115 111 33
133 129 42
129 125 25
121 116 26
125 121 28
132 127 30
125 121 25
129 124 25
122 118 31
125 121 14
133 128 36
136 128 32
141 136 40
143 137 39
136 131 30
147 141 45
136 130 31
138 132 30
136 131 36
132 127 34
141 136 37
137 132 42
142 136 36
139 135 41
144 138 36
141 135 37
145 140 44
148 141 42
140 134 34
145 139 45
139 134 45
148 142 42
144 138 47
145 139 47
142 137 36
140 134 36
143 138 42
144 139 41
138 134 34
147 141 42
149 142 47
139 134 36
152 146 52
145 139 39
144 138 47
149 142 54
137 131 39
140 135 41
143 139 36
144 138 42
150 143 48
148 143 52
145 140 42
147 141 53
149 143 54
146 141 39
145 138 52
146 140 49
138 133 42
151 144 58
147 140 47
149 143 52
140 135 39
150 144 52
152 145 53
149 143 48
146 139 54
148 141 48
141 136 49
146 139 57
143 138 47
144 139 39
145 139 58
146 140 53
143 136 45
143 137 48
146 140 52
146 141 57
150 143 53
148 142 58
142 136 59
143 137 51
147 141 53
146 141 39
144 136 56
144 139 41
139 133 42
140 134 48
141 136 48
129 123 41
142 136 52
137 130 45
141 135 47
131 126 47
136 131 47
140 133 48
145 140 48
140 134 53
140 135 51
173 196 0
174 197 36
172 196 0
175 198 0
172 196 0
172 195 0
170 194 0
174 197 0
173 196 0
170 194 0
171 194 0
173 196 0
171 195 0
172 196 0
173 196 0
173 197 76
181 203 99
178 201 89
182 204 122
186 207 128
182 204 120
177 200 88
179 202 95
180 203 111
179 201 128
181 202 128
189 208 157
182 204 122
183 205 130
181 203 117
179 202 111
186 207 144
180 202 125
179 201 102
180 203 128
180 203 120
182 204 125
182 205 142
180 203 111
176 199 114
180 203 125
180 203 122
179 202 122
179 203 120
179 201 111
179 203 135
178 202 117
182 205 140
178 202 125
175 199 114
179 202 111
174 197 92
178 202 133
177 201 114
178 202 125
176 200 120
177 200 120
179 202 122
177 201 108
173 197 102
172 196 108
177 201 137
177 201 114
173 197 105
173 197 111
175 199 120
172 196 105
172 195 102
173 197 117
171 196 117
173 196 102
175 198 108
177 201 130
174 199 130
172 196 102
170 194 108
172 197 137
174 199 117
174 197 108
175 198 117
176 200 135
170 194 120
171 195 111
170 194 114
173 197 120
171 194 88
170 194 120
174 197 105
175 199 125
177 201 130
169 193 108
172 195 111
172 196 128
167 190 102
170 192 105
167 189 99
175 198 122
173 195 102
168 191 117
170 192 122
169 192 120
173 195 130
171 193 128
171 194 114
173 196 125
174 196 122
170 191 108
164 186 125
166 187 108
170 191 111
168 189 135
171 192 130
163 183 102
164 184 128
165 186 122
162 183 102
151 171 72
149 170 44
153 174 0
139 159 0
146 166 0
146 166 0
142 162 0
141 161 0
152 173 25
143 164 25
155 176 25
148 169 0
152 173 0
162 183 62
158 180 51
164 184 80
169 189 67
172 193 76
168 191 0
167 189 0
165 189 0
165 189 0
161 184 0
164 187 0
166 189 0
166 190 0
163 186 0
159 183 0
162 185 0
164 187 0
164 186 0
164 187 0
162 185 0
159 182 0
163 186 0
167 190 0
159 182 0
158 181 0
161 185 0
159 182 0
157 180 0
162 186 0
157 180 0
145 167 0
158 180 0
148 170 31
75 101 67
53 84 88
51 81 80
52 82 90
55 87 94
51 81 86
51 81 82
53 85 94
54 85 97
53 84 86
53 85 95
53 85 78
55 88 105
55 87 88
54 86 90
52 82 82
53 85 102
54 86 86
54 86 86
55 86 97
55 87 103
55 87 100
54 86 105
55 87 105
53 85 74
57 90 113
54 86 102
55 87 99
54 86 94
55 86 99
54 86 95
55 88 102
55 87 105
53 85 84
53 85 92
55 87 103
55 87 92
53 83 95
55 87 95
55 87 100
53 84 97
56 88 111
54 86 90
54 85 86
55 87 99
57 89 108
54 85 99
54 85 102
53 84 90
50 80 81
55 88 95
53 85 94
53 84 94
55 87 90
56 88 115
52 84 88
53 84 99
56 88 103
52 83 92
54 85 107
54 85 100
52 82 101
53 84 90
52 82 87
51 80 87
50 79 84
53 84 92
52 81 89
49 77 87
53 81 88
52 80 80
50 77 79
48 74 81
47 73 74
45 70 68
66 88 60
147 167 8
151 170 0
148 169 0
156 175 0
150 169 0
151 169 0
151 169 0
153 171 0
151 169 0
151 170 0
152 171 0
151 170 0
152 171 0
147 165 0
156 176 0
152 170 0
151 169 0
150 169 0
152 168 0
144 161 0
153 170 0
150 167 0
159 177 0
157 175 0
155 173 0
153 169 0
156 171 0
157 174 0
136 145 22
89 83 22
79 73 19
86 81 24
96 92 14
82 79 11
85 83 18
82 77 14
78 75 14
94 90 11
87 84 0
90 87 8
96 93 16
87 83 8
102 101 0
100 96 0
95 91 21
95 92 18
104 101 19
100 99 16
112 109 12
103 100 14
99 97 14
91 89 8
113 111 24
109 106 19
114 111 22
105 103 14
116 111 18
113 110 11
114 109 25
121 114 25
118 114 28
127 122 18
124 120 33
110 107 26
126 121 26
120 117 22
129 122 32
130 125 31
132 128 35
130 124 30
129 126 33
141 135 32
126 121 29
129 124 35
135 129 36
136 129 37
131 126 32
130 126 22
132 127 32
136 131 32
133 129 32
133 127 37
132 126 32
131 127 25
140 135 41
137 131 40
143 137 37
142 136 43
138 134 36
138 133 32
134 129 39
136 131 39
135 131 37
138 133 34
134 130 32
142 137 41
138 134 37
136 132 36
139 133 37
145 140 44
138 133 30
141 135 47
144 139 34
143 137 41
140 133 44
147 142 37
146 139 47
141 134 45
143 138 44
142 135 45
138 131 41
153 146 53
148 142 47
141 136 37
147 142 49
139 133 39
141 137 37
134 129 37
141 136 41
142 136 47
151 144 51
141 136 47
138 132 37
143 138 39
146 139 52
145 139 44
150 143 57
141 134 45
146 140 48
140 134 39
143 136 49
138 132 34
147 140 52
142 136 51
148 141 52
150 143 48
148 141 49
151 144 51
141 134 48
149 142 54
139 133 53
143 136 52
142 136 48
136 131 41
142 136 53
142 135 59
138 133 45
150 143 52
144 139 48
145 139 54
133 127 42
139 134 49
147 140 51
138 133 52
143 137 48
148 142 60
136 130 47
149 142 63
141 136 47
137 131 54
145 139 53
123 118 47
173 196 36
172 196 0
175 197 0
173 196 0
174 197 0
172 196 25
173 197 0
173 196 25
172 196 0
170 193 0
172 195 0
171 194 0
171 195 0
171 194 25
174 196 0
175 198 0
175 197 67
179 201 95
178 201 108
177 200 95
178 200 92
179 201 92
183 205 125
180 202 111
178 201 108
182 204 105
183 204 120
187 208 135
184 206 130
184 206 128
181 203 114
178 200 122
178 202 105
185 206 137
182 205 125
183 205 130
183 204 125
181 203 133
181 203 122
178 201 128
178 201 120
172 196 105
179 202 111
177 199 102
178 200 130
178 201 117
180 203 122
178 202 125
179 202 122
175 198 105
175 198 111
177 200 122
177 201 117
173 196 105
178 202 117
175 198 120
176 200 128
175 199 92
177 201 117
178 202 128
176 199 120
176 200 135
170 194 92
178 202 125
176 200 128
173 196 111
176 199 102
173 197 122
173 198 133
172 195 108
175 199 122
179 202 133
174 198 105
170 192 88
179 202 111
170 193 105
173 197 122
173 197 102
169 192 105
175 199 122
174 199 128
173 197 122
171 194 88
170 193 114
173 197 125
168 191 108
175 199 125
174 197 117
173 197 125
171 195 128
172 196 128
173 196 122
167 191 122
169 192 102
167 189 105
173 196 117
170 192 128
171 194 111
171 192 114
166 188 114
171 193 128
169 192 122
169 191 111
169 192 117
172 194 137
160 182 99
170 191 125
166 187 117
162 183 117
174 194 142
166 187 122
165 186 99
162 184 111
165 185 108
161 183 95
157 178 51
153 173 0
141 162 0
139 159 0
145 165 0
146 166 0
151 172 0
146 166 0
151 171 0
153 173 0
155 174 36
160 180 0
150 171 25
159 180 44
163 183 62
163 185 62
168 189 67
172 192 76
163 185 25
165 187 0
161 184 0
166 189 0
163 186 0
165 188 0
157 179 0
163 186 0
166 189 0
162 185 0
156 178 0
163 186 0
156 178 0
162 185 0
159 183 0
164 187 0
156 178 0
154 176 0
154 177 0
161 183 0
153 176 0
156 179 0
154 176 0
156 180 0
148 172 0
150 173 0
150 173 0
150 173 0
152 176 0
151 173 36
86 110 62
52 83 92
53 84 95
53 84 82
52 82 86
54 85 95
56 88 100
54 85 92
56 88 110
52 83 99
53 85 88
52 84 92
52 83 88
53 85 82
53 84 82
55 87 92
54 86 95
56 88 105
55 86 99
53 83 92
54 86 94
53 85 90
55 88 92
57 90 108
54 86 97
55 86 97
54 86 94
57 89 103
55 87 94
56 88 102
54 85 95
53 84 84
56 88 103
54 86 94
54 86 99
56 89 105
55 87 107
52 83 97
54 85 94
53 84 103
53 85 97
53 85 84
52 83 89
56 87 113
56 88 103
51 81 85
52 82 97
57 90 115
54 86 95
53 85 90
55 86 107
53 83 96
52 83 89
52 83 84
53 84 99
51 81 74
54 85 102
53 83 94
49 78 83
53 84 87
53 83 94
52 82 91
49 79 79
50 79 77
51 81 92
48 76 70
49 77 84
52 82 86
50 77 76
49 77 78
48 75 91
49 76 87
46 71 54
67 90 71
140 160 25
140 156 0
151 171 0
150 167 0
141 161 0
147 163 0
143 161 0
136 152 0
148 167 0
146 163 0
145 164 0
143 161 0
151 170 0
140 158 0
147 164 0
154 172 0
155 173 0
153 171 0
155 174 0
148 165 0
151 170 0
153 170 0
150 169 0
154 170 0
151 166 0
158 176 0
151 168 0
149 166 0
149 166 0
159 176 0
121 129 23
86 81 16
95 88 16
88 83 0
78 74 19
85 82 0
84 80 0
80 77 11
82 78 18
96 91 0
86 84 0
92 86 11
92 88 8
92 87 16
88 85 0
97 92 8
93 92 19
102 97 11
106 103 8
111 107 12
108 103 11
106 101 0
117 113 26
108 104 21
108 104 16
114 110 18
113 108 11
111 105 16
114 110 18
129 124 26
128 122 22
116 113 20
120 115 25
118 113 30
119 115 22
117 112 18
116 112 28
122 118 25
132 127 32
121 118 18
127 123 30
110 107 24
129 125 28
131 126 29
126 120 22
131 127 28
134 128 30
127 122 28
125 119 28
139 133 34
129 122 26
138 132 32
131 126 28
136 131 37
131 126 37
143 136 39
140 134 36
139 133 41
134 127 36
137 133 22
139 134 41
140 134 34
138 133 32
137 133 32
139 133 34
133 128 28
140 133 36
145 137 39
145 138 44
138 134 32
146 139 42
146 140 45
135 129 32
142 137 28
137 133 39
142 136 36
145 138 53
148 142 44
145 139 51
137 132 41
140 134 36
142 138 41
141 136 44
147 141 42
142 135 47
152 146 52
132 126 34
140 135 48
143 138 48
147 141 41
143 138 39
145 139 53
146 140 39
140 134 44
143 137 48
144 137 42
143 136 48
148 142 49
148 140 45
145 140 47
143 137 47
152 144 54
146 140 45
141 135 37
149 143 57
136 131 42
151 145 52
144 138 47
145 139 42
141 136 34
137 132 39
142 135 52
150 144 57
148 141 57
140 133 49
149 142 53
146 140 49
141 135 49
140 134 48
140 133 48
145 139 52
139 134 54
138 133 47
143 136 48
142 135 47
145 139 51
135 130 45
142 135 52
140 134 49
144 138 56
139 133 49
136 130 52
139 134 53
174 197 0
173 197 0
173 196 25
170 193 0
173 197 0
173 196 0
171 195 0
174 196 0
175 198 0
172 195 0
174 197 0
171 194 0
172 195 0
171 195 0
172 195 0
174 197 0
172 195 0
174 197 25
176 199 67
175 198 95
179 202 99
179 201 105
179 202 99
178 201 95
179 202 105
178 201 102
178 201 92
180 202 117
186 207 144
185 206 125
183 204 122
183 205 130
178 200 105
183 205 142
179 201 111
180 202 108
184 206 142
181 202 122
183 205 142
178 201 128
178 200 120
178 201 114
182 204 114
178 202 114
175 199 108
177 200 135
180 202 114
179 201 128
177 199 130
176 199 120
175 198 99
177 200 120
178 201 114
179 201 135
175 199 117
173 196 84
177 201 137
178 201 114
177 200 108
177 199 128
175 200 122
176 200 117
174 198 125
177 199 111
169 192 102
174 197 117
173 197 122
177 201 120
176 199 122
175 199 120
173 197 120
177 201 120
176 199 117
176 199 114
172 195 114
175 198 95
174 197 102
172 195 120
172 196 99
171 195 114
174 198 117
169 193 95
173 195 99
176 200 120
174 198 122
173 196 122
173 196 120
170 193 108
174 197 133
170 193 102
173 197 114
174 196 117
168 190 95
176 198 122
171 193 99
171 193 117
177 199 122
175 197 125
175 197 142
173 194 125
174 195 108
171 192 92
167 189 128
171 192 122
166 187 95
171 192 133
161 182 111
172 192 125
171 192 120
164 184 99
169 190 105
166 186 130
165 186 111
153 173 57
142 162 36
150 170 0
151 171 25
142 163 0
146 166 0
149 170 0
150 169 0
149 169 0
150 169 0
153 174 25
148 169 0
156 177 25
156 177 36
160 182 51
164 184 76
164 187 51
171 193 84
166 186 88
166 190 0
171 194 0
164 187 0
163 186 0
161 184 0
166 188 0
157 180 0
153 177 0
157 180 0
163 186 0
158 180 0
160 182 0
157 180 0
155 179 0
157 179 0
156 178 0
155 177 0
158 181 0
158 180 0
156 179 0
156 179 0
156 178 0
154 176 0
159 182 0
149 171 0
161 183 0
149 172 0
151 173 0
147 170 0
145 168 0
150 172 0
138 160 31
74 100 70
48 77 80
49 78 76
52 82 78
54 86 90
54 85 90
53 84 94
55 87 91
54 85 90
52 83 88
54 86 97
53 84 95
53 86 92
54 85 92
55 87 94
54 86 94
55 87 99
52 83 88
54 86 92
54 86 92
53 84 97
54 85 86
55 87 92
53 84 92
54 85 90
54 86 88
51 81 88
55 87 105
56 88 97
53 85 88
53 85 92
53 85 90
54 86 100
51 81 84
54 86 78
53 84 95
52 83 80
53 85 94
53 83 94
55 86 100
55 87 103
53 83 102
53 85 88
56 88 100
50 80 74
53 85 90
54 86 96
51 81 88
53 84 95
54 85 90
52 82 94
51 82 90
51 81 79
52 82 86
54 85 103
52 82 89
52 82 95
52 82 92
52 81 85
52 82 92
53 83 87
49 77 79
50 79 85
52 82 95
53 83 86
49 78 78
46 73 73
48 75 82
49 77 86
46 72 75
45 71 68
76 94 48
134 153 18
141 160 0
131 147 0
142 160 0
136 153 0
143 161 0
149 166 0
144 161 0
135 152 0
143 160 0
144 163 0
145 163 0
141 155 0
139 156 0
142 159 0
143 162 0
150 166 0
142 154 0
136 153 0
153 170 0
159 175 0
146 162 0
146 162 0
153 170 0
147 163 0
155 171 0
147 160 0
150 165 0
157 173 0
152 167 0
159 176 0
155 169 0
122 127 16
92 87 25
102 96 25
83 80 19
93 88 19
84 80 11
98 93 0
91 88 8
94 90 22
85 81 0
91 86 14
93 89 8
90 87 11
102 98 19
86 83 0
87 82 0
94 92 8
107 103 0
97 94 22
100 98 14
104 100 11
107 104 14
111 108 8
107 103 11
111 107 8
109 105 11
103 99 18
114 110 16
115 112 0
114 110 20
119 114 11
111 108 11
123 119 16
111 107 14
132 126 24
120 117 18
130 127 30
125 121 16
124 121 18
131 126 28
116 110 22
117 112 19
128 123 28
130 126 25
128 123 22
136 130 26
132 126 29
132 126 32
134 127 28
128 124 26
137 131 30
140 134 39
132 128 19
137 132 39
139 134 28
136 131 28
135 130 25
133 127 28
142 135 39
134 128 33
138 133 32
126 120 32
138 133 41
140 134 32
136 132 37
146 140 45
137 133 36
140 133 37
132 128 30
144 138 37
147 141 41
138 133 37
140 135 32
138 133 37
141 137 32
129 124 32
149 142 52
140 134 32
139 133 34
148 141 42
146 140 44
142 135 41
137 131 36
140 134 36
148 142 48
135 129 37
144 138 47
145 138 47
134 129 30
141 134 39
143 137 41
149 142 54
148 140 45
147 142 45
138 132 44
147 140 49
142 136 51
137 132 45
137 131 41
139 135 44
148 141 54
137 131 48
140 134 44
140 134 45
140 135 42
138 133 48
139 133 45
144 139 45
145 140 51
148 140 51
153 147 58
145 140 44
138 132 48
141 135 48
144 139 49
140 134 53
142 136 52
144 138 45
145 138 56
137 131 48
146 141 48
145 138 57
143 137 52
145 139 52
143 137 49
135 129 44
138 132 52
138 133 51
136 130 44
138 133 45
138 133 47
139 132 52
173 197 0
173 195 0
171 195 0
173 197 0
173 196 0
174 197 0
172 195 0
172 196 0
174 196 0
174 197 0
173 197 0
173 195 0
171 194 0
175 197 0
171 195 0
172 195 0
171 194 0
171 195 0
171 194 0
172 196 25
175 198 67
183 205 122
183 204 111
183 205 122
181 204 114
176 199 95
175 197 92
180 203 108
176 199 105
186 208 151
183 204 140
183 204 135
183 204 135
184 206 137
180 202 114
178 200 92
182 204 125
181 203 128
180 203 137
179 201 117
178 201 114
180 203 135
180 203 114
180 202 125
178 201 111
176 200 122
177 200 122
179 203 133
179 202 137
177 200 117
177 200 111
182 205 144
178 200 111
179 202 137
178 202 125
177 201 130
175 198 102
177 200 114
174 197 117
175 198 130
176 200 105
172 196 99
178 201 120
171 194 92
170 194 120
175 198 122
174 197 114
175 197 111
174 197 117
173 197 108
169 192 72
169 192 105
176 200 130
176 199 114
173 197 117
173 196 108
169 193 108
172 195 117
172 195 95
173 196 108
168 190 102
176 199 105
170 194 117
174 197 130
174 197 125
171 193 92
172 195 108
177 200 130
175 197 108
171 194 114
170 193 92
173 196 135
168 190 105
177 199 125
176 197 117
168 191 105
167 189 120
171 193 114
167 189 111
168 190 125
174 195 133
168 190 125
173 195 117
168 189 128
164 184 137
172 192 133
163 184 117
161 182 105
165 187 114
170 190 114
157 177 99
162 183 80
157 177 51
146 166 0
145 166 0
153 172 0
141 161 0
150 171 0
145 165 0
152 172 0
154 174 0
139 159 0
151 172 0
147 167 44
153 174 0
155 176 25
158 179 36
161 182 62
159 179 44
162 183 76
164 185 62
167 188 0
160 182 0
160 183 0
167 189 0
164 187 0
163 186 0
159 181 0
161 183 0
155 176 0
161 183 0
159 181 0
159 181 0
154 176 0
158 179 0
158 180 0
157 179 0
158 180 0
152 174 0
153 175 0
153 177 0
160 183 0
153 175 0
157 179 0
154 176 0
152 174 0
153 175 0
148 170 0
153 175 0
150 170 0
147 170 0
146 167 0
147 168 0
147 169 0
138 160 25
83 106 71
48 78 60
50 80 74
53 84 72
51 81 86
51 81 90
52 82 86
53 83 90
53 84 92
50 80 76
52 83 88
52 83 76
51 81 82
56 88 92
52 83 86
53 84 94
53 85 82
54 86 97
52 83 86
53 84 86
54 86 90
55 87 114
55 88 90
54 86 94
54 86 95
56 88 100
53 84 84
53 85 94
53 84 86
55 87 95
53 84 92
54 85 107
54 86 92
54 85 94
51 81 82
54 85 102
53 84 100
55 86 100
53 85 94
53 84 90
52 82 84
54 86 107
53 84 100
52 81 83
54 85 102
54 85 100
54 86 97
53 84 86
54 85 92
53 83 100
55 87 104
53 83 84
54 85 94
51 81 90
54 86 99
51 81 82
50 78 83
50 78 87
52 81 86
52 82 94
50 78 77
48 75 70
51 80 84
49 77 75
50 78 83
50 79 81
48 74 78
45 71 45
47 73 70
64 83 54
137 155 18
144 163 0
139 158 0
139 156 0
140 157 0
145 161 0
138 156 0
138 158 0
138 157 0
146 163 0
144 162 0
131 148 0
143 160 0
145 160 0
135 152 0
138 154 0
151 170 0
147 166 0
145 161 0
144 160 0
143 160 0
147 163 0
147 163 0
136 151 0
151 166 0
148 164 0
140 155 0
152 167 0
151 165 0
147 162 0
152 169 0
152 166 0
151 167 0
162 177 0
124 132 11
94 88 28
82 78 16
87 83 16
76 73 0
94 87 16
77 73 8
73 68 8
84 82 11
89 86 8
84 80 11
102 97 14
95 92 12
99 94 8
92 89 8
98 96 2
100 97 14
103 100 11
97 94 8
106 101 0
105 100 14
105 101 18
115 110 19
109 104 19
109 106 18
110 106 8
112 108 14
126 120 19
108 105 11
111 106 16
105 102 18
117 112 26
118 113 16
115 110 14
127 122 19
136 130 30
125 122 24
129 124 32
121 116 11
130 123 25
123 120 26
121 116 22
124 119 25
128 123 28
130 125 25
140 133 30
131 125 33
137 130 34
129 124 30
133 129 31
128 122 25
123 119 28
134 128 19
129 124 30
131 125 30
137 131 36
134 128 39
128 123 32
130 125 30
136 131 32
133 129 30
133 127 32
140 134 30
140 134 44
138 131 36
141 136 36
132 127 36
143 137 30
143 136 39
141 135 45
140 134 36
141 136 42
146 140 44
139 135 30
136 130 39
141 137 34
137 132 41
144 138 42
142 136 39
128 124 32
144 137 42
142 136 41
142 135 45
147 139 44
145 139 49
144 139 45
139 133 41
146 140 44
138 131 36
142 136 39
141 135 44
144 139 34
139 134 41
143 137 49
141 135 39
144 137 45
141 136 39
140 135 39
134 128 34
147 139 48
135 129 45
139 133 42
139 133 39
146 141 39
132 126 44
143 137 53
144 137 44
145 140 47
141 135 54
139 135 51
138 133 42
145 140 53
140 134 51
141 135 49
130 126 39
144 138 53
136 130 51
138 133 39
134 130 41
143 137 52
143 135 53
143 137 51
138 133 51
134 128 42
145 138 56
145 139 54
144 137 52
130 124 52
139 132 49
123 119 42
136 131 47
173 196 0
173 196 25
174 198 25
172 194 36
172 194 0
174 198 0
174 197 0
173 196 0
173 196 0
172 196 0
174 197 0
170 193 0
173 196 0
175 198 0
170 194 0
172 196 0
172 194 0
173 196 0
174 196 0
172 195 0
171 194 0
175 198 57
179 201 88
180 202 95
180 202 92
178 201 92
183 205 117
181 203 117
179 202 111
177 199 99
178 201 102
175 198 102
185 206 128
189 209 147
189 210 149
183 205 133
178 200 114
185 207 137
183 204 137
181 203 114
183 206 142
180 203 137
181 202 133
180 203 135
179 201 135
179 202 111
180 202 128
181 203 122
179 203 117
172 195 105
175 198 114
178 202 130
179 202 114
178 200 125
174 197 102
177 199 105
173 196 95
176 199 117
177 201 135
177 200 114
174 197 95
172 195 122
178 201 125
176 200 130
175 198 108
175 198 120
174 197 120
176 198 117
172 196 114
177 200 130
172 195 99
178 202 137
173 196 114
174 197 111
174 196 111
177 200 130
177 200 137
176 199 117
174 196 102
174 197 125
167 190 99
174 197 122
178 200 128
173 195 92
170 193 114
172 195 102
173 195 130
172 195 130
170 191 111
171 193 108
177 199 128
167 190 120
171 193 117
173 196 137
173 195 137
164 184 95
174 196 130
170 192 128
174 197 137
169 190 102
171 192 128
172 193 122
173 193 122
162 183 133
168 188 108
167 189 114
168 191 120
163 183 88
161 182 108
157 179 95
157 178 36
147 168 0
153 172 0
151 171 0
145 166 0
142 162 0
144 164 0
146 167 0
150 170 0
151 172 25
146 166 36
148 169 25
157 178 25
162 183 0
163 184 36
160 182 57
161 180 72
160 182 36
168 189 84
166 187 67
166 188 0
162 184 0
155 177 0
160 183 0
156 178 0
164 186 0
159 182 0
159 182 0
163 185 0
158 180 0
155 178 0
161 183 0
156 178 0
159 181 0
153 176 0
155 177 0
155 178 0
149 171 0
154 176 0
158 179 0
160 182 0
156 179 0
154 177 0
158 179 0
148 171 0
146 168 0
159 181 0
149 170 0
145 168 0
141 162 0
147 168 0
143 164 0
140 161 0
136 158 0
143 164 0
138 159 0
81 105 62
52 83 80
48 78 65
48 77 72
53 84 76
52 83 80
54 86 90
52 84 70
49 79 67
50 80 86
54 85 82
50 80 78
53 84 108
54 86 105
54 86 90
52 84 74
54 86 94
51 82 80
54 85 99
53 84 92
52 84 84
52 82 95
54 85 90
50 80 74
54 85 92
54 86 90
55 87 102
51 81 86
57 90 97
54 85 92
54 85 94
52 83 94
50 80 78
54 85 99
54 85 97
54 85 95
54 85 100
51 82 84
51 81 90
51 82 97
51 81 74
52 82 88
53 84 92
53 84 90
52 83 92
54 86 96
54 86 97
52 81 92
50 80 95
51 80 84
53 83 98
50 80 84
52 82 85
52 82 97
52 83 86
50 78 72
52 82 84
50 79 80
48 76 81
50 79 79
52 82 99
48 76 76
46 73 45
50 77 78
47 73 66
47 74 68
47 72 81
76 95 36
132 149 8
136 154 0
134 152 0
127 143 0
133 148 0
132 149 0
140 158 0
142 161 0
141 159 0
136 152 0
139 156 0
136 153 0
144 160 0
139 153 0
140 155 0
141 156 0
138 153 0
142 160 0
133 150 0
141 157 0
141 157 0
151 167 0
136 152 0
147 164 0
139 154 0
137 152 0
140 155 0
149 164 0
142 158 0
142 157 0
153 168 0
146 160 0
151 166 0
145 159 0
152 168 0
154 166 0
135 145 11
100 95 25
89 83 16
87 85 2
79 75 16
83 78 24
81 77 16
85 82 8
82 78 16
91 87 0
89 86 0
85 83 0
99 95 14
96 92 0
103 97 11
101 95 0
107 102 0
97 94 0
112 108 16
104 98 21
113 108 11
109 103 11
110 104 0
111 105 11
110 105 8
118 114 24
116 112 19
112 107 14
109 103 14
112 107 11
112 109 19
130 124 22
119 115 11
117 112 16
121 115 22
124 119 19
120 116 11
121 116 22
123 119 18
123 117 24
123 116 20
118 113 22
131 127 25
124 119 18
128 123 25
128 122 19
133 128 28
130 123 26
137 132 29
138 134 30
130 124 34
133 127 34
137 132 25
133 129 22
134 128 44
129 124 25
135 130 36
140 134 34
135 130 32
132 125 16
137 131 36
137 132 32
139 134 28
139 132 39
137 130 42
133 125 32
137 132 34
141 135 39
138 132 37
132 126 37
142 135 37
143 137 41
139 132 39
133 127 28
140 135 39
140 135 36
130 125 32
135 129 37
134 128 36
141 136 39
140 134 39
138 133 41
139 133 41
138 131 37
139 133 44
146 141 41
142 135 37
148 142 45
133 128 36
139 131 41
136 132 34
142 137 39
141 135 39
142 137 39
136 131 44
130 126 36
141 134 42
140 135 44
141 135 45
145 139 52
146 140 42
143 138 42
129 123 41
147 140 51
142 136 39
130 125 41
140 134 39
135 129 34
136 129 48
143 136 51
138 132 49
137 131 44
140 133 48
140 134 52
151 145 57
133 128 39
142 135 44
140 134 52
133 127 44
140 135 53
139 132 48
132 126 41
142 135 53
138 133 45
143 137 56
145 139 51
138 133 48
140 135 45
134 128 51
143 136 58
168 192 0
175 198 44
174 197 0
172 195 0
170 193 0
174 198 0
171 193 0
173 197 0
174 197 0
174 196 0
171 195 0
172 195 0
175 197 0
171 194 0
172 195 0
170 194 0
171 194 0
173 195 0
170 194 0
175 198 0
171 194 0
174 196 0
174 196 0
172 195 25
175 198 92
180 201 88
176 199 95
178 200 88
179 201 102
180 202 111
180 203 114
176 199 105
177 200 88
175 198 99
181 203 120
183 205 140
184 204 147
184 205 144
179 200 108
180 202 122
181 203 125
176 198 111
181 203 120
178 200 120
181 203 135
182 204 125
181 203 130
178 200 122
178 201 117
178 201 125
175 196 117
177 200 122
178 199 111
175 198 114
178 201 117
177 200 108
173 196 105
178 201 114
176 199 130
177 199 120
176 199 125
174 197 117
175 198 102
173 195 108
176 199 122
174 197 120
173 197 108
178 199 111
180 203 130
174 197 117
178 201 137
176 199 130
176 199 130
174 197 108
169 192 114
173 195 125
173 195 105
172 193 92
172 196 120
167 189 102
169 192 102
173 196 105
176 198 130
173 196 120
174 196 130
176 197 114
170 192 133
162 183 95
173 196 130
170 191 120
174 196 130
173 195 137
178 199 122
172 194 135
173 194 125
176 197 122
173 193 133
172 193 133
172 193 117
172 192 130
170 190 122
167 187 117
170 191 108
165 186 76
166 186 99
163 184 95
164 184 84
155 175 84
156 176 57
141 161 0
151 172 0
149 169 0
149 170 0
148 168 0
155 175 0
149 170 0
147 168 0
148 169 0
148 168 25
152 172 25
160 181 0
156 176 25
155 176 36
159 179 0
168 187 67
162 183 57
160 180 44
161 183 76
162 183 62
160 182 0
161 183 0
158 180 0
162 183 0
163 185 0
163 185 0
159 181 0
159 181 0
154 176 0
157 179 0
160 181 0
156 178 0
161 183 0
155 177 0
153 176 0
159 181 0
157 179 0
155 177 0
155 177 0
157 179 0
154 176 0
147 170 0
154 176 0
151 174 0
157 179 0
143 165 0
151 172 0
151 173 0
154 176 0
145 167 0
149 170 0
147 168 0
148 169 0
145 166 0
136 156 0
141 162 0
138 159 0
133 154 0
101 122 25
52 83 86
51 82 76
52 82 92
49 79 78
50 80 86
48 77 74
50 80 74
49 79 74
51 82 88
52 82 90
52 82 90
54 86 92
55 87 94
54 85 99
53 85 86
52 83 85
54 85 86
52 83 92
51 82 84
52 83 90
53 84 95
56 88 107
55 87 102
56 89 105
55 87 95
50 80 76
54 86 94
51 81 86
55 87 95
51 82 84
54 85 90
55 87 97
52 82 78
54 85 105
54 85 97
54 86 103
54 85 94
50 79 72
53 84 82
52 83 80
52 83 100
51 81 94
54 85 94
52 82 81
54 85 103
54 85 90
52 82 88
52 81 89
49 78 82
53 83 94
51 81 97
53 84 92
49 78 72
52 83 85
53 83 93
50 79 82
50 79 88
51 80 72
50 78 83
50 79 85
48 76 72
49 77 75
49 77 68
44 67 61
90 109 31
128 145 0
133 150 0
125 140 0
138 155 0
131 149 0
122 138 0
119 136 0
122 139 0
141 157 0
129 147 0
146 163 0
142 158 0
135 149 0
129 144 0
140 156 0
138 152 0
140 154 0
134 150 0
144 159 0
142 159 0
139 155 0
129 143 0
138 154 0
142 158 0
144 159 0
135 148 0
138 152 0
142 154 0
141 157 0
149 163 0
145 159 0
131 144 0
141 155 0
143 152 0
144 155 0
144 155 0
136 148 0
147 158 0
137 145 16
88 85 25
90 85 16
72 68 8
95 88 16
92 86 19
86 79 11
79 75 0
85 80 11
89 85 12
89 87 0
94 89 14
90 86 0
105 98 0
102 98 0
96 93 0
107 100 0
107 103 0
103 99 0
100 96 0
95 92 0
104 98 0
100 97 14
94 92 11
102 98 0
104 101 0
112 108 8
118 114 0
111 105 11
123 116 11
116 111 19
122 116 0
121 115 22
114 108 18
121 117 22
120 116 21
110 105 21
123 119 19
125 120 22
130 123 25
126 122 22
125 120 16
135 129 19
130 125 22
127 123 16
128 121 25
132 128 16
133 129 32
125 120 28
134 129 25
127 122 16
122 116 25
130 125 32
138 132 32
129 125 19
136 131 25
140 134 36
135 128 34
130 123 32
132 125 22
137 132 25
134 127 28
138 133 32
131 125 34
130 124 32
136 130 34
129 123 28
141 135 32
145 138 39
133 128 28
131 127 22
139 132 34
144 136 48
139 134 28
140 134 37
131 125 28
132 126 22
141 134 37
139 134 32
142 136 36
137 131 36
144 136 51
141 134 39
139 134 47
137 131 42
146 141 44
143 137 41
140 134 47
138 132 36
141 134 47
139 133 41
140 135 37
149 143 42
142 136 36
139 134 41
139 132 45
135 130 37
138 133 30
139 133 41
141 135 39
139 133 42
137 132 42
131 127 39
138 133 32
137 133 39
141 134 47
143 135 45
142 136 45
137 132 49
138 131 42
138 132 49
142 136 49
148 142 51
135 129 37
140 135 45
125 120 32
136 130 54
134 128 30
140 134 47
135 131 47
144 137 45
140 133 45
139 133 51
141 135 51
141 135 48
135 127 41
139 133 45
138 131 47
138 131 51
175 198 0
177 199 36
174 197 36
174 197 25
174 197 0
173 196 0
175 198 0
174 197 25
173 196 0
174 196 0
172 195 0
171 195 0
171 194 0
171 194 0
173 196 0
173 195 0
170 194 0
172 196 0
172 195 0
172 195 0
173 196 0
168 191 0
172 195 0
171 194 0
173 195 0
169 192 25
175 198 72
177 199 95
180 202 105
179 202 95
181 202 108
181 203 130
180 203 114
182 204 120
177 200 105
181 204 122
180 202 120
184 206 135
181 202 133
187 207 155
184 205 135
181 203 120
184 206 133
183 204 128
181 203 122
181 203 135
179 202 122
178 199 117
177 199 114
182 205 140
182 204 122
179 201 120
182 204 140
178 200 114
177 199 130
176 199 114
180 203 133
176 198 108
180 201 117
174 196 120
178 201 117
176 198 108
180 202 128
175 198 120
179 202 128
173 195 105
177 199 105
181 203 137
178 199 108
176 198 114
177 200 147
174 195 114
176 198 102
177 199 128
177 199 122
175 197 128
172 194 99
174 197 111
171 193 108
174 195 99
171 193 120
176 197 108
169 191 114
174 196 102
170 192 128
174 196 122
169 191 114
173 195 122
173 195 140
172 192 114
170 192 120
172 195 120
170 191 135
173 193 120
175 196 135
166 188 111
176 196 140
172 192 122
164 184 114
168 189 122
164 185 108
156 178 95
171 192 99
170 190 99
164 185 92
158 179 76
160 181 51
155 176 0
156 176 0
150 170 0
155 174 25
154 175 0
150 170 0
153 174 0
148 168 25
147 167 0
156 176 0
150 169 36
159 179 36
146 167 25
157 177 0
149 169 36
156 177 36
163 183 88
163 183 57
160 181 67
168 190 80
161 183 25
160 181 0
161 182 0
158 179 0
154 176 0
159 181 0
160 181 0
156 178 0
158 179 0
154 176 0
156 178 0
161 183 0
157 177 0
154 175 0
153 175 0
149 171 0
165 186 0
147 168 0
152 174 0
147 169 0
151 173 0
152 175 0
146 169 0
150 172 0
154 176 0
148 169 0
146 166 0
151 172 0
144 166 0
148 169 0
156 177 0
144 165 0
153 175 0
147 168 0
138 159 0
135 156 0
141 162 0
133 152 0
137 157 0
141 162 0
131 151 0
103 123 36
53 80 71
50 79 80
49 79 70
51 82 84
48 77 70
50 80 74
50 80 74
49 79 84
51 82 90
52 82 88
50 80 70
52 83 84
52 83 72
53 83 88
52 83 80
53 84 95
52 83 88
52 83 84
53 84 90
52 82 90
51 81 92
53 84 92
51 81 90
54 85 105
52 83 97
55 87 95
52 83 92
52 83 90
51 81 100
52 82 88
53 84 84
52 82 94
51 82 80
54 85 105
53 84 97
52 82 92
52 83 90
52 83 90
53 83 94
54 86 94
48 77 70
52 83 89
53 83 85
52 82 94
50 80 80
48 77 82
53 84 97
49 77 88
51 82 84
54 85 87
50 78 80
48 76 75
48 77 62
50 78 84
49 77 74
48 76 85
50 79 75
49 78 82
47 75 62
46 72 67
48 76 57
50 76 75
91 108 38
117 132 0
123 139 0
123 137 0
117 134 0
125 141 0
124 141 0
126 141 0
123 139 0
125 140 0
131 147 0
132 146 0
131 146 0
131 146 0
130 147 0
132 146 0
144 160 0
139 153 0
134 153 0
133 149 0
136 151 0
138 150 0
131 147 0
143 157 0
128 138 0
143 156 0
130 143 0
139 152 0
140 153 0
130 141 0
131 146 0
136 144 0
140 152 0
138 148 0
152 168 0
140 152 0
141 154 0
137 148 0
146 155 0
144 155 0
146 158 0
128 135 0
88 89 19
94 88 25
77 74 18
77 70 0
90 85 16
85 80 11
81 79 0
89 85 0
82 77 16
89 86 8
89 86 0
91 86 8
92 88 0
104 98 8
100 95 14
102 95 0
97 94 16
98 94 0
102 98 0
102 98 8
103 99 14
104 98 0
103 98 0
114 107 11
106 100 3
102 96 11
114 110 11
111 104 0
119 113 0
119 113 24
120 117 11
120 114 18
114 110 0
118 115 16
115 109 16
111 107 16
129 125 16
119 115 22
123 118 19
124 117 11
128 123 11
126 121 25
123 118 16
131 124 22
130 125 26
122 115 22
128 122 22
127 121 28
131 126 30
131 124 19
131 126 16
132 126 22
134 126 28
129 124 28
134 130 30
135 129 32
134 128 16
133 127 30
134 128 25
141 136 37
134 128 32
131 123 37
139 134 28
136 130 32
132 125 36
129 124 28
143 138 34
144 137 37
131 127 25
138 133 28
141 134 42
140 135 37
130 122 28
135 131 28
137 131 39
138 132 32
136 131 39
143 136 36
133 126 41
131 126 19
130 124 36
144 137 44
141 134 44
135 130 30
138 129 45
139 132 34
132 128 36
133 127 47
130 125 42
144 139 47
145 140 39
135 130 37
137 132 36
130 125 34
121 115 39
141 135 39
142 135 41
144 137 44
139 133 47
136 129 42
136 128 42
145 139 39
139 133 41
141 135 42
140 132 52
138 132 49
129 124 25
136 129 42
141 134 54
137 132 34
136 129 42
133 128 36
145 137 57
133 127 36
137 130 48
137 130 42
141 134 52
137 131 47
143 137 52
128 123 45
135 131 39
135 129 47
136 131 48
135 129 51
148 142 54
134 128 52
129 123 45
173 196 25
174 197 0
173 196 25
173 196 36
172 196 0
175 197 36
171 195 25
176 197 25
173 196 0
172 195 25
172 196 0
173 196 0
170 194 0
170 194 0
175 197 0
172 194 0
171 194 0
171 194 0
170 194 0
173 196 25
172 195 0
173 196 0
173 196 0
172 195 0
172 195 0
175 197 0
171 193 0
170 193 0
173 195 76
177 199 84
178 200 92
178 200 88
175 197 102
178 200 105
180 203 114
183 205 137
181 203 122
176 199 105
174 197 67
178 200 88
183 204 117
180 201 133
182 204 135
179 200 133
180 201 128
179 200 135
178 199 133
178 200 114
183 205 135
177 199 128
176 199 117
179 201 114
181 203 128
180 202 135
178 200 120
183 205 137
178 201 149
177 199 135
175 198 114
181 203 140
174 197 128
180 202 137
173 195 105
178 200 122
177 199 135
177 199 120
172 193 92
180 202 120
173 195 108
179 201 122
173 195 117
177 199 133
173 195 125
169 190 128
167 189 92
177 199 108
174 196 111
178 200 125
172 194 128
171 194 135
175 197 122
173 194 135
171 192 111
176 197 135
170 191 111
175 196 117
174 195 130
177 198 117
173 195 133
175 197 142
174 194 135
168 188 135
172 192 128
178 197 135
174 194 130
176 198 137
173 193 130
168 188 88
165 186 105
167 188 88
173 193 117
164 184 99
165 185 88
168 188 76
153 173 44
139 160 0
147 167 0
152 172 0
152 171 0
149 168 0
155 175 0
155 174 0
152 173 0
149 169 0
153 173 25
155 175 0
149 169 36
155 175 0
152 173 0
147 168 25
153 173 36
156 176 67
162 182 51
161 182 36
163 184 62
162 183 51
160 181 0
162 184 0
163 184 0
163 185 0
158 180 0
159 181 0
156 177 0
157 178 0
155 176 0
153 175 0
154 175 0
153 175 0
145 166 0
147 169 0
153 174 0
151 172 0
153 173 0
160 182 0
153 176 0
153 175 0
142 164 0
154 175 0
153 174 0
150 172 0
143 165 0
154 175 0
152 173 0
144 167 0
144 165 0
139 160 0
143 164 0
143 165 0
135 156 0
142 163 0
136 157 0
136 157 0
138 159 0
127 148 0
137 157 0
130 150 0
136 156 0
134 153 0
119 138 0
118 138 18
72 94 62
51 81 82
52 82 90
49 78 70
51 81 76
53 85 84
49 78 74
49 79 78
52 82 74
51 81 78
49 78 80
49 79 74
48 77 74
48 77 72
51 82 84
53 83 80
49 78 82
52 83 76
53 83 94
53 84 92
53 84 88
52 83 82
49 79 72
51 82 94
49 79 78
52 83 82
52 83 97
54 85 84
53 84 99
53 83 82
52 82 86
51 81 78
50 79 82
51 81 86
51 81 84
54 85 82
53 85 99
50 80 88
53 84 85
50 79 86
52 83 80
49 78 76
50 79 82
51 81 86
53 84 97
49 78 83
52 80 90
53 83 92
49 77 89
50 79 83
46 73 76
52 82 80
48 75 80
52 82 95
46 72 62
43 69 70
49 76 68
48 75 76
43 69 57
73 93 45
115 129 18
110 125 0
122 138 0
119 135 0
115 129 0
117 132 0
114 128 0
118 134 0
128 143 0
125 140 0
120 136 0
131 147 0
135 151 0
135 151 0
139 153 0
124 140 0
129 142 0
130 144 0
129 146 0
126 139 0
131 144 0
133 147 0
117 131 0
132 147 0
138 151 0
137 149 0
136 150 0
141 154 0
133 143 0
136 150 0
131 144 0
136 151 0
135 147 0
134 146 0
134 145 0
134 143 0
132 141 0
132 140 0
139 151 0
133 140 0
143 153 0
141 151 0
142 151 0
139 149 0
115 119 19
81 76 23
78 73 14
85 80 16
79 75 16
89 83 16
94 87 0
81 76 0
87 82 0
92 87 11
88 82 14
93 89 8
100 96 0
84 80 8
101 94 0
91 87 0
104 98 14
96 91 8
98 93 3
98 94 0
108 104 0
105 99 0
103 100 8
103 98 0
111 107 3
112 107 8
114 111 0
108 104 0
114 110 14
109 104 11
113 109 0
121 117 16
114 108 0
123 117 0
119 115 0
111 106 0
117 113 14
109 103 11
122 114 22
124 118 19
126 121 19
122 116 19
126 122 11
122 117 22
133 128 16
131 126 22
118 114 16
126 120 11
126 121 16
127 121 22
132 128 22
130 123 25
129 123 16
131 125 30
136 131 30
126 122 25
133 129 25
129 123 25
133 128 25
132 127 28
134 128 25
136 131 34
133 127 30
127 120 32
130 123 30
134 128 32
133 128 34
133 128 28
130 123 37
139 133 39
135 128 32
140 135 25
132 126 25
133 127 28
134 129 28
138 131 37
139 135 36
141 135 39
139 133 32
134 129 41
146 139 47
136 129 41
134 126 41
137 132 34
141 134 37
131 124 34
144 138 37
138 133 36
143 138 39
135 130 39
133 127 41
140 134 39
137 132 41
138 132 34
136 130 34
142 136 37
130 123 39
137 133 37
126 120 28
142 136 41
141 135 44
140 134 39
144 138 44
137 133 39
141 135 49
136 131 34
141 136 44
136 130 39
150 143 54
135 129 45
138 132 47
139 133 47
139 133 44
135 130 34
139 133 48
129 124 39
138 131 47
124 118 37
141 134 48
133 127 42
136 131 48
132 125 45
135 128 39
131 125 45
125 119 42
126 120 42
173 196 25
173 197 0
173 196 44
171 193 0
175 198 36
174 197 0
170 193 25
173 196 0
174 197 25
171 194 25
173 196 0
172 196 0
171 194 0
171 195 0
170 193 0
172 195 0
170 193 0
173 195 0
170 193 0
172 194 0
173 196 0
173 195 0
170 193 25
174 197 0
171 194 0
173 196 0
172 193 0
173 194 0
172 194 0
172 195 0
173 196 36
171 193 62
181 203 117
179 201 92
178 200 108
178 200 99
177 200 99
179 201 125
181 203 120
176 198 117
177 199 95
174 197 88
173 196 102
181 202 125
182 203 122
182 202 128
183 204 125
179 200 128
182 204 144
180 201 105
179 200 108
180 201 135
180 201 122
182 204 130
177 198 108
180 202 133
182 203 125
179 201 130
182 203 140
180 202 140
177 199 137
176 198 130
179 201 144
181 202 153
175 197 122
180 201 130
180 201 133
182 203 133
176 198 125
177 198 102
174 196 114
172 194 105
176 197 133
177 198 140
178 200 130
175 196 122
171 193 120
176 198 135
177 198 140
172 194 114
172 193 102
170 191 120
172 192 114
174 195 125
176 197 135
171 192 114
170 191 95
173 193 130
173 193 133
176 196 130
167 188 120
177 197 128
171 193 133
166 187 67
164 184 99
169 189 99
166 186 105
173 193 108
170 190 92
167 187 102
166 187 88
163 183 51
160 181 44
152 172 0
156 177 0
150 170 0
162 182 0
155 174 0
156 176 0
154 174 0
153 173 0
149 169 0
154 175 25
155 175 25
151 171 25
147 167 25
162 182 25
155 175 25
156 176 0
151 172 44
156 176 57
158 177 57
162 183 72
162 182 72
162 182 67
160 181 0
160 180 0
162 182 0
158 180 0
156 178 0
160 182 0
151 173 0
159 180 0
160 182 0
162 183 0
152 172 0
158 179 0
166 188 0
150 171 0
151 172 0
153 174 0
149 169 0
150 171 0
148 169 0
156 177 0
144 166 0
147 168 0
152 174 0
150 170 0
145 166 0
152 174 0
140 161 0
149 172 0
147 169 0
145 166 0
137 156 0
134 155 0
137 158 0
138 158 0
145 165 0
142 162 0
129 150 0
124 144 0
150 171 0
133 153 0
140 159 0
131 151 0
124 144 0
130 149 0
121 140 0
130 149 0
81 102 51
54 81 54
51 82 72
47 76 62
50 80 84
50 80 67
49 78 72
54 85 97
52 82 92
50 80 86
53 83 90
53 84 97
49 78 67
51 81 82
51 81 82
50 80 82
53 84 90
50 80 74
52 83 84
52 82 82
49 79 70
53 84 80
53 85 80
51 81 82
54 85 88
52 82 74
51 81 80
52 83 80
49 79 82
52 82 90
51 81 92
51 81 78
50 79 72
50 80 80
51 80 80
47 75 67
54 85 82
52 82 82
49 79 82
50 80 81
48 77 67
52 81 88
54 84 92
46 74 74
46 73 82
49 77 83
53 84 90
52 82 95
47 75 75
48 77 68
50 79 86
47 74 75
47 75 67
47 74 78
44 69 62
46 72 45
50 76 60
82 98 32
115 132 18
118 132 0
93 106 0
118 132 0
115 130 0
115 127 0
121 135 0
118 132 0
115 130 0
122 136 0
132 148 0
122 137 0
109 123 0
126 140 0
131 146 0
112 128 0
122 137 0
127 143 0
117 131 0
138 153 0
120 133 0
128 141 0
124 139 0
132 147 0
133 145 0
126 136 0
124 137 0
136 149 0
138 150 0
133 147 0
136 148 0
135 149 0
130 141 0
130 142 0
125 136 0
131 143 0
133 141 0
133 141 0
138 149 0
137 146 0
128 138 0
135 146 0
134 142 0
126 131 0
139 148 0
130 138 0
121 127 11
94 88 22
83 76 19
83 78 11
72 68 0
88 79 16
86 81 16
93 89 8
90 84 0
91 85 0
99 93 0
108 102 8
91 85 3
93 88 8
100 94 0
105 99 14
102 96 14
101 97 8
102 97 11
101 96 11
112 106 0
105 100 0
95 92 0
100 95 0
106 102 8
107 103 8
104 99 8
115 110 8
120 114 11
106 101 11
116 112 0
117 112 16
116 112 0
122 115 19
123 117 25
119 115 11
114 108 16
120 114 0
111 107 11
125 118 16
126 119 22
121 115 25
124 118 28
122 119 16
122 117 19
129 125 19
123 118 22
125 120 16
126 121 11
132 125 28
126 121 28
132 126 25
126 121 22
116 113 11
117 111 22
140 133 34
131 125 19
133 126 22
127 120 32
130 124 32
135 128 32
133 126 36
132 126 32
130 123 28
136 131 28
145 139 36
137 131 32
129 125 25
139 133 34
138 132 37
125 119 30
137 131 30
138 132 34
129 123 28
133 128 32
134 129 34
134 128 36
134 127 45
133 128 36
135 128 36
138 133 34
133 130 25
131 125 28
137 130 34
142 136 41
136 130 41
144 136 42
134 129 34
145 140 37
145 137 48
141 134 49
143 137 44
137 132 39
140 133 42
127 122 37
134 129 37
137 129 45
135 130 34
138 131 47
135 129 41
139 133 41
133 127 42
143 136 51
130 125 41
120 115 41
135 129 34
140 134 47
135 128 45
142 136 44
140 132 47
138 131 48
139 132 41
138 131 49
133 128 39
134 128 44
135 129 41
129 123 37
123 117 34
134 129 51
135 130 48
136 130 47
143 137 48
126 120 44
133 127 41
132 128 44
173 196 44
175 198 36
173 196 44
175 198 0
173 196 0
171 194 25
171 194 25
174 197 0
170 193 0
171 195 25
174 197 0
170 193 0
172 195 0
173 196 0
169 192 0
172 195 0
172 195 0
172 194 0
170 194 0
174 195 0
174 196 0
173 196 0
173 195 0
170 193 0
172 195 0
170 192 0
172 195 0
171 194 0
170 194 0
171 193 0
173 196 0
170 193 0
172 194 0
167 190 44
172 194 80
176 198 84
177 199 114
177 199 92
180 201 105
176 198 99
177 199 108
178 199 105
177 199 111
174 196 92
175 197 99
179 201 108
175 197 92
177 199 120
176 197 102
183 204 144
186 207 142
185 206 142
179 200 135
179 201 128
185 204 149
184 204 137
186 207 144
179 200 128
181 202 122
176 197 130
177 198 128
176 197 133
181 202 140
176 198 111
179 200 137
179 200 133
177 198 122
178 199 137
176 198 144
177 200 135
174 196 120
177 199 140
175 197 128
179 199 130
175 195 120
171 192 117
174 195 122
178 198 128
166 186 88
174 194 130
168 188 108
169 190 105
170 192 122
178 199 133
172 193 133
176 197 144
179 200 149
173 195 122
172 192 92
171 193 105
175 196 130
175 196 128
167 189 122
164 184 92
171 192 105
171 191 120
171 192 102
166 187 62
156 177 67
155 174 25
156 176 0
159 179 0
147 167 0
154 174 25
157 176 0
155 176 0
156 176 0
161 181 0
152 172 0
156 177 0
160 180 0
146 166 0
151 172 25
149 169 0
155 175 25
159 179 25
158 179 36
148 167 0
155 175 67
158 178 57
157 176 57
159 179 44
166 187 80
167 188 36
159 181 0
162 182 0
156 177 0
152 173 0
158 179 0
156 177 0
158 179 0
154 176 0
156 176 0
163 184 0
161 180 0
156 177 0
152 173 0
154 176 0
149 170 0
147 169 0
154 175 0
138 160 0
146 166 0
159 180 0
147 168 0
156 178 0
147 169 0
147 168 0
152 173 0
142 163 0
153 174 0
153 174 0
144 164 0
146 167 0
147 167 0
147 168 0
140 160 0
149 169 0
135 156 0
127 149 0
135 156 0
132 152 0
132 152 0
128 148 0
139 159 0
128 147 0
120 140 0
112 131 0
130 149 0
125 144 0
114 133 0
117 135 0
107 126 31
59 81 44
47 75 65
49 79 70
48 77 70
48 78 65
46 74 76
51 82 78
48 78 70
49 78 88
51 82 86
51 82 72
51 81 76
53 84 82
50 81 62
53 84 100
50 80 72
49 78 78
50 80 82
49 79 84
53 85 78
51 81 86
48 77 67
47 76 74
50 80 76
50 79 70
50 80 78
50 80 74
54 86 84
50 79 84
52 82 92
49 78 84
53 84 88
49 77 76
48 76 65
44 70 60
47 75 70
51 81 80
49 78 74
52 82 80
49 79 85
52 82 87
48 76 67
48 75 83
48 76 83
50 79 84
49 78 72
50 80 84
45 71 77
47 74 68
46 73 68
47 73 81
46 74 72
44 69 54
76 95 51
97 111 18
97 111 0
97 111 0
107 120 0
123 138 0
114 128 0
109 124 0
112 125 0
112 125 0
111 127 0
125 141 0
122 140 0
121 135 0
121 136 0
130 143 0
128 144 0
130 144 0
126 143 0
116 129 0
123 136 0
132 145 0
121 135 0
122 134 0
132 144 0
125 140 0
125 139 0
128 140 0
125 136 0
135 147 0
128 139 0
129 141 0
136 148 0
116 127 0
123 135 0
131 144 0
123 134 0
132 142 0
117 127 0
135 145 0
130 140 0
127 135 0
131 137 0
126 135 0
133 146 0
126 135 0
117 123 0
128 136 0
131 139 0
133 139 0
122 127 11
94 88 0
85 78 16
76 70 16
88 81 11
85 81 16
87 82 19
83 79 3
94 89 0
82 76 0
89 84 0
97 92 11
98 92 0
86 81 0
94 91 8
102 95 0
100 94 0
101 96 0
99 95 0
104 98 8
103 96 8
101 97 0
110 104 11
103 98 11
107 102 11
104 97 8
108 103 11
109 105 8
101 97 0
115 109 0
116 111 8
119 114 0
119 114 0
112 108 0
116 113 11
121 116 11
124 118 16
121 115 19
123 118 19
119 112 19
122 116 11
118 112 16
131 125 19
124 119 22
111 105 0
125 119 22
121 115 16
120 114 22
124 118 11
126 121 16
121 117 19
132 126 25
129 122 22
130 125 22
130 126 28
128 124 22
130 124 19
140 134 30
129 125 22
131 126 28
129 123 30
139 132 37
133 127 22
127 122 19
130 124 28
135 130 25
127 121 16
139 134 28
140 135 44
137 130 32
134 128 37
134 129 25
135 129 34
138 131 36
131 126 28
130 123 22
130 125 11
139 133 36
141 135 37
129 122 34
133 127 30
120 114 25
139 133 42
134 128 30
142 136 44
136 131 32
143 135 44
126 121 30
135 129 28
139 134 34
125 120 34
128 121 30
135 130 42
134 128 39
130 124 32
132 127 30
124 118 36
136 131 36
139 132 39
137 131 39
128 122 42
134 128 41
132 127 22
135 128 42
138 132 44
134 128 37
141 133 47
138 132 42
141 135 42
137 132 42
127 122 34
126 122 28
138 132 44
136 129 45
123 118 37
136 130 44
133 126 49
130 125 34
135 129 47
146 139 52
126 120 41
137 131 48
127 122 42
128 122 45
172 195 0
174 197 0
174 196 25
175 198 51
171 195 0
174 197 0
173 196 25
172 196 36
174 197 36
175 198 25
174 196 44
174 197 0
173 196 0
174 196 0
171 195 0
171 193 0
174 197 0
176 198 0
172 195 0
173 195 0
171 193 25
173 196 0
171 194 0
169 192 0
172 196 0
172 195 0
173 194 0
172 195 0
172 194 0
171 193 0
168 192 0
173 195 25
172 194 0
173 195 0
173 196 0
172 195 25
173 195 57
176 198 62
178 201 99
175 197 92
178 199 105
174 196 80
177 199 105
180 201 95
177 198 99
175 198 105
174 197 105
177 199 84
179 201 102
173 195 102
176 199 84
176 198 88
179 200 108
177 198 108
178 198 108
179 200 99
178 198 114
182 202 130
183 204 144
178 198 105
181 201 149
182 203 137
178 198 130
177 198 130
181 202 130
177 198 137
179 200 144
182 202 140
171 192 125
178 199 114
179 199 120
178 199 140
182 202 142
172 193 114
175 195 137
176 196 133
173 194 147
176 197 125
177 198 137
173 194 114
176 196 140
174 196 137
175 195 108
170 191 102
168 190 92
165 185 88
171 192 80
164 186 111
170 191 111
167 187 111
171 192 111
170 191 95
172 192 99
167 187 95
164 185 76
162 182 57
160 181 0
154 174 0
164 185 0
149 170 0
155 176 0
149 169 0
151 171 0
157 178 25
155 176 0
154 173 0
152 171 0
150 169 0
158 177 0
150 170 25
148 168 0
159 179 44
156 176 25
158 179 0
153 173 25
159 178 25
148 167 25
164 184 62
161 181 57
163 184 76
161 180 72
167 188 72
160 180 0
154 174 0
160 180 0
165 186 0
157 178 0
156 176 0
155 175 0
161 181 0
158 179 0
145 166 0
153 174 0
144 165 0
152 173 0
154 175 0
153 174 0
146 167 0
149 171 0
151 171 0
143 165 0
143 164 0
147 168 0
147 168 0
146 167 0
155 175 0
145 166 0
145 165 0
146 167 0
152 173 0
137 159 0
148 168 0
147 168 0
138 159 0
142 162 0
134 154 0
136 156 0
134 155 0
136 157 0
139 159 0
147 168 0
128 148 0
131 151 0
128 149 0
131 149 0
131 150 0
129 149 0
126 145 0
117 135 0
122 141 0
123 141 0
109 127 0
103 122 0
110 128 0
105 124 36
63 84 54
48 77 60
47 76 67
50 80 80
47 76 65
53 84 84
49 78 72
51 81 81
52 82 86
47 76 76
47 75 82
49 78 84
49 78 76
49 79 80
49 79 57
52 83 86
51 82 76
46 74 60
50 79 74
49 79 78
50 80 72
52 83 88
52 82 80
51 80 88
48 76 72
49 77 72
50 79 72
51 81 92
51 81 88
50 78 90
50 79 80
50 79 85
49 78 72
51 81 86
51 80 83
47 75 76
48 76 70
49 78 76
47 76 72
50 80 72
50 79 74
50 79 72
46 73 65
46 73 67
46 74 68
49 77 80
45 72 63
47 73 77
40 64 44
48 72 54
75 89 36
101 115 0
89 102 0
101 112 0
110 122 0
109 123 0
101 114 0
106 121 0
103 115 0
112 124 0
103 115 0
114 127 0
111 124 0
111 122 0
115 130 0
119 134 0
103 116 0
127 141 0
113 128 0
112 124 0
115 131 0
120 134 0
117 130 0
129 143 0
122 136 0
115 127 0
118 131 0
131 144 0
116 126 0
114 125 0
131 141 0
118 129 0
128 138 0
123 134 0
127 139 0
128 137 0
121 129 0
128 138 0
133 143 0
119 127 0
128 137 0
123 132 0
133 141 0
121 127 0
126 134 0
125 134 0
124 129 0
124 130 0
124 129 0
128 135 0
123 128 0
125 128 0
121 127 0
106 107 11
81 76 16
63 59 0
91 83 0
85 80 8
90 82 16
76 70 0
88 83 0
91 86 16
81 75 0
95 91 0
93 87 0
98 92 0
93 89 8
100 94 0
85 81 0
103 96 0
98 92 0
96 91 3
108 103 11
107 103 0
102 97 0
101 96 0
110 104 0
106 100 11
112 105 0
111 106 0
104 96 0
110 105 0
113 108 0
111 106 11
112 107 11
122 116 16
118 113 11
110 106 0
120 112 11
110 104 0
124 115 11
113 108 11
119 112 11
113 108 11
129 123 11
112 109 0
122 117 19
122 116 11
125 120 16
128 123 22
122 116 19
131 124 25
122 115 28
133 126 25
127 121 16
131 123 19
131 124 19
130 124 25
127 122 25
120 115 16
138 133 19
127 122 16
136 129 32
129 123 25
132 125 28
131 124 28
134 128 28
129 123 34
133 127 39
129 122 28
132 125 25
125 120 25
135 129 30
136 131 28
130 123 34
130 124 32
134 128 28
127 122 32
126 121 34
132 126 28
134 128 30
127 119 32
129 122 32
138 132 34
136 130 34
122 116 28
133 127 37
134 128 32
124 117 32
133 128 39
141 135 42
132 126 36
141 134 47
143 136 47
138 132 30
134 130 34
135 131 39
131 124 39
131 125 39
135 129 30
135 130 30
142 134 39
136 129 45
137 131 44
138 133 42
133 126 41
133 126 44
134 129 41
136 130 45
130 124 37
137 132 49
135 129 36
127 122 36
142 135 54
127 122 41
132 127 49
142 136 44
128 121 48
123 119 34
124 119 39
127 121 47
120 114 45
129 122 49
142 135 51
130 124 45
175 198 25
173 196 0
173 196 0
172 196 25
173 195 0
172 196 25
173 196 25
173 196 25
175 197 36
172 195 25
172 195 25
174 197 0
174 196 44
174 197 0
172 195 0
171 194 0
172 195 0
170 193 0
172 194 0
172 194 0
171 194 0
171 193 0
172 195 0
173 195 0
172 195 0
168 190 0
173 196 0
173 196 0
171 193 0
171 194 0
169 192 0
172 195 0
170 192 0
170 192 0
173 195 0
171 194 0
171 192 0
170 192 0
168 190 0
169 190 25
173 193 51
174 196 51
175 197 84
175 197 95
175 197 72
176 198 80
178 200 108
182 203 120
179 201 117
179 201 108
177 198 117
172 193 99
179 200 95
176 197 111
181 203 120
177 197 108
173 195 102
172 193 95
173 194 84
179 201 125
171 193 84
180 201 120
173 194 102
179 200 114
175 196 108
173 194 108
173 194 92
170 191 117
176 198 114
181 201 135
170 191 99
177 199 120
176 197 125
173 193 99
176 197 105
172 192 120
167 189 76
174 195 99
167 188 99
171 193 105
171 193 102
165 187 108
173 194 114
168 188 92
171 192 99
168 189 117
173 193 95
169 189 92
170 190 99
167 187 88
165 186 67
164 184 76
152 172 25
157 178 0
157 178 0
164 185 0
163 184 0
158 179 0
157 177 0
157 176 25
151 171 0
161 182 0
158 178 0
156 177 0
149 169 0
154 173 0
153 172 0
149 169 0
154 174 25
158 178 0
145 165 0
152 173 0
161 181 44
152 172 25
162 182 44
156 175 57
164 185 67
156 175 57
156 178 62
170 190 62
159 179 44
161 180 0
163 184 0
159 179 0
154 174 0
149 169 0
151 171 0
160 181 0
160 181 0
153 173 0
153 173 0
153 174 0
156 176 0
158 179 0
146 167 0
146 169 0
148 169 0
146 166 0
150 172 0
150 170 0
145 165 0
146 167 0
149 170 0
143 164 0
151 172 0
152 174 0
143 164 0
140 162 0
149 169 0
148 167 0
141 162 0
149 169 0
128 150 0
147 167 0
134 154 0
134 154 0
125 145 0
131 152 0
124 143 0
135 155 0
123 142 0
129 149 0
121 141 0
136 156 0
123 141 0
123 141 0
117 136 0
123 141 0
108 126 0
118 137 0
119 137 0
117 136 0
112 129 0
117 133 0
110 126 0
108 123 18
85 103 18
54 78 57
46 74 51
48 77 70
46 75 64
48 77 72
51 81 78
49 79 72
49 79 65
46 74 65
49 78 74
48 77 76
47 75 72
50 80 74
50 80 86
51 81 84
51 80 86
49 78 82
49 79 74
48 76 72
46 75 67
50 79 84
50 80 84
51 81 84
48 77 72
50 80 74
48 77 72
50 80 86
50 79 88
51 81 80
48 77 74
54 85 94
49 78 88
46 74 65
50 79 72
51 80 76
49 78 80
48 75 78
48 77 74
46 73 74
49 77 92
44 70 65
47 73 65
44 71 67
45 71 65
45 71 74
51 73 48
74 90 36
88 101 0
92 103 0
89 103 0
97 110 0
102 115 0
100 112 0
102 115 0
106 122 0
108 119 0
95 110 0
108 121 0
124 138 0
106 119 0
106 119 0
111 122 0
115 127 0
124 139 0
116 128 0
118 130 0
121 135 0
125 138 0
112 123 0
124 137 0
112 126 0
125 138 0
127 140 0
116 127 0
125 138 0
126 139 0
116 128 0
118 131 0
109 120 0
129 138 0
121 131 0
130 141 0
127 140 0
134 142 0
125 134 0
126 135 0
126 136 0
113 119 0
124 135 0
124 131 0
133 141 0
126 135 0
115 120 0
119 126 0
130 139 0
123 129 0
107 113 0
119 123 0
119 123 0
116 119 0
125 131 0
127 131 0
123 127 0
98 93 16
82 77 0
78 73 11
80 76 8
95 89 14
94 87 11
87 81 8
87 83 18
94 87 0
82 75 0
77 73 0
93 86 0
100 95 8
96 90 0
88 81 0
106 101 0
103 96 0
97 93 0
95 89 8
92 87 0
105 99 0
109 103 0
107 102 0
110 104 8
110 105 0
109 103 8
104 100 0
114 109 11
113 106 0
110 105 0
113 107 0
113 109 0
122 115 0
119 114 0
112 107 0
122 115 11
115 111 0
117 111 0
113 109 11
126 121 16
124 118 16
119 113 11
129 123 11
123 115 16
120 114 0
124 119 19
132 126 11
137 131 22
128 124 0
127 120 22
128 122 19
124 118 16
127 121 30
136 128 32
128 123 16
134 128 22
123 117 19
120 115 25
129 124 16
125 120 16
128 123 22
127 122 19
126 121 19
129 125 19
123 117 25
130 124 28
123 118 28
134 127 37
133 127 34
137 130 32
132 125 32
125 120 25
132 127 32
131 124 37
138 132 30
131 124 37
129 123 30
138 133 32
133 127 36
138 131 32
132 125 36
125 120 39
130 124 34
126 120 36
141 134 45
139 133 42
135 128 37
135 129 39
138 132 36
130 125 34
124 119 36
133 128 32
137 131 39
137 131 37
144 137 48
133 128 36
142 135 37
135 128 34
133 127 42
131 125 41
128 123 42
130 124 30
133 128 42
136 130 36
132 126 37
129 123 37
140 133 56
135 127 45
132 126 42
136 130 54
130 125 44
141 134 48
131 126 36
132 127 39
134 127 44
132 126 45
134 127 41
130 125 44
142 136 53
132 125 48
173 197 0
173 197 25
173 195 0
175 198 44
171 195 25
172 196 36
173 196 25
172 196 0
173 196 0
171 194 25
169 191 0
173 196 0
174 197 25
170 192 25
172 195 25
171 194 25
171 194 25
174 196 25
172 195 0
171 195 0
172 195 0
172 195 0
174 196 0
175 196 0
174 197 0
173 195 0
170 191 0
169 192 0
174 196 0
171 193 0
175 197 0
171 193 0
171 192 0
169 191 36
170 192 0
167 190 0
169 192 0
170 192 0
173 195 0
169 191 0
171 193 0
172 194 0
171 193 0
169 191 25
170 192 44
173 195 80
171 192 62
172 194 92
174 194 72
177 198 92
176 197 114
176 198 99
182 203 120
178 199 102
175 196 102
179 201 125
170 192 99
176 198 117
177 198 88
175 197 92
173 194 99
176 197 114
176 197 114
177 197 105
177 198 84
177 199 122
174 196 95
172 193 99
175 196 117
174 196 114
167 188 92
171 192 99
168 188 92
172 193 92
172 192 108
175 196 108
175 195 114
173 194 92
169 190 88
173 193 92
172 192 84
172 193 114
172 193 88
169 190 99
175 195 120
164 185 92
166 188 84
166 187 62
160 181 44
157 178 25
160 180 0
150 169 0
159 180 0
147 167 0
154 174 0
161 180 0
156 176 0
153 173 0
150 170 0
153 173 0
156 176 25
158 177 0
164 183 0
158 178 0
156 177 25
159 177 25
150 170 0
150 170 0
152 172 25
157 177 25
157 178 0
151 171 0
163 184 44
166 186 62
166 186 76
151 171 51
157 177 62
170 191 80
162 182 62
156 176 25
157 177 0
160 180 0
153 174 0
155 175 0
155 176 0
151 171 0
159 179 0
155 175 0
155 176 0
151 172 0
155 176 0
150 170 0
147 168 0
154 175 0
157 178 0
156 177 0
145 164 0
148 169 0
149 170 0
144 165 0
146 167 0
151 171 0
152 172 0
144 165 0
145 165 0
139 159 0
150 170 0
151 171 0
140 161 0
139 160 0
144 164 0
148 168 0
149 170 0
136 156 0
139 161 0
143 164 0
133 153 0
135 155 0
133 153 0
120 140 0
131 151 0
136 156 0
129 149 0
131 151 0
120 139 0
120 137 0
126 145 0
126 145 0
125 144 0
119 137 0
103 121 0
107 125 0
110 127 0
99 117 0
81 98 0
108 124 0
97 112 0
92 108 0
84 102 51
43 66 47
47 75 70
42 68 36
47 75 51
50 79 80
49 78 62
51 81 70
47 76 60
46 74 72
49 77 74
48 76 76
45 73 70
45 72 62
49 78 60
50 79 74
47 75 74
48 77 78
49 79 80
50 79 80
45 73 57
49 78 82
50 80 78
49 77 76
48 76 84
46 74 62
49 79 74
49 77 74
49 77 84
47 74 78
49 78 67
46 74 74
49 78 67
51 81 77
48 75 78
46 73 72
43 69 67
48 75 77
43 69 70
46 72 78
46 74 65
40 63 48
60 79 54
76 89 25
80 90 0
90 101 0
96 107 0
87 97 0
88 100 0
92 102 0
110 122 0
89 98 0
106 120 0
108 120 0
102 116 0
100 111 0
103 117 0
113 128 0
96 107 0
113 128 0
107 121 0
107 121 0
130 144 0
117 130 0
107 121 0
108 118 0
119 133 0
108 120 0
109 120 0
113 128 0
117 128 0
122 135 0
126 142 0
127 139 0
125 136 0
120 132 0
119 130 0
120 130 0
110 120 0
120 131 0
128 137 0
114 123 0
125 135 0
119 127 0
121 129 0
116 124 0
119 129 0
124 131 0
130 139 0
129 138 0
123 130 0
120 128 0
120 128 0
130 138 0
130 137 0
115 124 0
116 118 0
121 125 0
127 132 0
115 117 0
119 120 0
120 125 0
130 133 0
97 99 0
96 87 16
77 69 11
94 89 11
76 69 0
90 83 11
89 81 11
86 78 11
102 92 0
97 89 3
91 86 0
88 82 0
98 90 0
93 86 0
105 98 0
100 95 0
102 95 0
97 91 0
111 104 0
111 105 0
105 98 0
109 103 0
107 102 0
110 106 0
104 98 0
110 105 0
99 91 11
105 98 0
112 107 0
107 100 0
114 107 0
106 102 0
122 117 0
114 108 11
113 107 0
116 110 11
110 104 11
119 113 11
118 113 16
120 116 0
121 118 0
120 114 14
118 112 19
117 111 16
119 115 11
126 120 19
126 120 19
121 117 19
125 121 16
119 114 19
127 122 16
130 125 19
122 117 16
128 123 22
126 122 19
127 120 19
124 118 19
133 128 22
132 124 25
132 125 36
128 121 22
124 119 28
129 121 25
130 124 19
126 120 25
128 123 30
138 133 28
122 116 16
128 121 34
131 124 36
124 117 32
133 128 32
126 120 30
138 132 36
132 126 36
129 123 30
136 127 28
125 120 34
130 123 34
135 129 37
125 121 19
137 131 34
132 126 30
137 133 36
136 130 28
136 130 34
128 122 28
125 121 28
135 129 42
127 121 37
131 124 39
133 127 42
129 123 37
136 129 28
139 133 39
134 128 37
128 122 36
130 122 32
137 131 42
143 135 51
137 130 45
130 124 36
136 129 37
126 120 39
127 120 36
132 125 39
132 127 36
124 119 36
128 123 41
120 114 28
132 127 37
132 127 32
130 124 44
130 125 41
129 123 42
136 129 48
136 130 45
134 128 45
119 112 42
176 198 25
175 198 44
172 196 0
172 195 25
175 198 36
171 194 25
172 195 25
174 196 0
174 197 0
174 197 25
172 195 25
171 194 0
172 195 0
171 194 0
174 196 0
173 196 25
171 193 0
175 197 25
172 196 36
172 194 0
173 194 25
171 193 0
172 194 0
169 192 0
171 194 0
172 194 25
171 194 0
166 188 25
173 194 0
171 194 0
172 193 25
172 194 0
163 185 0
173 195 0
172 193 0
170 192 25
170 194 0
171 193 0
171 193 25
169 190 0
170 191 0
171 193 0
167 189 0
172 194 0
168 189 0
174 196 0
172 194 0
168 188 0
165 187 25
175 196 44
175 196 72
176 197 84
172 195 62
168 190 76
175 196 108
180 200 102
176 197 84
176 197 92
177 198 95
174 195 76
177 198 105
174 196 92
177 199 95
170 191 95
173 195 114
179 200 117
176 198 105
176 198 102
174 195 108
176 198 105
174 194 95
172 193 80
173 193 105
173 193 105
170 191 80
171 193 88
172 193 95
173 194 114
172 193 95
168 189 84
168 188 67
157 178 57
167 188 57
158 179 25
162 182 0
160 180 0
164 184 0
153 173 0
157 178 0
166 186 0
159 179 0
157 177 0
155 175 0
156 178 0
156 176 0
154 174 0
151 172 0
163 183 0
154 175 0
150 170 0
155 175 0
156 176 0
157 177 0
155 175 25
150 170 0
144 164 25
158 177 25
155 175 0
160 180 0
159 178 51
151 172 0
163 183 62
163 183 44
161 180 72
164 185 76
158 179 57
169 189 88
162 181 44
157 176 0
159 179 0
151 171 0
153 173 0
154 174 0
158 178 0
151 172 0
158 178 0
156 178 0
156 176 0
150 170 0
159 179 0
152 172 0
155 176 0
149 170 0
147 167 0
152 173 0
151 171 0
150 170 0
148 169 0
146 167 0
130 150 0
153 173 0
144 165 0
149 170 0
146 166 0
146 166 0
149 170 0
138 159 0
136 157 0
135 156 0
139 160 0
137 157 0
139 159 0
131 150 0
132 151 0
137 157 0
129 148 0
136 155 0
129 149 0
128 148 0
133 152 0
124 144 0
127 147 0
132 151 0
126 145 0
120 139 0
118 138 0
121 140 0
118 135 0
113 132 0
110 128 0
114 131 0
111 127 0
109 126 0
100 117 0
105 120 0
84 101 0
103 119 0
88 104 0
100 114 0
91 107 0
90 106 40
65 84 31
43 70 57
46 73 70
46 73 72
47 75 62
49 78 76
49 78 74
46 74 72
47 75 72
48 77 72
48 76 70
45 72 70
44 71 62
47 75 65
48 77 62
48 77 72
46 73 67
47 75 70
46 73 72
47 76 72
48 77 74
44 71 62
47 75 74
45 71 72
47 76 74
50 78 78
45 71 72
43 69 60
42 67 65
45 72 72
46 73 60
46 73 75
43 69 54
42 67 60
43 69 67
43 68 63
37 60 44
56 75 47
75 87 36
87 96 0
86 97 0
91 99 0
87 98 0
87 98 0
76 87 0
79 90 0
91 102 0
90 102 0
100 112 0
90 101 0
99 110 0
94 106 0
110 122 0
113 124 0
105 118 0
106 119 0
108 120 0
109 121 0
118 133 0
116 130 0
112 124 0
102 115 0
103 116 0
122 135 0
110 123 0
115 128 0
120 135 0
115 127 0
122 135 0
113 123 0
121 132 0
118 128 0
123 138 0
115 127 0
122 132 0
123 135 0
110 120 0
123 135 0
125 136 0
118 124 0
115 124 0
130 141 0
121 130 0
121 131 0
119 126 0
121 130 0
116 122 0
113 119 0
121 128 0
125 134 0
114 118 0
121 125 0
114 119 0
115 119 0
105 109 0
112 115 0
118 120 0
116 119 0
120 123 0
113 113 0
116 117 0
112 113 0
75 72 16
85 76 19
90 84 19
84 78 11
90 84 19
86 80 11
79 73 11
86 79 8
91 83 0
90 84 0
98 91 0
103 95 0
93 88 0
98 89 0
103 97 0
97 91 0
83 76 0
99 94 0
108 102 0
98 91 0
99 94 0
113 108 0
107 101 0
112 103 0
110 102 0
108 103 0
122 113 0
102 96 0
108 102 0
114 109 0
105 101 0
116 111 0
118 112 16
120 115 0
117 109 11
114 107 0
116 110 0
116 109 0
119 114 0
119 115 11
128 122 11
118 113 0
112 105 11
122 116 16
123 118 16
124 117 11
128 123 11
125 119 16
118 112 19
118 113 11
127 119 25
118 114 0
135 130 16
128 122 22
127 119 25
122 117 16
128 121 28
136 129 25
112 106 11
121 116 25
130 124 32
138 131 36
132 127 22
126 120 30
121 116 25
132 124 34
127 119 32
136 130 32
131 125 25
134 127 32
132 126 28
128 122 28
123 117 22
132 127 30
138 132 32
129 121 32
139 133 39
142 135 41
128 122 25
134 127 36
142 137 42
130 123 30
138 132 37
128 123 34
131 125 34
124 119 28
138 131 42
136 129 39
144 136 37
136 129 36
130 127 19
131 125 39
135 130 37
127 121 28
130 124 36
134 127 30
128 122 37
134 128 37
127 122 32
126 119 39
130 123 42
140 133 42
126 119 42
122 118 30
132 124 37
130 125 44
123 117 34
133 127 44
135 128 39
126 118 37
127 121 36
115 111 28
124 117 36
126 120 45
126 120 48
130 124 41
132 126 41
177 199 72
179 201 67
173 197 36
172 195 0
173 196 25
172 195 25
173 196 0
176 198 0
171 193 25
173 196 0
176 198 0
172 195 0
173 196 0
173 196 0
171 194 25
174 196 36
175 197 44
174 197 0
171 194 25
169 191 25
172 195 36
170 192 25
171 193 0
172 194 0
171 194 0
173 195 0
174 196 0
170 192 25
171 193 0
173 194 0
172 194 0
173 195 0
169 191 0
173 196 25
172 194 0
170 191 25
171 194 0
171 193 0
168 190 0
172 194 0
171 194 0
170 191 0
170 191 0
170 192 0
169 190 0
165 187 0
168 189 0
166 188 0
171 193 0
167 188 0
167 189 0
171 193 0
169 190 0
172 193 0
170 191 25
167 189 25
173 194 51
168 189 51
169 190 44
170 190 36
175 196 67
171 192 76
177 197 72
170 192 62
175 196 92
175 195 67
167 188 51
166 187 62
172 193 57
171 192 72
163 184 44
169 190 51
171 192 62
172 193 51
166 186 57
167 187 44
159 179 0
163 183 25
166 185 0
157 177 0
165 185 0
162 183 0
164 184 0
161 182 0
158 178 0
159 179 0
159 180 0
160 180 0
162 181 25
163 183 0
154 174 0
153 174 0
159 177 0
162 183 0
155 175 0
159 178 0
152 173 0
160 180 0
162 181 0
152 172 0
156 176 0
159 178 0
158 179 0
156 175 25
156 176 25
153 173 36
158 178 0
157 178 36
154 173 25
156 175 67
160 179 57
163 183 76
159 179 57
160 180 57
164 185 67
164 185 51
159 179 0
155 175 0
160 180 0
152 172 0
155 174 0
156 177 0
152 172 0
151 172 0
155 175 0
159 180 0
145 165 0
147 167 0
144 164 0
154 173 0
150 170 0
146 167 0
153 174 0
145 165 0
153 173 0
143 163 0
142 162 0
147 168 0
136 157 0
142 163 0
144 165 0
145 165 0
145 166 0
133 153 0
145 165 0
141 161 0
138 159 0
142 162 0
146 167 0
140 161 0
136 155 0
135 154 0
119 139 0
139 160 0
135 155 0
141 161 0
139 159 0
136 155 0
121 141 0
125 144 0
117 136 0
127 147 0
123 141 0
128 147 0
120 139 0
126 145 0
130 149 0
121 141 0
113 131 0
110 128 0
121 139 0
103 121 0
108 126 0
101 118 0
92 107 0
92 108 0
86 102 0
92 107 0
102 117 0
90 105 0
87 102 0
78 92 0
69 83 0
62 77 40
52 72 36
43 69 54
42 69 51
42 68 54
45 72 62
42 67 51
43 70 57
47 75 67
47 75 72
46 73 62
40 65 62
44 71 70
44 71 51
42 68 47
46 73 67
43 69 65
48 76 72
48 76 72
46 73 44
46 73 72
44 70 70
46 73 65
46 73 72
43 69 54
44 69 60
42 68 51
43 69 54
41 65 60
47 73 76
45 71 67
40 59 51
50 66 47
59 69 31
68 79 0
76 84 0
75 85 0
76 87 0
85 93 0
79 89 0
99 110 0
90 100 0
94 106 0
89 102 0
100 113 0
106 115 0
95 107 0
112 124 0
98 110 0
98 109 0
109 121 0
108 121 0
107 119 0
106 119 0
123 137 0
114 126 0
114 126 0
111 119 0
108 122 0
118 130 0
111 126 0
107 120 0
119 128 0
113 125 0
117 131 0
107 121 0
116 129 0
119 134 0
121 133 0
110 119 0
120 134 0
122 133 0
113 120 0
111 121 0
114 126 0
116 127 0
111 120 0
115 125 0
115 122 0
119 129 0
127 137 0
108 117 0
119 127 0
111 119 0
127 136 0
130 137 0
116 124 0
120 124 0
117 125 0
117 123 0
114 119 0
116 122 0
123 126 0
113 117 0
105 109 0
115 115 0
110 112 0
115 115 0
107 108 0
112 113 0
108 110 0
103 102 0
87 82 11
78 70 11
81 73 11
96 89 0
89 78 0
82 77 0
91 81 0
96 88 11
84 77 11
98 91 0
97 89 0
98 90 0
91 86 0
101 95 0
109 99 0
95 89 0
106 99 0
104 98 0
109 102 0
99 94 0
100 95 0
104 94 0
98 92 0
102 95 0
109 103 0
105 100 0
109 103 0
110 104 0
119 113 11
118 111 11
122 114 11
123 117 0
115 109 16
113 107 0
123 116 0
109 104 0
116 110 11
116 110 0
123 114 11
109 101 0
119 112 11
121 115 0
118 112 16
122 115 11
123 117 11
121 116 19
123 117 16
125 118 11
123 116 19
128 122 22
121 115 16
126 119 22
124 119 32
122 114 16
126 119 16
129 122 22
128 121 19
124 116 22
120 114 19
128 123 19
132 125 25
128 121 30
127 120 22
132 125 32
132 125 30
133 126 34
125 119 22
129 123 28
125 120 28
120 114 30
129 122 30
129 123 25
127 120 32
129 122 30
132 124 28
121 115 11
128 123 34
124 117 28
134 127 39
135 129 30
133 126 25
131 126 36
132 126 30
126 121 32
126 120 28
125 120 30
124 119 30
125 118 37
134 126 37
141 135 41
124 117 36
128 121 30
138 130 41
121 115 34
132 126 41
122 116 30
128 123 25
130 124 37
132 127 39
131 125 41
127 119 30
139 132 49
133 126 34
122 116 32
127 120 37
133 127 45
135 129 51
131 124 42
120 115 39
130 124 34
131 123 37
127 121 39
121 115 37
122 115 37
136 130 41
178 200 72
177 199 67
179 201 80
176 198 57
175 198 62
173 196 25
175 198 36
173 196 25
171 195 25
173 195 0
172 195 0
174 196 36
171 194 0
172 195 0
172 195 44
171 195 25
174 197 25
173 196 25
175 197 36
173 195 25
171 195 25
173 196 25
171 193 25
173 196 0
170 193 0
172 194 0
170 193 25
173 195 0
170 192 0
170 192 0
171 194 0
168 191 0
172 194 0
173 194 0
172 193 0
170 191 0
173 194 25
172 194 0
170 192 0
170 192 0
169 190 0
167 190 0
167 188 0
172 193 25
168 189 25
165 187 0
170 192 0
170 192 0
169 191 0
172 193 0
170 192 0
172 194 0
167 189 0
169 190 0
169 190 0
169 190 0
171 191 0
169 189 0
168 189 0
167 188 0
164 186 0
166 186 0
172 192 0
167 186 0
167 188 0
174 194 0
162 183 0
169 190 0
166 187 0
169 189 0
167 188 0
166 187 0
165 186 0
164 185 0
166 187 0
157 177 0
169 190 0
166 188 0
166 185 0
164 184 0
164 184 0
167 187 0
159 179 25
150 171 0
160 180 0
159 180 0
162 183 0
164 183 0
153 174 0
161 180 0
151 171 0
162 183 25
158 178 0
160 179 0
151 171 0
159 179 0
157 177 0
159 179 0
159 179 0
158 177 0
151 171 0
153 173 25
156 177 0
150 171 25
156 175 25
159 179 0
160 179 44
166 185 51
155 174 62
161 180 67
150 170 62
156 176 36
162 182 67
160 181 67
149 170 0
162 180 0
153 174 0
158 178 0
156 174 0
148 168 0
148 168 0
151 172 0
150 170 0
151 172 0
149 169 0
157 177 0
149 170 0
151 170 0
144 164 0
151 172 0
150 170 0
150 170 0
153 173 0
146 165 0
143 163 0
146 167 0
140 160 0
143 163 0
147 168 0
145 165 0
142 163 0
149 170 0
137 157 0
147 168 0
141 161 0
144 165 0
148 168 0
151 171 0
137 157 0
140 161 0
144 165 0
142 162 0
134 154 0
137 158 0
150 170 0
129 149 0
142 162 0
120 140 0
125 146 0
135 154 0
125 144 0
129 149 0
129 148 0
120 140 0
116 135 0
136 155 0
110 128 0
118 136 0
115 133 0
114 131 0
104 121 0
111 128 0
103 120 0
98 115 0
112 128 0
100 116 0
97 113 0
91 106 0
101 116 0
75 89 0
89 104 0
85 98 0
78 91 0
82 93 0
64 76 0
57 69 0
62 75 25
61 78 25
38 58 0
42 63 47
42 68 44
42 67 54
41 67 54
45 72 65
42 68 60
42 68 57
45 71 72
45 71 54
44 71 54
44 71 54
44 70 62
43 69 62
43 69 57
43 69 51
43 69 57
44 71 57
41 65 60
41 66 44
37 60 51
38 62 51
37 60 54
41 63 47
45 61 40
46 59 25
81 90 0
66 75 0
62 72 0
81 92 0
68 76 0
69 78 0
72 83 0
76 86 0
87 99 0
85 95 0
99 110 0
99 110 0
92 103 0
103 115 0
96 107 0
95 107 0
105 117 0
95 108 0
88 101 0
97 107 0
103 114 0
101 113 0
94 107 0
110 124 0
110 124 0
114 127 0
105 117 0
115 128 0
113 123 0
114 129 0
118 130 0
111 122 0
115 126 0
120 134 0
126 140 0
123 135 0
126 138 0
119 133 0
130 145 0
126 139 0
106 116 0
117 131 0
115 127 0
123 136 0
109 121 0
121 130 0
116 125 0
113 123 0
125 134 0
108 115 0
124 133 0
125 136 0
123 129 0
116 124 0
116 124 0
107 114 0
109 115 0
120 127 0
112 120 0
109 114 0
118 123 0
118 122 0
116 121 0
112 115 0
117 120 0
115 114 0
106 106 0
114 117 0
103 105 0
106 106 0
109 111 0
107 107 0
83 80 0
81 72 11
79 70 0
83 77 0
92 82 0
98 90 11
95 88 0
92 85 0
93 86 11
90 83 11
87 82 0
94 87 0
101 95 0
94 87 0
93 89 0
94 87 0
105 97 0
91 85 0
96 89 0
102 96 0
109 102 0
106 101 0
104 99 0
106 99 0
104 96 0
94 88 0
106 102 0
111 104 0
114 107 0
108 101 0
106 99 0
111 104 0
111 105 0
119 114 11
116 110 0
110 104 0
124 117 11
118 112 11
116 109 0
117 111 0
116 109 0
118 112 11
126 119 16
115 108 0
117 111 11
121 114 19
115 109 11
119 112 0
124 118 34
122 116 11
116 110 22
120 113 22
121 114 19
123 116 11
118 112 22
129 124 22
130 123 30
125 120 16
114 111 16
123 118 19
126 119 25
123 116 16
122 116 16
131 125 36
128 121 25
133 126 22
129 122 30
126 119 30
130 124 28
129 121 25
120 113 30
124 117 19
128 122 16
135 127 34
117 112 28
131 124 36
123 116 36
129 123 19
126 119 28
133 126 30
135 130 32
125 119 22
119 114 30
127 121 34
130 123 36
114 110 32
135 129 30
129 124 28
124 120 30
131 126 39
127 119 28
136 128 36
130 124 34
137 130 37
125 120 37
130 125 36
126 120 30
117 111 32
120 114 37
123 116 32
133 128 36
132 126 39
124 118 36
134 128 45
129 123 42
125 120 39
126 120 30
128 121 36
125 120 28
124 118 34
117 113 36
130 123 42
126 120 39
126 119 42
174 196 36
175 198 57
176 198 57
178 200 72
177 199 72
176 199 62
170 193 25
174 197 25
171 194 25
174 197 0
172 195 25
175 198 25
173 197 25
176 198 44
176 198 25
174 196 25
173 195 44
172 195 36
170 192 36
174 196 36
173 196 25
173 195 0
173 195 36
171 194 25
174 196 25
171 194 0
171 194 0
173 196 0
171 193 0
175 196 0
171 194 0
174 196 0
170 192 0
173 195 0
171 193 0
173 194 0
169 192 0
173 195 0
169 192 0
168 190 0
168 190 0
173 193 0
173 194 0
168 190 0
172 194 0
170 192 0
171 193 0
170 192 0
171 192 0
172 193 0
169 190 0
166 187 0
169 190 0
172 192 0
169 189 0
168 189 0
172 192 0
167 189 0
169 190 0
169 190 0
163 184 0
166 187 0
163 183 0
168 188 0
164 185 0
167 188 0
165 186 0
166 187 0
164 184 0
165 186 0
167 187 0
165 186 0
165 186 0
164 184 0
160 181 0
162 183 0
165 186 0
160 181 25
164 183 0
161 181 0
167 189 0
161 181 0
154 174 0
161 180 0
164 185 0
159 179 0
158 179 0
158 178 25
159 178 0
155 174 0
160 180 0
155 175 0
161 182 0
161 181 0
162 182 0
160 179 0
162 182 0
155 175 25
162 183 25
160 180 36
155 175 36
160 181 0
153 173 25
168 187 36
161 181 51
168 188 57
154 173 67
159 179 62
161 180 62
153 174 44
164 184 76
165 185 62
157 176 25
157 177 0
153 173 0
155 176 0
153 173 0
150 170 0
149 169 0
151 171 0
157 176 0
151 171 0
154 175 0
159 179 0
142 164 0
153 174 0
151 171 0
150 170 0
157 178 0
141 162 0
148 169 0
150 170 0
143 162 0
143 162 0
144 165 0
148 168 0
146 167 0
143 163 0
149 169 0
141 161 0
140 161 0
151 170 0
140 161 0
137 157 0
138 159 0
136 156 0
142 161 0
140 160 0
136 156 0
136 158 0
137 157 0
136 157 0
138 158 0
128 148 0
127 148 0
126 145 0
143 164 0
123 143 0
120 140 0
129 149 0
120 139 0
123 142 0
129 148 0
126 144 0
109 129 0
117 136 0
131 149 0
117 135 0
116 134 0
105 122 0
113 131 0
106 123 0
97 114 0
116 133 0
107 123 0
102 118 0
108 124 0
96 111 0
87 102 0
109 125 0
79 94 0
78 92 0
85 99 0
82 94 0
74 87 0
70 80 0
55 66 0
74 85 0
87 98 0
70 81 18
48 59 18
56 68 31
42 60 36
48 68 47
46 67 40
37 60 44
39 63 51
39 63 51
42 66 62
40 64 51
35 57 31
42 68 54
45 68 54
40 63 57
43 65 62
40 60 40
49 66 47
58 72 25
46 58 40
59 69 36
53 62 0
53 62 0
64 74 0
72 78 0
84 93 0
77 87 0
71 82 0
66 76 0
82 90 0
78 88 0
91 102 0
69 80 0
78 87 0
76 87 0
92 106 0
88 101 0
88 100 0
79 91 0
92 104 0
100 111 0
117 130 0
98 110 0
103 116 0
103 115 0
105 118 0
107 119 0
114 126 0
105 118 0
104 116 0
104 115 0
104 118 0
116 129 0
117 128 0
108 119 0
118 130 0
121 135 0
115 129 0
115 126 0
129 142 0
122 133 0
113 125 0
121 135 0
114 125 0
120 130 0
103 116 0
124 137 0
119 131 0
114 126 0
129 140 0
112 125 0
114 124 0
116 127 0
108 116 0
109 114 0
111 118 0
116 126 0
117 127 0
122 131 0
109 117 0
110 117 0
121 128 0
116 120 0
112 120 0
119 125 0
110 115 0
121 125 0
99 102 0
108 113 0
104 109 0
99 101 0
103 103 0
107 109 0
113 113 0
112 115 0
96 92 0
94 91 0
100 96 0
101 101 0
90 85 0
71 64 0
80 73 0
90 79 0
84 78 11
88 78 0
81 73 11
92 86 11
82 77 0
91 84 0
92 83 0
100 92 0
92 86 0
104 97 0
106 97 0
100 95 0
110 103 0
105 95 0
100 91 0
93 88 0
99 92 0
107 100 0
95 86 0
114 104 0
111 105 0
109 101 0
101 95 0
102 94 0
108 102 11
107 99 0
112 105 0
110 103 0
117 108 0
111 104 0
117 113 0
108 101 0
110 103 16
110 104 11
110 103 0
126 120 11
117 109 11
121 114 0
119 112 11
106 99 0
118 110 11
122 115 0
119 113 19
121 114 16
124 117 22
118 111 16
122 115 19
121 113 19
124 119 19
115 109 16
116 110 19
130 124 16
131 125 25
121 115 25
121 114 16
123 115 16
125 119 0
119 113 25
125 120 16
122 115 30
130 121 11
126 121 25
134 127 34
127 120 25
127 120 25
123 117 22
131 123 34
124 116 30
131 124 30
130 122 32
127 121 28
123 116 28
130 123 32
128 120 25
135 128 36
128 122 28
132 126 28
124 118 36
130 122 34
128 123 30
128 122 41
129 120 36
126 120 34
128 121 22
121 116 30
127 121 30
126 121 32
118 112 32
117 112 30
123 117 22
118 114 28
125 119 39
135 128 42
121 115 36
135 128 36
122 117 28
132 127 44
127 121 41
132 124 45
129 123 39
127 122 42
120 115 34
119 112 44
127 119 41
126 120 34
123 118 39
122 115 41
123 117 44
179 201 76
176 199 80
178 201 72
177 200 80
177 199 76
180 201 84
179 202 88
175 198 62
174 197 57
174 197 25
176 197 0
174 197 0
173 196 25
174 196 25
175 197 36
177 199 25
172 193 25
175 197 44
175 196 25
175 196 0
176 198 0
170 192 25
174 196 0
171 194 25
170 193 0
170 192 25
174 196 36
174 195 44
172 195 0
173 194 0
174 196 0
173 195 25
174 195 0
172 194 25
171 193 0
172 193 0
172 195 0
171 193 0
170 192 0
174 196 0
174 195 0
171 192 0
168 189 0
171 192 0
169 191 0
171 192 0
171 192 0
166 187 0
172 193 0
171 192 0
171 193 0
169 190 0
169 190 0
174 195 0
171 192 0
168 189 0
169 190 0
166 187 0
171 192 0
163 184 0
170 191 0
161 182 0
171 192 0
163 184 0
164 184 0
167 189 0
169 190 0
165 186 0
162 183 0
166 187 0
164 184 0
164 184 0
170 190 0
161 182 0
164 185 25
158 179 25
155 175 0
169 189 25
162 182 0
165 185 0
166 185 0
162 182 0
168 189 0
165 184 25
165 185 0
162 182 0
160 180 0
160 180 0
162 182 0
159 178 25
158 178 36
159 179 25
160 179 36
157 176 0
152 172 25
162 181 36
167 186 0
155 175 36
156 176 25
161 181 0
154 174 25
159 179 25
161 181 36
155 174 72
161 180 76
164 184 62
159 178 44
164 183 80
161 180 67
164 184 62
157 176 0
159 178 0
157 177 0
149 168 0
154 173 0
150 170 0
159 179 0
158 177 0
160 180 0
153 174 0
159 179 0
149 170 0
156 177 0
152 172 0
152 173 0
153 172 0
153 173 0
146 167 0
156 176 0
143 164 0
146 167 0
145 165 0
153 173 0
146 167 0
150 170 0
148 169 0
144 164 0
145 165 0
147 169 0
143 163 0
148 168 0
142 162 0
145 166 0
142 163 0
145 166 0
141 160 0
139 160 0
141 162 0
140 161 0
136 155 0
126 147 0
130 149 0
135 156 0
135 155 0
126 146 0
133 152 0
121 141 0
130 150 0
120 140 0
125 143 0
124 144 0
113 133 0
129 147 0
111 130 0
120 138 0
119 138 0
123 142 0
104 122 0
112 129 0
103 120 0
112 128 0
106 124 0
112 129 0
113 129 0
107 124 0
96 112 0
77 92 0
106 120 0
103 118 0
92 107 0
80 94 0
97 111 0
84 97 0
89 101 0
81 94 0
71 83 0
74 85 0
73 85 0
71 84 0
71 82 0
52 62 0
64 74 0
72 83 0
61 70 0
67 76 0
57 65 0
58 67 0
56 64 18
68 78 18
66 75 18
42 51 0
62 71 0
50 58 0
41 49 0
42 49 0
51 58 0
28 36 0
61 70 0
71 79 0
68 78 0
54 65 0
69 77 0
84 94 0
69 79 0
67 76 0
46 57 0
73 83 0
82 93 0
72 82 0
87 99 0
84 93 0
69 79 0
103 116 0
84 94 0
90 103 0
97 111 0
95 107 0
94 108 0
91 101 0
104 115 0
98 111 0
95 106 0
89 102 0
102 114 0
101 114 0
104 115 0
101 113 0
100 110 0
101 113 0
100 113 0
108 123 0
103 118 0
115 127 0
123 138 0
105 118 0
115 128 0
111 122 0
107 116 0
119 131 0
119 131 0
124 137 0
130 143 0
115 125 0
118 130 0
115 127 0
122 136 0
122 134 0
124 134 0
106 114 0
110 121 0
114 122 0
119 131 0
113 122 0
110 119 0
112 120 0
117 125 0
117 125 0
112 120 0
117 123 0
106 111 0
117 122 0
110 112 0
111 117 0
119 125 0
103 109 0
101 106 0
102 106 0
107 112 0
117 119 0
102 102 0
119 125 0
100 100 0
114 114 0
94 94 0
101 100 0
93 92 0
89 86 0
101 99 0
88 87 0
102 100 0
78 74 0
77 69 11
77 69 11
78 69 11
88 80 0
88 80 0
97 89 11
82 74 0
87 78 11
84 76 0
96 87 0
95 86 0
89 82 0
95 87 0
87 82 0
100 92 0
97 90 0
107 100 0
103 95 0
111 102 0
104 98 0
101 94 0
111 105 0
109 103 0
103 95 0
108 100 0
110 103 0
118 111 0
113 107 0
117 110 0
114 107 0
117 111 0
114 106 0
115 108 0
118 111 11
116 108 11
112 106 0
117 110 0
114 107 19
123 119 11
119 112 16
118 112 16
119 114 0
125 116 0
125 118 22
117 108 16
114 107 11
121 114 11
126 120 11
125 119 19
127 120 19
124 118 16
121 115 22
128 121 28
120 113 16
121 115 19
121 114 22
126 121 28
127 123 32
128 123 28
126 118 19
133 126 28
129 124 22
127 120 32
125 118 30
128 122 22
115 108 22
127 120 22
127 121 22
127 120 28
116 110 19
131 125 30
128 122 28
129 122 32
129 122 36
124 115 32
119 114 19
125 117 37
119 113 25
127 121 32
130 123 32
124 120 30
123 117 36
122 116 37
126 119 25
128 121 36
122 116 30
131 125 37
117 112 25
126 119 22
128 121 32
125 119 32
131 125 36
127 121 37
122 115 32
120 113 32
123 116 36
125 118 36
125 118 32
122 116 37
127 121 30
122 115 36
126 119 37
122 117 39
114 109 32
125 119 30
123 116 34
118 112 34
126 120 36
127 120 48
175 198 67
177 199 51
176 199 67
173 197 44
178 200 67
174 197 51
178 200 84
175 197 51
176 198 51
177 199 72
176 198 51
172 196 0
174 196 25
175 198 25
172 195 25
173 196 36
172 195 0
171 194 0
174 196 0
172 194 36
175 197 25
171 194 0
171 194 0
173 195 0
171 194 0
175 197 51
173 195 0
174 195 44
173 194 0
171 193 0
170 193 0
174 195 0
175 197 0
173 194 0
172 194 0
170 192 0
170 191 0
170 191 25
172 194 0
173 195 0
171 192 0
172 193 0
170 193 0
171 192 0
172 193 0
172 193 0
172 193 0
168 190 0
169 190 0
174 195 0
171 193 0
167 188 0
168 189 0
170 191 0
168 189 0
167 188 0
167 188 0
166 187 0
169 190 0
163 184 0
167 188 0
166 188 0
169 190 25
168 188 0
169 190 0
169 189 0
165 186 0
167 187 0
165 185 0
164 184 0
166 187 0
169 190 0
165 184 25
164 184 0
168 188 0
160 180 0
165 185 0
164 184 0
161 181 0
167 187 0
161 182 0
153 173 0
160 181 0
164 185 0
160 180 0
159 180 0
157 177 0
163 183 25
162 183 0
162 183 0
168 188 0
157 176 25
163 182 36
160 180 25
160 180 25
157 177 0
159 179 0
159 179 36
153 172 0
157 176 36
163 183 62
166 184 67
161 179 44
161 180 67
154 173 72
157 177 51
163 182 84
164 185 36
155 174 25
152 172 0
159 177 0
158 178 0
153 173 0
152 172 0
151 170 0
158 177 0
150 170 0
153 172 0
145 165 0
152 171 0
152 172 0
153 173 0
150 170 0
154 175 0
144 163 0
146 166 0
152 172 0
147 168 0
156 176 0
148 169 0
151 171 0
147 168 0
148 168 0
151 171 0
134 155 0
139 160 0
153 172 0
147 168 0
150 170 0
149 169 0
146 165 0
148 169 0
132 152 0
137 156 0
141 161 0
138 158 0
133 154 0
140 160 0
133 154 0
141 161 0
138 159 0
137 158 0
131 151 0
135 155 0
141 161 0
134 153 0
135 155 0
121 142 0
130 150 0
134 154 0
141 161 0
133 152 0
119 138 0
127 146 0
125 143 0
130 149 0
123 142 0
121 138 0
116 134 0
112 130 0
105 124 0
109 127 0
106 123 0
101 118 0
103 120 0
92 107 0
108 125 0
90 107 0
78 95 0
104 120 0
81 95 0
98 112 0
99 115 0
79 91 0
95 108 0
88 103 0
84 95 0
70 81 0
77 91 0
66 77 0
61 72 0
53 64 0
67 77 0
73 84 0
58 69 0
74 85 0
55 65 0
63 75 0
63 74 0
59 70 0
65 76 0
65 75 0
61 70 0
51 60 0
45 56 0
59 68 0
55 65 0
56 67 0
52 61 0
65 75 0
76 84 0
66 77 0
75 86 0
69 81 0
79 91 0
77 89 0
77 87 0
92 104 0
58 71 0
71 81 0
95 106 0
94 108 0
86 96 0
86 98 0
93 103 0
89 101 0
98 110 0
96 107 0
104 116 0
103 114 0
98 111 0
109 123 0
108 119 0
103 116 0
103 116 0
101 114 0
99 111 0
107 121 0
103 115 0
114 128 0
105 119 0
111 122 0
108 120 0
112 124 0
115 126 0
117 128 0
107 119 0
113 126 0
121 133 0
114 126 0
114 129 0
116 131 0
118 128 0
104 114 0
126 139 0
124 136 0
123 132 0
122 132 0
111 121 0
127 137 0
126 137 0
120 133 0
129 139 0
115 125 0
117 126 0
109 117 0
112 118 0
114 120 0
108 114 0
121 130 0
118 125 0
98 104 0
113 120 0
116 124 0
116 119 0
111 114 0
113 116 0
115 120 0
102 107 0
105 107 0
110 114 0
100 103 0
95 97 0
101 100 0
100 101 0
106 107 0
107 104 0
97 97 0
99 97 0
101 101 0
93 91 0
85 82 0
76 69 0
92 80 16
74 64 0
79 67 11
78 69 0
93 84 0
81 73 0
97 88 0
85 79 0
93 84 0
86 79 0
97 89 0
99 91 0
100 91 0
99 89 0
94 85 0
97 90 0
108 100 0
113 104 0
102 94 0
106 97 0
107 99 0
112 104 0
110 103 0
103 96 0
113 106 0
113 105 11
119 110 0
107 98 0
107 100 0
109 103 0
116 111 0
111 103 11
118 110 11
109 101 11
104 97 0
107 99 11
124 116 16
111 105 11
120 115 0
118 112 11
123 114 16
124 118 19
115 107 16
116 109 22
126 118 11
123 115 16
116 109 16
118 111 16
114 107 0
116 112 19
126 119 19
124 117 25
120 113 16
119 111 22
120 114 16
127 119 11
134 129 25
112 108 16
121 115 22
128 121 11
123 115 30
128 121 30
129 121 19
122 114 22
132 125 30
119 110 19
125 118 25
122 117 19
129 121 36
124 119 16
124 119 25
117 110 28
123 117 25
140 131 36
127 119 22
126 120 34
120 112 32
130 122 28
124 117 32
128 121 32
125 120 30
130 124 19
124 118 25
130 122 34
125 118 37
126 122 34
124 118 34
129 124 32
121 115 28
120 114 39
126 120 32
119 114 34
120 114 25
117 110 30
124 119 30
121 113 32
119 112 34
121 115 39
125 119 36
120 113 41
120 114 30
113 106 34
130 124 44
121 115 41
122 115 37
125 119 39
116 110 42
173 195 36
174 197 57
176 198 67
177 200 80
176 198 44
177 199 57
178 200 72
174 196 57
178 200 72
178 200 72
178 200 67
174 196 57
178 200 80
173 196 51
175 198 36
174 197 25
172 195 25
174 196 36
170 193 0
174 196 25
175 197 36
174 196 0
173 196 0
174 196 36
174 197 44
171 193 0
171 192 25
174 196 25
172 194 0
171 192 25
172 193 36
173 195 0
171 193 0
171 192 0
175 196 0
173 194 0
172 194 36
174 195 0
174 194 0
172 194 0
171 193 25
171 192 25
168 189 0
173 195 0
172 193 0
170 191 0
172 193 0
168 189 0
166 187 0
169 191 0
169 190 25
170 192 0
167 188 0
168 188 0
174 195 0
167 187 0
174 195 0
169 189 0
172 193 0
164 185 0
169 190 0
169 190 0
168 189 0
161 182 0
165 185 25
169 189 0
164 184 0
171 191 0
166 186 25
166 187 0
169 190 0
167 187 0
170 190 0
165 185 0
168 188 0
164 185 0
160 181 0
165 185 36
159 179 0
164 184 25
161 181 0
160 181 25
164 184 25
163 183 36
160 179 25
156 176 25
165 185 0
163 183 44
162 183 0
158 176 25
158 178 25
156 176 25
157 176 0
165 186 0
160 180 25
158 178 0
155 174 51
157 177 51
163 182 44
162 180 80
155 176 57
162 182 72
165 184 51
163 182 57
159 178 72
151 169 44
157 177 0
154 172 0
154 173 0
156 176 0
159 179 0
155 175 0
155 175 0
153 172 0
150 169 0
153 173 0
151 171 0
151 171 0
152 171 0
147 167 0
150 171 0
147 168 0
160 180 0
154 174 0
146 167 0
146 166 0
149 169 0
147 168 0
143 162 0
142 162 0
151 171 0
152 172 0
136 157 0
151 171 0
154 175 0
138 158 0
144 165 0
142 162 0
152 173 0
152 172 0
133 153 0
141 161 0
143 162 0
148 168 0
135 155 0
147 167 0
148 169 0
137 157 0
138 158 0
137 156 0
137 157 0
141 161 0
136 156 0
138 158 0
127 148 0
128 149 0
123 142 0
120 139 0
123 143 0
118 139 0
125 144 0
130 149 0
113 132 0
115 135 0
110 129 0
109 128 0
124 144 0
125 143 0
119 137 0
114 131 0
117 134 0
116 133 0
111 129 0
113 132 0
110 127 0
105 121 0
108 124 0
101 117 0
97 113 0
103 120 0
101 116 0
90 105 0
86 101 0
94 109 0
74 88 0
89 103 0
75 89 0
75 89 0
69 84 0
86 98 0
77 90 0
88 101 0
74 87 0
75 88 0
82 94 0
71 84 0
78 90 0
69 80 0
61 74 0
73 84 0
66 76 0
78 89 0
72 83 0
77 88 0
77 89 0
72 83 0
74 85 0
75 87 0
85 95 0
65 77 0
66 78 0
77 88 0
72 83 0
79 92 0
82 95 0
71 85 0
87 99 0
88 101 0
90 101 0
83 95 0
89 101 0
97 111 0
101 114 0
93 106 0
100 112 0
94 106 0
101 114 0
105 120 0
95 107 0
97 110 0
119 132 0
101 112 0
104 118 0
113 127 0
107 119 0
115 128 0
104 118 0
108 121 0
117 133 0
123 134 0
114 129 0
111 123 0
112 125 0
104 116 0
113 122 0
132 144 0
113 128 0
110 123 0
111 125 0
121 134 0
119 133 0
107 121 0
115 127 0
113 125 0
111 123 0
121 133 0
130 142 0
119 132 0
128 139 0
119 128 0
125 136 0
120 133 0
116 127 0
111 122 0
130 140 0
126 136 0
112 121 0
113 121 0
118 126 0
120 128 0
120 127 0
117 127 0
102 108 0
122 127 0
136 142 0
118 124 0
101 107 0
113 119 0
112 114 0
111 113 0
96 97 0
111 112 0
104 105 0
99 100 0
97 97 0
102 101 0
98 100 0
94 93 0
99 97 0
98 95 0
107 107 0
89 86 0
88 86 0
77 75 0
96 89 0
74 66 11
84 73 11
69 60 0
75 67 0
88 78 0
72 65 0
86 77 0
93 84 0
88 81 0
88 79 0
92 83 0
85 77 0
90 80 0
106 95 0
102 94 0
104 95 0
98 91 0
101 92 0
94 85 0
91 84 0
110 102 0
98 88 0
109 101 0
106 97 0
99 91 0
106 100 0
111 103 0
109 104 0
114 106 0
121 113 0
110 104 0
107 100 11
112 104 16
112 103 0
113 109 0
117 110 11
106 99 11
116 111 11
118 110 0
109 103 11
117 110 16
121 114 16
113 108 19
113 108 0
112 106 11
121 111 11
113 107 11
117 111 0
121 115 25
121 114 16
119 112 19
119 112 11
119 112 0
121 115 16
112 105 16
124 119 11
121 113 28
121 115 22
121 114 16
121 115 22
121 115 28
115 109 22
129 124 25
114 108 16
113 106 25
133 126 32
123 116 28
112 107 16
124 117 25
126 120 25
126 120 28
128 120 30
116 110 19
119 113 11
124 116 32
125 118 25
122 117 22
119 113 25
123 116 34
129 122 32
133 126 41
123 116 34
118 111 25
111 105 32
118 112 30
121 114 41
117 110 32
131 125 41
123 118 25
133 125 49
129 121 30
116 109 25
122 116 32
129 121 25
128 120 39
118 111 37
131 123 41
128 121 41
130 122 39
125 118 44
112 105 25
124 117 39
113 107 41
124 118 45
119 113 37
181 202 88
174 197 57
175 198 80
172 196 0
176 199 62
178 200 57
176 199 67
175 198 44
174 196 44
176 198 57
175 197 44
173 195 57
175 197 57
181 202 88
180 202 84
176 198 44
175 196 57
171 194 0
174 197 44
174 196 36
171 194 0
173 196 0
171 193 0
173 195 25
171 193 36
171 193 0
171 193 36
173 196 25
171 193 25
173 195 25
171 193 25
171 193 0
171 193 44
175 196 36
171 192 0
174 195 51
172 194 25
166 188 0
172 194 25
170 190 25
173 193 25
168 189 0
167 189 0
174 195 0
171 193 0
172 193 0
167 188 0
172 193 0
172 192 0
171 191 0
173 194 0
173 194 0
168 189 0
165 186 0
169 190 25
166 186 0
166 186 0
168 188 0
169 191 0
168 188 25
167 188 0
163 184 0
171 191 0
167 188 0
168 188 0
164 184 0
168 188 0
172 193 0
170 191 25
168 189 0
163 183 25
165 187 0
162 182 0
171 191 0
160 182 0
166 187 0
165 185 25
164 185 25
168 187 25
163 183 25
160 181 0
162 182 36
165 185 25
163 183 36
161 182 36
164 184 36
160 180 0
164 183 36
164 184 44
162 182 36
162 182 25
154 175 0
157 177 0
156 177 25
162 180 44
163 182 51
158 179 67
163 183 51
160 179 62
166 186 76
162 181 57
160 179 51
164 183 72
155 174 25
162 182 0
160 179 0
153 173 0
158 177 0
160 180 0
159 177 0
154 173 0
157 177 0
145 164 0
153 172 0
151 171 0
151 171 0
145 165 0
157 176 0
152 172 0
155 175 0
149 169 0
155 174 0
147 166 0
151 172 0
153 173 0
151 172 0
150 170 0
144 164 0
146 166 0
153 174 0
149 169 0
143 164 0
149 168 0
151 171 0
146 167 0
151 171 0
150 172 0
147 167 0
136 156 0
130 150 0
141 162 0
148 168 0
144 165 0
149 170 0
136 156 0
139 159 0
124 146 0
138 160 0
132 153 0
139 160 0
141 161 0
139 160 0
130 150 0
134 155 0
139 159 0
143 165 0
123 144 0
133 153 0
128 148 0
127 146 0
121 140 0
133 152 0
128 147 0
112 131 0
118 137 0
117 136 0
131 149 0
114 132 0
108 126 0
118 136 0
107 124 0
128 146 0
116 134 0
113 130 0
101 117 0
104 120 0
100 118 0
99 114 0
87 104 0
102 119 0
106 122 0
89 104 0
104 120 0
99 115 0
98 112 0
88 102 0
80 94 0
96 111 0
91 107 0
85 98 0
98 113 0
85 99 0
72 85 0
76 88 0
82 93 0
78 91 0
77 90 0
60 71 0
67 78 0
76 90 0
79 91 0
67 80 0
66 78 0
89 101 0
73 86 0
62 72 0
69 81 0
90 103 0
77 88 0
80 89 0
89 101 0
62 71 0
75 87 0
81 91 0
85 98 0
84 97 0
89 102 0
83 95 0
96 109 0
83 93 0
90 104 0
97 109 0
89 101 0
87 100 0
106 120 0
95 109 0
98 111 0
113 128 0
102 112 0
106 118 0
105 117 0
95 108 0
106 119 0
103 114 0
111 124 0
101 113 0
111 123 0
111 125 0
105 117 0
105 117 0
119 130 0
106 120 0
108 121 0
118 133 0
118 132 0
111 123 0
107 118 0
123 135 0
107 119 0
129 143 0
127 140 0
116 128 0
115 127 0
122 135 0
120 131 0
125 137 0
115 126 0
124 135 0
118 129 0
119 131 0
123 135 0
122 130 0
114 125 0
118 127 0
121 131 0
120 128 0
114 123 0
105 115 0
115 123 0
126 135 0
121 129 0
114 118 0
119 125 0
111 116 0
118 125 0
111 117 0
112 118 0
120 123 0
110 114 0
111 116 0
119 123 0
119 123 0
105 109 0
108 113 0
106 106 0
107 109 0
88 87 0
89 87 0
96 92 0
99 96 0
98 95 0
102 101 0
91 88 0
85 78 0
98 93 0
91 83 0
86 79 0
76 70 0
78 68 0
85 76 0
83 74 0
89 81 0
73 65 0
86 77 0
77 71 8
95 86 0
94 84 11
82 74 0
94 85 0
97 88 0
99 89 0
104 94 0
104 97 0
98 89 0
100 92 0
113 104 11
109 99 0
98 89 0
96 88 0
104 97 0
119 110 11
107 100 0
101 94 0
111 102 0
113 104 0
121 113 0
104 98 11
108 102 0
111 104 0
110 102 11
125 118 11
104 99 0
121 114 11
112 106 0
116 108 0
124 115 0
116 107 16
115 110 19
111 102 16
122 113 19
117 109 0
112 108 16
111 106 0
119 110 16
115 107 11
116 110 11
109 103 0
126 117 11
115 109 25
119 111 11
115 109 19
123 116 0
129 123 25
118 111 19
125 118 28
125 118 19
120 114 25
121 115 16
125 117 25
123 115 28
129 121 30
111 105 22
129 121 25
123 115 22
106 100 25
124 118 28
128 122 30
127 121 28
112 106 25
135 128 37
131 124 37
131 125 28
119 111 28
125 119 22
111 104 28
129 121 36
126 120 32
123 115 36
122 118 32
121 115 28
127 120 34
124 118 22
110 104 30
119 112 39
125 118 32
124 119 36
116 109 32
113 106 30
124 119 30
123 116 34
128 120 36
127 122 36
113 107 36
114 108 32
120 114 42
121 115 34
116 109 32
124 118 45
115 109 37
126 119 45
180 203 95
186 207 120
182 203 111
178 200 62
173 197 57
173 196 62
176 199 67
175 198 51
178 200 57
176 197 44
171 193 51
175 197 80
176 197 51
178 200 72
175 197 44
178 200 67
173 196 57
176 198 36
173 195 67
173 195 57
176 197 25
175 197 36
171 194 0
171 192 0
174 196 25
171 193 0
174 196 36
170 191 0
173 194 0
173 194 0
174 196 0
172 193 0
173 194 36
169 190 0
172 193 25
171 192 0
172 194 25
171 192 0
174 196 0
169 190 0
173 195 25
173 193 25
171 191 44
172 193 0
170 191 0
171 193 0
173 193 0
166 186 0
170 191 25
169 189 0
170 191 0
173 194 0
169 190 0
169 191 0
169 189 0
171 192 25
169 189 0
166 187 0
167 187 0
172 192 0
171 190 36
169 190 0
168 189 0
167 188 0
170 190 0
168 188 0
165 185 25
165 185 36
171 190 25
162 182 0
165 185 0
165 185 0
168 188 36
163 182 25
163 184 0
168 187 36
167 187 25
168 189 36
164 184 36
162 182 36
167 187 25
166 186 0
160 180 36
161 181 25
156 176 0
160 181 25
157 177 0
164 184 25
163 183 25
156 176 25
163 183 44
158 178 36
161 181 44
163 181 84
163 183 72
168 187 62
156 176 51
163 183 51
159 179 72
169 188 67
151 171 57
158 179 0
151 170 0
154 174 0
155 175 0
155 175 0
154 172 0
154 175 0
152 172 0
156 177 0
151 171 0
159 180 0
156 175 0
146 165 0
159 179 0
144 163 0
144 163 0
148 168 0
151 171 0
153 174 0
155 176 0
149 168 0
150 170 0
156 177 0
150 171 0
151 171 0
148 167 0
148 170 0
143 164 0
152 173 0
152 171 0
148 169 0
148 168 0
144 164 0
146 167 0
147 168 0
146 165 0
150 172 0
147 167 0
140 161 0
137 158 0
132 151 0
143 163 0
141 160 0
139 160 0
139 159 0
142 163 0
142 164 0
141 162 0
138 158 0
137 158 0
138 158 0
135 156 0
128 147 0
132 152 0
138 158 0
142 162 0
133 153 0
131 152 0
122 143 0
126 145 0
132 151 0
123 143 0
118 138 0
125 144 0
111 130 0
118 136 0
120 140 0
122 141 0
114 132 0
103 122 0
125 144 0
109 128 0
114 132 0
103 120 0
102 119 0
112 130 0
102 118 0
105 121 0
116 131 0
97 113 0
79 94 0
101 117 0
98 115 0
101 116 0
82 96 0
94 109 0
98 113 0
82 97 0
91 106 0
108 122 0
93 107 0
73 86 0
68 80 0
81 95 0
72 85 0
76 90 0
80 93 0
85 99 0
85 98 0
80 94 0
87 101 0
85 98 0
82 94 0
82 95 0
83 98 0
66 79 0
100 114 0
73 85 0
82 93 0
86 99 0
87 101 0
96 111 0
81 95 0
88 99 0
101 113 0
87 99 0
101 113 0
90 102 0
92 105 0
91 102 0
104 118 0
88 102 0
89 105 0
107 120 0
91 103 0
86 100 0
99 113 0
99 112 0
104 117 0
106 120 0
98 113 0
111 126 0
107 121 0
111 125 0
103 119 0
119 133 0
107 120 0
111 126 0
117 130 0
120 134 0
107 122 0
111 126 0
105 118 0
107 123 0
111 124 0
111 123 0
115 127 0
122 136 0
111 123 0
124 134 0
118 130 0
117 129 0
121 135 0
119 132 0
112 123 0
114 124 0
123 135 0
121 130 0
123 135 0
107 119 0
122 134 0
119 129 0
131 141 0
128 138 0
120 129 0
133 144 0
122 130 0
120 128 0
113 122 0
129 137 0
120 129 0
124 134 0
118 126 0
111 117 0
117 125 0
107 113 0
118 124 0
110 116 0
96 97 0
112 116 0
107 109 0
116 120 0
106 113 0
97 96 0
109 111 0
105 104 0
107 110 0
94 94 0
92 92 0
92 90 0
86 85 0
96 92 0
96 91 0
75 72 0
98 94 0
92 88 0
79 75 0
85 79 0
81 74 0
72 62 0
76 68 0
79 68 0
76 68 0
78 69 0
80 74 0
92 83 0
91 82 0
100 92 0
93 84 0
89 81 0
92 84 0
90 82 0
94 85 0
100 91 0
100 90 0
101 94 0
88 80 0
101 93 0
104 97 0
103 93 11
107 98 0
93 85 0
100 92 0
104 96 0
105 97 0
112 104 0
108 101 0
111 104 0
94 88 0
107 98 0
115 105 11
105 97 0
106 100 16
115 107 0
121 113 16
123 117 11
116 107 11
116 108 11
101 95 11
118 109 0
117 112 19
111 104 19
116 108 11
119 112 0
113 106 16
112 105 11
123 114 22
119 113 16
115 108 22
120 112 25
120 112 19
118 111 19
113 107 0
123 117 28
115 106 22
121 113 16
119 111 25
118 112 25
122 114 25
129 122 36
128 121 28
111 105 19
124 118 30
116 110 16
124 118 37
123 115 30
123 117 25
114 108 19
125 119 28
128 120 30
128 121 36
128 121 25
115 109 25
119 111 28
128 122 30
122 114 30
109 101 22
117 109 30
114 109 30
111 103 37
117 111 30
117 111 22
120 114 36
111 106 11
116 110 30
120 113 28
116 110 37
108 101 32
111 105 34
119 111 34
122 115 41
125 119 36
116 110 30
121 115 47
111 106 36
107 101 41
108 101 36
115 108 25
132 132 41
173 197 0
175 198 44
176 199 57
181 202 102
183 204 111
180 202 99
177 199 76
176 199 62
176 199 51
172 196 51
175 197 57
172 195 51
177 199 44
176 199 67
174 197 62
177 198 95
177 198 67
178 200 84
174 196 57
177 198 80
176 198 76
174 196 44
175 196 62
172 193 44
171 193 25
174 195 36
171 193 25
168 191 0
169 191 25
175 196 25
174 196 25
172 194 0
172 193 25
172 193 25
173 195 25
170 191 0
172 193 0
174 196 25
169 191 0
171 193 0
172 194 0
172 193 36
165 186 25
167 188 0
174 194 25
172 193 36
172 192 36
174 194 0
170 191 25
169 190 44
167 187 25
174 194 25
167 188 0
172 193 44
171 192 0
171 192 36
169 190 25
167 187 25
172 192 0
169 190 0
167 187 0
163 183 25
169 190 0
169 188 25
171 191 25
162 183 0
164 185 25
172 192 36
164 184 36
168 189 0
162 182 25
169 188 0
170 191 25
169 190 25
170 190 25
162 181 0
169 188 0
168 188 36
162 182 36
166 185 0
163 182 0
161 182 25
167 187 25
166 186 36
159 178 25
164 184 0
159 178 44
158 178 44
156 176 36
165 184 67
154 173 57
162 181 67
166 186 62
163 183 72
165 184 62
161 181 76
165 185 62
160 179 44
160 179 67
157 176 0
154 174 0
156 175 0
159 178 0
162 182 0
159 178 0
156 176 0
159 179 0
151 172 0
154 174 0
152 172 0
154 173 0
146 165 0
155 175 0
149 169 0
156 176 0
149 170 0
152 171 0
152 172 0
151 170 0
149 168 0
154 174 0
149 169 0
137 157 0
155 175 0
144 165 0
151 171 0
142 163 0
150 170 0
148 168 0
146 167 0
145 166 0
145 166 0
145 166 0
148 169 0
153 174 0
146 166 0
138 159 0
146 166 0
137 159 0
131 152 0
138 159 0
132 152 0
144 165 0
145 165 0
139 159 0
137 157 0
139 159 0
137 159 0
138 158 0
137 157 0
133 153 0
135 155 0
134 154 0
127 147 0
136 155 0
122 142 0
131 151 0
121 141 0
121 140 0
133 155 0
134 154 0
124 142 0
127 146 0
117 136 0
136 155 0
126 145 0
120 138 0
125 144 0
121 139 0
117 134 0
125 143 0
117 134 0
110 129 0
118 136 0
109 126 0
108 126 0
94 112 0
106 124 0
107 122 0
107 124 0
111 127 0
99 115 0
105 122 0
97 113 0
90 106 0
96 111 0
105 121 0
96 112 0
94 110 0
91 105 0
83 98 0
90 104 0
92 107 0
83 97 0
87 101 0
90 104 0
88 101 0
85 100 0
69 83 0
86 99 0
88 101 0
88 101 0
93 107 0
88 101 0
97 112 0
86 100 0
86 100 0
87 100 0
92 104 0
87 100 0
83 97 0
82 97 0
82 96 0
94 107 0
96 109 0
87 102 0
103 118 0
95 108 0
98 113 0
94 107 0
102 115 0
96 111 0
99 112 0
93 109 0
103 117 0
105 118 0
105 119 0
99 115 0
106 119 0
103 116 0
110 124 0
102 114 0
107 120 0
92 104 0
117 131 0
111 127 0
108 121 0
105 119 0
102 115 0
103 116 0
109 122 0
119 132 0
110 125 0
124 138 0
122 136 0
114 126 0
116 130 0
117 131 0
119 133 0
118 130 0
121 134 0
134 148 0
123 135 0
125 137 0
114 126 0
105 118 0
112 125 0
112 124 0
125 136 0
112 125 0
123 135 0
124 135 0
127 137 0
119 130 0
117 126 0
130 140 0
115 122 0
125 137 0
113 120 0
112 121 0
107 115 0
120 128 0
110 119 0
108 117 0
125 134 0
111 117 0
118 121 0
116 123 0
120 130 0
121 127 0
117 121 0
112 116 0
117 120 0
108 109 0
112 117 0
107 111 0
107 110 0
122 124 0
113 111 0
98 98 0
99 101 0
110 106 0
117 118 0
91 91 0
101 100 0
103 103 0
101 99 0
86 85 0
80 75 0
88 83 0
84 76 0
91 87 0
80 72 0
74 66 0
91 80 0
81 71 0
88 81 0
83 75 0
93 81 0
89 79 0
97 88 0
81 73 0
95 84 0
90 79 0
91 83 0
96 87 0
84 76 0
89 82 0
100 90 0
104 96 0
102 94 0
98 87 0
110 102 0
97 87 0
107 99 11
103 94 0
102 93 11
111 102 0
109 100 11
110 103 11
113 104 0
119 110 11
109 102 16
116 108 0
108 99 11
113 105 0
113 106 11
109 99 11
113 106 16
113 105 11
115 107 16
108 102 11
116 106 16
124 116 16
116 108 11
123 115 19
121 113 16
118 109 16
116 109 28
120 112 28
115 108 11
119 112 16
117 109 22
108 100 19
111 103 16
129 121 25
109 101 22
127 118 25
110 105 22
119 113 30
116 108 16
119 111 25
120 113 30
129 121 22
116 110 30
122 116 22
112 106 32
102 96 22
113 106 16
126 120 22
117 110 16
122 114 25
107 101 22
117 110 22
120 113 36
124 116 22
119 112 28
120 113 34
120 114 34
108 102 36
111 106 11
113 105 36
110 105 30
118 111 32
119 113 37
112 107 19
121 114 41
123 116 30
121 112 34
122 113 36
107 101 37
107 100 34
110 103 32
108 103 32
109 103 32
123 116 41
122 121 28
144 152 11
159 176 11
170 191 0
173 196 0
172 195 0
173 196 0
174 197 0
175 198 44
177 200 76
179 201 88
180 202 108
182 203 99
175 197 51
174 197 57
173 196 57
174 197 57
175 198 62
174 195 44
175 197 80
174 196 72
172 194 51
176 198 62
174 197 72
176 198 76
180 201 84
174 195 67
172 195 57
179 200 67
175 196 57
176 197 36
174 196 44
175 196 51
167 189 25
174 195 25
169 191 0
176 198 36
172 193 25
170 192 0
173 194 25
172 194 0
173 194 0
167 189 0
168 188 25
169 190 0
171 192 25
169 190 0
173 193 25
169 190 0
171 193 0
173 193 0
173 193 0
168 190 0
175 196 36
168 189 25
171 191 25
173 194 0
176 196 36
166 187 0
167 186 25
170 190 25
168 188 0
162 183 0
164 184 0
168 189 0
167 187 36
170 190 0
163 183 0
169 190 25
166 186 25
165 184 25
166 185 36
170 190 25
169 189 0
169 189 36
161 181 25
164 185 25
161 182 0
162 181 36
166 186 36
156 176 25
163 184 0
166 185 0
163 184 25
158 178 25
163 183 36
164 183 62
167 186 72
164 183 62
160 180 57
163 182 57
165 185 62
159 178 57
162 181 62
165 184 84
162 182 57
162 181 62
159 179 72
168 187 80
158 177 62
156 176 0
156 175 0
160 180 0
154 174 0
164 183 0
157 177 0
158 177 0
153 172 0
161 181 0
158 178 0
154 174 0
157 176 0
150 170 0
153 173 0
153 173 0
148 167 0
147 167 0
150 170 0
153 173 0
151 172 0
147 166 0
150 170 0
146 166 0
146 166 0
148 168 0
148 169 0
147 167 0
146 167 0
154 174 0
149 170 0
150 172 0
148 167 0
143 163 0
148 169 0
153 174 0
144 165 0
157 180 0
147 168 0
141 162 0
146 167 0
140 161 0
152 172 0
147 168 0
144 165 0
152 172 0
141 162 0
144 165 0
145 165 0
139 160 0
136 157 0
139 160 0
146 167 0
145 165 0
130 150 0
141 162 0
135 154 0
134 154 0
137 158 0
136 157 0
133 153 0
126 145 0
131 152 0
129 149 0
125 144 0
126 146 0
129 149 0
126 146 0
127 147 0
117 136 0
120 139 0
118 137 0
115 133 0
122 141 0
126 146 0
109 127 0
119 140 0
118 135 0
120 138 0
127 146 0
116 133 0
113 131 0
103 120 0
114 131 0
112 130 0
106 124 0
97 114 0
99 115 0
112 129 0
116 132 0
93 109 0
97 113 0
96 113 0
86 103 0
97 112 0
103 119 0
105 119 0
93 108 0
100 115 0
98 115 0
92 107 0
99 113 0
105 120 0
81 93 0
93 108 0
83 96 0
86 99 0
101 116 0
89 102 0
89 102 0
85 98 0
108 123 0
108 123 0
82 95 0
95 110 0
88 102 0
102 118 0
109 122 0
96 112 0
93 105 0
102 118 0
107 120 0
93 106 0
107 122 0
98 111 0
96 111 0
100 115 0
100 115 0
110 123 0
98 112 0
89 103 0
108 123 0
117 129 0
102 116 0
108 121 0
102 117 0
102 116 0
105 120 0
104 118 0
116 130 0
118 134 0
117 130 0
114 128 0
119 132 0
121 134 0
105 120 0
121 136 0
120 134 0
128 142 0
116 129 0
116 127 0
114 128 0
124 139 0
114 127 0
119 136 0
111 125 0
106 119 0
124 137 0
121 134 0
127 140 0
111 125 0
121 133 0
113 123 0
114 126 0
106 117 0
118 132 0
120 129 0
122 131 0
119 131 0
118 130 0
112 121 0
121 131 0
129 141 0
120 131 0
120 129 0
111 119 0
111 118 0
114 124 0
117 126 0
113 123 0
110 115 0
110 117 0
121 128 0
125 130 0
117 122 0
111 116 0
121 129 0
112 116 0
109 114 0
111 115 0
112 117 0
114 116 0
114 115 0
93 94 0
104 102 0
108 107 0
108 111 0
100 97 0
103 105 0
107 107 0
105 105 0
94 93 0
99 93 0
102 100 0
85 82 0
95 93 0
92 90 0
82 75 0
78 73 0
78 73 0
84 76 0
72 64 0
66 58 0
81 71 0
74 65 0
85 77 0
72 62 0
95 86 0
92 83 0
88 76 0
88 79 0
92 83 0
98 89 0
98 91 0
103 92 0
95 86 0
94 84 0
99 91 0
103 96 0
101 92 0
88 80 0
100 90 0
104 96 0
93 88 0
108 97 11
107 99 0
103 94 11
110 101 0
108 100 11
117 108 11
106 95 0
116 109 11
115 108 11
106 97 0
113 104 0
111 103 11
112 105 11
104 98 11
112 105 16
112 105 16
109 100 16
108 100 0
114 106 0
111 104 0
112 106 16
120 111 16
110 104 19
112 103 16
114 106 22
97 90 16
113 106 11
112 104 11
109 103 16
116 108 22
120 113 16
119 111 22
115 107 25
114 107 28
122 115 19
117 110 25
115 109 36
112 106 28
120 112 25
115 109 22
111 103 16
115 107 28
127 119 36
112 107 28
121 114 32
117 110 25
112 105 28
118 112 32
111 103 22
117 110 42
110 103 30
126 117 37
127 121 28
114 108 34
120 113 25
113 106 30
113 106 30
112 106 30
117 110 30
115 106 36
111 104 34
113 105 28
110 103 36
113 107 37
126 125 32
143 152 30
161 179 16
161 179 0
165 185 0
172 192 0
169 188 0
172 196 0
173 196 0
174 197 0
174 197 0
176 198 0
173 196 0
173 196 0
174 197 44
179 201 92
178 200 92
182 204 111
177 199 80
176 198 76
176 198 51
175 198 51
176 198 36
174 196 57
176 197 57
175 197 51
177 199 67
176 198 76
177 199 92
175 197 72
173 195 67
177 198 72
173 194 57
178 199 80
176 197 76
180 200 72
177 197 62
173 194 51
172 194 36
175 197 62
176 197 36
171 192 44
172 194 36
175 196 25
171 193 0
172 193 0
174 196 0
172 194 25
173 193 0
171 193 0
173 194 0
172 193 36
172 192 25
167 188 0
174 195 25
172 193 0
172 192 25
167 188 0
171 192 0
170 191 25
169 189 0
169 190 0
171 191 0
171 191 25
170 191 25
167 187 0
166 186 25
172 191 0
168 188 0
171 192 25
170 191 36
169 188 36
164 184 25
164 184 25
171 192 36
167 186 36
163 184 25
161 180 25
167 186 36
162 182 25
162 182 0
163 184 25
167 187 25
166 187 44
168 187 36
159 179 36
170 190 51
164 184 62
168 187 80
162 183 67
162 182 62
164 183 0
170 189 88
161 181 62
163 182 72
165 185 62
164 183 62
164 184 67
162 181 76
157 176 57
158 177 0
157 176 0
161 179 0
162 182 0
160 180 0
152 173 0
153 173 0
151 171 0
155 174 0
158 178 0
153 173 0
159 178 0
160 181 0
158 179 0
160 180 0
151 171 0
154 174 0
151 171 0
157 178 0
151 170 0
152 173 0
154 174 0
153 173 0
143 164 0
143 162 0
146 166 0
153 173 0
148 169 0
157 177 0
152 172 0
146 166 0
154 175 0
147 167 0
151 170 0
150 170 0
149 169 0
141 162 0
150 172 0
156 177 0
144 165 0
145 166 0
148 169 0
139 159 0
140 160 0
142 162 0
144 164 0
135 156 0
142 163 0
130 150 0
147 167 0
137 157 0
141 162 0
144 165 0
130 151 0
145 165 0
143 163 0
132 154 0
132 153 0
143 163 0
137 157 0
131 151 0
129 150 0
140 161 0
130 150 0
132 152 0
129 148 0
132 152 0
114 134 0
128 148 0
123 142 0
128 147 0
121 141 0
128 148 0
127 148 0
118 136 0
121 140 0
115 133 0
121 140 0
129 148 0
115 133 0
113 131 0
114 134 0
111 130 0
122 140 0
119 137 0
102 120 0
106 123 0
101 119 0
103 120 0
109 126 0
115 132 0
119 137 0
103 119 0
105 121 0
100 117 0
100 117 0
97 113 0
102 119 0
99 114 0
100 114 0
88 103 0
99 114 0
98 113 0
97 113 0
99 114 0
93 108 0
101 117 0
99 113 0
104 120 0
82 97 0
97 112 0
97 112 0
110 124 0
109 124 0
96 112 0
99 114 0
108 122 0
88 102 0
104 118 0
99 114 0
110 126 0
86 101 0
90 105 0
90 104 0
95 111 0
106 123 0
105 119 0
99 115 0
99 113 0
116 129 0
102 115 0
106 121 0
100 112 0
99 112 0
100 116 0
95 108 0
105 120 0
106 121 0
110 126 0
108 122 0
113 129 0
99 114 0
129 144 0
110 123 0
119 134 0
124 140 0
96 111 0
119 136 0
105 118 0
111 124 0
124 139 0
113 128 0
114 130 0
115 129 0
128 142 0
112 127 0
120 133 0
124 139 0
119 132 0
128 140 0
121 135 0
125 134 0
114 128 0
113 127 0
115 126 0
127 142 0
123 134 0
122 133 0
123 135 0
126 139 0
120 133 0
128 142 0
118 128 0
125 134 0
119 129 0
128 140 0
115 123 0
112 120 0
124 134 0
112 120 0
112 118 0
110 119 0
128 137 0
124 133 0
120 131 0
126 132 0
124 132 0
107 110 0
129 133 0
119 125 0
108 111 0
113 118 0
108 110 0
118 122 0
121 123 0
114 117 0
105 105 0
106 109 0
101 99 0
111 114 0
102 103 0
113 111 0
108 110 0
95 94 0
107 105 0
93 91 0
95 91 0
96 94 0
84 83 0
95 92 0
81 76 0
91 84 0
82 79 0
78 68 0
71 65 0
69 65 0
81 69 0
66 54 0
71 62 0
89 78 0
87 77 0
87 77 0
90 79 0
84 75 0
97 89 0
86 76 11
95 85 0
85 78 0
97 86 0
98 89 0
96 87 0
100 91 0
104 97 11
103 94 11
105 98 0
103 96 11
104 95 16
97 87 0
115 107 0
110 103 11
107 98 0
106 98 0
113 104 16
113 102 11
108 100 0
105 97 0
99 92 11
115 107 11
102 95 19
101 93 11
102 92 0
106 98 11
106 98 16
113 107 22
107 100 22
113 104 19
111 102 19
111 104 16
114 104 16
103 96 22
101 94 22
116 109 22
111 104 16
118 110 16
125 116 25
113 107 11
116 109 22
111 105 25
110 102 34
118 111 16
117 109 22
108 101 16
117 110 16
120 111 30
119 112 28
123 116 30
114 107 16
123 117 28
113 106 25
107 99 28
112 104 22
121 114 30
115 108 28
116 108 22
113 107 28
110 101 25
118 110 36
110 105 22
124 118 28
114 108 36
127 121 32
114 108 32
128 120 34
118 112 36
107 100 34
114 105 32
120 112 39
121 122 28
152 163 25
154 170 16
169 189 0
170 189 0
165 182 0
172 191 0
167 186 0
168 188 0
168 187 0
173 196 0
174 197 0
173 197 0
173 197 0
173 196 0
174 197 0
171 194 0
173 196 0
173 197 0
174 196 0
175 197 25
171 194 51
183 203 108
182 203 111
186 206 120
180 201 84
177 199 76
172 195 44
174 197 57
175 197 51
171 194 25
176 197 51
173 196 51
174 196 36
172 194 57
179 201 67
177 198 67
177 198 57
177 198 84
172 194 44
177 198 62
176 197 62
174 195 51
178 199 80
176 196 67
172 193 51
177 198 72
178 198 62
178 198 72
175 195 51
172 193 44
169 190 44
170 190 0
171 192 36
173 194 25
170 191 36
170 191 0
172 193 25
170 191 25
171 192 25
167 188 0
171 191 0
170 190 25
170 190 0
169 190 25
173 193 44
171 193 25
168 188 0
165 186 0
168 189 25
165 186 0
162 183 25
165 186 25
172 192 25
169 189 0
165 185 36
170 190 25
170 189 36
164 185 36
166 186 44
169 190 51
169 188 51
169 188 62
164 184 57
169 189 76
170 189 88
169 189 76
170 189 57
167 186 62
166 186 72
165 184 76
177 196 95
156 176 62
163 183 51
169 188 57
165 184 67
162 183 57
161 181 51
161 181 44
161 180 36
160 180 0
155 175 0
161 180 0
155 175 0
155 175 0
157 177 0
158 178 0
156 176 0
158 178 0
157 177 0
153 173 0
159 179 0
155 175 0
157 177 0
161 181 0
160 180 0
158 178 0
156 176 0
157 178 0
160 180 0
154 175 0
155 175 0
149 170 0
150 170 0
151 170 0
157 177 0
157 178 0
150 170 0
150 170 0
144 164 0
149 168 0
156 176 0
139 159 0
147 167 0
143 162 0
149 170 0
156 176 0
142 162 0
155 176 0
153 174 0
155 176 0
148 169 0
146 167 0
145 166 0
158 179 0
149 170 0
146 167 0
148 168 0
151 172 0
139 160 0
144 165 0
144 164 0
141 162 0
138 159 0
134 155 0
145 166 0
137 156 0
145 165 0
137 157 0
138 158 0
129 150 0
142 163 0
136 158 0
139 160 0
147 169 0
136 157 0
132 153 0
129 148 0
127 148 0
129 150 0
132 152 0
126 145 0
131 152 0
127 147 0
123 142 0
129 149 0
124 143 0
109 129 0
115 135 0
115 135 0
118 137 0
111 130 0
129 148 0
114 132 0
117 134 0
121 139 0
108 126 0
119 138 0
101 119 0
111 129 0
114 131 0
126 145 0
118 136 0
119 137 0
104 122 0
108 124 0
104 121 0
109 125 0
103 119 0
102 118 0
94 109 0
104 120 0
105 122 0
91 106 0
103 119 0
105 122 0
92 106 0
78 95 0
112 126 0
97 114 0
95 110 0
106 124 0
104 118 0
102 118 0
92 106 0
100 116 0
100 115 0
101 117 0
99 114 0
98 113 0
103 119 0
98 113 0
102 117 0
118 133 0
111 126 0
97 114 0
97 111 0
118 134 0
99 112 0
96 109 0
110 126 0
115 131 0
110 124 0
101 117 0
116 131 0
109 122 0
111 126 0
111 126 0
111 127 0
111 127 0
106 120 0
129 144 0
101 118 0
115 131 0
112 126 0
120 136 0
115 129 0
115 127 0
116 131 0
122 136 0
124 138 0
111 126 0
125 138 0
109 122 0
116 130 0
111 125 0
126 140 0
133 148 0
115 128 0
122 137 0
107 121 0
119 135 0
109 121 0
121 132 0
125 139 0
128 142 0
117 129 0
135 148 0
118 130 0
125 138 0
121 132 0
118 129 0
120 134 0
122 135 0
120 131 0
131 142 0
128 141 0
112 121 0
114 126 0
113 121 0
122 133 0
125 136 0
126 136 0
127 140 0
122 131 0
121 129 0
122 129 0
115 123 0
123 131 0
118 124 0
119 125 0
121 130 0
115 120 0
109 115 0
118 122 0
118 124 0
116 122 0
117 120 0
128 133 0
115 116 0
117 120 0
114 119 0
113 113 0
117 119 0
105 109 0
111 113 0
98 99 0
102 102 0
105 107 0
98 94 0
88 82 0
94 91 0
91 90 0
91 87 0
88 87 0
88 84 0
82 77 0
87 81 0
87 79 0
85 80 0
69 59 0
68 58 0
71 59 0
73 63 0
80 70 0
76 67 0
71 61 0
86 75 0
88 76 0
79 69 0
98 89 0
88 76 0
94 84 0
99 88 0
88 78 0
89 82 0
103 94 0
94 86 0
93 81 0
93 84 0
102 94 0
95 86 0
102 93 0
99 91 0
95 87 0
95 89 11
102 94 11
103 95 11
99 91 11
106 98 11
111 103 16
102 93 11
106 99 11
107 97 0
116 109 16
109 101 16
107 99 16
112 104 19
111 104 22
114 105 22
109 99 19
114 105 19
122 113 22
117 107 19
110 101 19
109 102 16
109 100 25
117 109 22
117 107 22
114 104 19
112 104 16
114 107 25
118 111 19
118 110 25
113 105 25
114 105 25
101 92 11
115 107 32
112 104 19
126 119 37
115 108 16
112 107 22
125 118 30
120 112 25
123 115 30
115 108 28
119 110 25
123 114 32
115 107 34
112 106 22
105 97 28
103 95 25
111 105 34
111 103 36
112 105 34
114 106 36
121 117 34
130 139 16
141 151 25
163 179 0
166 183 0
168 188 0
170 186 0
168 188 0
165 184 0
170 189 0
169 189 0
165 184 0
168 185 0
169 190 0
171 195 0
175 198 0
172 195 0
172 194 0
174 197 0
173 196 0
171 195 0
172 195 0
174 196 0
173 196 0
173 195 0
176 198 0
172 195 0
174 196 0
172 195 0
175 196 80
181 202 95
181 202 92
183 204 114
181 202 99
177 199 76
173 195 51
176 197 62
174 196 51
176 198 62
173 195 57
176 198 44
177 199 51
177 197 80
172 194 57
176 197 57
174 196 62
177 198 67
175 196 62
174 195 57
176 197 67
175 196 62
173 193 62
178 199 67
173 194 67
173 194 57
174 195 62
177 197 72
176 196 72
176 196 80
172 193 76
174 194 76
172 193 57
173 192 51
172 192 67
172 192 51
171 191 51
170 190 67
171 191 36
170 190 51
171 192 36
165 185 36
168 189 36
165 183 44
171 192 36
169 189 44
170 190 44
169 188 62
170 189 84
169 190 36
165 185 51
172 192 57
172 190 57
172 192 80
170 190 62
172 191 76
175 194 67
170 190 72
167 187 25
169 188 57
169 188 51
169 189 57
168 188 67
159 179 62
166 186 67
167 187 36
167 188 72
162 181 25
163 183 62
163 181 44
160 179 36
163 183 0
161 180 0
164 183 0
160 179 0
164 183 0
160 181 0
158 178 0
155 175 0
162 182 0
161 179 0
153 173 0
159 179 0
159 179 0
161 180 0
155 175 0
156 174 0
150 169 0
157 177 0
155 175 0
155 175 0
156 177 0
147 167 0
155 175 0
153 174 0
151 172 0
156 177 0
156 175 0
157 177 0
150 170 0
153 173 0
140 160 0
151 172 0
155 175 0
150 171 0
150 169 0
152 173 0
146 166 0
153 173 0
147 167 0
150 170 0
143 164 0
149 170 0
151 171 0
144 164 0
143 163 0
146 167 0
144 165 0
154 174 0
143 164 0
139 160 0
147 169 0
146 167 0
142 162 0
140 161 0
144 164 0
148 170 0
139 159 0
137 157 0
143 163 0
138 159 0
156 177 0
141 162 0
144 165 0
144 165 0
142 165 0
145 165 0
139 160 0
135 156 0
133 154 0
137 157 0
127 149 0
137 157 0
131 151 0
123 145 0
141 162 0
131 152 0
124 144 0
131 151 0
132 153 0
128 148 0
116 135 0
129 149 0
124 143 0
129 149 0
120 139 0
129 149 0
125 143 0
128 147 0
120 137 0
122 140 0
116 133 0
108 127 0
118 136 0
117 136 0
109 126 0
104 123 0
124 143 0
120 138 0
115 133 0
113 132 0
107 126 0
112 131 0
104 122 0
118 135 0
118 136 0
104 121 0
118 134 0
96 111 0
107 124 0
106 124 0
107 124 0
98 114 0
108 125 0
113 129 0
109 126 0
95 111 0
101 117 0
104 121 0
112 127 0
111 128 0
91 109 0
98 113 0
94 109 0
90 107 0
109 125 0
106 122 0
84 100 0
111 128 0
99 114 0
105 120 0
107 122 0
121 137 0
98 114 0
99 114 0
104 119 0
92 107 0
111 127 0
107 122 0
116 130 0
105 119 0
119 134 0
109 125 0
111 125 0
105 120 0
114 130 0
100 114 0
121 139 0
113 128 0
133 148 0
121 136 0
113 126 0
112 126 0
127 140 0
116 130 0
111 124 0
121 136 0
127 142 0
122 135 0
129 143 0
130 144 0
131 149 0
124 139 0
119 131 0
121 135 0
120 134 0
129 143 0
110 124 0
118 132 0
119 133 0
122 135 0
125 139 0
118 132 0
129 144 0
112 123 0
110 122 0
114 127 0
124 136 0
129 144 0
130 144 0
129 142 0
129 140 0
122 134 0
136 150 0
124 134 0
121 132 0
120 128 0
124 135 0
125 134 0
114 123 0
124 134 0
129 138 0
118 127 0
113 122 0
124 134 0
102 107 0
124 128 0
128 135 0
112 121 0
117 126 0
106 112 0
115 119 0
92 93 0
123 131 0
122 124 0
123 129 0
113 114 0
115 118 0
110 111 0
117 118 0
101 104 0
110 110 0
110 110 0
105 103 0
101 102 0
111 110 0
103 102 0
96 95 0
104 103 0
103 100 0
94 90 0
102 98 0
83 79 0
85 81 0
83 79 0
86 80 0
98 93 0
88 83 0
70 65 0
78 72 0
81 76 0
69 60 0
62 54 0
94 85 0
84 72 0
91 82 0
68 60 0
86 75 0
87 78 0
92 83 0
95 85 0
94 84 0
96 88 11
86 78 11
102 92 11
96 85 11
99 90 11
105 94 11
99 90 11
111 99 11
101 93 11
102 93 0
107 98 0
101 94 11
111 101 16
108 98 11
102 93 11
104 97 0
111 103 11
110 102 25
108 100 16
112 102 16
114 103 0
111 103 11
116 108 16
108 99 16
96 89 22
111 103 22
115 107 22
106 98 16
114 105 22
112 104 16
118 110 25
110 102 22
108 101 19
112 106 19
109 100 22
113 104 16
117 109 25
107 100 19
108 101 16
102 93 22
118 110 36
108 99 32
113 106 28
113 104 34
101 95 19
112 104 28
112 103 28
104 96 22
101 95 16
104 97 30
113 106 32
102 94 30
107 99 28
106 99 36
108 102 28
115 112 30
132 137 30
144 152 19
162 176 16
166 183 0
165 181 0
165 182 0
165 182 0
165 184 0
168 186 0
168 185 0
169 188 0
165 183 0
168 187 0
169 188 0
166 184 0
163 181 0
165 185 0
173 195 0
174 196 0
175 198 0
170 194 0
175 198 0
173 196 0
175 197 0
174 197 0
173 196 0
172 196 0
173 195 0
169 193 0
172 196 0
172 194 0
172 194 0
171 193 0
174 197 0
170 193 0
176 198 36
176 197 62
175 196 67
179 200 88
184 204 120
180 200 92
179 201 95
173 194 62
174 196 51
174 197 51
175 198 67
175 197 44
173 195 67
174 195 36
172 194 51
169 190 44
176 198 72
178 198 76
174 195 57
175 197 72
177 198 72
172 193 51
174 195 62
173 194 76
177 197 57
175 196 57
174 194 67
177 197 67
175 195 57
174 194 57
179 198 80
175 196 62
177 197 80
171 191 62
172 192 51
171 191 57
173 193 44
169 190 51
172 192 57
170 190 67
168 189 51
171 191 80
172 191 57
174 194 76
168 188 51
172 192 67
170 191 51
166 185 62
170 190 72
172 191 51
172 192 36
169 189 57
171 190 72
165 186 51
165 184 44
171 190 72
171 192 44
169 188 44
168 188 57
171 191 76
168 188 57
166 186 44
166 185 51
162 181 0
162 181 0
162 182 0
162 183 0
160 181 0
161 181 0
158 178 0
161 181 0
161 181 0
156 176 0
152 172 0
159 178 0
163 182 0
155 175 0
164 185 0
155 175 0
157 178 0
156 176 0
156 176 0
159 179 0
154 176 0
166 185 0
155 174 0
156 177 0
159 180 0
155 175 0
162 182 0
149 170 0
155 175 0
150 170 0
156 177 0
152 172 0
150 171 0
149 169 0
154 174 0
159 180 0
149 169 0
154 174 0
149 169 0
153 173 0
155 175 0
139 160 0
146 166 0
150 170 0
153 174 0
154 174 0
153 173 0
149 170 0
145 166 0
148 168 0
146 166 0
146 168 0
142 163 0
147 169 0
153 174 0
145 166 0
149 170 0
147 168 0
138 159 0
148 168 0
153 174 0
151 172 0
141 161 0
138 158 0
136 156 0
142 162 0
136 156 0
139 159 0
144 165 0
143 165 0
129 150 0
132 153 0
134 155 0
137 157 0
143 163 0
139 160 0
134 154 0
136 156 0
141 162 0
131 151 0
129 149 0
122 143 0
129 149 0
130 150 0
134 153 0
130 151 0
125 145 0
129 147 0
119 138 0
128 147 0
123 142 0
124 144 0
127 146 0
121 139 0
121 141 0
114 132 0
117 135 0
119 139 0
118 137 0
117 136 0
111 129 0
122 138 0
108 125 0
120 138 0
108 124 0
122 141 0
126 145 0
112 129 0
103 119 0
105 121 0
115 133 0
114 130 0
117 134 0
108 125 0
115 131 0
96 114 0
117 133 0
96 113 0
91 108 0
100 117 0
110 126 0
121 138 0
128 143 0
105 122 0
111 126 0
115 130 0
114 131 0
112 128 0
110 126 0
106 123 0
100 114 0
106 122 0
115 130 0
108 121 0
107 123 0
104 120 0
118 134 0
112 128 0
115 131 0
127 144 0
110 125 0
119 134 0
114 129 0
114 130 0
112 127 0
119 134 0
114 129 0
113 130 0
129 146 0
116 131 0
114 129 0
119 135 0
116 132 0
114 130 0
110 126 0
122 137 0
123 137 0
119 135 0
125 140 0
117 131 0
124 140 0
123 139 0
117 132 0
122 139 0
125 143 0
120 135 0
113 126 0
133 149 0
121 133 0
123 138 0
106 121 0
122 137 0
121 134 0
128 144 0
125 138 0
123 137 0
132 146 0
125 138 0
124 140 0
129 143 0
120 132 0
125 138 0
123 136 0
121 133 0
128 138 0
121 132 0
117 129 0
118 130 0
116 126 0
130 140 0
122 134 0
121 134 0
135 148 0
130 141 0
113 120 0
132 143 0
119 128 0
130 142 0
111 119 0
125 133 0
125 133 0
128 136 0
108 115 0
120 125 0
123 130 0
113 121 0
124 129 0
109 114 0
120 123 0
121 124 0
121 125 0
119 125 0
118 123 0
108 112 0
121 121 0
111 115 0
112 113 0
110 110 0
111 111 0
113 116 0
112 116 0
103 101 0
102 101 0
98 97 0
102 99 0
88 83 0
97 96 0
110 108 0
100 98 0
82 79 0
83 77 0
101 94 0
98 89 0
91 84 0
88 79 0
88 81 0
91 85 0
90 84 0
74 66 0
74 65 0
97 89 11
78 66 0
82 72 0
86 75 0
89 80 0
93 82 0
86 76 0
95 86 0
103 93 0
106 94 0
84 76 0
89 80 0
84 75 0
92 83 11
100 92 0
104 94 0
98 87 11
102 91 11
103 94 11
98 88 11
97 89 11
105 96 16
100 89 16
112 101 16
95 86 0
92 84 0
105 97 19
105 96 0
99 91 16
102 94 16
97 91 16
106 97 11
109 101 11
105 98 16
113 105 22
113 106 19
108 101 16
109 102 16
112 104 25
99 94 22
100 93 0
118 110 16
116 107 25
110 102 28
112 106 34
115 107 30
124 114 34
112 102 22
114 106 34
107 98 25
110 102 11
110 102 32
109 101 22
99 92 19
113 105 34
111 105 36
116 113 25
130 131 22
139 146 25
143 154 11
163 178 11
161 175 0
165 183 0
164 178 0
157 170 0
165 182 0
166 181 0
162 179 0
166 184 0
166 185 0
164 180 0
169 188 0
167 183 0
166 185 0
167 182 0
169 187 0
161 180 0
167 185 0
171 191 0
174 197 0
173 196 0
174 196 0
173 196 0
170 193 0
175 197 0
172 196 0
175 197 0
172 194 0
171 194 0
172 195 0
173 196 0
172 195 0
172 194 0
173 194 0
175 197 0
175 196 0
172 194 0
170 193 0
171 194 0
174 196 0
172 195 0
172 194 0
174 197 0
178 199 62
175 197 57
179 199 92
178 199 84
182 202 108
180 201 102
179 200 92
176 198 62
176 196 72
173 195 72
172 194 62
177 199 80
172 193 57
175 196 44
172 194 44
173 194 62
174 195 67
175 196 57
174 195 44
176 196 76
171 192 51
175 195 67
173 194 44
172 193 36
174 195 67
172 192 51
172 193 67
173 194 80
176 196 62
175 194 72
176 196 76
169 189 67
170 189 80
172 192 51
171 191 51
169 189 51
172 193 67
171 192 67
172 192 76
170 189 44
173 193 25
171 192 67
170 190 62
169 188 62
171 191 57
170 190 67
171 191 72
173 192 88
166 185 67
173 192 80
167 187 57
173 191 62
162 182 25
166 186 0
160 180 0
165 184 0
162 182 0
160 180 0
158 178 0
162 181 0
165 185 0
158 177 0
162 181 0
162 182 0
165 186 0
163 182 0
164 184 0
158 176 0
161 180 0
158 178 0
157 177 0
157 178 0
155 174 0
157 177 0
158 177 0
159 178 0
156 176 0
147 167 0
159 179 0
154 175 0
157 177 0
159 179 0
155 174 0
156 175 0
153 174 0
159 180 0
151 171 0
154 174 0
150 169 0
150 171 0
153 174 0
158 179 0
153 172 0
159 179 0
149 171 0
150 170 0
158 179 0
146 167 0
145 166 0
149 169 0
138 158 0
144 165 0
157 178 0
148 169 0
154 175 0
144 165 0
144 166 0
145 166 0
145 165 0
150 171 0
152 172 0
140 162 0
145 166 0
154 177 0
145 166 0
145 166 0
139 160 0
140 161 0
132 152 0
141 162 0
145 166 0
147 168 0
137 158 0
138 159 0
142 162 0
143 164 0
139 160 0
127 147 0
138 159 0
144 165 0
128 148 0
141 162 0
139 159 0
128 149 0
136 156 0
135 155 0
136 156 0
131 151 0
126 147 0
131 151 0
129 150 0
127 145 0
125 144 0
127 148 0
117 136 0
133 153 0
114 133 0
122 140 0
119 137 0
121 139 0
122 141 0
124 143 0
130 149 0
130 146 0
119 138 0
122 140 0
128 148 0
111 130 0
121 139 0
108 126 0
117 136 0
117 136 0
117 134 0
110 127 0
119 136 0
118 135 0
114 132 0
128 147 0
112 129 0
115 132 0
111 129 0
111 129 0
104 121 0
112 128 0
112 128 0
109 124 0
122 141 0
111 128 0
108 124 0
103 116 0
112 129 0
124 141 0
104 121 0
104 121 0
119 135 0
100 116 0
107 124 0
100 117 0
111 127 0
111 128 0
100 116 0
118 136 0
118 134 0
106 122 0
109 125 0
121 137 0
110 125 0
120 136 0
110 126 0
119 136 0
109 124 0
116 134 0
122 138 0
114 130 0
121 137 0
115 130 0
115 131 0
108 123 0
126 141 0
117 130 0
123 138 0
114 129 0
115 131 0
124 139 0
124 139 0
126 141 0
125 139 0
126 141 0
123 140 0
128 143 0
130 146 0
118 132 0
120 135 0
123 137 0
119 134 0
120 136 0
122 137 0
116 130 0
122 137 0
129 144 0
125 141 0
123 137 0
119 133 0
124 137 0
116 130 0
133 146 0
117 129 0
135 150 0
124 136 0
114 127 0
118 132 0
127 139 0
124 135 0
129 142 0
119 134 0
134 148 0
121 134 0
125 136 0
131 142 0
125 137 0
124 136 0
124 136 0
134 144 0
127 139 0
121 131 0
129 137 0
124 135 0
118 127 0
131 142 0
120 129 0
123 131 0
121 127 0
129 133 0
131 136 0
121 127 0
120 124 0
114 118 0
118 123 0
113 119 0
128 135 0
123 126 0
129 134 0
120 122 0
124 125 0
113 115 0
115 117 0
120 122 0
114 115 0
111 111 0
100 100 0
109 107 0
99 99 0
103 100 0
100 98 0
99 97 0
100 99 0
100 94 0
106 104 0
98 91 0
98 95 0
104 102 0
103 98 0
96 90 0
101 98 0
92 86 0
99 93 0
95 91 0
82 79 0
80 74 0
87 76 0
97 93 0
83 75 0
90 80 0
82 74 0
82 72 0
86 73 0
80 67 0
90 78 11
94 84 0
80 72 0
96 87 11
109 98 16
85 74 0
98 88 25
102 92 11
110 101 16
103 94 0
108 99 19
96 85 16
106 95 16
104 93 11
106 96 16
101 92 19
98 89 19
106 98 19
109 98 11
106 97 16
105 97 0
100 91 11
101 91 11
110 100 16
104 96 11
101 93 11
103 94 16
95 87 19
103 93 25
115 105 19
96 89 16
95 87 19
102 94 25
108 100 22
108 99 25
111 104 30
101 92 16
107 98 22
116 109 25
109 103 22
101 95 16
121 120 25
126 130 16
135 142 22
149 158 0
156 167 11
159 174 0
156 166 0
160 176 0
160 173 0
163 177 0
160 173 0
163 178 0
163 179 0
164 181 0
165 182 0
164 179 0
161 177 0
168 184 0
162 179 0
168 187 0
164 181 0
163 179 0
159 177 0
163 181 0
168 185 0
172 191 0
164 180 0
165 183 0
172 195 0
171 194 0
174 197 0
173 197 0
175 197 0
172 195 0
172 195 0
173 196 0
169 192 0
171 194 0
174 196 0
172 195 0
173 195 0
176 197 0
173 195 0
171 194 0
169 191 0
171 193 0
172 194 0
173 195 0
177 198 0
173 195 0
172 194 0
175 197 0
172 194 0
171 193 0
176 198 0
170 193 0
175 196 0
172 194 0
175 196 44
175 197 67
174 196 36
174 196 51
179 199 88
181 200 95
177 197 84
178 198 80
179 199 95
179 199 99
174 194 72
177 197 88
176 197 57
176 197 62
170 192 57
173 194 51
171 192 25
173 194 76
174 194 36
176 196 67
177 196 62
171 192 67
168 190 25
174 193 44
174 195 67
173 193 57
176 196 72
171 191 62
173 193 62
176 195 72
173 193 84
174 194 99
174 194 80
165 184 67
169 189 67
172 192 72
169 189 51
173 192 51
170 189 72
166 186 36
162 183 0
169 188 0
164 184 0
166 185 0
166 186 0
163 182 0
165 184 0
166 185 0
166 186 0
165 185 0
166 186 0
163 182 0
161 180 0
162 181 0
161 179 0
162 181 0
160 181 0
158 178 0
160 181 0
156 176 0
158 177 0
164 183 0
155 175 0
164 185 0
164 183 0
159 180 0
158 179 0
162 181 0
153 173 0
153 173 0
156 175 0
160 179 0
153 174 0
163 183 0
155 175 0
151 171 0
158 179 0
155 175 0
156 176 0
154 175 0
154 174 0
155 176 0
156 177 0
153 174 0
155 176 0
153 174 0
154 175 0
156 176 0
149 169 0
153 174 0
147 168 0
148 169 0
146 167 0
148 167 0
144 165 0
151 171 0
157 178 0
142 163 0
155 176 0
154 175 0
148 168 0
149 170 0
155 175 0
145 166 0
149 170 0
147 168 0
144 165 0
150 172 0
145 166 0
151 173 0
142 164 0
143 165 0
154 175 0
144 165 0
155 175 0
136 157 0
144 165 0
136 157 0
134 155 0
144 165 0
142 163 0
128 148 0
147 167 0
134 155 0
136 157 0
137 157 0
123 142 0
144 164 0
140 161 0
132 154 0
135 154 0
136 157 0
148 168 0
134 153 0
130 149 0
122 142 0
122 142 0
134 155 0
132 153 0
131 150 0
125 146 0
133 153 0
111 129 0
123 141 0
125 145 0
118 136 0
129 147 0
125 144 0
119 138 0
118 137 0
125 145 0
122 140 0
115 134 0
120 138 0
123 143 0
110 128 0
121 140 0
113 132 0
115 134 0
119 136 0
116 135 0
106 125 0
124 144 0
116 133 0
103 121 0
116 134 0
113 130 0
112 128 0
106 123 0
124 141 0
116 134 0
120 138 0
112 129 0
106 122 0
116 131 0
104 122 0
118 135 0
108 125 0
111 130 0
109 125 0
93 110 0
106 123 0
114 131 0
115 133 0
109 126 0
113 129 0
109 124 0
116 132 0
113 128 0
109 126 0
123 140 0
119 135 0
116 133 0
118 136 0
123 141 0
120 138 0
115 131 0
120 136 0
113 129 0
127 144 0
117 133 0
120 135 0
129 145 0
115 131 0
111 127 0
131 148 0
127 143 0
130 145 0
127 144 0
124 141 0
128 144 0
118 134 0
126 141 0
125 139 0
128 144 0
119 134 0
123 137 0
119 134 0
119 134 0
127 141 0
130 147 0
128 143 0
124 140 0
127 142 0
130 145 0
131 146 0
123 136 0
125 139 0
127 140 0
121 135 0
120 134 0
128 142 0
128 140 0
130 144 0
127 141 0
122 135 0
122 138 0
124 137 0
126 139 0
131 144 0
128 142 0
124 137 0
126 139 0
125 137 0
126 136 0
127 136 0
125 137 0
129 142 0
111 122 0
128 138 0
107 119 0
123 132 0
110 117 0
121 130 0
129 136 0
120 128 0
120 124 0
129 136 0
126 133 0
123 130 0
132 138 0
130 136 0
119 125 0
117 120 0
124 130 0
118 123 0
117 120 0
115 117 0
113 120 0
121 125 0
115 117 0
112 112 0
116 118 0
114 115 0
112 115 0
110 109 0
109 106 0
113 113 0
113 114 0
95 91 0
99 96 0
111 112 0
107 106 0
105 100 0
103 101 0
100 93 0
102 97 0
93 88 0
100 99 0
96 91 0
94 85 0
104 95 0
104 99 0
92 82 0
99 96 0
100 95 0
97 90 0
101 93 0
105 99 0
90 78 0
97 88 0
91 84 0
99 89 11
101 97 0
87 79 11
85 77 11
97 90 0
82 72 0
87 77 22
87 81 0
96 86 11
93 83 11
89 79 0
91 80 0
98 89 16
93 83 11
95 88 16
87 79 0
102 93 16
101 93 19
105 96 16
98 90 16
95 87 19
91 80 16
107 98 25
101 92 19
97 89 11
104 96 19
114 103 19
86 77 0
92 83 19
108 100 19
104 97 0
107 103 22
117 113 11
124 121 22
128 132 16
134 137 16
140 147 19
143 153 11
154 163 0
159 167 0
157 168 0
158 171 0
156 167 0
156 168 0
155 167 0
157 168 0
154 164 0
159 173 0
158 171 0
159 172 0
156 170 0
160 174 0
163 177 0
162 177 0
165 178 0
164 180 0
166 182 0
159 173 0
164 182 0
165 182 0
163 176 0
162 178 0
166 182 0
168 185 0
162 180 0
165 182 0
164 181 0
166 181 0
173 195 0
171 194 0
172 195 0
173 196 0
174 196 0
175 197 0
171 193 0
173 196 0
171 194 0
174 196 0
172 194 0
172 195 0
174 196 0
174 196 0
170 193 0
175 197 0
173 196 0
174 196 0
174 197 0
171 194 0
174 195 0
173 194 0
169 191 0
172 194 0
172 194 0
171 193 0
173 194 0
173 195 0
174 195 0
172 194 0
170 191 0
174 195 0
173 194 0
173 194 0
172 194 0
173 193 0
171 192 0
172 194 0
174 194 0
170 191 0
170 191 0
172 192 25
172 192 36
175 194 67
174 194 72
174 194 67
174 193 76
175 194 88
174 193 67
177 196 80
172 191 57
174 194 76
170 190 62
180 199 92
173 193 80
176 195 80
170 191 57
175 195 62
173 192 36
168 188 36
160 180 25
170 189 0
170 190 0
167 187 0
165 185 0
166 187 0
170 189 0
167 186 0
166 185 0
166 186 0
166 186 0
168 188 0
162 182 0
163 182 0
166 186 0
165 185 0
163 182 0
161 181 0
165 184 0
156 176 0
165 184 0
163 183 0
162 181 0
160 180 0
160 179 0
162 182 0
165 185 0
160 180 0
158 177 0
166 186 0
161 180 0
151 171 0
158 177 0
159 179 0
154 174 0
157 177 0
158 179 0
159 179 0
156 176 0
155 175 0
152 173 0
158 179 0
160 180 0
150 171 0
154 174 0
155 175 0
147 167 0
150 171 0
154 174 0
149 170 0
153 174 0
153 174 0
151 172 0
153 175 0
153 174 0
154 175 0
149 170 0
155 175 0
150 170 0
151 172 0
154 174 0
153 175 0
148 168 0
151 171 0
150 171 0
150 171 0
150 172 0
148 169 0
143 164 0
154 175 0
158 179 0
148 169 0
150 172 0
145 166 0
149 170 0
140 161 0
146 167 0
152 173 0
144 165 0
143 164 0
146 166 0
142 163 0
143 164 0
140 161 0
144 165 0
140 161 0
145 168 0
141 161 0
138 160 0
146 167 0
140 161 0
137 157 0
144 165 0
138 158 0
149 171 0
135 155 0
127 147 0
135 155 0
139 158 0
128 149 0
133 153 0
137 157 0
137 159 0
143 163 0
133 153 0
133 153 0
133 152 0
139 160 0
130 150 0
116 136 0
118 138 0
124 144 0
130 148 0
129 150 0
126 145 0
130 150 0
125 144 0
118 136 0
134 153 0
118 136 0
116 135 0
124 143 0
124 142 0
127 145 0
119 139 0
123 143 0
126 145 0
114 134 0
120 138 0
118 137 0
127 145 0
108 127 0
108 126 0
133 150 0
118 136 0
120 139 0
110 126 0
118 135 0
113 131 0
103 120 0
112 130 0
110 127 0
118 136 0
120 139 0
119 137 0
118 135 0
116 134 0
118 136 0
109 127 0
113 131 0
117 133 0
111 127 0
118 135 0
112 129 0
115 132 0
111 129 0
114 129 0
122 141 0
123 141 0
124 141 0
106 122 0
118 136 0
124 140 0
114 131 0
120 136 0
105 123 0
114 132 0
115 133 0
124 139 0
122 139 0
125 143 0
129 145 0
123 139 0
115 132 0
119 133 0
133 150 0
123 141 0
129 145 0
111 126 0
115 130 0
128 145 0
129 145 0
127 142 0
124 140 0
128 142 0
123 138 0
118 135 0
112 130 0
128 144 0
113 128 0
128 142 0
130 148 0
135 151 0
138 156 0
130 146 0
130 146 0
129 143 0
124 139 0
133 147 0
124 137 0
126 139 0
133 148 0
119 132 0
134 147 0
128 141 0
131 145 0
126 139 0
123 135 0
124 137 0
124 135 0
126 139 0
130 143 0
133 145 0
135 149 0
123 135 0
134 145 0
130 138 0
122 133 0
134 147 0
123 132 0
126 138 0
130 139 0
122 129 0
116 124 0
125 136 0
131 141 0
122 134 0
122 130 0
124 131 0
125 132 0
122 127 0
123 129 0
131 138 0
128 132 0
115 119 0
117 121 0
124 131 0
114 118 0
119 122 0
119 124 0
122 126 0
130 133 0
113 113 0
128 130 0
114 114 0
120 120 0
115 117 0
107 104 0
116 116 0
108 105 0
123 125 0
123 124 0
113 112 0
101 102 0
105 100 0
113 111 0
102 97 0
101 97 0
107 105 0
107 103 0
111 111 0
110 106 0
94 88 0
99 96 0
106 102 0
107 104 0
105 99 0
105 100 0
113 110 0
109 103 0
104 103 0
109 107 0
105 100 0
111 108 0
101 94 0
107 101 0
109 102 0
120 116 0
116 115 0
112 111 0
116 112 0
118 115 0
111 106 16
108 101 16
108 102 0
118 114 0
121 120 0
119 115 0
116 110 16
113 110 11
120 116 11
119 117 0
120 120 11
117 116 0
119 118 0
123 123 11
121 121 11
134 134 16
136 140 0
138 142 11
138 141 0
139 142 0
144 149 0
147 153 0
153 161 0
148 157 0
147 152 0
152 162 0
152 160 0
147 154 0
150 157 0
152 161 0
157 167 0
153 162 0
158 170 0
155 166 0
154 164 0
157 168 0
155 167 0
156 168 0
161 173 0
159 170 0
159 172 0
160 172 0
158 171 0
162 175 0
157 171 0
165 178 0
161 176 0
162 177 0
162 177 0
163 177 0
159 174 0
165 179 0
165 181 0
164 181 0
167 186 0
168 185 0
161 177 0
165 184 0
174 196 0
173 196 0
171 195 0
174 197 0
175 197 0
172 195 0
173 196 0
175 197 0
171 194 0
174 196 0
173 196 0
174 197 0
174 196 0
174 196 0
172 195 0
171 193 0
174 195 0
173 195 0
172 194 0
172 194 0
172 195 0
175 196 0
173 195 0
172 195 0
174 195 0
171 193 0
168 190 0
170 192 0
172 194 0
174 195 0
169 191 0
173 194 0
170 192 0
172 194 0
170 190 0
174 195 0
173 193 0
173 193 0
167 189 0
171 191 0
173 193 0
174 195 0
168 189 0
170 190 0
174 194 0
170 190 0
173 194 0
173 193 0
172 192 0
176 195 0
169 189 0
171 191 0
172 191 0
168 187 0
172 191 0
168 187 0
168 187 0
163 183 0
168 189 0
166 187 0
164 184 0
171 191 0
170 190 0
167 186 0
165 185 0
168 188 0
167 187 0
165 184 0
166 185 0
168 188 0
170 189 0
169 188 0
157 176 0
164 184 0
167 186 0
166 185 0
165 185 0
162 181 0
164 183 0
154 174 0
164 183 0
162 182 0
161 181 0
164 183 0
158 178 0
164 183 0
165 184 0
158 178 0
156 175 0
157 176 0
161 182 0
152 173 0
163 182 0
158 178 0
159 179 0
152 173 0
156 176 0
152 172 0
157 178 0
161 181 0
151 172 0
150 171 0
150 170 0
156 176 0
159 179 0
153 174 0
156 178 0
154 174 0
163 183 0
155 176 0
156 177 0
151 171 0
158 179 0
163 184 0
155 176 0
157 177 0
155 176 0
156 176 0
154 173 0
153 174 0
154 175 0
142 163 0
150 171 0
157 177 0
156 177 0
149 170 0
142 163 0
152 173 0
148 170 0
154 175 0
154 175 0
145 166 0
144 165 0
138 160 0
134 156 0
150 173 0
145 166 0
142 164 0
137 159 0
144 165 0
138 159 0
144 165 0
141 163 0
146 168 0
145 166 0
145 165 0
142 163 0
137 158 0
142 164 0
140 161 0
143 163 0
145 165 0
144 165 0
140 161 0
136 157 0
136 156 0
147 168 0
125 146 0
131 150 0
139 159 0
139 159 0
129 149 0
129 149 0
135 155 0
126 146 0
132 152 0
135 154 0
136 156 0
141 161 0
136 158 0
122 142 0
134 155 0
123 142 0
114 134 0
126 145 0
118 138 0
123 143 0
134 153 0
130 148 0
124 143 0
129 148 0
130 150 0
119 139 0
124 143 0
121 139 0
127 145 0
124 143 0
117 134 0
129 148 0
126 146 0
120 138 0
119 137 0
111 130 0
120 139 0
127 146 0
118 137 0
109 127 0
122 141 0
113 129 0
107 126 0
115 134 0
117 136 0
114 131 0
110 127 0
110 127 0
114 133 0
118 136 0
114 131 0
110 129 0
117 135 0
111 130 0
125 143 0
129 147 0
115 131 0
123 142 0
107 124 0
124 142 0
118 135 0
115 133 0
119 135 0
123 140 0
117 133 0
126 143 0
116 135 0
114 131 0
111 127 0
130 146 0
120 137 0
127 144 0
123 139 0
132 150 0
121 138 0
121 138 0
128 146 0
127 145 0
124 140 0
126 144 0
124 140 0
131 147 0
115 130 0
133 148 0
132 146 0
128 144 0
113 128 0
127 143 0
137 154 0
122 139 0
135 152 0
129 144 0
127 144 0
133 149 0
125 140 0
132 148 0
130 145 0
131 146 0
122 139 0
139 157 0
130 143 0
122 139 0
137 152 0
127 140 0
137 153 0
123 135 0
126 140 0
134 149 0
129 143 0
131 144 0
132 147 0
135 151 0
131 143 0
124 137 0
133 146 0
119 132 0
122 134 0
135 149 0
126 138 0
138 150 0
127 140 0
128 141 0
138 150 0
120 131 0
124 133 0
126 136 0
122 133 0
125 136 0
123 134 0
124 133 0
130 139 0
123 132 0
135 140 0
127 133 0
133 139 0
125 132 0
123 129 0
124 133 0
125 129 0
118 127 0
112 118 0
123 128 0
137 142 0
128 133 0
116 118 0
116 119 0
126 132 0
120 125 0
115 119 0
125 124 0
124 124 0
123 125 0
102 102 0
112 113 0
115 115 0
127 130 0
123 123 0
119 118 0
113 112 0
112 110 0
107 102 0
110 110 0
115 111 0
101 98 0
107 104 0
113 110 0
106 103 0
115 109 0
107 104 0
108 106 0
103 99 0
95 93 0
116 111 0
101 95 0
113 110 0
109 105 0
108 104 0
116 113 0
108 102 0
113 111 0
116 113 0
115 112 0
115 113 0
116 113 0
127 125 0
125 121 0
120 116 0
120 120 0
123 117 0
124 122 0
132 129 0
133 134 0
140 140 0
128 127 0
131 133 0
127 125 0
134 133 0
140 142 0
140 142 0
145 148 0
142 144 0
140 142 0
139 142 0
144 149 0
142 147 0
149 158 0
145 152 0
151 159 0
151 156 0
149 155 0
137 142 0
147 154 0
152 161 0
158 166 0
153 163 0
149 158 0
159 171 0
154 163 0
157 167 0
156 165 0
158 168 0
155 165 0
151 162 0
160 172 0
159 172 0
163 176 0
160 173 0
164 177 0
151 161 0
164 176 0
163 176 0
165 183 0
163 177 0
164 180 0
158 172 0
159 174 0
155 169 0
160 174 0
164 178 0
166 180 0
165 182 0
159 172 0
165 180 0
172 196 0
172 195 0
172 195 0
175 197 0
171 194 0
171 194 0
174 195 0
175 197 0
171 193 0
171 193 0
171 194 0
171 193 0
171 193 0
175 197 0
173 195 0
174 196 0
170 193 0
170 192 0
173 195 0
171 194 0
172 194 0
172 194 0
171 193 0
170 192 0
172 193 0
171 192 0
171 192 0
176 197 0
167 188 0
171 193 0
169 190 0
173 194 0
168 190 0
174 195 0
167 188 0
171 191 0
173 193 0
170 191 0
171 193 0
172 193 0
174 194 0
173 194 0
173 192 0
174 195 0
174 194 0
171 191 0
167 187 0
170 191 0
174 194 0
172 192 0
168 188 0
170 190 0
170 190 0
172 192 0
170 190 0
166 187 0
164 184 0
171 191 0
170 189 0
169 188 0
169 189 0
168 187 0
166 185 0
166 186 0
162 181 0
162 183 0
164 184 0
170 190 0
160 180 0
166 186 0
171 190 0
163 183 0
163 184 0
161 181 0
163 183 0
161 181 0
163 183 0
166 186 0
164 185 0
157 177 0
164 184 0
165 184 0
153 173 0
159 179 0
164 184 0
162 182 0
162 181 0
163 182 0
159 179 0
163 182 0
159 180 0
156 177 0
158 179 0
158 179 0
159 179 0
151 171 0
157 179 0
162 181 0
150 169 0
159 178 0
158 178 0
150 170 0
163 183 0
158 178 0
152 173 0
160 180 0
157 177 0
151 172 0
148 170 0
149 170 0
156 177 0
150 172 0
154 175 0
150 170 0
146 168 0
151 171 0
146 166 0
151 172 0
157 178 0
149 170 0
154 175 0
153 174 0
151 173 0
150 171 0
154 175 0
150 172 0
154 175 0
150 171 0
149 170 0
151 172 0
145 165 0
152 174 0
148 170 0
153 175 0
146 167 0
143 164 0
151 173 0
151 172 0
149 170 0
149 170 0
146 167 0
151 172 0
142 163 0
147 169 0
138 159 0
142 164 0
146 166 0
140 161 0
152 174 0
144 165 0
139 160 0
139 160 0
136 157 0
148 170 0
134 156 0
136 156 0
136 156 0
139 159 0
133 154 0
136 155 0
135 155 0
127 147 0
139 160 0
136 157 0
129 149 0
139 158 0
139 160 0
139 159 0
140 160 0
134 154 0
129 149 0
129 149 0
134 154 0
131 151 0
120 140 0
133 153 0
135 155 0
127 147 0
116 135 0
117 137 0
124 143 0
135 156 0
129 148 0
120 140 0
119 138 0
130 150 0
116 135 0
116 134 0
120 139 0
130 149 0
114 132 0
121 140 0
114 131 0
100 120 0
108 128 0
113 131 0
111 129 0
126 144 0
122 142 0
116 136 0
129 146 0
122 141 0
123 140 0
117 136 0
121 139 0
124 142 0
123 140 0
116 134 0
120 137 0
117 133 0
119 136 0
120 137 0
116 132 0
121 139 0
119 135 0
119 138 0
122 138 0
119 137 0
118 134 0
121 138 0
128 143 0
125 144 0
119 137 0
114 130 0
116 133 0
130 151 0
130 149 0
118 135 0
120 137 0
114 131 0
116 133 0
116 131 0
127 143 0
134 151 0
113 129 0
111 127 0
122 139 0
131 149 0
128 144 0
122 137 0
113 127 0
126 141 0
124 141 0
123 138 0
130 147 0
129 145 0
128 143 0
127 142 0
123 138 0
128 144 0
134 151 0
121 136 0
127 142 0
134 149 0
123 138 0
130 146 0
128 143 0
131 145 0
132 148 0
138 155 0
134 148 0
132 147 0
137 153 0
129 147 0
131 146 0
130 146 0
129 143 0
125 139 0
134 149 0
136 149 0
132 146 0
134 146 0
130 142 0
139 152 0
127 142 0
145 158 0
135 148 0
132 146 0
133 146 0
131 142 0
121 130 0
130 139 0
127 139 0
132 144 0
133 142 0
126 137 0
126 134 0
134 147 0
131 140 0
133 141 0
130 140 0
119 127 0
116 123 0
125 132 0
130 138 0
132 140 0
132 139 0
121 129 0
113 120 0
118 121 0
130 133 0
119 121 0
117 122 0
118 121 0
120 122 0
124 129 0
125 132 0
122 126 0
123 128 0
128 130 0
119 122 0
120 121 0
131 134 0
117 118 0
118 117 0
117 117 0
118 120 0
114 109 0
115 116 0
109 103 0
112 109 0
122 123 0
104 104 0
112 109 0
111 109 0
112 109 0
113 110 0
109 107 0
116 112 0
120 120 0
108 106 0
117 115 0
106 101 0
103 96 0
114 113 0
120 115 0
108 104 0
111 109 0
119 118 0
121 119 0
115 110 0
113 111 0
120 115 0
117 112 0
123 121 0
124 122 0
125 123 0
118 116 0
116 114 0
125 124 0
126 124 0
140 141 0
135 137 0
129 133 0
139 142 0
141 144 0
137 137 0
142 144 0
143 147 0
144 148 0
142 144 0
145 150 0
145 149 0
150 156 0
150 155 0
144 149 0
154 160 0
148 154 0
148 155 0
148 156 0
155 164 0
152 156 0
152 161 0
152 160 0
149 159 0
160 171 0
151 161 0
155 165 0
158 172 0
157 167 0
153 164 0
161 175 0
151 163 0
157 172 0
156 168 0
152 164 0
154 167 0
156 166 0
160 173 0
159 173 0
162 176 0
164 179 0
164 177 0
159 173 0
160 175 0
165 180 0
165 179 0
167 183 0
160 175 0
166 181 0
174 197 0
172 195 0
169 192 0
171 194 0
173 196 0
174 196 0
172 194 0
171 194 0
173 196 0
174 196 0
173 195 0
171 193 0
173 194 0
173 195 0
171 193 0
173 195 0
174 196 0
171 194 0
171 193 0
173 195 0
173 194 0
171 193 0
169 190 0
172 194 0
171 193 0
174 195 0
170 191 0
175 196 0
171 193 0
169 190 0
171 193 0
171 192 0
173 195 0
172 193 0
173 194 0
172 192 0
174 196 0
170 191 0
171 191 0
171 192 0
169 189 0
173 192 0
173 193 0
169 189 0
170 190 0
173 193 0
167 188 0
169 189 0
172 192 0
168 188 0
168 188 0
172 192 0
167 188 0
165 186 0
170 190 0
169 188 0
167 187 0
167 186 0
168 188 0
169 190 0
169 189 0
167 186 0
168 187 0
169 188 0
168 187 0
167 187 0
167 187 0
166 186 0
168 188 0
167 187 0
168 188 0
166 186 0
164 184 0
160 180 0
166 186 0
168 188 0
155 175 0
165 185 0
161 180 0
163 183 0
164 184 0
161 181 0
163 183 0
162 181 0
154 174 0
164 183 0
164 184 0
158 179 0
162 183 0
156 177 0
162 182 0
162 182 0
162 183 0
157 178 0
156 176 0
160 181 0
161 182 0
160 180 0
158 179 0
157 178 0
159 178 0
159 180 0
154 174 0
149 169 0
158 178 0
158 179 0
158 179 0
159 180 0
163 184 0
161 182 0
156 177 0
152 173 0
156 177 0
149 170 0
153 175 0
147 168 0
153 174 0
155 175 0
139 161 0
152 173 0
150 170 0
148 169 0
146 168 0
151 172 0
153 174 0
145 166 0
146 168 0
156 178 0
146 167 0
151 172 0
154 175 0
155 176 0
145 167 0
147 169 0
152 173 0
144 165 0
148 170 0
153 175 0
149 171 0
150 172 0
141 164 0
144 166 0
146 168 0
142 163 0
144 164 0
143 165 0
149 171 0
148 168 0
145 166 0
143 164 0
138 160 0
138 160 0
141 162 0
144 164 0
140 160 0
141 162 0
150 170 0
135 156 0
136 158 0
140 160 0
133 154 0
138 159 0
143 164 0
137 157 0
134 155 0
134 154 0
134 154 0
137 158 0
124 145 0
128 148 0
135 155 0
139 159 0
132 152 0
130 149 0
127 147 0
126 146 0
133 153 0
130 149 0
126 146 0
124 143 0
130 151 0
123 141 0
134 153 0
132 153 0
119 138 0
112 130 0
119 138 0
123 142 0
118 137 0
124 142 0
122 140 0
124 143 0
119 137 0
123 143 0
118 137 0
116 135 0
117 135 0
119 138 0
115 133 0
127 146 0
125 143 0
128 145 0
125 143 0
130 148 0
115 134 0
124 143 0
121 141 0
123 138 0
109 128 0
122 139 0
125 144 0
118 136 0
130 149 0
119 137 0
107 125 0
123 140 0
119 137 0
124 143 0
124 141 0
119 136 0
128 146 0
123 140 0
120 139 0
132 149 0
121 138 0
122 141 0
124 140 0
128 145 0
117 133 0
121 137 0
125 139 0
124 142 0
125 141 0
135 155 0
123 139 0
114 132 0
125 143 0
129 147 0
131 148 0
122 138 0
123 141 0
126 143 0
121 136 0
129 144 0
122 135 0
122 137 0
137 155 0
139 155 0
133 149 0
124 142 0
129 145 0
136 152 0
118 133 0
132 147 0
129 145 0
136 153 0
131 146 0
135 150 0
136 151 0
121 135 0
132 148 0
138 152 0
130 145 0
120 136 0
138 153 0
127 141 0
132 146 0
138 154 0
134 150 0
121 135 0
136 151 0
119 134 0
137 150 0
136 152 0
136 149 0
134 149 0
126 138 0
134 149 0
135 146 0
137 151 0
132 143 0
130 143 0
127 138 0
127 135 0
117 125 0
131 144 0
128 138 0
125 135 0
129 138 0
125 134 0
133 144 0
130 142 0
121 131 0
124 133 0
130 136 0
125 133 0
127 135 0
141 149 0
130 137 0
131 137 0
125 132 0
127 132 0
134 141 0
119 126 0
121 123 0
124 129 0
121 124 0
116 118 0
119 119 0
122 126 0
117 121 0
113 118 0
120 123 0
120 120 0
124 126 0
129 135 0
122 124 0
127 130 0
113 118 0
125 126 0
119 117 0
126 128 0
123 125 0
119 115 0
122 120 0
110 106 0
114 111 0
126 126 0
104 102 0
111 109 0
114 113 0
106 102 0
114 111 0
118 113 0
113 112 0
119 115 0
112 110 0
109 108 0
112 106 0
123 119 0
117 111 0
124 124 0
121 117 0
116 113 0
130 130 0
125 122 0
131 128 0
124 121 0
132 132 0
118 117 0
123 120 0
118 115 0
129 127 0
138 140 0
143 142 0
139 141 0
137 140 0
136 137 0
134 137 0
143 145 0
141 143 0
142 144 0
139 144 0
149 153 0
143 149 0
148 155 0
146 151 0
146 153 0
151 153 0
149 157 0
147 152 0
149 156 0
147 154 0
145 155 0
156 162 0
155 164 0
160 169 0
156 166 0
160 172 0
150 161 0
158 169 0
151 160 0
164 174 0
159 170 0
160 173 0
158 169 0
156 168 0
152 164 0
163 176 0
159 171 0
160 172 0
163 176 0
159 174 0
159 174 0
165 181 0
167 184 0
160 175 0
161 176 0
161 176 0
161 173 0
173 196 0
171 193 0
173 196 0
174 197 0
175 196 0
169 191 0
174 196 0
172 194 0
172 195 0
172 195 0
173 194 0
173 195 0
172 194 0
170 192 0
172 193 0
173 196 0
173 195 0
174 195 0
173 194 0
177 198 0
169 191 0
172 194 0
169 191 0
173 194 0
174 195 0
173 193 0
173 194 0
173 195 0
174 195 0
172 193 0
172 193 0
174 194 0
176 196 0
172 193 0
171 192 0
170 191 0
175 195 0
171 192 0
173 193 0
172 193 0
170 191 0
173 193 0
166 187 0
175 195 0
173 194 0
168 188 0
170 191 0
169 190 0
167 187 0
167 187 0
170 190 0
170 191 0
171 190 0
173 193 0
170 191 0
170 190 0
168 188 0
164 183 0
168 188 0
164 183 0
170 190 0
165 184 0
169 189 0
169 189 0
170 190 0
164 184 0
165 185 0
162 182 0
167 186 0
158 177 0
165 185 0
165 185 0
162 182 0
166 186 0
161 180 0
168 187 0
164 184 0
166 186 0
160 180 0
163 184 0
164 184 0
169 188 0
167 187 0
161 181 0
163 183 0
160 181 0
162 183 0
161 180 0
162 182 0
161 182 0
160 180 0
165 185 0
158 179 0
158 178 0
156 176 0
157 178 0
152 173 0
157 178 0
162 183 0
163 183 0
161 182 0
153 174 0
147 168 0
148 169 0
156 176 0
156 176 0
162 183 0
149 171 0
154 175 0
151 171 0
158 179 0
162 183 0
154 175 0
151 172 0
150 171 0
153 174 0
151 172 0
153 175 0
152 172 0
154 175 0
152 173 0
148 170 0
156 177 0
162 183 0
146 168 0
156 177 0
147 168 0
148 170 0
153 176 0
147 169 0
141 163 0
148 170 0
146 167 0
144 165 0
154 176 0
148 170 0
141 162 0
143 163 0
144 165 0
151 173 0
147 167 0
144 164 0
136 158 0
142 163 0
148 170 0
145 166 0
152 172 0
147 168 0
145 166 0
153 174 0
147 168 0
141 163 0
139 160 0
150 170 0
141 162 0
133 153 0
138 160 0
139 159 0
132 153 0
141 162 0
130 150 0
139 159 0
132 152 0
135 156 0
138 157 0
142 163 0
139 160 0
137 158 0
130 151 0
133 152 0
133 153 0
125 146 0
144 165 0
132 152 0
130 149 0
133 153 0
121 140 0
131 152 0
131 151 0
135 155 0
126 146 0
136 156 0
124 144 0
143 163 0
132 152 0
127 148 0
115 134 0
128 147 0
128 148 0
125 145 0
127 148 0
118 137 0
125 144 0
125 144 0
123 143 0
130 149 0
123 141 0
127 146 0
126 144 0
115 135 0
144 163 0
123 141 0
131 149 0
107 124 0
119 138 0
116 133 0
126 144 0
125 143 0
126 144 0
113 130 0
128 147 0
121 140 0
131 149 0
120 138 0
123 140 0
118 136 0
125 142 0
109 127 0
124 142 0
109 127 0
134 151 0
123 141 0
128 146 0
123 141 0
131 148 0
113 130 0
127 145 0
134 150 0
119 136 0
126 144 0
130 146 0
120 137 0
123 141 0
126 144 0
133 152 0
130 148 0
127 146 0
131 149 0
129 147 0
135 152 0
129 148 0
128 147 0
126 143 0
128 145 0
129 146 0
130 147 0
127 146 0
132 149 0
128 145 0
134 150 0
128 145 0
126 142 0
128 146 0
134 150 0
128 144 0
137 152 0
119 130 0
131 149 0
128 144 0
120 133 0
124 142 0
129 143 0
132 147 0
136 153 0
129 144 0
143 159 0
128 141 0
143 159 0
139 155 0
117 130 0
128 139 0
138 153 0
137 149 0
118 131 0
134 149 0
133 146 0
128 140 0
131 143 0
137 149 0
131 143 0
144 159 0
131 144 0
132 145 0
141 154 0
130 141 0
133 146 0
137 146 0
123 130 0
136 145 0
118 127 0
131 139 0
132 141 0
129 138 0
122 130 0
137 147 0
127 137 0
132 139 0
116 122 0
122 130 0
125 131 0
136 145 0
124 130 0
127 135 0
120 125 0
122 126 0
126 131 0
128 133 0
128 133 0
128 134 0
123 124 0
133 139 0
121 126 0
131 135 0
125 129 0
122 123 0
119 122 0
118 117 0
124 126 0
133 135 0
116 115 0
117 119 0
121 121 0
116 115 0
123 126 0
118 115 0
111 108 0
120 120 0
117 115 0
117 115 0
124 121 0
118 116 0
125 122 0
124 121 0
120 119 0
125 126 0
115 112 0
115 111 0
120 117 0
122 118 0
125 128 0
116 114 0
122 121 0
141 139 0
116 113 0
133 133 0
123 122 0
124 120 0
116 115 0
125 123 0
125 123 0
132 132 0
133 134 0
127 125 0
134 136 0
138 138 0
134 134 0
140 143 0
131 130 0
140 143 0
140 147 0
133 136 0
134 138 0
144 148 0
142 145 0
138 141 0
145 149 0
147 152 0
152 159 0
145 150 0
146 153 0
150 159 0
152 162 0
156 166 0
149 156 0
151 158 0
152 160 0
150 159 0
150 157 0
155 164 0
152 159 0
163 175 0
160 174 0
155 167 0
157 167 0
154 167 0
162 174 0
159 169 0
158 171 0
161 174 0
163 175 0
156 168 0
157 169 0
156 167 0
157 169 0
165 178 0
157 172 0
160 176 0
163 178 0
160 176 0
159 171 0
175 197 0
172 195 0
173 196 0
171 193 0
171 193 0
172 193 0
169 192 0
172 194 0
170 192 0
171 192 0
174 196 0
174 196 0
171 193 0
173 195 0
172 194 0
173 195 0
173 194 0
171 192 0
170 191 0
169 190 0
175 195 0
175 196 0
174 195 0
173 194 0
173 194 0
171 192 0
172 194 0
173 193 0
174 194 0
174 195 0
173 194 0
171 193 0
173 193 0
176 196 0
171 192 0
171 191 0
167 188 0
172 192 0
171 192 0
172 193 0
171 191 0
170 191 0
170 190 0
170 191 0
171 191 0
173 192 0
172 193 0
172 192 0
173 193 0
172 192 0
170 189 0
170 191 0
171 191 0
168 189 0
163 183 0
166 186 0
169 189 0
171 191 0
168 188 0
167 188 0
169 188 0
169 188 0
163 183 0
167 188 0
164 185 0
164 184 0
163 183 0
163 182 0
164 184 0
165 185 0
161 181 0
161 181 0
165 185 0
164 184 0
164 184 0
166 186 0
160 182 0
165 186 0
162 182 0
166 186 0
165 185 0
165 185 0
160 180 0
158 177 0
159 179 0
164 185 0
166 187 0
155 175 0
164 184 0
158 178 0
157 177 0
162 182 0
156 175 0
159 179 0
163 183 0
158 178 0
156 177 0
152 172 0
152 173 0
152 172 0
155 177 0
158 179 0
162 182 0
159 179 0
156 177 0
157 178 0
154 174 0
153 174 0
156 177 0
161 182 0
153 174 0
152 172 0
158 180 0
159 180 0
152 173 0
154 174 0
154 176 0
147 169 0
147 168 0
151 173 0
152 174 0
148 169 0
146 168 0
150 172 0
154 176 0
150 171 0
142 163 0
154 176 0
143 164 0
150 173 0
158 180 0
145 166 0
146 169 0
150 172 0
149 171 0
148 169 0
146 167 0
144 164 0
136 158 0
151 173 0
148 170 0
139 160 0
150 171 0
147 168 0
153 174 0
141 162 0
145 166 0
152 173 0
138 160 0
145 167 0
141 162 0
143 163 0
140 163 0
143 164 0
145 165 0
143 164 0
145 167 0
139 160 0
140 161 0
146 167 0
137 158 0
138 158 0
133 155 0
132 154 0
136 155 0
130 150 0
133 154 0
132 153 0
135 157 0
142 163 0
134 155 0
140 161 0
132 152 0
119 139 0
133 153 0
129 148 0
138 159 0
134 155 0
138 159 0
133 153 0
126 146 0
128 147 0
130 150 0
125 145 0
129 148 0
135 155 0
129 148 0
128 148 0
124 144 0
124 143 0
128 148 0
131 151 0
129 147 0
119 138 0
123 143 0
119 138 0
128 147 0
126 146 0
126 146 0
121 139 0
124 141 0
125 144 0
131 150 0
127 146 0
122 141 0
117 135 0
122 140 0
123 141 0
124 142 0
113 132 0
121 139 0
124 142 0
124 142 0
126 145 0
129 147 0
131 148 0
116 135 0
119 138 0
121 141 0
128 147 0
121 138 0
128 146 0
130 149 0
115 132 0
118 134 0
124 143 0
120 138 0
129 146 0
131 149 0
130 148 0
127 144 0
124 141 0
124 141 0
127 146 0
128 148 0
125 142 0
113 130 0
126 143 0
134 152 0
126 145 0
131 149 0
131 149 0
131 150 0
126 143 0
130 144 0
135 153 0
123 141 0
131 148 0
129 143 0
125 139 0
141 157 0
130 147 0
130 146 0
142 158 0
126 143 0
129 146 0
123 137 0
125 139 0
132 148 0
128 146 0
134 150 0
139 153 0
129 145 0
139 153 0
141 157 0
133 148 0
135 151 0
133 147 0
132 147 0
129 141 0
132 150 0
131 148 0
137 151 0
127 141 0
129 143 0
121 132 0
119 132 0
129 142 0
141 155 0
132 145 0
137 151 0
135 148 0
128 143 0
149 163 0
134 141 0
133 145 0
130 139 0
135 148 0
129 140 0
131 141 0
135 146 0
123 131 0
124 131 0
116 130 0
131 141 0
135 143 0
122 128 0
125 133 0
129 136 0
134 139 0
124 129 0
133 142 0
123 129 0
135 143 0
124 129 0
131 137 0
125 128 0
126 130 0
129 134 0
133 139 0
123 127 0
131 137 0
117 118 0
126 134 0
126 132 0
128 131 0
120 122 0
123 125 0
125 126 0
126 128 0
131 137 0
122 126 0
122 123 0
130 133 0
128 129 0
121 120 0
120 120 0
114 112 0
116 117 0
125 126 0
118 116 0
127 125 0
107 105 0
121 121 0
124 126 0
118 116 0
123 122 0
122 122 0
125 125 0
112 111 0
128 125 0
125 123 0
123 122 0
127 128 0
121 120 0
131 130 0
121 122 0
131 130 0
134 136 0
134 136 0
126 125 0
134 134 0
128 128 0
145 146 0
139 142 0
137 136 0
144 145 0
138 140 0
135 137 0
139 140 0
136 141 0
142 145 0
141 145 0
143 145 0
136 139 0
145 147 0
134 138 0
145 152 0
143 149 0
140 143 0
144 150 0
146 153 0
150 156 0
147 152 0
140 148 0
153 162 0
149 155 0
150 157 0
155 166 0
147 153 0
156 165 0
150 158 0
152 158 0
156 165 0
158 169 0
158 168 0
156 167 0
153 163 0
159 170 0
157 169 0
152 166 0
156 167 0
157 170 0
161 174 0
163 177 0
159 174 0
163 175 0
159 173 0
163 178 0
156 170 0
172 194 0
171 193 0
171 194 0
171 193 0
173 194 0
171 193 0
172 193 0
174 196 0
171 193 0
172 194 0
172 194 0
171 193 0
173 195 0
174 195 0
173 194 0
175 196 0
172 194 0
173 194 0
172 193 0
172 194 0
173 195 0
173 194 0
176 197 0
173 194 0
170 192 0
175 195 0
170 190 0
172 194 0
173 194 0
173 193 0
167 188 0
170 191 0
167 188 0
170 192 0
172 192 0
171 192 0
170 190 0
171 191 0
169 189 0
168 188 0
169 189 0
174 195 0
167 188 0
172 192 0
167 186 0
170 190 0
169 189 0
170 191 0
169 189 0
171 190 0
170 189 0
170 190 0
164 183 0
165 186 0
167 187 0
167 188 0
167 186 0
168 188 0
172 192 0
169 189 0
162 181 0
169 188 0
170 189 0
165 185 0
165 185 0
163 184 0
161 180 0
167 187 0
164 184 0
168 188 0
168 187 0
167 188 0
165 186 0
165 186 0
163 183 0
165 185 0
167 187 0
162 182 0
158 178 0
163 183 0
159 179 0
168 189 0
166 186 0
160 181 0
166 186 0
160 180 0
163 183 0
160 180 0
156 177 0
161 181 0
156 178 0
158 179 0
159 179 0
154 175 0
151 172 0
155 176 0
154 175 0
157 178 0
153 173 0
164 185 0
151 173 0
151 172 0
154 175 0
154 174 0
153 174 0
162 183 0
162 183 0
156 176 0
151 172 0
158 179 0
158 179 0
151 172 0
155 176 0
157 178 0
152 173 0
152 173 0
149 170 0
154 176 0
142 164 0
153 175 0
153 174 0
141 161 0
160 182 0
152 174 0
155 178 0
152 173 0
155 176 0
154 176 0
146 168 0
142 163 0
150 172 0
142 164 0
153 175 0
147 169 0
152 173 0
151 172 0
147 169 0
150 171 0
153 174 0
146 166 0
153 175 0
144 165 0
145 165 0
139 159 0
138 159 0
142 164 0
155 176 0
142 163 0
143 164 0
145 167 0
140 161 0
148 170 0
143 164 0
141 162 0
139 161 0
142 163 0
138 160 0
139 160 0
136 157 0
143 165 0
132 153 0
142 163 0
140 160 0
139 160 0
129 150 0
138 159 0
146 166 0
137 157 0
144 165 0
139 160 0
143 164 0
138 159 0
129 150 0
144 165 0
135 156 0
133 154 0
132 152 0
131 153 0
129 149 0
124 143 0
142 163 0
133 153 0
133 154 0
121 142 0
133 153 0
132 152 0
139 159 0
131 151 0
119 137 0
117 138 0
124 144 0
141 161 0
129 146 0
124 143 0
122 139 0
127 146 0
135 156 0
135 154 0
131 150 0
126 146 0
130 149 0
130 148 0
132 151 0
119 140 0
125 144 0
125 144 0
127 146 0
131 149 0
134 152 0
125 144 0
129 147 0
126 145 0
132 152 0
123 142 0
133 152 0
122 140 0
128 145 0
122 139 0
119 136 0
127 145 0
122 140 0
132 149 0
135 154 0
132 151 0
132 151 0
123 140 0
127 144 0
129 147 0
130 147 0
126 144 0
137 156 0
137 154 0
130 147 0
127 145 0
122 139 0
123 141 0
134 151 0
127 145 0
132 150 0
136 154 0
126 143 0
121 139 0
139 157 0
131 148 0
134 151 0
139 157 0
139 158 0
140 159 0
136 152 0
130 149 0
126 143 0
129 146 0
146 165 0
128 146 0
133 150 0
136 154 0
134 150 0
142 157 0
137 153 0
131 146 0
131 146 0
132 148 0
129 145 0
131 146 0
136 152 0
135 150 0
131 145 0
139 153 0
133 149 0
134 151 0
144 158 0
133 147 0
133 147 0
129 146 0
140 154 0
145 161 0
136 152 0
137 151 0
122 138 0
137 151 0
138 155 0
136 150 0
132 145 0
141 155 0
139 152 0
134 147 0
129 143 0
137 149 0
126 138 0
132 144 0
136 147 0
128 139 0
131 140 0
138 147 0
131 142 0
129 140 0
122 130 0
139 151 0
136 146 0
130 137 0
134 142 0
128 135 0
129 137 0
136 145 0
125 134 0
123 129 0
126 134 0
134 143 0
130 136 0
126 134 0
132 138 0
139 143 0
124 127 0
115 118 0
132 138 0
130 133 0
129 134 0
121 123 0
126 128 0
125 125 0
130 134 0
125 125 0
120 123 0
134 137 0
122 123 0
127 128 0
131 131 0
131 130 0
121 120 0
122 122 0
125 126 0
119 117 0
124 124 0
118 120 0
128 128 0
111 107 0
118 115 0
138 142 0
126 125 0
129 130 0
119 118 0
128 128 0
124 125 0
126 124 0
130 132 0
136 138 0
129 129 0
129 127 0
127 128 0
137 139 0
138 141 0
137 141 0
139 140 0
130 130 0
131 132 0
128 128 0
137 139 0
142 145 0
133 134 0
144 149 0
142 145 0
137 142 0
145 150 0
138 140 0
142 145 0
145 148 0
144 148 0
141 146 0
139 143 0
154 160 0
143 146 0
144 150 0
144 148 0
154 162 0
140 144 0
151 160 0
152 160 0
143 151 0
152 160 0
154 163 0
147 153 0
154 163 0
148 156 0
146 154 0
160 172 0
152 162 0
155 167 0
154 165 0
159 172 0
155 166 0
165 179 0
160 174 0
159 174 0
161 177 0
160 172 0
158 172 0
159 172 0
154 167 0
165 181 0
161 174 0
171 194 0
173 195 0
174 196 0
171 193 0
173 195 0
171 194 0
174 196 0
173 196 0
173 195 0
174 196 0
173 196 0
172 193 0
174 194 0
174 196 0
170 192 0
173 194 0
172 194 0
173 195 0
171 193 0
175 196 0
173 194 0
170 192 0
171 193 0
172 193 0
172 193 0
171 192 0
170 191 0
174 195 0
171 193 0
171 192 0
169 190 0
168 189 0
171 192 0
172 193 0
172 192 0
167 188 0
168 189 0
172 192 0
174 195 0
172 193 0
171 191 0
170 191 0
171 191 0
171 191 0
170 190 0
170 189 0
168 189 0
168 188 0
172 191 0
166 186 0
173 193 0
172 193 0
172 192 0
170 190 0
170 190 0
171 191 0
167 187 0
167 188 0
171 191 0
164 183 0
162 182 0
168 188 0
169 188 0
169 188 0
169 190 0
165 186 0
166 186 0
164 184 0
161 181 0
162 183 0
165 185 0
162 182 0
165 186 0
164 184 0
163 184 0
162 183 0
165 186 0
164 184 0
163 184 0
162 183 0
162 183 0
160 181 0
166 185 0
161 182 0
159 179 0
153 174 0
159 178 0
157 177 0
164 185 0
158 179 0
161 182 0
161 181 0
161 182 0
154 175 0
158 178 0
159 179 0
158 178 0
153 174 0
151 171 0
159 179 0
160 180 0
149 171 0
155 175 0
154 175 0
152 173 0
154 175 0
160 181 0
159 180 0
159 180 0
154 175 0
158 179 0
158 179 0
149 170 0
155 176 0
152 173 0
152 173 0
155 178 0
153 173 0
157 180 0
149 170 0
154 175 0
152 174 0
154 175 0
149 169 0
155 177 0
152 174 0
146 168 0
155 177 0
153 175 0
142 163 0
150 173 0
144 166 0
154 176 0
147 169 0
149 170 0
145 166 0
147 168 0
134 155 0
149 171 0
142 163 0
144 165 0
150 172 0
141 161 0
145 167 0
147 169 0
147 168 0
148 171 0
149 170 0
144 166 0
143 163 0
148 169 0
143 163 0
144 165 0
144 167 0
141 163 0
148 169 0
148 169 0
140 161 0
138 159 0
140 161 0
146 167 0
146 167 0
134 155 0
140 161 0
131 151 0
126 146 0
139 159 0
129 149 0
134 155 0
120 141 0
138 158 0
139 160 0
133 153 0
133 154 0
137 158 0
138 157 0
137 157 0
130 151 0
134 153 0
131 151 0
139 159 0
129 148 0
136 157 0
128 149 0
133 153 0
140 162 0
134 154 0
133 153 0
142 162 0
128 148 0
124 144 0
132 151 0
127 147 0
133 153 0
132 152 0
138 158 0
120 139 0
116 136 0
131 150 0
138 159 0
129 148 0
111 130 0
123 143 0
122 142 0
127 146 0
135 153 0
127 147 0
136 158 0
127 145 0
133 152 0
135 155 0
130 148 0
130 147 0
137 156 0
123 142 0
131 150 0
126 145 0
130 149 0
129 146 0
132 150 0
123 141 0
129 147 0
132 149 0
123 141 0
124 143 0
140 159 0
120 139 0
121 138 0
120 137 0
127 146 0
132 152 0
138 157 0
121 140 0
138 157 0
137 154 0
131 149 0
125 143 0
136 155 0
141 160 0
133 151 0
131 148 0
127 146 0
126 142 0
133 151 0
135 152 0
131 148 0
137 155 0
128 144 0
128 144 0
125 143 0
130 148 0
131 148 0
142 159 0
133 149 0
130 144 0
123 137 0
139 157 0
143 160 0
133 149 0
124 138 0
134 151 0
135 153 0
134 150 0
136 152 0
135 151 0
135 151 0
145 161 0
132 148 0
141 158 0
134 148 0
138 151 0
133 149 0
146 160 0
138 153 0
132 144 0
133 148 0
137 151 0
142 156 0
139 153 0
129 141 0
125 139 0
134 149 0
143 156 0
140 153 0
137 149 0
135 148 0
140 152 0
136 151 0
128 139 0
142 155 0
138 151 0
132 144 0
138 151 0
132 143 0
134 143 0
138 148 0
139 150 0
131 141 0
137 149 0
130 140 0
130 141 0
131 139 0
137 145 0
133 144 0
136 145 0
135 144 0
128 137 0
129 136 0
121 126 0
133 140 0
127 133 0
129 135 0
130 136 0
124 128 0
128 135 0
131 136 0
128 132 0
131 139 0
127 131 0
119 123 0
126 130 0
125 131 0
134 137 0
139 142 0
127 131 0
135 137 0
128 131 0
117 118 0
126 127 0
127 126 0
126 127 0
129 132 0
121 124 0
125 126 0
128 128 0
126 128 0
124 126 0
131 134 0
134 135 0
122 122 0
130 133 0
129 132 0
120 117 0
132 131 0
126 127 0
122 122 0
130 131 0
130 132 0
135 136 0
136 136 0
134 134 0
129 128 0
132 132 0
130 130 0
136 137 0
140 143 0
143 147 0
133 134 0
143 146 0
133 131 0
134 138 0
138 141 0
142 142 0
145 151 0
144 147 0
140 141 0
149 154 0
146 150 0
137 140 0
148 153 0
146 151 0
144 148 0
147 154 0
140 142 0
147 154 0
146 155 0
147 154 0
149 159 0
151 157 0
147 153 0
149 156 0
145 153 0
154 164 0
148 156 0
154 165 0
159 169 0
156 165 0
157 169 0
156 164 0
152 163 0
160 173 0
155 163 0
155 167 0
154 164 0
160 174 0
161 175 0
161 175 0
159 171 0
161 175 0
155 170 0
172 194 0
174 196 0
174 196 0
173 195 0
172 195 0
171 193 0
172 194 0
172 194 0
174 195 0
171 193 0
175 196 0
172 194 0
173 194 0
171 192 0
171 193 0
171 193 0
167 189 0
175 196 0
173 194 0
173 195 0
173 193 0
172 193 0
171 192 0
172 194 0
171 192 0
171 193 0
169 190 0
166 187 0
169 191 0
168 189 0
170 192 0
175 195 0
171 191 0
171 191 0
172 193 0
168 188 0
172 193 0
171 191 0
170 191 0
170 190 0
170 190 0
174 195 0
173 193 0
169 190 0
175 195 0
170 189 0
164 183 0
168 188 0
171 192 0
167 187 0
172 192 0
165 186 0
167 187 0
165 185 0
167 188 0
170 190 0
168 188 0
169 189 0
160 180 0
168 188 0
169 189 0
166 187 0
167 187 0
163 183 0
163 183 0
164 185 0
163 184 0
170 190 0
161 181 0
165 185 0
166 186 0
164 184 0
166 186 0
159 179 0
161 181 0
159 180 0
161 182 0
168 189 0
166 186 0
161 181 0
162 182 0
158 178 0
165 186 0
159 180 0
162 182 0
160 181 0
159 180 0
156 177 0
160 182 0
162 183 0
157 177 0
159 180 0
160 181 0
154 175 0
158 179 0
163 184 0
160 182 0
151 171 0
153 174 0
156 177 0
154 174 0
161 181 0
159 180 0
154 175 0
157 179 0
162 183 0
153 174 0
160 181 0
159 180 0
153 175 0
153 175 0
151 172 0
151 171 0
158 179 0
149 171 0
160 181 0
150 171 0
161 184 0
145 166 0
152 172 0
142 164 0
147 169 0
151 173 0
156 178 0
157 179 0
154 177 0
155 176 0
149 170 0
152 174 0
155 177 0
141 162 0
145 168 0
145 167 0
151 171 0
150 171 0
141 164 0
146 168 0
149 170 0
149 169 0
143 164 0
150 172 0
140 162 0
145 165 0
138 160 0
147 168 0
141 163 0
146 168 0
136 157 0
135 157 0
150 172 0
144 165 0
140 161 0
148 170 0
146 167 0
140 162 0
144 165 0
149 171 0
150 172 0
149 170 0
146 167 0
144 166 0
138 159 0
142 163 0
153 174 0
138 159 0
139 160 0
130 152 0
138 159 0
132 154 0
136 156 0
132 153 0
134 154 0
143 165 0
133 154 0
132 152 0
143 165 0
136 157 0
136 158 0
136 158 0
132 152 0
134 154 0
138 158 0
131 151 0
136 158 0
136 155 0
127 147 0
136 157 0
123 143 0
134 153 0
121 140 0
129 149 0
134 153 0
137 157 0
132 153 0
131 151 0
130 150 0
131 152 0
130 151 0
127 147 0
130 148 0
135 156 0
128 146 0
135 155 0
119 140 0
135 155 0
130 148 0
126 145 0
131 151 0
145 163 0
138 157 0
129 148 0
117 137 0
125 145 0
129 148 0
134 155 0
134 151 0
126 145 0
137 156 0
139 159 0
124 141 0
126 144 0
134 153 0
129 148 0
122 139 0
126 142 0
128 146 0
132 151 0
136 155 0
131 149 0
137 153 0
138 157 0
135 154 0
128 145 0
131 150 0
136 152 0
127 145 0
131 149 0
126 142 0
142 162 0
136 154 0
126 142 0
129 145 0
126 144 0
129 145 0
134 153 0
129 145 0
122 138 0
133 149 0
127 144 0
126 141 0
135 151 0
139 155 0
142 157 0
135 152 0
136 153 0
126 141 0
135 153 0
130 145 0
134 151 0
138 153 0
140 157 0
137 154 0
137 152 0
136 150 0
137 155 0
143 159 0
143 159 0
138 154 0
143 162 0
138 155 0
132 149 0
137 153 0
131 147 0
138 152 0
141 156 0
133 146 0
138 153 0
132 144 0
134 147 0
136 147 0
129 142 0
130 145 0
140 154 0
136 149 0
130 140 0
137 151 0
142 156 0
136 147 0
129 142 0
131 142 0
131 147 0
124 135 0
130 141 0
132 141 0
135 146 0
136 147 0
127 138 0
129 139 0
124 135 0
132 142 0
134 143 0
133 142 0
139 149 0
133 141 0
130 135 0
132 141 0
135 143 0
137 145 0
129 139 0
138 146 0
136 140 0
128 135 0
127 134 0
129 136 0
137 144 0
134 141 0
138 144 0
135 141 0
133 141 0
130 137 0
130 133 0
139 142 0
122 126 0
126 130 0
134 137 0
135 140 0
128 134 0
133 136 0
130 133 0
124 124 0
138 139 0
131 135 0
124 127 0
127 129 0
128 129 0
121 122 0
128 130 0
130 133 0
126 124 0
140 144 0
131 131 0
136 135 0
134 132 0
126 127 0
126 126 0
136 138 0
133 136 0
139 142 0
140 142 0
128 127 0
136 138 0
136 135 0
140 143 0
137 141 0
135 137 0
144 145 0
139 140 0
132 133 0
137 139 0
133 135 0
140 143 0
140 145 0
143 146 0
143 146 0
142 144 0
139 142 0
145 148 0
147 153 0
142 147 0
144 152 0
154 160 0
140 145 0
143 148 0
152 158 0
137 141 0
142 145 0
149 158 0
146 154 0
146 153 0
150 159 0
150 158 0
157 167 0
153 161 0
152 161 0
157 166 0
153 161 0
153 160 0
158 169 0
137 144 0
152 161 0
153 162 0
158 169 0
155 165 0
156 166 0
161 173 0
161 173 0
164 177 0
159 171 0
162 176 0
159 170 0
175 197 0
175 196 0
175 197 0
173 195 0
174 195 0
175 196 0
173 195 0
171 193 0
172 193 0
172 194 0
172 194 0
173 195 0
172 193 0
171 192 0
173 194 0
170 192 0
171 193 0
172 193 0
173 195 0
174 196 0
170 191 0
171 192 0
171 193 0
173 194 0
169 190 0
172 193 0
170 192 0
173 193 0
174 195 0
173 194 0
168 190 0
168 189 0
171 191 0
168 189 0
174 195 0
176 196 0
172 193 0
171 191 0
172 193 0
170 191 0
174 193 0
170 190 0
174 194 0
166 188 0
169 188 0
170 190 0
169 189 0
167 187 0
168 188 0
171 192 0
169 189 0
169 189 0
172 192 0
167 187 0
168 188 0
167 186 0
164 184 0
167 188 0
172 193 0
165 186 0
164 185 0
166 186 0
167 186 0
169 189 0
163 183 0
162 183 0
166 186 0
159 180 0
165 186 0
165 185 0
165 185 0
163 182 0
162 182 0
162 182 0
165 186 0
162 182 0
167 187 0
158 178 0
160 181 0
165 186 0
161 181 0
164 185 0
159 180 0
156 177 0
159 180 0
161 182 0
160 181 0
164 187 0
155 175 0
162 183 0
159 180 0
156 177 0
157 178 0
154 174 0
157 178 0
158 179 0
155 176 0
161 182 0
160 181 0
157 178 0
167 188 0
151 172 0
153 175 0
151 172 0
157 179 0
150 171 0
153 174 0
157 178 0
153 174 0
151 173 0
162 183 0
154 175 0
152 173 0
154 176 0
153 175 0
144 165 0
153 175 0
158 180 0
153 175 0
157 179 0
156 177 0
158 178 0
156 177 0
157 179 0
142 163 0
148 169 0
148 170 0
147 168 0
146 167 0
156 178 0
148 170 0
152 174 0
146 167 0
153 174 0
148 169 0
151 172 0
147 169 0
150 171 0
151 173 0
151 173 0
155 177 0
140 161 0
147 168 0
142 164 0
151 171 0
149 170 0
144 165 0
144 165 0
150 171 0
147 169 0
141 162 0
151 173 0
151 172 0
148 170 0
141 162 0
138 159 0
146 168 0
149 170 0
142 164 0
146 168 0
146 168 0
142 163 0
146 167 0
144 164 0
147 168 0
134 155 0
142 161 0
136 157 0
133 152 0
141 163 0
137 157 0
135 157 0
143 164 0
136 157 0
133 153 0
134 155 0
133 154 0
143 164 0
129 150 0
132 151 0
147 166 0
137 158 0
129 149 0
127 148 0
134 153 0
129 150 0
139 159 0
134 155 0
134 155 0
136 158 0
122 140 0
135 155 0
121 141 0
131 152 0
134 154 0
135 154 0
134 154 0
129 149 0
130 150 0
131 151 0
132 151 0
120 140 0
127 147 0
128 146 0
128 147 0
127 147 0
125 145 0
125 145 0
135 154 0
122 141 0
128 146 0
131 150 0
137 156 0
128 147 0
121 140 0
129 147 0
134 152 0
129 148 0
124 141 0
135 153 0
137 156 0
123 142 0
134 153 0
132 150 0
131 149 0
125 143 0
126 144 0
126 146 0
143 162 0
128 149 0
134 152 0
134 152 0
133 152 0
131 148 0
135 151 0
138 156 0
132 152 0
127 145 0
129 147 0
138 158 0
137 156 0
127 146 0
136 155 0
133 149 0
130 145 0
144 162 0
134 151 0
126 144 0
141 159 0
141 158 0
132 149 0
142 158 0
139 157 0
132 149 0
138 156 0
131 148 0
140 157 0
124 142 0
143 162 0
139 156 0
125 141 0
146 163 0
131 148 0
137 154 0
140 155 0
139 154 0
135 150 0
135 153 0
136 153 0
140 158 0
133 149 0
135 150 0
140 156 0
133 147 0
130 145 0
138 154 0
121 136 0
137 152 0
132 146 0
132 148 0
142 156 0
135 150 0
139 152 0
137 149 0
144 158 0
147 159 0
137 148 0
147 159 0
135 146 0
142 156 0
143 157 0
132 145 0
137 150 0
135 147 0
129 137 0
129 141 0
140 154 0
130 140 0
132 144 0
129 139 0
132 144 0
138 147 0
136 146 0
128 134 0
132 141 0
139 148 0
138 147 0
131 142 0
128 134 0
136 144 0
139 148 0
131 139 0
133 141 0
131 139 0
132 137 0
141 150 0
135 141 0
145 153 0
129 135 0
137 146 0
133 139 0
138 143 0
135 140 0
125 129 0
128 132 0
137 143 0
131 134 0
130 134 0
137 142 0
135 139 0
127 128 0
128 132 0
131 132 0
142 148 0
135 137 0
129 132 0
134 138 0
134 138 0
131 133 0
128 130 0
132 134 0
134 134 0
130 131 0
132 135 0
118 116 0
135 139 0
126 126 0
131 137 0
136 138 0
135 136 0
140 144 0
128 127 0
125 124 0
143 144 0
140 143 0
133 136 0
135 135 0
130 132 0
138 142 0
137 141 0
142 145 0
133 135 0
143 148 0
141 147 0
148 154 0
141 146 0
147 151 0
140 143 0
148 153 0
143 148 0
142 145 0
142 147 0
148 155 0
148 154 0
148 154 0
149 155 0
144 150 0
153 162 0
144 150 0
152 162 0
149 157 0
153 161 0
144 152 0
155 164 0
149 156 0
152 162 0
147 154 0
157 167 0
154 167 0
147 156 0
145 154 0
155 163 0
163 175 0
154 163 0
164 178 0
155 165 0
159 172 0
154 163 0
159 170 0
164 179 0
173 195 0
173 194 0
173 194 0
173 194 0
171 192 0
173 195 0
171 193 0
174 196 0
170 192 0
174 195 0
172 194 0
171 193 0
175 196 0
170 191 0
174 195 0
168 189 0
172 194 0
171 193 0
172 193 0
172 193 0
171 193 0
169 190 0
171 192 0
170 192 0
175 195 0
171 193 0
170 191 0
174 194 0
172 192 0
168 190 0
170 190 0
173 194 0
172 192 0
173 193 0
169 190 0
166 187 0
170 192 0
173 194 0
171 191 0
171 193 0
171 191 0
171 191 0
172 192 0
170 191 0
169 189 0
165 185 0
173 193 0
169 190 0
169 189 0
167 188 0
169 191 0
169 190 0
165 187 0
169 190 0
168 187 0
168 188 0
168 188 0
171 191 0
165 186 0
162 182 0
171 193 0
166 188 0
168 188 0
169 190 0
166 186 0
161 180 0
163 183 0
164 184 0
163 184 0
158 179 0
163 183 0
155 176 0
166 187 0
164 185 0
160 181 0
161 182 0
164 185 0
148 169 0
163 184 0
164 184 0
162 183 0
161 182 0
163 183 0
161 182 0
158 179 0
164 185 0
162 183 0
161 182 0
154 175 0
161 182 0
152 173 0
164 185 0
159 181 0
152 172 0
158 178 0
155 177 0
163 184 0
154 176 0
159 180 0
159 181 0
150 172 0
159 180 0
152 173 0
156 178 0
154 176 0
160 182 0
161 182 0
156 177 0
151 172 0
158 179 0
153 175 0
157 179 0
149 170 0
160 182 0
155 177 0
158 180 0
153 176 0
150 172 0
156 178 0
149 170 0
155 177 0
152 173 0
154 176 0
157 177 0
151 172 0
155 177 0
152 173 0
149 171 0
154 176 0
147 169 0
152 173 0
144 165 0
152 175 0
148 170 0
156 178 0
156 177 0
143 166 0
142 164 0
148 168 0
145 166 0
151 173 0
146 167 0
145 166 0
148 170 0
140 162 0
146 168 0
142 163 0
142 163 0
144 166 0
145 166 0
146 167 0
154 175 0
152 174 0
141 163 0
150 172 0
136 158 0
148 170 0
137 158 0
142 164 0
134 156 0
139 160 0
138 158 0
141 162 0
147 167 0
141 162 0
138 159 0
138 160 0
136 157 0
132 152 0
133 155 0
146 168 0
134 155 0
134 154 0
142 164 0
139 161 0
127 149 0
142 162 0
141 161 0
144 167 0
135 155 0
135 156 0
133 154 0
136 156 0
137 157 0
134 156 0
122 143 0
125 145 0
130 151 0
135 156 0
126 147 0
130 150 0
135 154 0
133 152 0
131 151 0
129 148 0
135 155 0
130 150 0
132 152 0
127 145 0
128 147 0
134 154 0
126 145 0
136 153 0
128 149 0
141 162 0
129 149 0
122 142 0
134 153 0
136 155 0
137 157 0
118 138 0
140 159 0
130 149 0
132 150 0
134 154 0
132 152 0
139 159 0
126 146 0
124 144 0
135 154 0
123 142 0
131 151 0
125 143 0
126 143 0
134 154 0
130 150 0
133 153 0
131 149 0
141 160 0
128 148 0
135 155 0
128 146 0
129 148 0
136 156 0
130 148 0
137 154 0
132 152 0
135 154 0
133 150 0
134 152 0
139 159 0
131 150 0
137 156 0
135 152 0
128 147 0
142 161 0
138 157 0
129 147 0
143 161 0
136 154 0
141 157 0
136 153 0
128 146 0
132 151 0
136 153 0
137 154 0
138 154 0
127 142 0
136 152 0
143 159 0
140 157 0
146 163 0
129 146 0
128 146 0
140 157 0
137 155 0
139 157 0
136 152 0
144 160 0
141 158 0
136 151 0
137 153 0
137 152 0
130 144 0
136 149 0
138 153 0
140 156 0
137 151 0
146 159 0
136 151 0
139 152 0
132 146 0
139 153 0
145 159 0
145 159 0
133 149 0
138 151 0
139 153 0
127 139 0
132 145 0
141 155 0
139 154 0
143 157 0
133 145 0
134 147 0
134 147 0
142 154 0
134 147 0
140 151 0
135 146 0
135 146 0
141 151 0
141 152 0
140 152 0
140 151 0
143 155 0
135 145 0
128 138 0
138 146 0
134 144 0
128 134 0
130 138 0
137 145 0
137 142 0
136 144 0
138 146 0
133 137 0
142 150 0
128 134 0
126 132 0
132 140 0
139 147 0
127 129 0
136 140 0
140 148 0
133 139 0
140 145 0
131 135 0
136 140 0
135 139 0
135 137 0
139 143 0
141 146 0
138 142 0
133 136 0
131 133 0
135 142 0
124 128 0
137 139 0
131 133 0
132 134 0
127 127 0
118 120 0
132 136 0
132 134 0
127 127 0
139 144 0
140 142 0
140 144 0
132 137 0
136 137 0
146 147 0
129 129 0
144 151 0
137 140 0
141 146 0
143 148 0
140 143 0
135 137 0
150 152 0
145 148 0
140 143 0
142 146 0
134 137 0
142 148 0
146 150 0
140 145 0
138 142 0
143 147 0
154 162 0
152 159 0
142 147 0
143 145 0
148 156 0
144 147 0
144 150 0
147 151 0
145 152 0
152 161 0
151 159 0
148 153 0
156 166 0
149 157 0
154 160 0
156 165 0
154 163 0
159 169 0
155 165 0
147 153 0
157 168 0
154 165 0
149 156 0
158 168 0
157 167 0
158 169 0
155 166 0
153 164 0
154 164 0
158 170 0
164 176 0
173 194 0
174 195 0
173 195 0
173 194 0
171 194 0
171 192 0
175 196 0
166 188 0
171 192 0
172 193 0
173 194 0
172 194 0
170 192 0
175 196 0
169 191 0
174 195 0
172 193 0
171 192 0
170 191 0
173 194 0
171 194 0
173 195 0
171 192 0
171 192 0
175 196 0
171 192 0
171 191 0
173 194 0
170 191 0
168 189 0
172 193 0
171 190 0
170 192 0
173 193 0
169 190 0
169 190 0
172 193 0
169 191 0
168 188 0
172 192 0
169 189 0
168 188 0
171 192 0
168 189 0
166 187 0
170 190 0
170 190 0
168 188 0
171 191 0
166 186 0
166 187 0
162 184 0
165 185 0
164 186 0
168 189 0
159 180 0
170 190 0
166 187 0
167 188 0
159 180 0
167 188 0
169 190 0
167 188 0
161 182 0
169 189 0
163 184 0
159 180 0
167 187 0
163 183 0
164 184 0
168 188 0
161 182 0
168 189 0
166 187 0
164 184 0
162 183 0
157 177 0
164 185 0
154 175 0
161 183 0
164 185 0
154 174 0
156 178 0
164 185 0
160 181 0
161 183 0
158 179 0
162 182 0
163 184 0
160 181 0
153 174 0
161 183 0
151 171 0
162 183 0
162 183 0
158 179 0
153 173 0
155 176 0
156 177 0
154 176 0
154 176 0
158 179 0
152 174 0
154 176 0
159 180 0
149 170 0
148 169 0
150 171 0
155 176 0
156 178 0
152 173 0
150 172 0
159 180 0
152 173 0
162 184 0
144 166 0
149 171 0
150 171 0
156 178 0
154 175 0
152 174 0
149 172 0
153 176 0
149 171 0
154 177 0
147 169 0
148 170 0
154 177 0
151 173 0
147 168 0
155 176 0
152 174 0
149 170 0
157 180 0
152 174 0
149 171 0
153 176 0
146 168 0
150 172 0
145 166 0
151 172 0
150 173 0
148 169 0
148 171 0
152 174 0
152 174 0
137 158 0
142 164 0
151 173 0
146 169 0
138 159 0
140 161 0
139 160 0
142 164 0
133 155 0
146 168 0
144 165 0
131 151 0
143 165 0
145 166 0
138 159 0
147 168 0
146 167 0
147 169 0
145 168 0
130 150 0
143 163 0
153 174 0
135 156 0
133 155 0
141 162 0
142 162 0
141 161 0
137 157 0
129 148 0
137 158 0
134 153 0
137 157 0
146 168 0
132 153 0
134 155 0
139 160 0
137 158 0
148 170 0
135 155 0
131 152 0
139 158 0
140 160 0
136 156 0
141 162 0
133 154 0
133 153 0
135 155 0
129 148 0
124 144 0
124 143 0
133 154 0
134 154 0
129 149 0
139 159 0
129 150 0
134 154 0
128 147 0
137 157 0
137 157 0
144 163 0
129 147 0
131 152 0
129 149 0
139 158 0
136 156 0
134 154 0
135 156 0
133 152 0
139 157 0
143 163 0
128 145 0
131 150 0
132 152 0
130 148 0
138 157 0
139 157 0
133 152 0
141 160 0
141 161 0
137 156 0
130 149 0
139 158 0
141 161 0
133 152 0
140 158 0
133 151 0
129 147 0
135 152 0
131 150 0
133 151 0
127 144 0
132 151 0
141 160 0
124 143 0
134 153 0
138 156 0
136 155 0
140 157 0
127 144 0
132 151 0
128 143 0
140 157 0
136 154 0
143 161 0
145 163 0
135 152 0
132 148 0
135 153 0
140 157 0
145 162 0
134 151 0
139 156 0
147 162 0
129 147 0
142 159 0
142 159 0
142 159 0
142 158 0
136 152 0
138 154 0
144 160 0
130 145 0
140 156 0
143 162 0
142 159 0
142 158 0
138 154 0
145 163 0
139 155 0
135 150 0
136 151 0
136 150 0
127 143 0
133 147 0
145 160 0
138 153 0
146 161 0
137 151 0
135 149 0
143 156 0
131 143 0
133 147 0
148 161 0
151 166 0
139 154 0
144 159 0
132 143 0
136 148 0
139 150 0
131 142 0
129 141 0
141 153 0
137 149 0
138 153 0
141 152 0
135 146 0
141 152 0
137 151 0
136 148 0
140 152 0
140 151 0
132 143 0
140 151 0
133 143 0
123 132 0
135 146 0
132 141 0
144 154 0
135 144 0
132 143 0
133 142 0
132 137 0
136 145 0
136 143 0
145 155 0
142 149 0
138 147 0
135 142 0
138 145 0
134 137 0
138 144 0
134 143 0
133 137 0
127 130 0
128 132 0
130 133 0
145 149 0
138 143 0
139 145 0
130 133 0
137 142 0
126 129 0
131 132 0
139 143 0
142 143 0
135 136 0
139 141 0
126 130 0
134 139 0
144 149 0
129 131 0
132 133 0
133 138 0
137 140 0
144 145 0
132 134 0
135 136 0
142 146 0
129 128 0
145 149 0
142 148 0
136 140 0
140 145 0
142 147 0
140 143 0
134 137 0
132 132 0
139 142 0
145 149 0
144 149 0
137 141 0
139 141 0
146 149 0
143 148 0
146 152 0
149 157 0
148 155 0
147 154 0
143 149 0
141 146 0
138 143 0
150 156 0
143 147 0
146 153 0
151 160 0
142 149 0
152 161 0
154 162 0
150 160 0
153 163 0
151 156 0
150 159 0
154 163 0
157 167 0
155 164 0
159 169 0
155 167 0
155 167 0
161 173 0
161 174 0
156 167 0
152 163 0
155 167 0
163 174 0
173 195 0
174 196 0
173 194 0
174 196 0
170 191 0
175 196 0
171 193 0
173 194 0
175 196 0
170 191 0
172 193 0
173 195 0
177 198 0
171 192 0
173 194 0
175 196 0
171 192 0
167 188 0
171 192 0
172 192 0
175 196 0
172 193 0
174 195 0
172 193 0
171 192 0
174 194 0
168 189 0
168 190 0
169 189 0
167 189 0
169 189 0
170 191 0
167 187 0
170 190 0
169 191 0
171 192 0
169 189 0
170 190 0
170 191 0
171 192 0
170 191 0
168 188 0
169 190 0
173 194 0
172 193 0
169 189 0
170 191 0
165 187 0
168 188 0
173 193 0
168 189 0
175 196 0
168 188 0
164 185 0
166 187 0
169 190 0
166 187 0
165 185 0
164 185 0
165 186 0
161 182 0
166 186 0
165 186 0
162 182 0
169 190 0
164 185 0
166 187 0
159 180 0
159 178 0
159 180 0
157 178 0
160 181 0
169 190 0
165 186 0
162 183 0
164 185 0
162 183 0
163 184 0
164 186 0
161 182 0
165 186 0
158 179 0
160 181 0
160 181 0
159 180 0
158 179 0
160 181 0
161 182 0
153 175 0
158 179 0
163 184 0
157 178 0
153 175 0
149 171 0
154 176 0
161 182 0
156 178 0
155 176 0
158 180 0
156 178 0
154 176 0
155 177 0
149 170 0
162 184 0
162 184 0
155 177 0
161 183 0
164 187 0
154 176 0
155 177 0
153 175 0
152 175 0
155 177 0
158 180 0
152 174 0
149 171 0
155 177 0
151 173 0
147 169 0
151 173 0
159 180 0
148 171 0
154 176 0
151 173 0
157 179 0
150 173 0
146 169 0
149 169 0
145 167 0
155 176 0
152 174 0
153 175 0
141 163 0
146 169 0
151 172 0
151 172 0
148 170 0
148 170 0
152 174 0
150 173 0
154 176 0
155 178 0
147 170 0
155 176 0
158 180 0
157 179 0
141 163 0
148 169 0
147 169 0
144 165 0
148 169 0
141 161 0
142 163 0
147 169 0
137 158 0
143 165 0
139 160 0
142 164 0
133 154 0
141 163 0
144 165 0
136 156 0
141 163 0
144 165 0
140 160 0
134 155 0
133 154 0
145 167 0
145 166 0
143 163 0
130 150 0
144 166 0
146 168 0
149 168 0
140 161 0
139 159 0
136 158 0
147 167 0
141 161 0
135 155 0
138 159 0
143 162 0
136 156 0
138 159 0
138 159 0
137 159 0
140 161 0
136 156 0
138 158 0
136 157 0
129 150 0
137 156 0
134 154 0
136 155 0
131 152 0
142 162 0
134 155 0
137 158 0
142 163 0
131 151 0
127 148 0
135 155 0
130 150 0
133 152 0
126 146 0
135 154 0
129 149 0
126 147 0
135 155 0
135 155 0
132 152 0
129 148 0
140 159 0
126 146 0
137 157 0
140 161 0
134 152 0
134 153 0
133 153 0
127 145 0
138 156 0
136 157 0
131 149 0
128 146 0
134 154 0
140 161 0
141 159 0
135 155 0
131 151 0
130 149 0
119 136 0
132 151 0
131 149 0
134 154 0
130 149 0
132 148 0
135 154 0
134 153 0
135 153 0
143 162 0
136 155 0
129 147 0
143 162 0
133 150 0
132 148 0
128 147 0
139 158 0
140 161 0
139 157 0
141 160 0
137 155 0
138 155 0
137 155 0
139 158 0
133 150 0
146 164 0
146 164 0
127 146 0
137 156 0
136 153 0
128 145 0
136 154 0
141 159 0
141 159 0
140 157 0
139 154 0
144 161 0
138 154 0
153 174 0
145 165 0
142 158 0
142 160 0
134 149 0
144 161 0
142 158 0
138 152 0
130 148 0
139 155 0
139 154 0
138 154 0
142 156 0
142 157 0
144 156 0
145 159 0
132 146 0
142 159 0
133 146 0
139 152 0
143 159 0
141 153 0
137 152 0
129 143 0
138 153 0
139 153 0
138 151 0
139 151 0
140 151 0
130 142 0
133 146 0
138 149 0
138 149 0
139 153 0
127 135 0
141 152 0
134 145 0
145 157 0
134 145 0
142 154 0
136 145 0
132 144 0
133 144 0
135 146 0
149 161 0
137 147 0
140 151 0
133 140 0
141 150 0
132 140 0
138 145 0
129 137 0
139 146 0
137 143 0
138 145 0
142 148 0
132 139 0
138 144 0
142 149 0
134 142 0
130 138 0
137 144 0
130 135 0
132 139 0
136 141 0
135 142 0
144 151 0
138 143 0
138 143 0
143 149 0
139 148 0
122 126 0
134 140 0
143 148 0
131 136 0
131 136 0
143 148 0
134 140 0
140 144 0
133 136 0
135 136 0
134 139 0
132 135 0
132 134 0
143 148 0
133 136 0
145 152 0
131 134 0
136 137 0
144 147 0
141 145 0
134 138 0
137 141 0
139 145 0
139 143 0
138 140 0
142 145 0
140 144 0
139 140 0
144 151 0
146 152 0
147 152 0
147 155 0
146 151 0
143 149 0
141 145 0
138 142 0
142 149 0
148 152 0
148 155 0
156 165 0
141 146 0
147 155 0
154 163 0
149 156 0
154 161 0
157 166 0
152 159 0
153 161 0
147 156 0
156 163 0
157 169 0
152 162 0
155 168 0
156 165 0
153 164 0
155 167 0
160 175 0
151 161 0
155 166 0
161 171 0
157 166 0
171 193 0
172 194 0
176 198 0
172 194 0
171 192 0
172 193 0
171 193 0
171 192 0
172 193 0
170 191 0
171 193 0
173 195 0
173 194 0
172 193 0
172 193 0
173 194 0
175 197 0
172 193 0
168 189 0
169 191 0
172 194 0
172 193 0
168 188 0
175 197 0
172 193 0
172 193 0
173 193 0
168 189 0
172 193 0
172 192 0
172 193 0
167 188 0
172 192 0
167 187 0
170 190 0
168 188 0
170 191 0
172 192 0
176 196 0
169 190 0
169 189 0
168 188 0
168 188 0
171 192 0
167 189 0
167 188 0
168 189 0
167 189 0
171 192 0
167 188 0
169 190 0
166 187 0
167 188 0
166 187 0
170 190 0
164 184 0
164 184 0
162 183 0
162 183 0
167 188 0
160 180 0
164 185 0
169 190 0
158 180 0
165 185 0
164 185 0
160 181 0
164 186 0
165 185 0
163 185 0
161 182 0
157 178 0
166 187 0
165 185 0
163 184 0
162 183 0
157 178 0
157 179 0
165 185 0
161 182 0
166 187 0
159 180 0
157 177 0
165 185 0
164 185 0
153 175 0
158 179 0
160 182 0
157 178 0
157 179 0
153 174 0
164 185 0
160 182 0
163 185 0
157 180 0
155 177 0
158 180 0
153 175 0
155 177 0
155 177 0
158 181 0
154 174 0
162 183 0
156 178 0
155 176 0
147 169 0
154 175 0
162 184 0
156 179 0
153 174 0
157 177 0
153 174 0
160 181 0
157 179 0
148 170 0
150 172 0
156 178 0
157 179 0
158 181 0
145 167 0
152 174 0
152 174 0
150 172 0
155 179 0
152 174 0
153 175 0
151 172 0
148 169 0
145 167 0
143 165 0
155 178 0
148 170 0
148 170 0
141 164 0
151 171 0
155 177 0
150 171 0
153 175 0
157 178 0
153 175 0
150 172 0
151 173 0
145 166 0
152 173 0
155 177 0
140 161 0
149 171 0
144 164 0
153 175 0
154 175 0
138 160 0
149 170 0
150 172 0
144 165 0
145 166 0
144 165 0
142 164 0
136 157 0
137 156 0
144 164 0
144 166 0
136 156 0
148 169 0
147 169 0
154 176 0
139 159 0
148 169 0
149 171 0
140 160 0
142 161 0
134 154 0
145 165 0
146 166 0
144 165 0
140 161 0
142 163 0
144 164 0
146 167 0
133 154 0
138 159 0
143 164 0
134 154 0
130 151 0
139 159 0
133 154 0
124 145 0
139 160 0
142 163 0
135 154 0
138 159 0
137 157 0
136 156 0
140 161 0
139 159 0
136 156 0
142 163 0
143 163 0
142 162 0
138 159 0
143 164 0
131 150 0
141 162 0
128 150 0
134 155 0
135 154 0
140 158 0
145 165 0
134 153 0
133 153 0
134 154 0
148 167 0
132 152 0
125 145 0
141 161 0
139 159 0
145 165 0
138 157 0
135 154 0
140 159 0
141 161 0
146 166 0
142 161 0
130 151 0
133 152 0
136 156 0
136 154 0
137 156 0
136 156 0
134 153 0
129 145 0
132 151 0
139 160 0
145 164 0
131 150 0
133 152 0
131 150 0
134 153 0
140 161 0
149 167 0
139 157 0
135 156 0
144 162 0
144 162 0
134 153 0
139 157 0
140 159 0
141 161 0
138 155 0
139 156 0
140 158 0
137 155 0
135 153 0
140 159 0
136 153 0
138 157 0
145 165 0
139 155 0
140 158 0
148 164 0
140 158 0
141 158 0
134 150 0
130 148 0
144 161 0
142 158 0
143 162 0
138 155 0
142 160 0
144 160 0
142 159 0
147 165 0
132 149 0
141 158 0
132 146 0
133 149 0
140 156 0
133 148 0
141 158 0
142 158 0
142 157 0
144 162 0
138 153 0
138 153 0
137 152 0
136 151 0
137 152 0
143 156 0
136 151 0
146 161 0
138 151 0
134 148 0
144 156 0
139 154 0
143 157 0
143 160 0
144 158 0
137 150 0
136 150 0
142 156 0
140 153 0
137 148 0
143 157 0
141 152 0
140 153 0
131 142 0
128 142 0
141 153 0
136 145 0
144 158 0
141 149 0
144 156 0
133 145 0
140 149 0
135 144 0
135 142 0
138 147 0
142 151 0
136 144 0
144 152 0
137 147 0
139 146 0
135 145 0
141 149 0
135 143 0
140 147 0
130 136 0
140 151 0
143 152 0
138 144 0
136 144 0
138 144 0
134 142 0
135 142 0
138 143 0
138 146 0
129 135 0
137 143 0
142 148 0
141 146 0
131 139 0
135 140 0
133 137 0
140 146 0
138 142 0
140 146 0
141 146 0
139 143 0
140 144 0
137 140 0
139 145 0
138 142 0
141 145 0
143 148 0
140 146 0
139 142 0
136 142 0
143 144 0
142 144 0
138 142 0
145 151 0
142 148 0
138 143 0
140 144 0
143 149 0
139 145 0
147 155 0
140 145 0
147 154 0
145 152 0
139 144 0
146 148 0
132 136 0
147 154 0
145 149 0
135 140 0
149 154 0
152 159 0
145 150 0
150 158 0
153 161 0
149 155 0
147 156 0
158 168 0
152 158 0
149 157 0
153 162 0
148 155 0
156 164 0
153 159 0
150 158 0
151 160 0
165 179 0
161 171 0
157 168 0
159 172 0
152 160 0
152 164 0
154 165 0
155 165 0
155 162 0
174 196 0
172 192 0
175 196 0
172 193 0
173 194 0
171 193 0
172 193 0
173 195 0
174 196 0
171 191 0
171 193 0
174 195 0
173 194 0
170 192 0
170 191 0
172 194 0
174 195 0
172 194 0
172 193 0
170 191 0
169 190 0
168 189 0
170 192 0
171 192 0
168 189 0
170 190 0
170 191 0
174 193 0
171 191 0
173 194 0
172 193 0
170 191 0
172 192 0
170 191 0
173 194 0
169 189 0
167 188 0
173 193 0
172 192 0
165 186 0
167 188 0
166 188 0
168 188 0
170 191 0
168 190 0
169 190 0
166 187 0
167 188 0
169 189 0
166 186 0
168 189 0
167 187 0
170 191 0
166 187 0
169 191 0
158 179 0
167 188 0
162 183 0
161 182 0
170 190 0
165 187 0
165 185 0
166 186 0
160 182 0
162 183 0
162 183 0
165 186 0
165 186 0
161 182 0
165 185 0
163 185 0
157 178 0
163 184 0
161 184 0
167 188 0
165 187 0
167 188 0
163 185 0
161 182 0
165 185 0
161 182 0
165 186 0
158 180 0
157 177 0
163 184 0
159 180 0
162 182 0
161 183 0
157 178 0
165 186 0
159 180 0
156 177 0
158 179 0
159 181 0
162 184 0
161 183 0
158 180 0
152 174 0
151 172 0
158 180 0
155 176 0
161 182 0
159 180 0
157 179 0
162 184 0
156 177 0
162 184 0
150 171 0
150 171 0
160 182 0
154 176 0
152 173 0
157 179 0
149 172 0
153 174 0
160 182 0
153 175 0
161 183 0
156 178 0
160 183 0
148 170 0
155 176 0
157 178 0
159 180 0
154 177 0
155 177 0
153 175 0
145 167 0
143 164 0
151 172 0
149 171 0
156 178 0
145 167 0
149 171 0
152 174 0
148 169 0
154 176 0
152 173 0
155 176 0
153 175 0
142 164 0
152 173 0
149 170 0
150 171 0
147 170 0
150 172 0
149 170 0
140 161 0
152 173 0
150 171 0
157 179 0
148 171 0
142 164 0
146 167 0
146 169 0
148 170 0
139 161 0
147 169 0
143 165 0
141 164 0
146 167 0
138 160 0
146 167 0
142 165 0
144 165 0
148 169 0
141 162 0
150 171 0
139 160 0
149 170 0
142 165 0
136 158 0
142 163 0
134 155 0
138 159 0
148 168 0
132 153 0
137 158 0
143 164 0
143 164 0
140 161 0
140 161 0
148 169 0
140 161 0
145 166 0
136 157 0
133 155 0
140 161 0
137 159 0
143 164 0
127 148 0
137 157 0
141 161 0
138 158 0
139 161 0
139 159 0
134 153 0
133 153 0
141 163 0
141 160 0
146 167 0
150 170 0
136 156 0
138 158 0
140 160 0
145 165 0
145 165 0
135 155 0
146 167 0
138 158 0
133 153 0
137 158 0
136 156 0
150 170 0
135 155 0
132 150 0
135 156 0
137 158 0
139 158 0
138 158 0
134 151 0
142 161 0
140 159 0
134 154 0
128 148 0
135 155 0
144 163 0
134 153 0
133 152 0
136 156 0
138 158 0
130 150 0
135 154 0
138 157 0
140 157 0
130 149 0
140 158 0
141 160 0
132 150 0
140 160 0
142 162 0
141 161 0
145 165 0
142 160 0
139 158 0
144 163 0
131 150 0
132 149 0
134 151 0
136 154 0
139 158 0
149 169 0
138 157 0
140 158 0
135 153 0
145 164 0
143 162 0
142 159 0
138 157 0
133 150 0
140 156 0
133 151 0
138 156 0
141 160 0
133 149 0
144 163 0
140 160 0
134 151 0
140 158 0
140 156 0
145 163 0
131 148 0
141 158 0
144 161 0
137 153 0
141 159 0
139 155 0
137 155 0
141 155 0
135 151 0
148 165 0
141 156 0
142 158 0
147 164 0
138 154 0
146 165 0
134 150 0
140 155 0
139 153 0
134 147 0
145 160 0
144 160 0
148 164 0
146 159 0
140 150 0
138 151 0
137 152 0
133 147 0
140 154 0
138 152 0
143 157 0
138 151 0
142 155 0
134 146 0
140 153 0
135 146 0
137 149 0
139 153 0
135 146 0
144 156 0
145 154 0
145 155 0
144 154 0
136 145 0
139 151 0
138 147 0
139 149 0
134 147 0
139 149 0
140 152 0
135 143 0
142 149 0
130 138 0
145 152 0
139 147 0
137 147 0
126 132 0
143 152 0
133 139 0
134 144 0
139 150 0
138 141 0
141 149 0
144 151 0
140 147 0
137 144 0
147 154 0
136 141 0
143 151 0
139 143 0
138 144 0
142 150 0
139 144 0
128 131 0
135 137 0
144 150 0
138 146 0
138 142 0
141 147 0
147 154 0
137 140 0
128 130 0
139 144 0
139 143 0
143 148 0
139 142 0
131 132 0
140 143 0
145 152 0
139 143 0
143 150 0
140 144 0
140 146 0
141 146 0
144 149 0
149 155 0
144 149 0
151 157 0
144 149 0
142 146 0
148 155 0
148 154 0
145 153 0
139 143 0
153 161 0
148 156 0
150 155 0
150 157 0
148 154 0
150 156 0
151 159 0
154 162 0
148 156 0
155 163 0
151 159 0
155 163 0
145 152 0
152 158 0
153 163 0
144 148 0
153 161 0
153 163 0
152 162 0
157 168 0
157 167 0
153 165 0
154 165 0
150 160 0
154 163 0
153 165 0
174 195 0
174 196 0
171 194 0
168 190 0
171 193 0
169 191 0
171 192 0
174 195 0
175 197 0
169 191 0
173 194 0
173 195 0
170 192 0
173 194 0
171 192 0
168 190 0
170 192 0
171 193 0
171 192 0
168 189 0
167 188 0
170 192 0
172 193 0
173 194 0
167 189 0
168 188 0
167 188 0
170 191 0
165 186 0
171 190 0
172 193 0
170 190 0
172 194 0
175 197 0
171 192 0
166 187 0
168 189 0
172 193 0
165 186 0
172 192 0
171 191 0
168 189 0
168 189 0
166 187 0
169 189 0
165 186 0
170 190 0
168 188 0
169 190 0
164 185 0
169 189 0
160 182 0
166 188 0
172 191 0
161 181 0
169 189 0
171 192 0
160 180 0
166 187 0
171 192 0
163 185 0
164 185 0
162 183 0
166 187 0
160 181 0
164 185 0
163 185 0
166 187 0
163 184 0
160 180 0
164 185 0
163 184 0
163 183 0
161 182 0
156 177 0
163 183 0
162 183 0
163 185 0
161 182 0
156 178 0
164 186 0
163 185 0
155 177 0
162 182 0
147 169 0
165 186 0
157 178 0
161 183 0
162 184 0
163 184 0
159 180 0
153 175 0
157 178 0
166 188 0
161 182 0
156 177 0
160 181 0
155 176 0
156 177 0
160 180 0
159 181 0
155 177 0
155 176 0
150 172 0
156 179 0
157 179 0
156 179 0
160 182 0
154 176 0
150 172 0
154 176 0
157 178 0
153 175 0
156 179 0
156 179 0
160 181 0
153 176 0
153 175 0
154 175 0
151 174 0
155 178 0
160 182 0
152 173 0
149 172 0
154 176 0
153 174 0
152 175 0
148 169 0
158 180 0
159 183 0
161 184 0
153 175 0
150 173 0
151 174 0
154 176 0
146 168 0
151 173 0
151 173 0
151 175 0
150 172 0
144 165 0
151 171 0
150 172 0
153 175 0
139 160 0
151 174 0
151 172 0
139 161 0
148 170 0
146 167 0
148 169 0
155 178 0
141 162 0
138 158 0
151 173 0
142 165 0
145 166 0
144 167 0
142 165 0
147 168 0
144 166 0
146 168 0
146 167 0
142 163 0
144 166 0
139 160 0
137 158 0
149 171 0
144 165 0
140 160 0
144 166 0
143 162 0
142 163 0
138 158 0
147 168 0
145 166 0
145 165 0
135 156 0
143 163 0
146 168 0
140 162 0
136 157 0
139 160 0
136 156 0
138 159 0
135 157 0
141 162 0
146 166 0
143 164 0
121 141 0
138 159 0
137 156 0
137 158 0
142 164 0
133 152 0
145 166 0
140 162 0
131 153 0
141 162 0
140 160 0
140 160 0
142 163 0
144 164 0
135 155 0
134 155 0
134 156 0
142 162 0
143 163 0
142 162 0
134 154 0
128 145 0
137 156 0
135 154 0
136 154 0
130 150 0
138 157 0
137 157 0
130 149 0
145 164 0
136 156 0
137 157 0
140 160 0
132 152 0
129 148 0
136 155 0
132 152 0
142 162 0
141 160 0
138 157 0
142 162 0
144 162 0
130 150 0
137 155 0
139 159 0
134 154 0
138 158 0
142 160 0
135 152 0
128 148 0
138 158 0
140 157 0
127 145 0
143 163 0
139 158 0
140 159 0
136 155 0
143 163 0
135 154 0
137 156 0
133 151 0
150 168 0
142 160 0
132 150 0
138 157 0
137 153 0
141 159 0
141 159 0
136 153 0
139 157 0
137 155 0
136 154 0
142 159 0
141 160 0
139 157 0
147 162 0
141 157 0
145 160 0
145 163 0
144 161 0
136 151 0
144 161 0
134 152 0
140 155 0
151 168 0
146 162 0
140 156 0
137 154 0
135 153 0
145 163 0
145 161 0
143 158 0
146 162 0
139 154 0
150 166 0
142 157 0
141 157 0
141 157 0
140 155 0
138 153 0
133 148 0
146 161 0
131 144 0
138 154 0
132 147 0
132 145 0
142 157 0
140 156 0
133 146 0
137 150 0
143 157 0
148 162 0
143 154 0
146 157 0
135 147 0
142 156 0
136 149 0
138 149 0
138 151 0
144 157 0
145 156 0
144 158 0
142 153 0
138 150 0
133 145 0
129 137 0
148 161 0
138 148 0
138 149 0
140 149 0
136 146 0
137 147 0
142 151 0
142 153 0
136 145 0
141 150 0
141 148 0
145 156 0
137 145 0
142 151 0
132 138 0
138 148 0
144 153 0
140 148 0
141 148 0
136 144 0
136 140 0
132 139 0
140 147 0
145 152 0
132 137 0
143 150 0
143 150 0
145 152 0
138 141 0
138 147 0
151 157 0
137 140 0
137 143 0
140 146 0
130 132 0
142 149 0
146 149 0
152 156 0
144 150 0
142 146 0
143 145 0
141 146 0
140 145 0
149 154 0
143 147 0
145 153 0
141 146 0
144 151 0
146 151 0
144 152 0
143 146 0
147 152 0
139 144 0
138 143 0
141 146 0
143 150 0
141 146 0
143 149 0
150 157 0
147 153 0
141 143 0
146 152 0
147 154 0
144 150 0
144 150 0
154 165 0
151 159 0
151 159 0
141 145 0
156 165 0
156 163 0
152 160 0
145 152 0
148 156 0
161 172 0
149 160 0
153 163 0
155 167 0
157 168 0
154 165 0
153 164 0
154 167 0
148 156 0
157 167 0
156 166 0
172 194 0
174 195 0
172 194 0
171 192 0
174 195 0
170 192 0
174 196 0
174 195 0
174 195 0
171 193 0
170 191 0
172 194 0
173 194 0
174 195 0
169 191 0
174 195 0
174 195 0
170 191 0
171 192 0
173 194 0
168 189 0
168 190 0
171 192 0
169 190 0
170 191 0
172 193 0
169 190 0
169 190 0
169 190 0
172 193 0
164 185 0
174 195 0
169 189 0
166 187 0
168 188 0
171 193 0
172 193 0
167 188 0
172 193 0
172 192 0
166 188 0
171 191 0
163 185 0
170 191 0
164 186 0
166 188 0
169 189 0
166 187 0
169 190 0
172 192 0
164 186 0
166 186 0
168 189 0
167 188 0
167 189 0
171 192 0
165 186 0
167 188 0
163 185 0
163 183 0
164 185 0
167 188 0
162 184 0
157 178 0
161 181 0
166 187 0
161 182 0
169 190 0
159 180 0
162 185 0
158 179 0
165 186 0
162 184 0
164 187 0
165 186 0
159 180 0
154 176 0
168 189 0
159 181 0
164 185 0
162 183 0
165 186 0
164 186 0
158 180 0
159 180 0
157 179 0
161 183 0
159 181 0
158 180 0
158 179 0
158 179 0
159 180 0
154 176 0
160 181 0
158 179 0
153 175 0
158 180 0
161 182 0
151 174 0
159 181 0
160 182 0
160 181 0
159 182 0
153 174 0
153 175 0
154 176 0
152 175 0
150 172 0
150 173 0
159 181 0
163 185 0
152 174 0
152 173 0
151 172 0
158 180 0
153 176 0
156 177 0
160 182 0
157 180 0
151 172 0
158 180 0
156 177 0
146 168 0
153 176 0
155 177 0
151 173 0
155 178 0
150 172 0
149 170 0
154 177 0
151 174 0
155 176 0
146 168 0
154 178 0
147 168 0
155 178 0
150 173 0
142 163 0
146 168 0
150 171 0
150 172 0
153 176 0
156 179 0
154 175 0
146 169 0
150 173 0
145 168 0
153 174 0
142 164 0
157 179 0
149 170 0
149 170 0
155 176 0
145 166 0
149 172 0
151 172 0
141 163 0
152 174 0
141 162 0
153 175 0
146 169 0
145 167 0
140 161 0
140 162 0
142 162 0
134 156 0
146 167 0
144 165 0
141 164 0
145 167 0
138 159 0
149 170 0
141 161 0
143 164 0
139 160 0
144 165 0
151 173 0
155 177 0
125 145 0
133 154 0
135 157 0
138 159 0
141 162 0
146 166 0
143 162 0
139 160 0
140 159 0
141 161 0
139 160 0
139 160 0
144 165 0
143 163 0
141 163 0
132 152 0
131 152 0
135 156 0
137 159 0
146 167 0
137 157 0
137 158 0
142 165 0
143 163 0
134 154 0
131 150 0
139 161 0
136 155 0
134 152 0
143 162 0
144 165 0
131 149 0
134 153 0
141 161 0
140 160 0
133 153 0
145 165 0
127 148 0
141 161 0
136 154 0
139 158 0
137 157 0
147 167 0
151 170 0
137 157 0
132 151 0
138 157 0
143 163 0
147 167 0
141 161 0
143 160 0
132 151 0
137 157 0
140 161 0
131 151 0
142 162 0
144 163 0
128 147 0
138 158 0
136 157 0
144 163 0
137 158 0
141 160 0
141 159 0
139 160 0
136 154 0
143 163 0
142 161 0
138 157 0
143 160 0
148 166 0
139 158 0
139 159 0
146 164 0
138 158 0
145 164 0
143 161 0
135 150 0
144 164 0
138 157 0
140 158 0
152 172 0
139 158 0
134 152 0
141 158 0
137 156 0
141 159 0
147 164 0
133 151 0
143 160 0
144 162 0
138 156 0
142 159 0
143 160 0
146 165 0
146 161 0
143 159 0
138 153 0
139 156 0
135 153 0
140 156 0
146 162 0
134 151 0
143 159 0
144 161 0
148 164 0
139 154 0
140 155 0
138 153 0
140 155 0
144 159 0
141 155 0
135 151 0
143 160 0
145 160 0
148 163 0
146 162 0
150 166 0
140 155 0
139 151 0
141 157 0
141 155 0
150 164 0
146 159 0
135 147 0
143 158 0
131 142 0
141 153 0
144 157 0
137 148 0
146 160 0
141 152 0
142 153 0
144 156 0
136 144 0
133 143 0
135 147 0
143 154 0
137 149 0
142 154 0
146 159 0
132 142 0
138 148 0
131 139 0
147 158 0
143 153 0
148 158 0
131 142 0
140 151 0
143 150 0
144 154 0
144 154 0
135 143 0
142 148 0
143 150 0
138 151 0
145 153 0
135 143 0
139 147 0
146 157 0
129 137 0
144 151 0
143 149 0
139 145 0
144 148 0
140 149 0
139 144 0
140 148 0
147 156 0
137 143 0
132 137 0
139 145 0
136 139 0
143 150 0
142 147 0
140 146 0
143 149 0
145 151 0
140 147 0
141 144 0
144 152 0
144 150 0
142 145 0
143 149 0
147 155 0
138 145 0
148 153 0
147 152 0
139 145 0
144 148 0
133 135 0
147 152 0
143 148 0
144 149 0
148 151 0
148 153 0
150 159 0
144 150 0
149 155 0
150 158 0
145 151 0
143 148 0
149 157 0
157 164 0
146 153 0
148 156 0
146 155 0
144 153 0
154 166 0
143 150 0
151 158 0
148 157 0
150 158 0
150 157 0
153 164 0
148 156 0
146 154 0
156 168 0
156 167 0
154 164 0
155 166 0
154 165 0
173 195 0
173 194 0
169 190 0
175 196 0
173 194 0
170 192 0
174 196 0
169 190 0
172 194 0
175 196 0
171 192 0
172 193 0
172 193 0
168 190 0
171 192 0
169 191 0
171 193 0
174 195 0
169 190 0
172 194 0
171 193 0
168 189 0
170 192 0
165 185 0
168 190 0
168 189 0
168 189 0
168 190 0
165 186 0
172 192 0
170 192 0
166 187 0
172 193 0
168 188 0
163 184 0
173 194 0
174 194 0
167 188 0
169 191 0
166 186 0
163 184 0
172 192 0
168 188 0
175 196 0
170 189 0
165 187 0
165 187 0
168 189 0
163 184 0
164 184 0
166 187 0
165 185 0
171 191 0
165 185 0
163 184 0
165 185 0
166 187 0
163 184 0
167 189 0
167 188 0
165 187 0
164 185 0
169 191 0
163 184 0
162 183 0
163 184 0
169 189 0
163 185 0
160 181 0
162 183 0
164 186 0
163 184 0
154 176 0
156 178 0
159 180 0
162 184 0
166 187 0
159 181 0
162 184 0
161 182 0
154 176 0
161 183 0
166 188 0
163 184 0
160 181 0
159 181 0
162 184 0
156 178 0
151 172 0
161 183 0
161 183 0
159 181 0
164 186 0
160 182 0
156 178 0
166 188 0
153 175 0
163 185 0
157 178 0
162 186 0
159 180 0
151 172 0
154 176 0
155 177 0
154 176 0
147 168 0
155 177 0
150 172 0
158 181 0
157 178 0
153 176 0
147 170 0
152 174 0
157 179 0
163 185 0
156 178 0
148 172 0
150 172 0
157 179 0
153 176 0
157 179 0
161 184 0
153 176 0
155 177 0
153 174 0
147 169 0
147 168 0
153 174 0
150 172 0
150 173 0
153 174 0
147 169 0
157 179 0
153 176 0
147 169 0
156 178 0
148 169 0
148 170 0
148 170 0
144 168 0
152 174 0
151 173 0
147 169 0
147 170 0
146 168 0
150 172 0
147 170 0
150 173 0
150 173 0
145 167 0
148 170 0
147 169 0
145 167 0
156 178 0
148 170 0
146 168 0
143 165 0
149 171 0
144 166 0
141 162 0
145 167 0
149 171 0
142 164 0
140 163 0
147 169 0
145 166 0
153 175 0
142 164 0
144 166 0
145 167 0
154 175 0
145 166 0
140 161 0
151 171 0
139 160 0
152 173 0
144 165 0
147 168 0
135 156 0
146 166 0
138 160 0
138 160 0
146 167 0
139 161 0
143 164 0
141 162 0
123 144 0
143 164 0
141 161 0
131 152 0
133 155 0
146 166 0
136 156 0
146 167 0
133 153 0
141 161 0
137 158 0
144 165 0
140 161 0
135 154 0
139 160 0
135 156 0
141 162 0
133 152 0
134 155 0
143 163 0
139 159 0
139 160 0
132 153 0
146 167 0
143 163 0
136 156 0
136 157 0
136 156 0
139 159 0
129 149 0
126 146 0
144 164 0
139 159 0
142 163 0
138 158 0
139 160 0
130 149 0
135 155 0
138 158 0
142 159 0
145 166 0
132 150 0
139 158 0
140 158 0
145 166 0
141 160 0
139 158 0
136 155 0
142 162 0
137 157 0
133 150 0
136 154 0
129 148 0
134 153 0
143 163 0
133 150 0
141 161 0
136 152 0
133 151 0
143 160 0
143 162 0
146 165 0
142 162 0
136 156 0
140 159 0
137 157 0
134 150 0
135 151 0
143 159 0
135 152 0
142 159 0
146 164 0
140 156 0
144 162 0
141 161 0
133 151 0
142 160 0
142 162 0
138 156 0
141 157 0
143 160 0
145 161 0
142 160 0
141 161 0
147 166 0
142 158 0
145 163 0
141 160 0
146 164 0
144 160 0
145 162 0
150 167 0
140 157 0
137 153 0
142 159 0
133 148 0
148 164 0
143 159 0
145 161 0
144 160 0
145 160 0
138 154 0
144 161 0
143 159 0
144 160 0
142 157 0
138 152 0
138 154 0
141 156 0
134 147 0
139 153 0
143 159 0
148 165 0
132 147 0
138 153 0
144 158 0
138 153 0
145 157 0
139 150 0
139 151 0
139 153 0
146 161 0
133 143 0
137 149 0
141 154 0
151 165 0
141 155 0
145 157 0
142 152 0
139 152 0
140 154 0
143 154 0
139 151 0
140 149 0
138 149 0
133 143 0
139 150 0
144 155 0
142 149 0
135 145 0
142 153 0
136 146 0
137 145 0
143 151 0
139 145 0
142 153 0
140 151 0
141 149 0
142 151 0
141 147 0
138 145 0
141 151 0
130 137 0
146 152 0
133 141 0
139 145 0
139 149 0
143 152 0
145 153 0
143 149 0
138 146 0
132 138 0
141 147 0
137 142 0
142 149 0
144 152 0
139 144 0
143 151 0
148 157 0
148 156 0
130 136 0
141 150 0
146 154 0
152 159 0
150 158 0
143 151 0
143 151 0
132 139 0
141 146 0
137 141 0
147 154 0
142 147 0
148 153 0
147 152 0
146 151 0
147 152 0
150 159 0
142 148 0
149 155 0
145 152 0
143 149 0
141 146 0
146 155 0
143 150 0
146 153 0
147 156 0
145 155 0
152 159 0
147 153 0
149 156 0
145 153 0
155 163 0
149 154 0
149 154 0
151 156 0
153 160 0
151 163 0
148 155 0
155 167 0
147 154 0
161 175 0
152 161 0
152 163 0
155 165 0
174 196 0
173 194 0
172 194 0
172 194 0
174 195 0
174 196 0
170 191 0
173 194 0
171 193 0
169 192 0
171 193 0
172 194 0
171 192 0
170 191 0
172 193 0
173 194 0
171 193 0
170 192 0
172 194 0
168 189 0
168 189 0
169 191 0
173 194 0
172 193 0
170 190 0
170 190 0
171 192 0
171 192 0
172 192 0
173 193 0
168 189 0
167 189 0
170 191 0
167 188 0
166 187 0
169 190 0
167 188 0
170 191 0
171 191 0
169 191 0
166 187 0
168 187 0
168 190 0
168 189 0
164 185 0
169 189 0
168 189 0
163 185 0
164 185 0
167 187 0
168 189 0
164 186 0
166 187 0
163 185 0
163 185 0
166 188 0
163 183 0
161 182 0
162 184 0
165 186 0
171 191 0
163 184 0
165 187 0
163 184 0
162 184 0
164 184 0
160 181 0
164 185 0
166 187 0
165 186 0
162 184 0
162 183 0
163 184 0
161 183 0
164 186 0
161 183 0
158 180 0
167 188 0
161 183 0
161 183 0
155 176 0
170 192 0
152 174 0
162 184 0
159 182 0
157 178 0
160 181 0
161 181 0
166 189 0
158 180 0
154 177 0
158 180 0
156 178 0
153 174 0
157 179 0
157 179 0
160 183 0
157 180 0
165 188 0
154 176 0
160 183 0
164 186 0
156 178 0
159 182 0
149 172 0
161 184 0
160 181 0
158 180 0
150 172 0
156 178 0
158 179 0
154 177 0
153 174 0
158 180 0
156 178 0
155 178 0
151 173 0
158 179 0
155 178 0
163 186 0
147 168 0
159 181 0
152 174 0
154 176 0
158 180 0
155 176 0
149 171 0
145 167 0
149 171 0
156 178 0
150 172 0
157 179 0
138 160 0
151 174 0
150 171 0
152 174 0
148 171 0
147 170 0
146 167 0
153 176 0
151 173 0
151 173 0
151 173 0
146 169 0
145 168 0
146 166 0
156 178 0
149 171 0
151 171 0
139 161 0
142 164 0
151 173 0
149 171 0
146 168 0
140 162 0
151 173 0
143 165 0
152 174 0
149 170 0
148 169 0
154 176 0
142 164 0
155 178 0
142 163 0
146 167 0
147 170 0
139 160 0
149 170 0
148 169 0
143 164 0
139 159 0
152 172 0
144 166 0
140 161 0
143 164 0
143 164 0
132 152 0
141 161 0
150 171 0
149 170 0
143 164 0
137 159 0
145 167 0
139 160 0
144 164 0
140 161 0
138 159 0
139 161 0
142 163 0
132 153 0
139 160 0
139 160 0
144 165 0
141 162 0
145 166 0
136 157 0
141 162 0
146 166 0
134 155 0
149 168 0
135 156 0
133 154 0
141 160 0
145 165 0
138 157 0
144 164 0
146 167 0
137 156 0
146 165 0
127 146 0
141 160 0
144 164 0
137 156 0
139 159 0
131 151 0
141 160 0
139 159 0
139 158 0
133 153 0
130 150 0
135 154 0
134 153 0
143 163 0
139 159 0
132 152 0
137 157 0
139 159 0
146 168 0
138 157 0
140 161 0
148 166 0
136 156 0
144 163 0
131 149 0
139 159 0
135 155 0
141 160 0
145 164 0
137 156 0
143 163 0
144 163 0
136 155 0
144 163 0
143 163 0
135 154 0
138 155 0
146 165 0
140 159 0
139 157 0
140 158 0
147 167 0
152 171 0
142 162 0
140 158 0
148 165 0
137 156 0
146 166 0
143 163 0
143 161 0
145 164 0
144 163 0
148 167 0
144 162 0
140 159 0
142 161 0
141 156 0
142 160 0
148 167 0
148 164 0
142 159 0
138 154 0
137 154 0
150 169 0
140 158 0
151 170 0
141 157 0
134 153 0
142 158 0
138 154 0
135 150 0
141 158 0
148 164 0
154 170 0
145 158 0
146 161 0
149 166 0
150 166 0
147 166 0
132 146 0
144 160 0
146 161 0
140 154 0
139 153 0
138 155 0
146 161 0
147 163 0
151 166 0
146 161 0
138 152 0
143 157 0
142 156 0
140 155 0
145 160 0
143 158 0
144 159 0
145 160 0
144 157 0
142 155 0
146 163 0
130 143 0
140 152 0
146 161 0
143 156 0
145 159 0
134 145 0
144 156 0
141 155 0
134 146 0
139 150 0
144 156 0
149 161 0
145 155 0
142 154 0
144 155 0
136 148 0
140 152 0
141 151 0
136 149 0
146 157 0
146 157 0
134 145 0
134 145 0
142 152 0
144 154 0
140 150 0
149 159 0
148 159 0
128 136 0
140 151 0
134 144 0
150 161 0
142 153 0
141 149 0
139 147 0
145 152 0
145 152 0
143 150 0
147 158 0
139 146 0
140 145 0
142 150 0
143 151 0
141 148 0
143 148 0
146 157 0
144 151 0
143 151 0
139 148 0
145 152 0
140 145 0
146 154 0
140 146 0
142 150 0
152 161 0
146 152 0
151 159 0
147 155 0
145 153 0
143 151 0
153 161 0
135 139 0
145 150 0
150 160 0
146 153 0
153 162 0
138 144 0
142 148 0
152 160 0
153 160 0
150 156 0
153 159 0
147 157 0
147 154 0
151 160 0
144 149 0
155 164 0
154 161 0
151 159 0
151 159 0
152 163 0
146 153 0
156 166 0
150 157 0
155 164 0
153 164 0
151 160 0
153 162 0
161 175 0
157 166 0
153 164 0
172 193 0
168 190 0
171 192 0
173 195 0
170 191 0
172 194 0
171 192 0
168 190 0
172 193 0
171 192 0
169 191 0
171 193 0
174 195 0
171 193 0
167 189 0
173 195 0
169 189 0
171 192 0
167 188 0
169 190 0
170 192 0
170 191 0
169 190 0
168 189 0
170 191 0
170 190 0
164 185 0
165 186 0
163 184 0
171 192 0
170 192 0
164 185 0
169 191 0
171 192 0
170 191 0
167 189 0
165 186 0
169 190 0
166 187 0
164 185 0
166 187 0
168 190 0
168 189 0
171 193 0
163 185 0
161 182 0
165 187 0
164 184 0
167 189 0
166 187 0
165 187 0
163 184 0
167 188 0
164 185 0
164 185 0
170 192 0
161 183 0
167 189 0
162 183 0
164 185 0
160 181 0
161 183 0
165 187 0
167 189 0
164 186 0
160 182 0
154 175 0
164 185 0
166 187 0
168 190 0
165 186 0
165 188 0
161 183 0
159 181 0
166 187 0
162 185 0
160 182 0
156 176 0
164 185 0
160 182 0
159 180 0
165 188 0
157 178 0
159 181 0
163 184 0
162 184 0
157 179 0
162 184 0
151 174 0
156 177 0
159 181 0
159 180 0
158 180 0
155 178 0
150 172 0
156 178 0
151 174 0
156 178 0
157 179 0
153 175 0
158 180 0
161 184 0
154 177 0
159 181 0
154 176 0
165 186 0
156 179 0
161 183 0
158 180 0
158 180 0
157 179 0
152 174 0
158 180 0
163 184 0
156 179 0
154 176 0
152 173 0
158 180 0
156 178 0
151 172 0
156 178 0
157 180 0
155 177 0
151 173 0
155 178 0
158 180 0
157 180 0
157 180 0
148 169 0
156 178 0
158 180 0
143 166 0
156 179 0
153 175 0
154 176 0
155 178 0
148 170 0
153 176 0
149 170 0
153 175 0
143 166 0
146 168 0
144 166 0
152 174 0
158 181 0
157 179 0
149 171 0
152 175 0
147 169 0
152 172 0
154 175 0
138 160 0
142 164 0
151 173 0
143 164 0
146 168 0
144 166 0
147 168 0
157 179 0
137 159 0
145 166 0
146 167 0
151 173 0
146 168 0
145 167 0
139 160 0
138 160 0
147 168 0
144 166 0
147 168 0
144 166 0
142 164 0
146 167 0
148 169 0
149 170 0
151 173 0
148 170 0
144 166 0
147 169 0
147 168 0
136 156 0
143 165 0
142 164 0
146 168 0
143 164 0
142 163 0
141 163 0
138 157 0
134 154 0
137 159 0
135 156 0
142 162 0
146 167 0
140 162 0
145 167 0
138 159 0
143 166 0
143 162 0
138 160 0
145 166 0
142 163 0
148 168 0
141 162 0
139 160 0
142 163 0
138 158 0
132 152 0
151 171 0
146 167 0
143 164 0
134 154 0
145 165 0
154 175 0
138 159 0
135 154 0
140 160 0
143 163 0
142 162 0
144 164 0
146 166 0
137 158 0
140 160 0
136 157 0
130 150 0
144 163 0
135 154 0
145 164 0
141 161 0
147 168 0
142 163 0
144 163 0
147 168 0
141 158 0
148 167 0
149 170 0
140 161 0
141 160 0
142 163 0
145 164 0
138 157 0
137 156 0
137 155 0
136 156 0
140 159 0
144 165 0
133 151 0
138 158 0
141 158 0
134 150 0
146 165 0
138 157 0
143 163 0
144 161 0
142 158 0
140 156 0
145 165 0
149 167 0
139 160 0
141 159 0
135 153 0
136 155 0
138 157 0
135 151 0
145 163 0
142 159 0
133 150 0
139 156 0
142 160 0
142 161 0
144 161 0
146 165 0
142 161 0
145 165 0
150 167 0
137 154 0
140 157 0
146 164 0
139 155 0
144 160 0
149 167 0
141 158 0
143 159 0
141 158 0
150 167 0
138 154 0
141 158 0
146 164 0
140 156 0
136 151 0
138 156 0
147 165 0
144 159 0
135 150 0
139 154 0
135 150 0
134 148 0
146 162 0
145 160 0
139 156 0
141 156 0
147 163 0
141 156 0
142 157 0
146 162 0
145 161 0
148 165 0
141 153 0
147 160 0
141 154 0
156 171 0
147 162 0
139 155 0
143 156 0
138 152 0
133 143 0
149 163 0
144 158 0
139 153 0
147 160 0
149 165 0
140 152 0
147 160 0
145 156 0
148 160 0
144 156 0
146 159 0
135 146 0
140 150 0
140 152 0
150 161 0
140 146 0
149 159 0
146 157 0
148 158 0
144 154 0
150 162 0
141 150 0
141 147 0
148 159 0
145 157 0
146 156 0
139 149 0
143 152 0
141 149 0
144 153 0
145 155 0
143 149 0
148 156 0
140 147 0
149 157 0
143 150 0
147 156 0
140 146 0
140 146 0
142 150 0
141 149 0
141 145 0
149 155 0
146 153 0
140 146 0
146 154 0
139 148 0
147 156 0
146 155 0
151 159 0
145 151 0
154 162 0
152 159 0
148 158 0
140 147 0
153 160 0
145 153 0
149 157 0
151 158 0
149 158 0
145 151 0
153 161 0
147 157 0
150 159 0
145 152 0
150 160 0
146 153 0
143 151 0
150 159 0
151 159 0
151 160 0
152 161 0
158 168 0
151 160 0
155 163 0
154 164 0
154 162 0
150 161 0
152 159 0
159 170 0
147 156 0
155 167 0
151 160 0
154 165 0
153 163 0
174 195 0
173 195 0
173 195 0
173 195 0
170 192 0
176 197 0
171 193 0
168 189 0
171 193 0
174 195 0
170 191 0
170 192 0
174 195 0
172 193 0
172 193 0
171 192 0
170 191 0
167 188 0
171 192 0
170 191 0
172 193 0
171 192 0
164 186 0
169 190 0
166 188 0
165 186 0
171 193 0
170 192 0
169 190 0
166 187 0
169 190 0
167 188 0
166 187 0
170 191 0
165 186 0
167 188 0
170 191 0
166 188 0
161 183 0
168 189 0
163 184 0
168 189 0
168 188 0
165 186 0
164 187 0
166 189 0
169 190 0
163 184 0
169 190 0
163 185 0
168 189 0
167 189 0
165 187 0
159 180 0
167 189 0
167 188 0
167 189 0
162 182 0
163 185 0
160 182 0
161 183 0
165 187 0
161 183 0
162 184 0
162 185 0
169 190 0
156 177 0
166 187 0
162 184 0
161 183 0
167 187 0
165 187 0
159 180 0
165 187 0
161 182 0
158 179 0
160 182 0
163 184 0
165 187 0
156 177 0
158 181 0
161 183 0
157 178 0
165 186 0
157 179 0
160 182 0
161 182 0
159 181 0
154 176 0
163 185 0
155 178 0
158 179 0
162 184 0
158 180 0
154 176 0
157 180 0
159 181 0
160 182 0
161 183 0
161 182 0
162 184 0
160 182 0
158 180 0
160 182 0
154 176 0
160 182 0
157 180 0
156 178 0
154 175 0
151 173 0
148 170 0
153 177 0
152 174 0
155 177 0
161 183 0
152 173 0
154 176 0
157 180 0
160 182 0
153 175 0
151 173 0
154 176 0
150 173 0
156 179 0
154 176 0
154 177 0
151 173 0
155 178 0
155 177 0
150 172 0
153 176 0
152 176 0
153 174 0
158 180 0
151 173 0
154 176 0
148 170 0
154 176 0
153 175 0
144 166 0
155 176 0
152 174 0
154 177 0
148 170 0
147 170 0
150 171 0
154 176 0
144 165 0
147 169 0
151 172 0
152 174 0
153 175 0
154 177 0
149 172 0
155 177 0
152 174 0
148 170 0
155 177 0
152 174 0
147 168 0
144 165 0
139 161 0
156 177 0
152 173 0
142 164 0
146 166 0
141 162 0
149 171 0
144 165 0
148 169 0
137 158 0
144 164 0
154 175 0
145 167 0
147 169 0
151 173 0
147 169 0
145 167 0
143 164 0
147 168 0
137 159 0
143 165 0
141 162 0
143 164 0
140 161 0
141 162 0
142 162 0
141 162 0
136 157 0
141 162 0
143 164 0
137 159 0
141 161 0
140 160 0
145 166 0
142 163 0
146 167 0
145 166 0
151 172 0
140 163 0
145 165 0
149 170 0
148 168 0
141 162 0
142 164 0
138 159 0
142 164 0
146 167 0
141 160 0
142 163 0
135 156 0
150 170 0
143 164 0
146 166 0
155 176 0
139 158 0
144 163 0
142 162 0
132 151 0
149 169 0
146 167 0
140 159 0
133 153 0
147 167 0
140 160 0
151 171 0
129 148 0
135 153 0
145 166 0
145 164 0
130 149 0
137 157 0
140 161 0
142 162 0
147 168 0
138 156 0
133 151 0
142 159 0
141 161 0
145 166 0
142 162 0
146 165 0
144 164 0
140 159 0
146 165 0
138 157 0
149 168 0
141 161 0
143 162 0
131 149 0
146 164 0
135 153 0
145 163 0
141 162 0
142 160 0
148 168 0
142 161 0
146 166 0
144 164 0
138 156 0
138 156 0
149 169 0
141 161 0
140 159 0
138 157 0
144 162 0
143 160 0
145 164 0
145 164 0
142 162 0
142 161 0
136 154 0
137 155 0
147 163 0
143 160 0
151 171 0
138 155 0
139 158 0
142 159 0
138 156 0
148 165 0
148 167 0
145 163 0
147 163 0
146 163 0
144 161 0
149 164 0
142 158 0
146 162 0
138 153 0
138 153 0
141 157 0
151 169 0
136 152 0
142 159 0
146 162 0
136 149 0
150 167 0
142 156 0
139 151 0
147 162 0
141 156 0
139 153 0
153 168 0
136 151 0
146 164 0
150 163 0
136 150 0
143 157 0
140 155 0
142 156 0
142 157 0
143 158 0
144 158 0
141 156 0
136 147 0
140 156 0
148 162 0
152 167 0
141 155 0
142 156 0
148 159 0
141 153 0
151 164 0
143 154 0
144 157 0
145 153 0
144 157 0
148 162 0
147 158 0
146 159 0
143 154 0
144 154 0
148 160 0
138 144 0
149 157 0
146 156 0
144 154 0
147 158 0
145 156 0
143 153 0
147 158 0
145 155 0
144 150 0
145 153 0
143 154 0
142 151 0
151 161 0
146 157 0
150 158 0
145 153 0
140 147 0
142 151 0
147 156 0
152 161 0
147 156 0
150 159 0
139 147 0
147 155 0
148 156 0
142 153 0
144 151 0
145 153 0
139 143 0
144 152 0
150 158 0
146 155 0
147 156 0
149 158 0
149 160 0
142 148 0
142 149 0
147 154 0
142 150 0
148 157 0
153 161 0
147 155 0
150 157 0
155 164 0
145 151 0
154 163 0
144 149 0
150 158 0
142 151 0
146 151 0
152 160 0
154 161 0
147 154 0
151 160 0
146 154 0
149 158 0
157 169 0
153 163 0
153 159 0
155 167 0
149 160 0
153 163 0
154 160 0
161 171 0
153 161 0
174 196 0
170 192 0
170 192 0
170 192 0
170 193 0
170 192 0
170 192 0
173 194 0
168 190 0
172 193 0
173 194 0
168 190 0
170 191 0
172 193 0
168 190 0
170 191 0
171 193 0
170 192 0
171 192 0
169 190 0
170 191 0
171 193 0
170 191 0
172 193 0
166 188 0
172 193 0
170 191 0
165 187 0
170 192 0
169 190 0
173 194 0
171 191 0
169 190 0
165 186 0
167 188 0
172 193 0
170 191 0
167 188 0
170 191 0
168 189 0
164 185 0
167 188 0
162 185 0
166 187 0
166 187 0
167 188 0
166 186 0
169 190 0
162 184 0
166 187 0
164 185 0
167 188 0
168 190 0
167 188 0
168 189 0
162 184 0
166 188 0
163 184 0
161 183 0
164 186 0
160 182 0
165 186 0
165 187 0
161 183 0
166 187 0
165 188 0
156 178 0
160 183 0
161 183 0
163 186 0
162 184 0
156 177 0
160 181 0
157 178 0
165 186 0
158 179 0
160 181 0
157 179 0
160 181 0
158 179 0
165 187 0
152 173 0
163 185 0
162 184 0
165 187 0
163 185 0
162 184 0
156 179 0
165 187 0
160 180 0
155 176 0
155 176 0
161 184 0
164 187 0
154 177 0
161 184 0
146 167 0
155 177 0
155 176 0
154 176 0
157 180 0
153 176 0
156 177 0
159 180 0
150 173 0
154 176 0
158 180 0
159 181 0
156 179 0
153 175 0
154 175 0
160 183 0
156 178 0
152 174 0
150 172 0
152 175 0
150 172 0
148 170 0
159 182 0
159 181 0
152 175 0
152 175 0
152 175 0
155 177 0
158 180 0
155 177 0
161 184 0
153 175 0
159 181 0
154 177 0
152 174 0
150 172 0
151 174 0
144 167 0
149 170 0
157 180 0
159 180 0
150 172 0
161 184 0
155 176 0
152 174 0
148 168 0
145 167 0
150 172 0
153 176 0
141 164 0
151 173 0
150 172 0
151 173 0
152 174 0
151 173 0
152 174 0
141 163 0
152 175 0
149 171 0
146 167 0
147 169 0
148 169 0
140 161 0
148 169 0
145 166 0
149 170 0
145 166 0
140 161 0
148 168 0
149 171 0
145 167 0
146 167 0
153 176 0
141 163 0
138 160 0
143 165 0
136 158 0
144 165 0
138 160 0
143 163 0
150 172 0
141 162 0
152 173 0
140 163 0
151 173 0
147 168 0
148 169 0
146 167 0
140 161 0
146 168 0
150 172 0
140 161 0
141 163 0
142 164 0
141 162 0
138 158 0
133 153 0
138 159 0
142 164 0
135 156 0
138 159 0
137 157 0
144 166 0
142 163 0
139 160 0
151 172 0
133 154 0
142 162 0
136 156 0
144 165 0
139 160 0
143 164 0
138 159 0
143 165 0
138 158 0
136 157 0
139 160 0
141 161 0
139 160 0
136 154 0
145 165 0
146 167 0
146 167 0
146 166 0
136 156 0
139 159 0
139 158 0
136 155 0
146 166 0
138 158 0
143 162 0
146 167 0
150 169 0
135 156 0
146 165 0
138 157 0
136 156 0
143 163 0
137 155 0
143 161 0
152 173 0
141 158 0
144 163 0
135 154 0
141 160 0
130 147 0
143 164 0
147 166 0
142 161 0
142 163 0
131 150 0
147 166 0
143 162 0
144 164 0
139 159 0
143 164 0
140 160 0
146 166 0
145 163 0
141 160 0
136 156 0
139 157 0
137 157 0
143 161 0
133 151 0
143 161 0
148 168 0
142 158 0
143 162 0
152 172 0
143 161 0
143 162 0
143 161 0
146 165 0
140 160 0
145 161 0
138 156 0
152 170 0
150 169 0
152 172 0
146 165 0
143 162 0
138 154 0
144 163 0
150 168 0
149 168 0
143 160 0
139 157 0
139 156 0
142 158 0
142 158 0
142 159 0
131 149 0
138 154 0
145 160 0
144 160 0
149 169 0
147 164 0
143 157 0
141 157 0
139 155 0
150 165 0
152 166 0
145 159 0
144 159 0
146 160 0
143 157 0
145 159 0
149 164 0
141 156 0
147 160 0
145 161 0
147 163 0
147 164 0
147 162 0
144 158 0
143 157 0
145 158 0
142 156 0
139 150 0
141 153 0
152 167 0
148 163 0
140 153 0
142 154 0
149 165 0
144 158 0
145 159 0
147 161 0
140 151 0
146 159 0
149 165 0
146 156 0
140 151 0
147 155 0
141 151 0
144 155 0
148 159 0
143 154 0
147 159 0
136 148 0
142 154 0
152 163 0
141 154 0
137 148 0
154 166 0
146 155 0
138 144 0
147 157 0
146 155 0
140 152 0
146 155 0
147 157 0
147 157 0
147 156 0
140 148 0
150 160 0
144 152 0
152 161 0
143 150 0
148 156 0
143 151 0
149 158 0
146 154 0
141 148 0
147 156 0
149 161 0
147 155 0
144 152 0
145 152 0
145 154 0
154 164 0
151 159 0
149 161 0
147 154 0
151 161 0
144 152 0
145 151 0
142 148 0
149 156 0
147 157 0
147 157 0
148 157 0
150 160 0
151 160 0
145 151 0
148 155 0
154 162 0
144 151 0
149 157 0
150 159 0
154 163 0
148 154 0
154 164 0
149 155 0
149 158 0
157 168 0
151 159 0
149 160 0
147 158 0
156 165 0
152 163 0
149 160 0
151 162 0
173 194 0
173 195 0
172 193 0
170 192 0
169 192 0
173 194 0
169 191 0
172 193 0
167 189 0
171 192 0
171 192 0
171 193 0
176 197 0
171 193 0
171 192 0
172 193 0
168 190 0
169 191 0
168 189 0
166 186 0
171 192 0
171 192 0
161 182 0
170 191 0
171 193 0
172 193 0
169 191 0
167 188 0
173 193 0
168 189 0
169 190 0
168 190 0
169 190 0
167 189 0
167 189 0
166 187 0
173 194 0
166 187 0
172 193 0
173 193 0
166 187 0
169 190 0
163 185 0
165 187 0
165 187 0
162 184 0
160 182 0
167 188 0
162 183 0
168 189 0
157 178 0
165 186 0
168 190 0
167 188 0
163 184 0
161 183 0
163 184 0
162 184 0
166 188 0
166 187 0
159 181 0
167 188 0
161 183 0
159 180 0
162 185 0
165 187 0
161 181 0
159 180 0
160 181 0
165 188 0
156 178 0
161 183 0
165 186 0
162 184 0
163 185 0
160 183 0
159 181 0
164 186 0
161 183 0
164 185 0
161 182 0
162 183 0
157 179 0
159 181 0
162 184 0
162 184 0
159 180 0
156 177 0
158 181 0
160 182 0
158 179 0
165 187 0
159 181 0
163 185 0
160 183 0
154 175 0
159 182 0
161 183 0
161 183 0
159 182 0
164 185 0
159 181 0
159 181 0
160 182 0
159 181 0
158 181 0
159 182 0
153 175 0
152 176 0
159 181 0
149 171 0
151 173 0
160 181 0
154 177 0
157 180 0
152 174 0
165 187 0
151 174 0
155 178 0
151 173 0
152 175 0
156 178 0
153 175 0
157 180 0
157 179 0
156 178 0
152 175 0
160 183 0
152 175 0
151 173 0
153 174 0
151 174 0
152 174 0
150 171 0
152 175 0
155 177 0
154 177 0
155 177 0
160 182 0
158 180 0
149 171 0
154 177 0
157 179 0
154 176 0
145 167 0
161 183 0
154 176 0
149 173 0
144 167 0
151 173 0
146 168 0
153 175 0
148 169 0
147 168 0
150 172 0
149 172 0
147 169 0
139 161 0
150 172 0
147 170 0
145 166 0
147 169 0
152 174 0
149 171 0
158 178 0
153 175 0
144 166 0
149 171 0
149 171 0
153 175 0
148 170 0
140 160 0
148 169 0
152 175 0
153 175 0
149 170 0
143 164 0
145 167 0
137 159 0
147 169 0
146 168 0
146 168 0
148 169 0
142 163 0
142 162 0
145 166 0
143 164 0
147 169 0
144 165 0
146 168 0
139 161 0
145 165 0
149 172 0
141 161 0
142 163 0
138 160 0
147 168 0
147 168 0
137 157 0
130 152 0
146 167 0
141 161 0
150 170 0
141 161 0
144 164 0
144 166 0
143 163 0
138 159 0
145 166 0
148 168 0
144 164 0
136 156 0
146 166 0
148 169 0
145 165 0
144 165 0
143 162 0
153 174 0
143 163 0
140 160 0
146 167 0
142 162 0
141 160 0
154 173 0
135 155 0
144 164 0
144 162 0
144 164 0
142 162 0
142 161 0
129 149 0
141 160 0
143 163 0
146 167 0
143 162 0
143 162 0
138 157 0
130 150 0
142 163 0
145 164 0
148 167 0
143 163 0
145 165 0
136 156 0
137 156 0
148 167 0
150 171 0
144 165 0
148 169 0
138 157 0
137 155 0
146 166 0
144 165 0
146 165 0
143 161 0
148 167 0
146 166 0
142 161 0
144 163 0
145 164 0
148 168 0
146 163 0
135 151 0
140 158 0
144 162 0
140 157 0
138 156 0
146 165 0
145 162 0
139 157 0
148 168 0
147 164 0
145 164 0
150 169 0
148 166 0
140 159 0
146 165 0
135 152 0
151 169 0
148 168 0
144 162 0
139 157 0
133 147 0
139 157 0
155 173 0
143 160 0
144 163 0
137 155 0
141 158 0
143 159 0
143 160 0
150 166 0
146 164 0
147 164 0
147 163 0
148 165 0
150 165 0
148 165 0
136 150 0
143 160 0
149 168 0
145 163 0
142 155 0
144 160 0
142 159 0
147 163 0
144 156 0
150 167 0
146 161 0
144 159 0
135 148 0
144 161 0
148 162 0
155 170 0
138 153 0
150 165 0
142 153 0
147 157 0
147 160 0
147 161 0
145 160 0
151 166 0
148 162 0
143 154 0
133 148 0
144 158 0
143 157 0
144 154 0
151 165 0
145 159 0
147 158 0
149 162 0
143 157 0
149 162 0
145 155 0
149 163 0
149 160 0
153 165 0
137 148 0
143 152 0
143 154 0
135 144 0
142 154 0
151 163 0
142 149 0
146 158 0
144 154 0
149 157 0
145 152 0
151 165 0
137 144 0
148 157 0
144 153 0
147 160 0
145 154 0
144 154 0
147 154 0
144 154 0
147 159 0
149 158 0
144 153 0
145 155 0
137 145 0
150 158 0
144 152 0
151 163 0
138 145 0
147 155 0
142 151 0
154 165 0
145 154 0
153 162 0
150 160 0
148 157 0
145 154 0
152 160 0
147 156 0
143 151 0
148 156 0
151 160 0
150 162 0
154 164 0
146 154 0
149 158 0
150 160 0
149 155 0
148 156 0
149 159 0
145 156 0
155 165 0
152 161 0
151 162 0
154 164 0
153 164 0
150 156 0
153 160 0
151 159 0
153 164 0
158 170 0
154 162 0
173 193 0
171 193 0
173 195 0
172 193 0
170 193 0
171 193 0
169 190 0
169 190 0
171 193 0
173 195 0
170 193 0
167 189 0
170 192 0
168 190 0
170 193 0
168 189 0
168 189 0
171 192 0
172 193 0
166 187 0
172 192 0
165 186 0
167 188 0
168 189 0
171 192 0
167 188 0
169 190 0
172 194 0
169 190 0
166 187 0
165 186 0
168 189 0
165 186 0
168 189 0
163 184 0
162 183 0
166 187 0
165 187 0
166 188 0
166 188 0
167 188 0
165 187 0
167 189 0
166 188 0
160 182 0
166 188 0
168 190 0
162 184 0
162 184 0
164 185 0
168 190 0
164 186 0
165 187 0
165 187 0
164 184 0
166 187 0
164 184 0
159 181 0
168 190 0
162 184 0
169 191 0
163 185 0
165 187 0
164 186 0
163 185 0
161 183 0
160 182 0
163 186 0
160 181 0
162 185 0
162 184 0
156 178 0
168 189 0
159 181 0
163 185 0
164 185 0
168 190 0
160 182 0
151 173 0
162 184 0
163 185 0
156 178 0
157 179 0
161 184 0
157 179 0
153 176 0
161 184 0
153 175 0
164 186 0
155 178 0
160 182 0
159 180 0
158 181 0
158 180 0
154 177 0
165 187 0
153 176 0
156 178 0
159 182 0
159 180 0
160 183 0
154 175 0
160 182 0
156 179 0
157 178 0
162 185 0
156 179 0
161 184 0
151 174 0
151 173 0
160 182 0
156 178 0
156 177 0
156 178 0
150 172 0
158 181 0
152 174 0
160 182 0
156 177 0
156 178 0
156 178 0
151 173 0
152 176 0
160 183 0
148 170 0
152 173 0
158 179 0
158 180 0
150 173 0
158 180 0
145 166 0
163 185 0
152 175 0
148 170 0
148 171 0
149 170 0
158 180 0
155 176 0
158 179 0
148 170 0
156 179 0
153 175 0
144 167 0
155 177 0
154 176 0
148 170 0
144 166 0
148 169 0
153 174 0
145 167 0
146 168 0
148 171 0
148 170 0
154 176 0
139 162 0
155 177 0
149 170 0
147 168 0
150 172 0
149 171 0
146 167 0
146 168 0
143 164 0
150 173 0
153 174 0
150 172 0
154 177 0
140 160 0
156 177 0
143 166 0
144 166 0
154 175 0
144 165 0
136 158 0
151 172 0
144 165 0
143 165 0
152 174 0
148 170 0
145 166 0
150 171 0
147 168 0
149 173 0
146 167 0
141 162 0
136 155 0
136 158 0
138 158 0
142 163 0
150 173 0
137 159 0
151 173 0
143 165 0
144 165 0
149 168 0
145 166 0
143 164 0
138 159 0
141 162 0
145 166 0
147 167 0
147 167 0
138 158 0
142 163 0
144 165 0
142 162 0
141 160 0
143 165 0
139 160 0
138 159 0
135 155 0
146 166 0
139 160 0
148 168 0
141 163 0
148 167 0
145 167 0
140 161 0
144 165 0
146 166 0
145 165 0
143 164 0
144 164 0
144 165 0
143 163 0
156 177 0
133 155 0
147 166 0
146 167 0
148 168 0
142 164 0
155 176 0
146 165 0
140 160 0
149 170 0
146 167 0
147 168 0
146 167 0
133 152 0
145 165 0
148 168 0
141 161 0
149 168 0
139 158 0
135 156 0
143 164 0
152 172 0
148 167 0
151 171 0
138 157 0
147 168 0
145 167 0
139 157 0
147 165 0
139 159 0
141 161 0
146 165 0
139 157 0
145 164 0
147 164 0
143 163 0
152 171 0
140 158 0
149 169 0
147 165 0
140 160 0
151 169 0
146 165 0
139 156 0
149 169 0
149 169 0
147 164 0
146 165 0
143 162 0
153 173 0
144 163 0
144 164 0
140 158 0
137 152 0
145 166 0
142 160 0
146 164 0
144 165 0
145 162 0
138 155 0
142 160 0
145 160 0
147 166 0
147 165 0
142 161 0
143 159 0
144 159 0
153 169 0
140 156 0
149 166 0
140 155 0
148 164 0
143 162 0
144 159 0
140 154 0
150 165 0
149 164 0
144 161 0
150 166 0
144 157 0
147 163 0
143 159 0
141 154 0
142 155 0
140 154 0
143 159 0
152 166 0
149 163 0
147 161 0
141 155 0
150 164 0
146 160 0
147 158 0
149 164 0
141 154 0
140 153 0
140 153 0
148 164 0
149 162 0
148 162 0
150 164 0
150 162 0
146 159 0
144 155 0
134 147 0
149 164 0
148 160 0
144 157 0
145 156 0
138 145 0
155 167 0
140 153 0
150 163 0
142 152 0
152 164 0
149 160 0
144 156 0
148 161 0
152 165 0
148 159 0
149 161 0
142 152 0
150 160 0
154 167 0
150 162 0
153 163 0
152 164 0
148 158 0
146 155 0
156 166 0
149 160 0
148 157 0
145 154 0
151 163 0
153 164 0
152 164 0
142 152 0
149 158 0
147 155 0
139 144 0
148 155 0
148 154 0
146 155 0
144 150 0
146 153 0
141 148 0
150 158 0
148 157 0
147 158 0
150 157 0
146 154 0
149 155 0
143 149 0
150 158 0
148 156 0
151 161 0
151 162 0
153 162 0
151 160 0
157 168 0
148 158 0
149 157 0
152 164 0
148 157 0
145 155 0
153 165 0
150 158 0
148 160 0
156 169 0
157 168 0
154 163 0
151 163 0
147 154 0
156 168 0
151 160 0
169 191 0
169 191 0
168 190 0
172 194 0
173 194 0
171 193 0
168 189 0
168 189 0
170 192 0
174 194 0
168 190 0
169 191 0
172 193 0
168 190 0
173 195 0
168 189 0
172 193 0
170 192 0
167 188 0
171 193 0
169 190 0
170 192 0
172 194 0
167 188 0
171 192 0
167 189 0
167 189 0
167 189 0
164 186 0
169 191 0
165 187 0
172 193 0
165 186 0
166 187 0
164 186 0
165 186 0
167 189 0
168 189 0
166 188 0
167 190 0
167 189 0
167 188 0
161 184 0
162 184 0
168 190 0
168 190 0
167 188 0
164 186 0
158 180 0
167 188 0
168 190 0
164 185 0
164 186 0
164 186 0
161 184 0
166 188 0
165 187 0
169 190 0
164 185 0
167 190 0
166 189 0
159 180 0
165 188 0
165 188 0
164 186 0
163 185 0
163 185 0
166 188 0
162 184 0
164 187 0
153 175 0
160 182 0
161 184 0
164 187 0
161 183 0
159 181 0
162 184 0
156 177 0
154 176 0
158 180 0
166 187 0
160 182 0
158 181 0
162 185 0
158 180 0
162 183 0
155 178 0
163 184 0
155 177 0
155 178 0
161 183 0
157 179 0
156 178 0
159 182 0
155 177 0
153 174 0
163 185 0
162 184 0
152 176 0
165 187 0
155 176 0
159 182 0
163 185 0
159 181 0
150 172 0
148 171 0
163 185 0
163 186 0
158 181 0
155 177 0
162 185 0
158 179 0
155 178 0
157 180 0
148 171 0
156 178 0
159 182 0
157 180 0
155 178 0
157 179 0
157 180 0
154 177 0
155 177 0
151 174 0
152 174 0
153 176 0
156 179 0
146 168 0
141 162 0
146 168 0
151 173 0
152 175 0
154 176 0
155 178 0
152 174 0
156 177 0
149 170 0
150 173 0
158 181 0
147 169 0
147 170 0
149 170 0
147 169 0
151 173 0
152 174 0
151 173 0
148 170 0
153 175 0
152 174 0
143 165 0
149 171 0
153 176 0
150 172 0
151 172 0
151 173 0
150 171 0
152 174 0
152 174 0
143 165 0
151 172 0
155 176 0
151 173 0
144 167 0
153 175 0
148 169 0
149 171 0
145 166 0
144 165 0
154 175 0
151 174 0
144 166 0
153 173 0
151 173 0
150 172 0
141 164 0
148 170 0
143 164 0
150 172 0
145 166 0
154 175 0
137 159 0
147 168 0
129 151 0
146 169 0
138 159 0
148 167 0
153 175 0
139 160 0
144 166 0
145 166 0
144 165 0
143 166 0
143 163 0
146 166 0
139 161 0
142 162 0
150 172 0
149 169 0
142 164 0
146 168 0
144 164 0
142 164 0
140 161 0
142 163 0
137 157 0
135 156 0
147 168 0
144 165 0
141 162 0
154 176 0
137 157 0
135 155 0
143 163 0
141 162 0
147 169 0
145 166 0
151 172 0
149 168 0
144 165 0
142 161 0
146 167 0
137 158 0
150 171 0
148 169 0
139 159 0
142 162 0
136 156 0
147 168 0
146 166 0
142 163 0
136 156 0
147 167 0
146 165 0
147 168 0
137 158 0
146 167 0
147 169 0
143 164 0
142 160 0
140 161 0
143 162 0
141 160 0
152 173 0
140 160 0
140 159 0
144 164 0
153 175 0
145 163 0
143 163 0
144 163 0
147 167 0
146 164 0
149 167 0
147 167 0
147 165 0
138 156 0
147 168 0
139 159 0
141 160 0
141 161 0
140 160 0
152 173 0
138 156 0
152 169 0
140 160 0
152 173 0
138 156 0
145 166 0
146 166 0
150 169 0
148 168 0
146 163 0
147 167 0
140 158 0
147 165 0
137 154 0
150 170 0
146 163 0
146 163 0
148 167 0
151 170 0
141 158 0
140 159 0
148 165 0
145 164 0
146 164 0
147 166 0
139 154 0
140 158 0
143 160 0
151 169 0
144 159 0
141 157 0
144 162 0
147 166 0
138 154 0
155 174 0
146 162 0
145 162 0
150 165 0
142 157 0
148 164 0
150 167 0
148 164 0
144 159 0
147 163 0
155 171 0
150 166 0
147 160 0
142 155 0
148 164 0
148 164 0
150 165 0
143 158 0
137 152 0
141 154 0
151 167 0
149 165 0
136 148 0
148 163 0
148 162 0
144 158 0
139 154 0
148 163 0
150 163 0
141 155 0
142 156 0
151 163 0
148 160 0
145 158 0
137 149 0
148 162 0
151 162 0
148 160 0
145 157 0
151 165 0
142 153 0
141 151 0
147 159 0
146 158 0
142 155 0
143 154 0
149 159 0
146 157 0
145 155 0
147 159 0
151 162 0
139 146 0
139 150 0
151 163 0
158 170 0
145 156 0
144 153 0
149 161 0
143 154 0
141 152 0
144 154 0
139 150 0
149 159 0
154 165 0
141 150 0
146 158 0
141 149 0
147 159 0
152 160 0
148 157 0
148 157 0
148 155 0
155 167 0
149 157 0
154 165 0
153 162 0
150 159 0
154 165 0
156 168 0
148 156 0
150 160 0
147 157 0
153 162 0
145 155 0
154 164 0
155 164 0
154 165 0
152 163 0
151 162 0
150 160 0
151 162 0
149 161 0
150 159 0
153 163 0
152 160 0
153 160 0
155 164 0
154 165 0
157 168 0
153 164 0
159 169 0
150 159 0
155 165 0
150 162 0
174 196 0
169 192 0
176 196 0
171 193 0
172 195 0
170 191 0
171 193 0
169 191 0
173 193 0
169 191 0
170 192 0
168 191 0
166 189 0
173 194 0
169 190 0
171 193 0
172 193 0
167 188 0
171 193 0
168 190 0
172 194 0
165 186 0
168 190 0
174 196 0
171 192 0
169 190 0
166 187 0
167 188 0
166 187 0
164 186 0
168 190 0
166 187 0
165 186 0
166 187 0
166 188 0
171 192 0
169 190 0
168 189 0
166 188 0
166 187 0
163 185 0
166 188 0
168 189 0
166 187 0
166 188 0
163 186 0
166 188 0
167 188 0
165 187 0
166 188 0
167 189 0
168 190 0
162 184 0
169 190 0
168 190 0
167 189 0
167 189 0
161 183 0
163 186 0
160 182 0
164 186 0
164 186 0
165 187 0
161 182 0
164 186 0
166 187 0
156 179 0
160 182 0
156 178 0
159 181 0
160 183 0
156 178 0
162 184 0
163 185 0
158 181 0
166 189 0
162 184 0
165 187 0
162 185 0
165 187 0
162 184 0
162 184 0
163 185 0
151 175 0
160 183 0
159 182 0
165 187 0
162 184 0
164 186 0
153 176 0
153 175 0
161 183 0
154 175 0
151 173 0
160 182 0
165 187 0
155 178 0
153 175 0
156 178 0
154 176 0
155 177 0
155 177 0
154 177 0
162 185 0
160 181 0
159 181 0
160 182 0
151 174 0
161 183 0
159 182 0
154 176 0
164 186 0
160 183 0
157 179 0
150 172 0
155 178 0
149 172 0
152 174 0
156 179 0
157 179 0
152 174 0
156 178 0
153 174 0
149 171 0
156 178 0
157 179 0
157 180 0
150 173 0
151 173 0
153 175 0
157 179 0
153 176 0
153 175 0
154 175 0
155 178 0
156 178 0
154 175 0
151 172 0
152 175 0
148 171 0
155 176 0
151 173 0
152 175 0
155 176 0
149 171 0
151 172 0
151 174 0
146 168 0
146 168 0
147 170 0
153 175 0
153 176 0
146 168 0
152 173 0
150 172 0
145 167 0
152 175 0
144 166 0
147 169 0
149 171 0
149 170 0
151 173 0
146 168 0
150 173 0
145 168 0
149 171 0
140 161 0
147 170 0
144 166 0
145 168 0
148 169 0
146 168 0
138 157 0
149 171 0
150 172 0
150 170 0
143 163 0
144 166 0
146 168 0
152 174 0
142 164 0
147 168 0
142 164 0
138 159 0
150 172 0
145 164 0
145 167 0
149 170 0
150 172 0
148 169 0
152 174 0
141 163 0
139 160 0
147 168 0
148 169 0
150 172 0
146 168 0
150 170 0
145 166 0
148 170 0
148 171 0
139 161 0
144 165 0
143 164 0
146 167 0
147 168 0
133 153 0
138 159 0
147 170 0
145 165 0
146 167 0
142 162 0
138 157 0
137 158 0
137 157 0
140 160 0
143 162 0
147 167 0
140 160 0
138 157 0
146 166 0
144 164 0
139 159 0
143 165 0
153 174 0
137 157 0
151 171 0
144 163 0
138 159 0
143 164 0
139 161 0
147 167 0
144 162 0
140 159 0
146 166 0
140 159 0
140 160 0
144 164 0
150 170 0
138 155 0
142 162 0
143 164 0
144 165 0
142 162 0
147 167 0
147 168 0
148 167 0
142 162 0
144 163 0
148 167 0
146 167 0
146 166 0
148 166 0
144 164 0
148 170 0
151 171 0
142 161 0
145 165 0
150 168 0
147 167 0
143 163 0
148 168 0
148 168 0
145 163 0
145 165 0
131 147 0
148 167 0
139 158 0
145 164 0
152 171 0
146 164 0
144 162 0
144 162 0
140 158 0
140 159 0
144 163 0
143 159 0
147 163 0
146 164 0
151 169 0
150 168 0
143 162 0
145 162 0
149 168 0
144 159 0
149 168 0
150 170 0
146 164 0
152 169 0
142 159 0
146 161 0
147 165 0
146 162 0
138 154 0
138 153 0
153 169 0
144 159 0
143 160 0
145 159 0
152 170 0
150 166 0
143 159 0
142 158 0
140 156 0
143 159 0
151 166 0
141 157 0
146 165 0
144 161 0
148 164 0
147 163 0
148 163 0
144 161 0
146 163 0
149 163 0
146 161 0
153 168 0
143 159 0
149 165 0
150 164 0
140 156 0
146 162 0
151 166 0
147 160 0
148 162 0
147 158 0
144 160 0
148 162 0
142 153 0
147 160 0
149 161 0
148 162 0
146 159 0
144 155 0
145 158 0
150 161 0
148 160 0
141 153 0
146 156 0
151 163 0
140 149 0
148 159 0
142 153 0
146 157 0
140 149 0
155 168 0
147 160 0
148 157 0
142 154 0
147 158 0
149 161 0
148 156 0
143 153 0
149 161 0
143 149 0
148 158 0
146 159 0
144 156 0
149 161 0
146 157 0
150 159 0
146 154 0
146 159 0
153 165 0
148 158 0
150 161 0
155 167 0
149 158 0
151 162 0
148 157 0
152 161 0
147 155 0
144 153 0
154 165 0
152 163 0
149 159 0
150 160 0
151 162 0
149 159 0
153 163 0
154 164 0
147 158 0
149 160 0
154 167 0
157 170 0
148 156 0
158 169 0
150 161 0
155 166 0
151 160 0
147 157 0
148 156 0
151 161 0
152 162 0
152 161 0
152 162 0
150 161 0
155 163 0
153 163 0
154 165 0
174 195 0
170 193 0
174 196 0
172 193 0
172 193 0
172 193 0
168 190 0
168 189 0
168 190 0
171 193 0
167 189 0
168 189 0
170 192 0
173 194 0
169 191 0
168 188 0
170 192 0
172 193 0
172 193 0
169 190 0
164 186 0
162 184 0
164 186 0
168 190 0
166 187 0
165 187 0
165 186 0
172 193 0
167 189 0
170 191 0
172 193 0
164 186 0
167 187 0
170 192 0
166 188 0
167 188 0
163 185 0
165 187 0
161 183 0
166 188 0
165 187 0
169 190 0
160 181 0
159 181 0
167 189 0
162 183 0
164 186 0
167 188 0
162 183 0
167 189 0
155 177 0
169 191 0
167 189 0
160 182 0
159 180 0
162 183 0
163 186 0
164 186 0
160 181 0
162 184 0
166 188 0
161 182 0
166 188 0
155 177 0
166 189 0
162 185 0
162 183 0
162 184 0
164 186 0
163 186 0
163 186 0
162 183 0
164 186 0
166 188 0
160 183 0
161 183 0
159 181 0
156 178 0
157 179 0
161 183 0
158 181 0
165 186 0
161 183 0
164 187 0
161 184 0
160 182 0
156 177 0
167 189 0
156 178 0
157 179 0
157 180 0
157 179 0
158 179 0
152 174 0
159 181 0
154 177 0
168 189 0
161 183 0
156 178 0
156 177 0
158 181 0
153 177 0
158 180 0
151 174 0
155 178 0
154 176 0
157 179 0
153 176 0
161 183 0
161 183 0
159 181 0
157 180 0
153 175 0
153 175 0
152 174 0
160 182 0
152 175 0
150 172 0
161 184 0
154 176 0
157 180 0
157 180 0
158 181 0
152 174 0
146 170 0
150 172 0
156 178 0
147 168 0
154 176 0
155 178 0
154 177 0
155 178 0
156 178 0
153 174 0
152 176 0
147 169 0
153 175 0
156 178 0
149 172 0
152 175 0
148 171 0
155 177 0
156 179 0
157 180 0
152 175 0
151 173 0
154 176 0
151 173 0
148 170 0
146 169 0
146 169 0
150 173 0
145 166 0
146 168 0
149 171 0
144 165 0
151 172 0
149 170 0
147 170 0
152 172 0
150 171 0
144 165 0
153 175 0
148 169 0
151 173 0
150 171 0
151 173 0
146 168 0
149 170 0
148 170 0
145 167 0
151 172 0
139 160 0
142 164 0
150 171 0
138 159 0
143 165 0
148 170 0
146 169 0
147 169 0
140 162 0
146 167 0
144 166 0
143 166 0
140 162 0
148 171 0
144 164 0
150 173 0
143 165 0
139 158 0
151 172 0
145 165 0
151 171 0
155 175 0
147 169 0
144 165 0
153 174 0
142 163 0
142 164 0
148 170 0
150 170 0
148 168 0
142 163 0
139 160 0
140 162 0
144 164 0
143 162 0
142 163 0
145 166 0
143 164 0
149 171 0
147 168 0
144 165 0
136 156 0
147 167 0
138 159 0
149 171 0
140 160 0
138 156 0
147 168 0
145 165 0
148 167 0
147 169 0
145 165 0
142 161 0
159 180 0
147 167 0
146 167 0
146 167 0
141 160 0
147 168 0
147 167 0
137 158 0
144 164 0
137 159 0
150 171 0
142 163 0
144 165 0
134 155 0
149 169 0
138 160 0
149 169 0
149 168 0
145 165 0
148 169 0
150 170 0
143 160 0
149 170 0
148 167 0
149 171 0
136 155 0
151 172 0
141 162 0
146 167 0
144 164 0
143 162 0
141 160 0
148 167 0
148 168 0
150 169 0
144 164 0
144 165 0
150 170 0
142 161 0
151 171 0
153 172 0
149 168 0
145 163 0
143 162 0
149 169 0
141 159 0
144 161 0
151 170 0
149 169 0
143 160 0
150 169 0
150 170 0
151 169 0
146 164 0
151 170 0
152 169 0
149 164 0
133 148 0
144 161 0
144 162 0
142 159 0
148 166 0
148 165 0
157 177 0
152 168 0
140 157 0
144 163 0
147 163 0
149 168 0
151 167 0
146 163 0
147 164 0
149 166 0
151 167 0
142 160 0
142 157 0
145 163 0
147 164 0
141 157 0
150 165 0
141 157 0
150 166 0
150 165 0
145 161 0
141 157 0
150 166 0
147 162 0
147 162 0
150 166 0
146 161 0
145 162 0
149 163 0
146 161 0
149 166 0
150 165 0
150 165 0
151 165 0
144 158 0
147 159 0
147 161 0
141 154 0
152 167 0
156 171 0
143 156 0
152 166 0
152 169 0
153 169 0
144 158 0
155 169 0
150 161 0
145 159 0
141 153 0
137 151 0
147 162 0
151 164 0
148 161 0
143 157 0
146 158 0
146 156 0
150 165 0
140 151 0
147 159 0
153 165 0
148 159 0
143 157 0
147 158 0
150 163 0
145 156 0
141 149 0
150 161 0
149 161 0
154 167 0
151 163 0
140 148 0
148 157 0
151 161 0
153 162 0
149 160 0
147 157 0
146 158 0
149 159 0
149 159 0
144 152 0
159 169 0
158 168 0
146 154 0
157 165 0
155 165 0
144 153 0
153 164 0
150 160 0
147 156 0
151 162 0
150 159 0
142 150 0
154 163 0
152 163 0
151 159 0
149 159 0
147 155 0
151 159 0
156 167 0
152 165 0
155 166 0
151 162 0
145 153 0
150 159 0
155 166 0
157 168 0
153 165 0
151 160 0
155 165 0
153 164 0
156 165 0
155 166 0
170 192 0
170 192 0
173 194 0
171 193 0
170 192 0
171 192 0
165 187 0
169 191 0
171 193 0
171 193 0
169 191 0
164 186 0
166 187 0
171 194 0
170 191 0
171 192 0
169 190 0
171 192 0
171 192 0
166 187 0
171 193 0
170 192 0
166 187 0
170 192 0
164 186 0
164 186 0
161 183 0
166 187 0
166 189 0
164 186 0
170 191 0
161 183 0
168 189 0
158 179 0
162 183 0
171 192 0
164 187 0
169 191 0
167 189 0
166 187 0
166 187 0
162 184 0
165 185 0
169 192 0
162 184 0
164 185 0
166 188 0
162 184 0
160 182 0
162 184 0
160 182 0
162 184 0
163 184 0
162 184 0
164 186 0
162 183 0
162 184 0
168 190 0
166 188 0
162 184 0
161 183 0
162 184 0
163 186 0
162 184 0
162 183 0
165 187 0
162 184 0
160 181 0
159 182 0
157 179 0
158 179 0
158 181 0
162 184 0
156 178 0
162 184 0
165 186 0
165 187 0
151 173 0
162 183 0
160 182 0
161 183 0
161 183 0
156 179 0
162 184 0
162 184 0
159 181 0
167 190 0
157 180 0
162 183 0
151 174 0
160 182 0
164 186 0
159 182 0
157 180 0
161 184 0
155 178 0
154 176 0
157 179 0
153 176 0
153 175 0
161 183 0
162 185 0
162 184 0
154 176 0
150 171 0
156 179 0
154 175 0
162 185 0
156 179 0
164 186 0
156 180 0
160 181 0
154 176 0
155 177 0
159 180 0
158 181 0
162 185 0
157 181 0
163 186 0
156 178 0
153 175 0
155 178 0
154 178 0
151 173 0
150 172 0
155 177 0
159 180 0
155 178 0
153 175 0
160 183 0
156 179 0
157 180 0
149 172 0
160 182 0
147 169 0
148 169 0
155 177 0
151 173 0
155 177 0
149 172 0
151 174 0
152 174 0
156 177 0
152 175 0
150 174 0
154 176 0
151 173 0
153 176 0
150 172 0
155 178 0
145 166 0
142 165 0
151 174 0
154 176 0
151 173 0
146 168 0
147 169 0
153 175 0
146 169 0
146 169 0
142 163 0
150 173 0
151 173 0
145 168 0
159 182 0
148 171 0
142 164 0
146 168 0
151 173 0
144 166 0
147 168 0
143 166 0
141 163 0
141 163 0
155 178 0
150 172 0
152 174 0
150 171 0
150 172 0
144 165 0
153 175 0
146 167 0
142 164 0
148 170 0
153 173 0
155 177 0
152 173 0
148 170 0
142 164 0
145 167 0
149 171 0
143 165 0
143 164 0
148 170 0
144 165 0
143 165 0
154 176 0
150 173 0
136 157 0
146 167 0
140 161 0
151 173 0
142 161 0
148 170 0
147 169 0
143 163 0
140 161 0
143 164 0
144 164 0
140 160 0
147 168 0
146 166 0
143 164 0
144 165 0
144 166 0
145 166 0
137 159 0
150 170 0
143 163 0
151 171 0
142 162 0
147 168 0
147 167 0
144 163 0
148 169 0
140 159 0
147 168 0
151 171 0
137 158 0
147 170 0
148 168 0
145 166 0
145 164 0
138 160 0
144 164 0
149 171 0
146 165 0
147 167 0
149 170 0
150 170 0
148 168 0
145 166 0
147 164 0
146 166 0
144 164 0
150 170 0
140 158 0
145 164 0
148 168 0
144 163 0
146 165 0
149 169 0
147 168 0
148 168 0
142 162 0
148 168 0
151 168 0
134 153 0
144 164 0
150 171 0
148 168 0
146 165 0
148 168 0
154 173 0
146 166 0
137 157 0
148 165 0
140 158 0
149 170 0
148 167 0
153 172 0
146 167 0
143 162 0
147 166 0
146 166 0
141 160 0
141 161 0
152 173 0
143 161 0
154 174 0
147 164 0
149 166 0
148 166 0
151 170 0
147 164 0
137 154 0
151 169 0
158 177 0
148 165 0
148 166 0
144 160 0
141 161 0
147 164 0
145 164 0
153 171 0
148 166 0
145 163 0
152 170 0
151 168 0
141 158 0
148 166 0
154 172 0
146 165 0
144 159 0
147 161 0
151 167 0
144 160 0
144 162 0
152 167 0
152 168 0
139 155 0
147 164 0
148 164 0
144 161 0
145 161 0
147 163 0
146 162 0
139 155 0
145 161 0
136 151 0
147 163 0
145 159 0
157 172 0
143 157 0
152 168 0
148 163 0
152 166 0
150 165 0
144 156 0
149 165 0
147 163 0
147 161 0
152 164 0
141 154 0
146 158 0
150 162 0
153 167 0
146 156 0
147 161 0
146 160 0
150 162 0
149 163 0
141 153 0
145 155 0
145 155 0
145 158 0
147 160 0
149 159 0
149 159 0
144 156 0
146 159 0
154 166 0
147 157 0
147 161 0
155 166 0
150 163 0
156 168 0
150 162 0
141 151 0
150 159 0
150 161 0
152 164 0
144 157 0
154 167 0
151 163 0
149 160 0
149 160 0
147 159 0
158 170 0
152 164 0
150 161 0
150 161 0
153 163 0
145 151 0
146 157 0
147 156 0
150 162 0
149 159 0
146 156 0
155 166 0
148 158 0
146 158 0
146 156 0
158 171 0
149 160 0
142 151 0
142 152 0
152 161 0
153 165 0
149 160 0
155 167 0
152 162 0
155 165 0
153 163 0
156 165 0
153 166 0
151 161 0
153 159 0
153 166 0
154 162 0
169 191 0
168 190 0
170 192 0
171 193 0
169 191 0
171 193 0
170 192 0
170 192 0
169 191 0
168 188 0
168 190 0
169 191 0
172 194 0
169 191 0
161 182 0
170 190 0
166 188 0
169 191 0
173 194 0
169 191 0
170 192 0
161 183 0
167 188 0
164 184 0
166 187 0
165 186 0
170 192 0
168 190 0
171 192 0
172 194 0
166 188 0
166 188 0
167 189 0
163 185 0
169 191 0
161 184 0
171 193 0
166 187 0
166 188 0
169 191 0
165 187 0
168 189 0
167 189 0
168 190 0
170 192 0
167 188 0
164 186 0
165 186 0
167 188 0
165 187 0
165 186 0
161 183 0
163 185 0
164 185 0
168 190 0
165 187 0
161 183 0
162 185 0
164 185 0
158 181 0
168 190 0
165 188 0
164 187 0
159 182 0
163 185 0
162 184 0
163 185 0
161 184 0
161 185 0
166 189 0
164 185 0
165 187 0
157 179 0
158 182 0
156 179 0
164 186 0
161 183 0
161 183 0
163 186 0
159 182 0
155 177 0
161 182 0
163 186 0
161 183 0
157 179 0
161 184 0
161 183 0
159 181 0
166 188 0
161 183 0
158 180 0
160 183 0
156 178 0
161 184 0
161 184 0
161 184 0
154 175 0
155 177 0
156 179 0
153 176 0
157 179 0
155 178 0
156 178 0
157 179 0
159 182 0
159 180 0
160 182 0
159 181 0
154 176 0
163 185 0
162 184 0
151 174 0
154 176 0
156 179 0
161 183 0
160 182 0
153 174 0
153 175 0
158 181 0
152 175 0
150 172 0
158 181 0
154 177 0
159 181 0
160 183 0
156 178 0
156 178 0
154 177 0
158 180 0
151 173 0
157 179 0
153 176 0
157 179 0
156 179 0
154 176 0
155 178 0
155 178 0
145 168 0
151 174 0
158 179 0
156 179 0
151 173 0
150 172 0
145 166 0
158 179 0
153 176 0
150 171 0
150 172 0
149 172 0
149 170 0
153 174 0
147 168 0
152 174 0
153 176 0
153 176 0
152 173 0
148 169 0
152 174 0
152 175 0
145 166 0
145 166 0
156 179 0
151 172 0
151 172 0
158 181 0
149 170 0
148 169 0
151 173 0
151 172 0
146 168 0
150 173 0
152 174 0
145 167 0
144 165 0
149 171 0
150 172 0
145 167 0
159 181 0
151 173 0
154 177 0
140 163 0
145 167 0
144 163 0
143 165 0
142 164 0
151 172 0
160 181 0
147 169 0
156 179 0
139 161 0
143 165 0
151 174 0
144 165 0
151 172 0
150 171 0
144 166 0
151 172 0
148 169 0
138 159 0
152 172 0
140 160 0
148 170 0
149 170 0
155 175 0
151 172 0
142 164 0
144 164 0
149 171 0
148 169 0
145 166 0
143 164 0
146 168 0
150 171 0
149 168 0
140 162 0
150 171 0
142 163 0
142 163 0
148 168 0
148 169 0
152 171 0
144 163 0
141 163 0
149 169 0
141 162 0
143 164 0
141 161 0
143 162 0
153 173 0
147 169 0
145 163 0
140 162 0
139 157 0
148 168 0
149 171 0
148 168 0
144 162 0
145 167 0
149 170 0
147 166 0
150 170 0
144 166 0
154 176 0
145 164 0
145 164 0
148 166 0
149 171 0
148 167 0
145 164 0
141 161 0
142 162 0
141 160 0
153 173 0
151 171 0
145 167 0
141 160 0
141 162 0
151 169 0
149 169 0
139 158 0
140 159 0
142 161 0
145 165 0
142 160 0
146 165 0
154 172 0
145 163 0
152 172 0
149 169 0
147 165 0
152 171 0
147 167 0
147 166 0
144 162 0
146 162 0
143 162 0
149 167 0
148 167 0
150 169 0
157 177 0
140 156 0
153 171 0
150 166 0
149 169 0
151 170 0
147 163 0
144 161 0
141 159 0
145 163 0
152 172 0
149 167 0
144 161 0
153 171 0
146 162 0
145 161 0
149 167 0
149 168 0
148 168 0
154 173 0
144 161 0
157 176 0
148 166 0
152 168 0
147 165 0
145 161 0
149 166 0
158 175 0
146 164 0
139 154 0
147 165 0
143 160 0
147 162 0
141 157 0
150 163 0
139 155 0
142 156 0
138 152 0
144 160 0
138 156 0
144 159 0
140 154 0
138 155 0
144 161 0
147 160 0
148 163 0
146 162 0
147 162 0
136 150 0
146 162 0
157 173 0
151 164 0
143 157 0
154 170 0
146 159 0
139 154 0
148 160 0
153 168 0
149 164 0
144 158 0
145 158 0
140 153 0
145 160 0
142 154 0
148 160 0
140 150 0
143 155 0
143 158 0
151 164 0
148 160 0
149 161 0
157 170 0
146 160 0
146 156 0
154 168 0
143 153 0
147 159 0
148 160 0
154 168 0
155 170 0
154 167 0
154 168 0
143 154 0
153 166 0
151 163 0
146 159 0
147 159 0
149 158 0
148 160 0
153 166 0
154 163 0
154 167 0
150 160 0
155 168 0
149 157 0
150 158 0
146 157 0
155 167 0
145 154 0
155 165 0
150 158 0
153 161 0
153 163 0
148 160 0
154 166 0
149 156 0
147 154 0
156 168 0
154 164 0
152 163 0
152 162 0
145 156 0
154 163 0
152 162 0
156 167 0
156 167 0
153 164 0
151 159 0
154 167 0
151 161 0
159 170 0
168 190 0
172 194 0
170 192 0
169 191 0
170 192 0
168 190 0
170 193 0
167 189 0
176 197 0
173 195 0
167 189 0
168 189 0
171 193 0
169 191 0
168 190 0
168 189 0
164 187 0
172 193 0
170 191 0
170 191 0
165 187 0
168 190 0
170 192 0
170 191 0
167 188 0
170 192 0
166 188 0
165 186 0
166 188 0
165 187 0
170 191 0
165 187 0
169 191 0
166 188 0
166 187 0
166 188 0
171 194 0
168 190 0
167 189 0
164 185 0
164 186 0
162 184 0
166 188 0
166 188 0
168 190 0
165 188 0
164 186 0
170 191 0
162 185 0
169 191 0
162 183 0
162 184 0
160 182 0
162 185 0
166 188 0
164 186 0
169 190 0
159 181 0
162 185 0
167 189 0
162 183 0
162 185 0
163 185 0
161 183 0
165 187 0
164 186 0
159 181 0
162 184 0
159 181 0
164 187 0
165 187 0
158 181 0
150 172 0
161 184 0
165 188 0
167 189 0
165 188 0
162 184 0
164 187 0
165 186 0
158 180 0
161 183 0
160 183 0
154 176 0
168 190 0
161 183 0
160 181 0
155 178 0
156 178 0
162 184 0
157 180 0
156 178 0
163 186 0
163 185 0
160 183 0
161 184 0
165 187 0
158 182 0
153 176 0
160 183 0
156 178 0
155 177 0
160 181 0
157 179 0
158 180 0
158 181 0
160 183 0
160 181 0
157 180 0
157 180 0
164 186 0
167 189 0
159 182 0
157 179 0
154 176 0
160 182 0
158 180 0
158 181 0
155 177 0
161 183 0
152 174 0
156 178 0
158 179 0
145 168 0
162 184 0
154 177 0
157 180 0
152 174 0
157 179 0
151 173 0
151 174 0
148 172 0
147 169 0
151 173 0
152 174 0
151 174 0
158 181 0
154 176 0
163 186 0
151 175 0
152 174 0
152 174 0
155 177 0
156 178 0
149 172 0
153 174 0
153 175 0
159 181 0
147 170 0
153 174 0
151 174 0
150 172 0
150 172 0
145 166 0
155 176 0
150 172 0
146 168 0
149 172 0
152 175 0
149 171 0
152 174 0
152 174 0
143 165 0
150 172 0
149 172 0
151 173 0
158 180 0
147 170 0
151 172 0
151 174 0
147 170 0
152 174 0
146 169 0
159 181 0
149 170 0
141 163 0
152 174 0
149 171 0
148 168 0
153 177 0
147 168 0
154 176 0
148 169 0
141 162 0
144 165 0
144 165 0
152 173 0
153 175 0
145 167 0
148 170 0
147 170 0
140 161 0
146 167 0
150 172 0
144 165 0
147 170 0
148 171 0
142 163 0
149 170 0
147 168 0
149 169 0
157 178 0
152 174 0
151 173 0
145 165 0
148 169 0
155 176 0
151 173 0
144 165 0
149 170 0
140 162 0
139 159 0
142 162 0
149 170 0
152 173 0
143 164 0
153 174 0
143 161 0
142 161 0
148 169 0
146 167 0
146 166 0
148 168 0
141 162 0
143 163 0
146 168 0
147 165 0
137 157 0
146 166 0
154 176 0
149 171 0
147 167 0
148 170 0
151 171 0
150 172 0
145 165 0
149 171 0
143 165 0
149 170 0
150 172 0
146 167 0
146 167 0
144 163 0
140 159 0
146 167 0
149 169 0
144 164 0
146 166 0
145 165 0
148 166 0
150 171 0
139 159 0
144 162 0
144 162 0
152 173 0
149 169 0
157 177 0
143 162 0
152 173 0
142 160 0
150 169 0
142 161 0
152 172 0
143 163 0
148 167 0
141 159 0
148 168 0
148 169 0
138 157 0
141 160 0
154 173 0
147 167 0
146 165 0
161 181 0
146 167 0
141 161 0
143 160 0
141 159 0
144 163 0
141 161 0
149 168 0
146 167 0
144 162 0
151 171 0
149 167 0
155 174 0
148 166 0
149 167 0
147 165 0
153 171 0
145 161 0
148 164 0
150 167 0
152 171 0
151 170 0
145 163 0
154 169 0
146 164 0
154 171 0
151 167 0
153 171 0
137 152 0
152 171 0
141 159 0
146 162 0
143 157 0
140 157 0
147 163 0
151 170 0
154 174 0
156 174 0
151 169 0
145 160 0
138 152 0
146 163 0
148 164 0
151 167 0
146 165 0
141 153 0
147 163 0
156 172 0
153 168 0
138 153 0
148 163 0
150 168 0
140 153 0
148 162 0
143 159 0
148 162 0
155 170 0
152 166 0
145 161 0
151 166 0
144 158 0
139 154 0
148 163 0
144 159 0
150 165 0
151 165 0
152 166 0
156 170 0
149 161 0
146 161 0
144 154 0
152 164 0
146 159 0
146 158 0
153 169 0
159 174 0
147 160 0
151 165 0
151 164 0
147 158 0
142 154 0
153 167 0
150 161 0
144 156 0
151 163 0
152 163 0
149 160 0
149 161 0
151 166 0
141 156 0
145 156 0
145 157 0
158 169 0
151 163 0
154 165 0
156 169 0
151 163 0
154 165 0
147 156 0
151 163 0
154 165 0
152 163 0
144 155 0
149 158 0
155 165 0
146 157 0
154 163 0
141 149 0
155 166 0
152 164 0
151 163 0
154 166 0
157 168 0
156 170 0
148 157 0
154 165 0
153 164 0
150 160 0
151 163 0
151 161 0
143 152 0
150 159 0
150 160 0
158 168 0
157 168 0
150 163 0
154 165 0
170 191 0
168 190 0
169 191 0
165 187 0
171 193 0
167 188 0
173 195 0
170 192 0
172 194 0
166 188 0
172 194 0
171 193 0
171 193 0
170 193 0
168 190 0
171 192 0
166 188 0
167 189 0
166 188 0
166 188 0
171 193 0
169 191 0
166 188 0
167 189 0
162 183 0
167 189 0
167 189 0
167 188 0
168 190 0
168 190 0
164 186 0
167 190 0
166 187 0
166 188 0
171 193 0
165 187 0
169 190 0
163 184 0
170 192 0
165 187 0
167 189 0
169 191 0
164 186 0
161 183 0
162 183 0
165 187 0
160 182 0
164 186 0
165 187 0
166 188 0
162 184 0
162 184 0
162 183 0
164 186 0
163 185 0
165 187 0
162 184 0
159 182 0
162 185 0
163 186 0
160 183 0
157 179 0
165 187 0
162 184 0
165 188 0
164 185 0
163 185 0
154 177 0
161 184 0
159 182 0
160 182 0
164 186 0
163 185 0
160 183 0
163 185 0
161 182 0
165 188 0
161 185 0
158 180 0
163 186 0
159 181 0
162 184 0
162 183 0
155 177 0
157 180 0
160 181 0
166 188 0
162 184 0
163 185 0
162 184 0
152 175 0
159 181 0
153 176 0
163 186 0
156 179 0
159 182 0
159 181 0
161 183 0
158 180 0
155 177 0
155 178 0
157 180 0
154 177 0
156 180 0
162 185 0
153 175 0
162 185 0
158 180 0
158 182 0
153 176 0
154 177 0
159 181 0
156 180 0
160 182 0
149 171 0
159 181 0
156 178 0
158 180 0
150 172 0
156 179 0
157 180 0
151 173 0
155 177 0
159 181 0
154 177 0
155 177 0
150 173 0
155 178 0
154 177 0
155 177 0
161 184 0
155 177 0
151 173 0
156 179 0
152 176 0
154 176 0
162 184 0
148 170 0
143 165 0
161 184 0
160 181 0
156 178 0
156 177 0
149 172 0
145 167 0
150 172 0
148 170 0
159 182 0
154 176 0
146 168 0
155 178 0
156 178 0
151 174 0
152 175 0
151 174 0
156 178 0
151 174 0
151 174 0
152 174 0
142 165 0
151 173 0
155 178 0
147 169 0
157 178 0
152 174 0
149 170 0
144 166 0
150 172 0
157 180 0
148 170 0
151 173 0
150 173 0
145 167 0
153 175 0
153 175 0
143 166 0
144 165 0
143 164 0
153 174 0
146 167 0
148 170 0
146 169 0
148 170 0
144 166 0
149 172 0
152 174 0
139 159 0
142 164 0
148 170 0
150 173 0
143 165 0
143 165 0
154 176 0
148 170 0
155 177 0
144 166 0
154 175 0
140 161 0
136 157 0
143 166 0
151 174 0
147 167 0
156 177 0
142 164 0
143 162 0
137 157 0
148 168 0
150 172 0
140 161 0
142 163 0
146 167 0
146 169 0
147 169 0
148 169 0
142 163 0
146 169 0
153 174 0
152 173 0
138 159 0
153 175 0
145 167 0
148 169 0
140 161 0
145 167 0
146 167 0
146 166 0
148 169 0
146 167 0
151 172 0
143 162 0
146 166 0
148 167 0
147 166 0
143 165 0
148 169 0
150 169 0
151 173 0
149 169 0
156 177 0
147 168 0
145 165 0
154 172 0
141 161 0
155 175 0
148 168 0
148 169 0
150 171 0
141 161 0
148 166 0
144 165 0
156 177 0
149 169 0
143 163 0
146 168 0
140 160 0
149 166 0
151 172 0
148 169 0
141 161 0
145 166 0
140 158 0
145 165 0
135 154 0
155 174 0
151 171 0
146 167 0
143 160 0
149 168 0
146 165 0
143 162 0
146 165 0
152 172 0
146 164 0
149 167 0
144 164 0
151 171 0
140 159 0
149 168 0
142 160 0
145 166 0
139 157 0
151 171 0
149 167 0
153 171 0
156 175 0
158 177 0
155 176 0
146 164 0
145 160 0
140 159 0
147 165 0
143 164 0
147 163 0
139 158 0
145 165 0
154 171 0
148 166 0
152 169 0
151 170 0
145 163 0
151 166 0
148 165 0
141 154 0
145 162 0
150 169 0
145 163 0
152 167 0
155 174 0
154 173 0
152 170 0
150 166 0
148 166 0
155 170 0
151 167 0
153 166 0
147 164 0
148 166 0
149 165 0
152 168 0
149 165 0
145 159 0
150 165 0
145 159 0
144 157 0
140 155 0
146 162 0
148 161 0
148 164 0
148 164 0
161 177 0
152 166 0
148 159 0
143 157 0
140 155 0
154 169 0
155 169 0
152 169 0
157 172 0
149 165 0
141 153 0
147 161 0
144 159 0
154 165 0
158 173 0
147 159 0
146 159 0
142 155 0
148 160 0
149 162 0
147 161 0
152 168 0
148 161 0
147 159 0
150 163 0
149 161 0
148 161 0
160 175 0
147 162 0
142 155 0
151 165 0
149 161 0
155 169 0
150 162 0
157 171 0
155 166 0
144 154 0
147 159 0
147 160 0
151 157 0
153 167 0
148 161 0
157 169 0
153 165 0
162 178 0
151 162 0
151 163 0
151 162 0
153 164 0
147 159 0
145 154 0
152 164 0
151 162 0
153 162 0
156 169 0
159 171 0
145 157 0
153 166 0
155 165 0
148 159 0
154 167 0
152 163 0
155 165 0
151 159 0
151 159 0
158 174 0
152 163 0
156 169 0
151 160 0
155 165 0
158 170 0
173 195 0
170 192 0
173 194 0
171 192 0
171 193 0
167 189 0
167 189 0
170 191 0
167 189 0
169 191 0
171 193 0
167 188 0
169 192 0
168 191 0
165 186 0
173 194 0
171 193 0
167 189 0
171 193 0
163 185 0
173 195 0
164 185 0
169 191 0
171 193 0
167 189 0
170 191 0
170 191 0
170 192 0
171 192 0
169 191 0
170 192 0
165 187 0
163 185 0
164 185 0
159 181 0
164 186 0
167 189 0
164 186 0
164 187 0
164 185 0
167 189 0
161 184 0
167 189 0
163 185 0
157 179 0
167 189 0
166 188 0
161 183 0
167 189 0
169 191 0
165 187 0
165 187 0
159 182 0
165 188 0
162 184 0
159 182 0
166 188 0
166 188 0
161 183 0
159 181 0
159 181 0
168 190 0
159 182 0
160 182 0
159 181 0
162 184 0
160 184 0
159 180 0
159 182 0
159 181 0
162 184 0
165 187 0
162 185 0
159 182 0
160 181 0
161 184 0
159 182 0
161 183 0
154 176 0
163 185 0
162 185 0
163 185 0
155 177 0
158 179 0
157 180 0
165 187 0
155 177 0
162 184 0
160 182 0
160 183 0
157 180 0
157 180 0
154 175 0
160 183 0
161 183 0
164 187 0
153 177 0
156 179 0
159 182 0
159 183 0
158 179 0
160 182 0
158 180 0
152 175 0
155 178 0
159 181 0
159 182 0
159 182 0
165 188 0
152 174 0
160 183 0
159 183 0
160 184 0
152 174 0
155 177 0
154 176 0
158 182 0
161 184 0
156 179 0
156 179 0
161 183 0
156 177 0
161 183 0
159 181 0
147 169 0
153 175 0
152 175 0
157 180 0
153 176 0
149 172 0
160 182 0
153 175 0
157 179 0
155 177 0
156 179 0
154 177 0
158 181 0
157 179 0
148 170 0
157 179 0
155 178 0
158 180 0
154 175 0
154 176 0
161 183 0
150 171 0
150 173 0
159 181 0
149 172 0
154 176 0
159 182 0
143 165 0
157 179 0
153 176 0
154 176 0
148 170 0
149 171 0
149 171 0
156 178 0
146 169 0
156 179 0
155 178 0
154 176 0
152 174 0
156 179 0
148 170 0
150 172 0
159 182 0
150 173 0
157 179 0
154 176 0
138 159 0
155 176 0
149 170 0
151 173 0
147 168 0
142 165 0
137 158 0
150 172 0
142 162 0
145 168 0
142 164 0
153 174 0
145 168 0
153 173 0
148 169 0
150 171 0
153 174 0
139 160 0
146 167 0
153 176 0
148 169 0
144 166 0
148 170 0
146 168 0
149 170 0
159 180 0
152 174 0
148 169 0
146 168 0
148 170 0
147 169 0
143 165 0
151 171 0
151 173 0
143 164 0
154 176 0
147 168 0
160 181 0
151 174 0
152 174 0
147 169 0
142 163 0
148 169 0
144 165 0
158 181 0
154 175 0
147 169 0
147 169 0
148 169 0
149 169 0
142 163 0
140 161 0
153 173 0
137 156 0
146 166 0
156 178 0
149 170 0
152 174 0
150 172 0
148 168 0
142 160 0
143 164 0
147 168 0
144 166 0
135 156 0
142 162 0
155 175 0
139 161 0
148 169 0
148 168 0
143 163 0
146 166 0
145 165 0
145 164 0
153 174 0
144 164 0
153 175 0
147 166 0
146 167 0
144 165 0
145 164 0
153 175 0
149 167 0
145 166 0
147 167 0
150 169 0
146 166 0
149 170 0
149 169 0
147 166 0
148 168 0
141 161 0
143 162 0
151 171 0
147 167 0
148 167 0
144 161 0
153 172 0
150 170 0
151 170 0
147 166 0
150 170 0
142 164 0
144 164 0
148 166 0
149 168 0
151 169 0
154 174 0
149 165 0
151 169 0
152 171 0
146 166 0
143 163 0
152 170 0
153 173 0
150 167 0
142 163 0
152 170 0
148 167 0
157 176 0
149 168 0
160 179 0
152 170 0
148 165 0
149 166 0
148 167 0
144 163 0
150 167 0
150 165 0
142 161 0
143 161 0
152 168 0
147 166 0
150 165 0
151 168 0
153 170 0
147 163 0
146 161 0
145 162 0
156 174 0
156 177 0
159 178 0
143 160 0
147 161 0
151 166 0
144 160 0
146 161 0
148 163 0
149 164 0
158 174 0
147 163 0
149 164 0
148 166 0
150 166 0
151 165 0
153 168 0
149 164 0
151 169 0
160 176 0
146 161 0
145 161 0
150 165 0
146 161 0
150 164 0
153 170 0
151 167 0
149 166 0
148 165 0
157 174 0
144 158 0
156 171 0
150 165 0
149 162 0
149 164 0
146 160 0
149 160 0
153 165 0
145 157 0
149 160 0
153 165 0
148 161 0
153 163 0
149 165 0
151 166 0
148 162 0
152 167 0
141 151 0
145 157 0
151 165 0
153 164 0
151 165 0
146 156 0
153 165 0
149 160 0
151 166 0
142 151 0
152 166 0
150 162 0
152 167 0
152 164 0
150 162 0
148 159 0
154 167 0
149 159 0
154 168 0
147 157 0
148 158 0
149 161 0
155 167 0
153 163 0
156 170 0
155 165 0
145 154 0
150 160 0
155 167 0
151 162 0
147 158 0
155 166 0
150 162 0
155 169 0
144 153 0
150 161 0
155 166 0
160 169 0
154 166 0
157 169 0
155 169 0
160 171 0
152 164 0
173 193 0
170 192 0
170 193 0
168 189 0
171 193 0
168 189 0
169 192 0
166 188 0
167 189 0
168 190 0
172 194 0
170 192 0
169 191 0
165 188 0
164 186 0
168 190 0
171 192 0
166 188 0
167 188 0
164 186 0
166 188 0
168 190 0
168 190 0
167 189 0
167 189 0
167 189 0
167 188 0
165 187 0
164 186 0
167 190 0
169 191 0
166 188 0
164 187 0
164 186 0
168 190 0
162 185 0
163 185 0
165 187 0
162 185 0
168 190 0
168 190 0
167 190 0
162 184 0
161 183 0
164 186 0
165 187 0
168 189 0
163 186 0
162 184 0
164 186 0
160 181 0
161 183 0
167 189 0
165 187 0
165 187 0
158 181 0
161 183 0
162 184 0
161 183 0
165 187 0
167 189 0
161 183 0
164 186 0
161 184 0
159 181 0
157 180 0
167 189 0
167 189 0
164 187 0
158 180 0
163 185 0
162 185 0
157 179 0
157 180 0
151 173 0
158 180 0
159 181 0
162 184 0
160 182 0
167 189 0
165 188 0
166 188 0
159 181 0
164 186 0
159 182 0
163 184 0
155 176 0
158 180 0
159 182 0
161 184 0
159 182 0
157 179 0
155 179 0
162 184 0
150 172 0
160 182 0
156 179 0
159 182 0
159 182 0
161 183 0
163 185 0
162 184 0
158 180 0
152 175 0
162 185 0
156 179 0
162 185 0
154 177 0
148 171 0
155 178 0
162 185 0
158 180 0
154 176 0
159 182 0
155 177 0
157 179 0
154 175 0
156 178 0
155 177 0
158 181 0
155 178 0
156 178 0
147 168 0
157 180 0
155 176 0
153 175 0
156 177 0
152 175 0
155 178 0
159 181 0
156 179 0
162 185 0
153 174 0
151 174 0
152 174 0
157 179 0
156 179 0
152 175 0
157 180 0
155 177 0
151 172 0
152 174 0
153 175 0
152 174 0
152 175 0
160 183 0
153 175 0
157 179 0
156 178 0
151 172 0
149 171 0
156 179 0
148 170 0
157 178 0
148 170 0
148 169 0
151 173 0
148 171 0
146 167 0
153 176 0
149 170 0
153 175 0
149 172 0
148 171 0
148 169 0
148 171 0
151 173 0
151 174 0
158 181 0
146 168 0
150 172 0
152 174 0
147 168 0
150 172 0
146 168 0
151 174 0
145 167 0
151 173 0
144 165 0
146 168 0
142 162 0
152 173 0
141 163 0
147 169 0
150 173 0
152 173 0
151 173 0
141 162 0
152 174 0
145 167 0
148 169 0
150 172 0
142 164 0
151 173 0
146 167 0
145 165 0
154 176 0
149 170 0
157 179 0
142 163 0
148 171 0
139 160 0
153 175 0
145 166 0
145 167 0
144 164 0
155 177 0
153 173 0
146 167 0
149 171 0
149 171 0
147 168 0
141 163 0
150 171 0
144 165 0
150 171 0
148 169 0
143 164 0
148 169 0
147 169 0
140 160 0
144 165 0
142 164 0
154 174 0
143 163 0
149 170 0
139 159 0
153 174 0
146 166 0
140 162 0
141 160 0
148 169 0
144 163 0
148 170 0
145 166 0
150 171 0
152 172 0
152 173 0
139 158 0
141 164 0
145 166 0
151 172 0
155 176 0
142 162 0
150 171 0
149 169 0
145 165 0
148 168 0
148 167 0
152 173 0
144 165 0
148 166 0
147 167 0
153 173 0
151 171 0
152 174 0
145 164 0
152 172 0
150 171 0
154 174 0
153 173 0
143 164 0
153 173 0
146 166 0
144 164 0
148 168 0
144 162 0
147 165 0
140 160 0
152 171 0
149 169 0
151 169 0
148 169 0
147 167 0
145 165 0
153 174 0
146 164 0
150 169 0
139 159 0
147 167 0
148 166 0
153 170 0
143 162 0
151 171 0
152 172 0
151 168 0
147 165 0
154 173 0
157 178 0
145 160 0
149 168 0
149 168 0
146 163 0
151 168 0
154 174 0
148 166 0
149 167 0
147 164 0
150 167 0
154 172 0
143 162 0
155 172 0
144 159 0
143 160 0
153 170 0
147 166 0
153 170 0
141 158 0
154 172 0
152 170 0
153 169 0
146 163 0
148 165 0
140 155 0
150 167 0
147 165 0
148 166 0
152 168 0
150 168 0
153 169 0
143 161 0
150 167 0
148 162 0
147 163 0
144 159 0
156 170 0
150 163 0
149 165 0
152 166 0
142 158 0
153 170 0
151 166 0
155 171 0
145 160 0
147 162 0
150 166 0
141 155 0
148 161 0
153 168 0
149 163 0
152 165 0
157 171 0
154 171 0
148 162 0
146 161 0
150 164 0
158 175 0
153 166 0
154 170 0
149 163 0
150 164 0
153 167 0
146 160 0
149 162 0
157 173 0
153 167 0
147 160 0
146 159 0
150 165 0
152 167 0
154 167 0
154 167 0
154 166 0
149 160 0
149 164 0
146 159 0
152 164 0
155 168 0
149 160 0
147 159 0
150 163 0
156 170 0
150 163 0
151 166 0
154 166 0
156 170 0
152 165 0
157 172 0
155 166 0
154 167 0
150 162 0
140 151 0
151 161 0
148 159 0
150 162 0
150 162 0
155 167 0
156 168 0
157 170 0
157 170 0
152 160 0
144 155 0
147 159 0
152 163 0
152 164 0
150 163 0
158 173 0
153 163 0
154 167 0
158 172 0
170 192 0
168 191 0
169 190 0
173 195 0
169 191 0
171 193 0
169 190 0
165 187 0
164 186 0
170 191 0
169 191 0
161 182 0
163 185 0
169 191 0
168 190 0
167 189 0
169 192 0
170 191 0
166 188 0
170 192 0
167 190 0
166 187 0
168 189 0
165 187 0
166 188 0
165 187 0
162 183 0
161 182 0
168 189 0
163 184 0
165 188 0
166 188 0
167 190 0
163 184 0
167 190 0
165 186 0
167 189 0
161 183 0
167 190 0
166 189 0
165 187 0
161 182 0
161 183 0
160 183 0
163 185 0
169 192 0
165 188 0
168 189 0
164 186 0
164 187 0
161 183 0
168 189 0
165 187 0
167 189 0
168 190 0
163 186 0
163 184 0
165 187 0
160 181 0
161 183 0
166 187 0
159 182 0
163 187 0
165 188 0
163 184 0
169 192 0
164 186 0
161 183 0
160 182 0
165 188 0
160 183 0
159 180 0
161 181 0
162 185 0
159 181 0
161 183 0
158 180 0
158 181 0
165 186 0
159 181 0
162 185 0
155 177 0
156 179 0
158 180 0
154 176 0
164 186 0
164 186 0
164 187 0
161 182 0
161 183 0
154 176 0
159 181 0
155 178 0
158 181 0
163 186 0
155 177 0
162 184 0
158 180 0
159 183 0
157 178 0
157 179 0
150 173 0
157 178 0
161 183 0
153 176 0
165 187 0
153 175 0
162 185 0
165 187 0
153 175 0
161 184 0
159 182 0
159 181 0
154 177 0
158 180 0
158 181 0
157 180 0
160 183 0
154 176 0
152 175 0
157 180 0
158 180 0
160 182 0
153 175 0
154 176 0
151 172 0
161 183 0
156 179 0
147 170 0
159 181 0
152 175 0
156 179 0
151 173 0
157 179 0
150 172 0
161 184 0
159 181 0
152 174 0
158 180 0
147 170 0
155 178 0
156 178 0
154 176 0
155 176 0
157 179 0
158 181 0
150 171 0
155 177 0
143 165 0
147 169 0
151 174 0
154 177 0
147 169 0
156 179 0
155 177 0
159 182 0
149 171 0
157 179 0
157 179 0
150 172 0
146 168 0
150 172 0
148 170 0
145 168 0
157 179 0
152 174 0
148 171 0
148 169 0
154 175 0
153 175 0
158 180 0
152 175 0
154 177 0
147 169 0
146 167 0
156 178 0
144 167 0
154 176 0
150 172 0
146 169 0
152 174 0
146 168 0
140 163 0
154 176 0
144 167 0
156 178 0
153 175 0
148 170 0
139 160 0
158 180 0
148 169 0
152 172 0
145 167 0
152 174 0
154 176 0
155 176 0
149 171 0
155 176 0
149 171 0
145 167 0
146 167 0
147 168 0
156 178 0
150 171 0
144 166 0
151 172 0
148 170 0
143 164 0
145 166 0
140 160 0
144 165 0
158 181 0
141 163 0
151 171 0
154 174 0
148 168 0
146 167 0
138 161 0
142 163 0
151 169 0
151 172 0
144 166 0
154 176 0
141 162 0
146 167 0
142 164 0
152 173 0
147 167 0
154 174 0
144 164 0
143 163 0
152 173 0
139 160 0
143 165 0
150 172 0
147 166 0
151 171 0
150 170 0
148 168 0
146 168 0
148 168 0
148 168 0
148 169 0
154 175 0
148 169 0
153 175 0
142 161 0
145 167 0
150 170 0
146 165 0
144 163 0
151 172 0
144 165 0
154 174 0
149 170 0
143 164 0
150 170 0
147 166 0
152 172 0
152 173 0
159 180 0
144 165 0
154 174 0
149 170 0
148 168 0
144 164 0
148 168 0
152 172 0
143 163 0
148 168 0
136 154 0
150 171 0
145 166 0
149 167 0
144 163 0
146 166 0
150 169 0
140 159 0
141 163 0
149 169 0
149 167 0
150 167 0
148 167 0
152 171 0
150 170 0
147 167 0
150 167 0
150 167 0
150 168 0
147 165 0
156 177 0
143 161 0
149 168 0
146 163 0
147 166 0
154 172 0
147 165 0
150 170 0
151 170 0
152 171 0
149 165 0
149 167 0
152 169 0
149 166 0
145 161 0
148 166 0
149 168 0
152 170 0
148 166 0
150 170 0
150 166 0
149 168 0
148 164 0
150 166 0
146 165 0
143 159 0
155 175 0
151 168 0
149 166 0
155 173 0
153 169 0
150 169 0
145 162 0
145 161 0
152 168 0
162 180 0
152 168 0
142 161 0
146 163 0
152 169 0
152 168 0
153 167 0
155 171 0
158 174 0
147 166 0
149 164 0
150 166 0
149 165 0
153 169 0
148 161 0
156 172 0
153 170 0
153 170 0
153 167 0
150 167 0
147 162 0
141 155 0
142 155 0
145 162 0
152 167 0
150 166 0
152 168 0
152 165 0
153 170 0
152 166 0
150 164 0
152 166 0
155 168 0
149 159 0
155 168 0
150 164 0
147 160 0
152 165 0
148 161 0
155 168 0
153 166 0
140 151 0
151 164 0
154 168 0
147 160 0
145 157 0
155 168 0
156 167 0
151 163 0
150 162 0
151 166 0
155 166 0
151 163 0
148 160 0
149 162 0
151 161 0
152 164 0
145 156 0
155 167 0
155 166 0
150 162 0
152 163 0
149 163 0
152 162 0
141 152 0
160 173 0
153 165 0
154 167 0
156 168 0
152 163 0
153 165 0
151 163 0
155 167 0
154 163 0
154 165 0
167 189 0
171 194 0
168 191 0
174 196 0
167 188 0
167 190 0
170 192 0
169 190 0
166 188 0
170 192 0
168 191 0
164 187 0
170 191 0
165 187 0
166 188 0
171 193 0
170 192 0
167 189 0
166 189 0
169 191 0
166 188 0
164 186 0
166 188 0
164 185 0
169 190 0
165 187 0
169 190 0
169 192 0
165 187 0
168 189 0
167 189 0
165 188 0
163 185 0
164 186 0
157 180 0
159 181 0
165 187 0
167 188 0
157 179 0
162 185 0
160 182 0
159 180 0
165 188 0
168 191 0
161 183 0
165 188 0
168 190 0
165 187 0
162 184 0
163 185 0
166 187 0
168 190 0
165 187 0
165 187 0
160 183 0
161 182 0
166 188 0
164 186 0
160 183 0
161 183 0
166 187 0
159 181 0
164 185 0
161 184 0
166 189 0
167 190 0
163 185 0
158 181 0
156 178 0
161 184 0
160 182 0
162 184 0
158 181 0
162 184 0
162 185 0
163 184 0
159 181 0
161 183 0
165 188 0
158 179 0
165 186 0
158 180 0
158 181 0
158 180 0
161 184 0
158 181 0
161 183 0
163 185 0
161 184 0
156 178 0
160 182 0
161 183 0
158 181 0
158 179 0
167 190 0
157 180 0
162 185 0
154 176 0
158 181 0
153 175 0
161 183 0
160 183 0
155 178 0
159 182 0
160 182 0
158 181 0
162 184 0
159 181 0
157 181 0
160 182 0
155 178 0
161 185 0
155 177 0
158 181 0
160 184 0
153 175 0
157 180 0
149 173 0
152 174 0
144 166 0
158 181 0
151 174 0
147 170 0
159 182 0
160 184 0
148 172 0
150 172 0
155 178 0
158 180 0
145 167 0
155 177 0
156 179 0
149 172 0
156 178 0
154 177 0
156 179 0
159 181 0
149 171 0
161 184 0
155 177 0
155 178 0
150 172 0
144 165 0
152 174 0
153 176 0
156 178 0
145 167 0
155 179 0
154 176 0
153 175 0
155 178 0
156 178 0
153 176 0
152 173 0
152 173 0
144 166 0
156 178 0
150 172 0
148 171 0
152 174 0
152 173 0
151 173 0
159 180 0
153 174 0
160 183 0
152 174 0
157 179 0
156 179 0
143 165 0
149 171 0
153 175 0
150 172 0
149 172 0
152 174 0
149 171 0
148 169 0
151 172 0
153 174 0
148 169 0
145 167 0
148 170 0
147 168 0
149 171 0
152 174 0
152 174 0
150 172 0
144 166 0
146 168 0
152 173 0
144 166 0
153 175 0
153 175 0
154 176 0
147 170 0
150 173 0
152 173 0
148 169 0
151 172 0
147 168 0
147 170 0
150 173 0
150 172 0
152 173 0
149 171 0
152 173 0
148 170 0
145 166 0
150 173 0
145 165 0
154 176 0
145 167 0
153 174 0
146 167 0
148 169 0
143 162 0
150 172 0
143 163 0
151 173 0
147 169 0
153 175 0
147 169 0
152 174 0
146 165 0
145 167 0
145 167 0
146 168 0
149 170 0
149 169 0
144 166 0
146 166 0
151 172 0
139 159 0
147 166 0
146 167 0
153 174 0
147 168 0
142 164 0
143 165 0
159 182 0
145 165 0
143 164 0
145 165 0
149 168 0
148 169 0
146 166 0
151 171 0
156 177 0
145 165 0
151 172 0
153 174 0
153 173 0
148 168 0
146 166 0
147 168 0
151 170 0
151 171 0
151 171 0
147 167 0
153 172 0
153 173 0
150 170 0
149 170 0
143 162 0
149 169 0
153 174 0
149 169 0
148 169 0
150 169 0
151 172 0
142 160 0
147 166 0
154 174 0
148 166 0
146 163 0
149 168 0
144 162 0
157 179 0
157 180 0
140 158 0
145 164 0
147 166 0
155 176 0
147 165 0
149 168 0
158 179 0
145 165 0
147 164 0
149 168 0
148 169 0
151 171 0
147 165 0
149 165 0
152 169 0
151 168 0
151 168 0
149 167 0
153 171 0
147 164 0
153 169 0
157 175 0
145 165 0
153 170 0
151 171 0
155 173 0
151 168 0
148 168 0
140 158 0
147 165 0
142 157 0
154 170 0
146 164 0
148 165 0
155 171 0
153 172 0
143 160 0
149 166 0
151 169 0
146 164 0
152 170 0
149 165 0
143 159 0
153 172 0
151 169 0
152 169 0
153 171 0
155 172 0
152 170 0
154 169 0
154 170 0
147 163 0
150 164 0
150 167 0
148 164 0
154 168 0
149 164 0
147 161 0
153 168 0
145 158 0
147 161 0
148 164 0
149 165 0
141 159 0
154 171 0
154 171 0
147 160 0
153 170 0
152 165 0
148 164 0
154 168 0
148 164 0
150 164 0
153 168 0
155 168 0
144 154 0
152 167 0
143 158 0
138 148 0
142 154 0
149 162 0
154 166 0
147 162 0
152 167 0
156 167 0
156 171 0
147 160 0
148 159 0
154 169 0
151 162 0
154 167 0
152 164 0
149 163 0
151 162 0
146 158 0
152 166 0
150 165 0
149 162 0
149 164 0
156 171 0
153 167 0
149 158 0
147 160 0
151 163 0
163 176 0
150 162 0
151 163 0
155 171 0
150 163 0
154 167 0
150 163 0
155 166 0
152 165 0
147 160 0
152 163 0
152 164 0
155 167 0
158 171 0
148 159 0
149 157 0
147 158 0
157 169 0
166 188 0
169 190 0
172 194 0
169 190 0
172 194 0
169 190 0
171 192 0
170 190 0
165 188 0
169 191 0
167 190 0
168 190 0
168 190 0
171 194 0
167 188 0
168 190 0
166 188 0
164 186 0
169 192 0
168 190 0
171 193 0
170 193 0
168 190 0
165 188 0
164 186 0
165 187 0
165 187 0
163 185 0
169 192 0
168 190 0
166 189 0
167 188 0
165 187 0
162 185 0
164 186 0
166 188 0
165 187 0
168 189 0
165 187 0
165 188 0
172 193 0
164 186 0
162 184 0
161 184 0
166 189 0
164 186 0
159 181 0
166 187 0
163 186 0
161 182 0
163 186 0
165 188 0
166 189 0
163 185 0
160 182 0
167 190 0
164 185 0
162 184 0
165 188 0
167 189 0
164 186 0
160 182 0
162 184 0
166 188 0
160 183 0
164 186 0
165 187 0
160 183 0
159 180 0
167 189 0
165 186 0
162 185 0
157 179 0
158 180 0
162 184 0
163 186 0
165 189 0
169 192 0
155 178 0
163 185 0
163 185 0
156 179 0
162 185 0
161 185 0
156 179 0
159 182 0
161 182 0
158 179 0
158 181 0
161 183 0
159 182 0
159 181 0
164 186 0
158 181 0
148 171 0
163 184 0
161 184 0
158 181 0
157 181 0
152 174 0
154 178 0
158 181 0
161 184 0
161 184 0
158 181 0
149 171 0
154 177 0
157 180 0
161 184 0
151 174 0
157 179 0
157 180 0
159 182 0
159 182 0
165 187 0
157 181 0
152 175 0
158 179 0
146 169 0
155 178 0
154 178 0
152 174 0
153 174 0
155 178 0
153 176 0
161 183 0
156 177 0
160 182 0
152 174 0
157 180 0
152 173 0
159 182 0
148 171 0
157 180 0
160 182 0
156 179 0
151 173 0
156 179 0
155 178 0
149 170 0
140 163 0
157 180 0
153 176 0
159 182 0
147 170 0
154 177 0
148 171 0
150 173 0
154 175 0
146 169 0
159 182 0
147 169 0
157 180 0
152 174 0
153 176 0
154 177 0
152 174 0
154 177 0
149 172 0
154 176 0
153 175 0
154 175 0
151 174 0
150 172 0
155 178 0
143 165 0
147 169 0
156 178 0
144 165 0
146 168 0
156 179 0
150 170 0
146 168 0
145 166 0
145 167 0
149 172 0
152 173 0
140 161 0
150 171 0
149 171 0
147 167 0
155 177 0
148 170 0
148 168 0
153 175 0
146 168 0
150 172 0
151 172 0
145 167 0
148 170 0
153 176 0
158 181 0
144 166 0
147 169 0
150 170 0
144 165 0
149 169 0
151 172 0
148 171 0
143 163 0
155 178 0
146 167 0
151 172 0
138 160 0
148 169 0
144 166 0
153 174 0
157 180 0
144 165 0
152 174 0
152 172 0
149 172 0
144 166 0
149 171 0
150 171 0
148 168 0
149 170 0
143 163 0
153 175 0
150 171 0
147 168 0
144 165 0
149 169 0
149 171 0
146 168 0
150 171 0
149 169 0
150 171 0
151 172 0
151 173 0
143 164 0
148 168 0
140 162 0
145 166 0
147 168 0
141 161 0
149 170 0
145 167 0
154 174 0
139 160 0
149 169 0
145 165 0
148 167 0
144 164 0
150 173 0
145 165 0
147 167 0
144 164 0
154 173 0
145 164 0
151 172 0
155 177 0
155 177 0
145 163 0
147 167 0
143 164 0
150 170 0
156 176 0
143 162 0
147 167 0
146 162 0
161 179 0
141 159 0
146 165 0
146 167 0
141 159 0
144 162 0
140 159 0
136 154 0
153 173 0
145 163 0
141 160 0
151 170 0
142 161 0
148 166 0
141 159 0
150 169 0
152 171 0
148 167 0
148 168 0
151 171 0
151 171 0
150 168 0
143 162 0
150 169 0
146 166 0
152 171 0
155 175 0
152 171 0
150 168 0
144 161 0
151 170 0
146 164 0
156 175 0
149 167 0
152 172 0
148 167 0
153 172 0
143 160 0
147 164 0
152 172 0
141 159 0
149 167 0
151 169 0
150 170 0
154 171 0
155 175 0
155 171 0
156 176 0
151 170 0
140 157 0
150 168 0
152 170 0
152 169 0
152 169 0
152 170 0
154 173 0
141 156 0
152 167 0
152 171 0
152 168 0
152 169 0
151 166 0
148 166 0
146 162 0
152 169 0
146 164 0
154 171 0
144 161 0
150 165 0
145 160 0
147 164 0
154 172 0
148 165 0
157 172 0
152 168 0
152 166 0
151 166 0
151 166 0
157 171 0
153 168 0
160 176 0
151 165 0
150 164 0
149 167 0
148 163 0
153 167 0
156 170 0
154 171 0
156 172 0
158 172 0
150 164 0
159 176 0
156 172 0
154 169 0
152 166 0
146 160 0
148 160 0
153 169 0
154 169 0
144 161 0
152 166 0
147 160 0
155 170 0
154 169 0
151 165 0
144 156 0
152 166 0
152 166 0
152 166 0
152 166 0
152 167 0
152 168 0
152 167 0
143 155 0
155 168 0
147 159 0
154 165 0
146 157 0
152 163 0
152 165 0
155 167 0
157 171 0
156 171 0
144 157 0
158 171 0
155 166 0
149 162 0
149 164 0
148 159 0
156 167 0
152 163 0
157 171 0
152 164 0
156 170 0
157 169 0
152 161 0
149 162 0
156 169 0
153 167 0
169 191 0
171 192 0
166 189 0
168 190 0
167 189 0
168 190 0
168 189 0
167 188 0
163 185 0
171 192 0
164 186 0
171 193 0
170 193 0
167 189 0
166 188 0
164 186 0
173 195 0
167 189 0
166 189 0
167 189 0
166 188 0
168 189 0
166 188 0
166 187 0
166 187 0
167 189 0
161 183 0
166 188 0
165 187 0
163 184 0
170 191 0
163 185 0
168 190 0
166 188 0
166 187 0
165 188 0
163 185 0
163 185 0
158 180 0
165 187 0
159 180 0
163 185 0
164 186 0
168 190 0
164 186 0
161 184 0
166 188 0
164 186 0
166 188 0
164 187 0
162 183 0
163 186 0
167 189 0
169 191 0
166 187 0
162 184 0
164 187 0
163 187 0
162 184 0
163 185 0
162 184 0
165 188 0
160 182 0
162 184 0
163 186 0
167 190 0
159 182 0
165 187 0
169 190 0
156 177 0
165 187 0
158 180 0
165 187 0
164 187 0
164 186 0
162 185 0
163 185 0
165 187 0
163 185 0
166 188 0
168 191 0
164 187 0
163 186 0
160 182 0
159 181 0
160 183 0
160 182 0
156 178 0
156 177 0
164 186 0
159 182 0
156 179 0
158 181 0
157 179 0
158 180 0
158 181 0
159 181 0
157 179 0
160 183 0
158 181 0
158 181 0
159 181 0
150 172 0
165 187 0
161 183 0
158 180 0
158 181 0
157 180 0
155 178 0
157 180 0
158 179 0
155 178 0
154 175 0
158 180 0
162 184 0
158 180 0
161 184 0
156 179 0
156 178 0
155 178 0
164 187 0
152 175 0
154 177 0
158 180 0
157 180 0
157 179 0
158 181 0
152 174 0
167 189 0
160 183 0
157 180 0
150 173 0
149 172 0
152 174 0
156 179 0
153 176 0
160 183 0
155 177 0
152 174 0
152 175 0
155 177 0
156 180 0
160 183 0
150 173 0
158 179 0
147 170 0
153 175 0
158 181 0
155 177 0
152 174 0
154 176 0
166 188 0
153 174 0
153 175 0
145 168 0
153 176 0
157 180 0
149 170 0
152 174 0
144 166 0
160 181 0
157 179 0
153 175 0
158 179 0
154 176 0
153 174 0
142 165 0
153 176 0
149 171 0
155 177 0
147 169 0
151 173 0
150 171 0
156 179 0
145 166 0
152 173 0
147 169 0
156 178 0
146 168 0
153 174 0
153 174 0
149 171 0
143 166 0
153 175 0
151 172 0
152 174 0
157 178 0
150 174 0
152 174 0
147 169 0
155 176 0
148 169 0
149 170 0
154 176 0
152 173 0
149 170 0
150 170 0
148 171 0
150 172 0
148 170 0
155 177 0
138 159 0
144 166 0
143 166 0
144 166 0
142 162 0
154 175 0
159 182 0
150 171 0
146 167 0
151 173 0
151 172 0
148 167 0
147 167 0
146 166 0
148 169 0
145 166 0
146 168 0
147 168 0
145 167 0
154 176 0
147 168 0
145 167 0
147 169 0
147 170 0
151 172 0
144 165 0
151 172 0
139 160 0
153 173 0
151 172 0
146 168 0
149 171 0
144 165 0
146 168 0
152 174 0
140 160 0
147 168 0
142 162 0
154 175 0
145 166 0
145 165 0
145 165 0
149 171 0
153 174 0
143 163 0
147 167 0
150 169 0
147 167 0
152 173 0
155 177 0
153 174 0
148 167 0
153 174 0
149 169 0
150 170 0
143 162 0
147 168 0
144 165 0
150 169 0
159 180 0
154 175 0
150 171 0
152 172 0
143 163 0
147 167 0
147 167 0
151 171 0
146 165 0
151 173 0
149 167 0
148 167 0
146 166 0
150 170 0
155 175 0
148 165 0
146 166 0
149 167 0
145 164 0
148 167 0
154 174 0
147 167 0
145 164 0
145 164 0
155 175 0
152 172 0
155 174 0
147 166 0
145 162 0
150 170 0
152 173 0
147 166 0
145 163 0
150 167 0
152 170 0
149 167 0
153 171 0
154 173 0
150 170 0
149 168 0
149 167 0
158 179 0
150 168 0
146 164 0
151 169 0
152 171 0
144 162 0
161 179 0
148 168 0
144 162 0
150 167 0
152 172 0
150 167 0
146 163 0
147 163 0
146 163 0
152 168 0
144 160 0
157 174 0
150 170 0
154 173 0
152 169 0
155 170 0
141 157 0
150 165 0
153 170 0
151 166 0
154 171 0
152 168 0
147 164 0
144 161 0
151 168 0
144 158 0
157 175 0
151 168 0
150 166 0
149 164 0
147 164 0
154 172 0
162 180 0
156 171 0
154 171 0
152 169 0
150 164 0
147 162 0
156 171 0
149 165 0
153 168 0
149 167 0
148 163 0
150 166 0
152 167 0
146 159 0
152 167 0
152 166 0
155 170 0
153 166 0
154 169 0
151 162 0
158 172 0
153 166 0
150 162 0
151 166 0
157 171 0
155 167 0
157 171 0
149 162 0
155 168 0
158 174 0
152 166 0
154 168 0
154 169 0
152 166 0
154 168 0
147 160 0
150 163 0
154 167 0
152 164 0
153 165 0
158 170 0
149 159 0
156 170 0
156 168 0
151 163 0
156 169 0
153 166 0
154 167 0
153 168 0
151 164 0
154 170 0
153 164 0
151 163 0
155 170 0
153 165 0
154 166 0
150 161 0
154 166 0
149 159 0
153 163 0
152 162 0
170 192 0
167 190 0
168 190 0
170 192 0
167 189 0
166 188 0
170 193 0
166 189 0
170 193 0
170 192 0
170 193 0
167 189 0
165 188 0
167 188 0
170 191 0
163 186 0
165 188 0
167 189 0
165 187 0
167 189 0
167 189 0
170 192 0
164 185 0
168 190 0
163 186 0
162 184 0
165 188 0
167 190 0
160 182 0
163 184 0
163 185 0
164 186 0
161 183 0
162 184 0
166 187 0
163 186 0
163 184 0
162 184 0
169 191 0
168 189 0
169 192 0
159 181 0
164 187 0
162 185 0
166 187 0
167 190 0
167 190 0
159 180 0
164 186 0
169 191 0
163 185 0
160 182 0
161 184 0
161 183 0
165 187 0
165 187 0
163 185 0
165 187 0
160 181 0
157 180 0
162 185 0
163 187 0
159 181 0
157 180 0
166 189 0
156 177 0
165 188 0
162 183 0
162 184 0
160 182 0
160 183 0
160 183 0
155 178 0
165 187 0
162 184 0
162 186 0
156 179 0
159 182 0
161 184 0
164 185 0
155 178 0
161 183 0
164 186 0
165 187 0
157 179 0
158 181 0
160 182 0
165 187 0
157 178 0
160 183 0
161 184 0
160 182 0
156 178 0
155 177 0
162 185 0
160 182 0
154 177 0
156 179 0
158 180 0
158 182 0
162 185 0
162 185 0
153 175 0
162 184 0
167 190 0
164 186 0
148 169 0
159 182 0
161 185 0
157 179 0
161 183 0
158 181 0
156 179 0
161 184 0
155 178 0
158 181 0
161 184 0
157 180 0
152 176 0
158 180 0
160 182 0
161 183 0
162 186 0
155 177 0
159 181 0
153 176 0
163 184 0
159 182 0
154 176 0
157 180 0
157 180 0
157 179 0
161 183 0
150 172 0
157 180 0
147 169 0
155 177 0
154 177 0
152 175 0
154 177 0
157 179 0
159 182 0
152 174 0
157 179 0
154 177 0
157 179 0
154 177 0
153 174 0
150 173 0
154 176 0
152 175 0
148 171 0
148 170 0
149 171 0
155 177 0
155 177 0
155 177 0
158 181 0
152 174 0
152 175 0
155 178 0
156 178 0
148 170 0
153 175 0
150 172 0
145 167 0
152 174 0
156 177 0
144 166 0
153 174 0
148 170 0
148 169 0
152 174 0
146 168 0
160 182 0
150 172 0
156 177 0
154 176 0
160 182 0
161 182 0
146 167 0
156 179 0
152 174 0
153 176 0
154 175 0
149 171 0
149 170 0
157 179 0
148 168 0
149 169 0
148 170 0
145 166 0
150 171 0
146 169 0
148 169 0
153 175 0
145 167 0
147 169 0
148 169 0
148 169 0
156 178 0
150 172 0
152 174 0
142 163 0
148 168 0
146 168 0
157 178 0
152 175 0
152 175 0
147 168 0
150 171 0
150 172 0
152 175 0
152 174 0
149 170 0
150 171 0
147 169 0
151 174 0
143 163 0
148 170 0
153 174 0
151 172 0
150 171 0
145 165 0
152 173 0
151 171 0
155 176 0
153 174 0
150 170 0
148 170 0
140 160 0
145 165 0
148 169 0
152 174 0
147 168 0
149 170 0
147 168 0
146 166 0
147 168 0
149 171 0
144 165 0
147 169 0
151 172 0
155 175 0
143 164 0
151 172 0
152 172 0
156 177 0
143 162 0
150 169 0
151 173 0
143 163 0
141 161 0
148 168 0
151 172 0
154 174 0
145 166 0
150 172 0
150 170 0
149 171 0
153 174 0
157 177 0
152 171 0
150 170 0
148 168 0
149 167 0
150 168 0
157 176 0
142 162 0
147 168 0
154 173 0
151 172 0
150 169 0
143 162 0
156 176 0
152 171 0
153 175 0
151 171 0
151 170 0
152 171 0
149 167 0
152 171 0
154 173 0
151 172 0
156 176 0
142 159 0
152 169 0
146 166 0
157 175 0
155 175 0
147 167 0
149 168 0
146 165 0
156 176 0
163 183 0
150 168 0
151 171 0
159 178 0
157 176 0
152 171 0
142 161 0
145 164 0
148 167 0
154 172 0
147 165 0
149 165 0
149 168 0
155 176 0
151 169 0
148 163 0
147 165 0
156 175 0
147 161 0
151 165 0
148 167 0
143 158 0
144 161 0
157 176 0
147 163 0
143 159 0
156 174 0
155 172 0
155 173 0
153 170 0
155 169 0
142 158 0
151 166 0
144 161 0
146 160 0
155 172 0
160 178 0
153 170 0
160 175 0
150 168 0
154 172 0
156 172 0
150 164 0
151 168 0
150 168 0
155 170 0
150 166 0
153 169 0
155 173 0
156 172 0
153 168 0
150 166 0
158 174 0
148 163 0
150 164 0
146 161 0
155 173 0
155 172 0
153 168 0
158 173 0
154 170 0
146 161 0
154 168 0
151 163 0
158 173 0
146 159 0
157 171 0
151 166 0
153 168 0
146 161 0
144 159 0
154 167 0
153 166 0
162 177 0
158 173 0
158 174 0
146 158 0
150 165 0
140 150 0
155 170 0
155 170 0
155 166 0
151 163 0
152 166 0
154 163 0
146 159 0
156 170 0
153 169 0
158 171 0
157 170 0
160 176 0
154 167 0
156 171 0
154 167 0
155 169 0
154 166 0
158 170 0
157 170 0
161 175 0
151 162 0
156 167 0
154 168 0
159 171 0
157 169 0
157 169 0
146 156 0
165 187 0
167 190 0
165 186 0
167 189 0
167 189 0
169 191 0
170 191 0
170 193 0
166 187 0
167 189 0
168 191 0
165 187 0
167 188 0
166 188 0
167 191 0
170 192 0
168 191 0
170 192 0
169 191 0
167 189 0
164 185 0
163 185 0
167 190 0
167 189 0
166 189 0
166 190 0
166 188 0
169 192 0
165 187 0
165 187 0
162 185 0
164 186 0
170 193 0
168 191 0
162 184 0
164 186 0
164 186 0
168 189 0
164 186 0
171 192 0
161 183 0
158 181 0
166 188 0
166 188 0
163 186 0
159 182 0
166 189 0
161 183 0
161 183 0
164 187 0
165 187 0
162 184 0
163 186 0
166 189 0
160 183 0
166 188 0
163 185 0
163 186 0
165 188 0
164 187 0
165 187 0
168 190 0
164 186 0
159 181 0
161 183 0
166 188 0
164 187 0
154 177 0
156 179 0
161 184 0
156 179 0
164 186 0
161 184 0
160 183 0
162 184 0
163 185 0
158 181 0
165 187 0
158 180 0
154 177 0
161 184 0
156 178 0
154 176 0
161 184 0
162 185 0
161 183 0
162 185 0
162 184 0
163 185 0
161 183 0
157 181 0
152 174 0
155 178 0
155 177 0
160 182 0
162 183 0
158 181 0
160 183 0
159 181 0
156 179 0
164 186 0
155 177 0
163 186 0
158 181 0
158 180 0
152 176 0
156 179 0
158 180 0
156 178 0
156 178 0
163 185 0
159 181 0
157 179 0
166 188 0
158 179 0
156 179 0
152 175 0
155 178 0
157 180 0
154 177 0
161 183 0
164 186 0
157 179 0
161 183 0
157 179 0
154 176 0
155 177 0
152 174 0
153 175 0
163 186 0
160 182 0
158 181 0
147 170 0
155 177 0
157 180 0
151 173 0
154 177 0
158 181 0
154 177 0
151 174 0
147 170 0
156 179 0
153 175 0
161 183 0
159 180 0
155 177 0
158 180 0
158 181 0
156 178 0
152 175 0
152 175 0
151 172 0
159 182 0
155 177 0
151 174 0
148 171 0
155 177 0
150 172 0
151 174 0
150 173 0
147 169 0
149 172 0
153 174 0
150 172 0
152 175 0
147 169 0
146 168 0
160 183 0
142 164 0
154 177 0
146 168 0
152 174 0
149 170 0
146 169 0
157 178 0
153 175 0
151 172 0
153 175 0
154 177 0
160 183 0
150 173 0
150 172 0
152 174 0
152 174 0
154 177 0
150 172 0
151 174 0
155 177 0
143 165 0
143 164 0
148 170 0
147 168 0
149 171 0
154 176 0
153 174 0
151 174 0
147 169 0
153 173 0
148 170 0
151 172 0
142 162 0
151 172 0
151 172 0
145 168 0
158 180 0
149 170 0
149 169 0
150 173 0
149 171 0
156 178 0
152 173 0
149 170 0
149 171 0
147 169 0
150 172 0
151 174 0
149 172 0
150 171 0
151 172 0
158 179 0
156 178 0
153 175 0
147 167 0
154 176 0
156 177 0
158 179 0
154 175 0
155 177 0
152 175 0
150 172 0
148 168 0
128 148 0
148 169 0
142 161 0
154 177 0
148 169 0
141 161 0
151 172 0
150 172 0
149 170 0
150 173 0
154 175 0
151 172 0
151 173 0
148 167 0
147 168 0
144 163 0
143 163 0
147 167 0
152 173 0
151 172 0
151 171 0
150 171 0
151 171 0
147 167 0
143 164 0
155 177 0
153 174 0
145 167 0
153 174 0
147 165 0
144 167 0
148 168 0
146 165 0
149 169 0
153 173 0
151 173 0
148 168 0
157 176 0
150 169 0
147 167 0
142 161 0
149 169 0
149 168 0
158 179 0
155 175 0
148 169 0
150 170 0
143 162 0
142 161 0
149 168 0
150 168 0
153 172 0
152 173 0
148 166 0
159 179 0
150 171 0
144 163 0
153 174 0
151 170 0
150 168 0
150 169 0
154 173 0
152 171 0
143 160 0
153 173 0
154 175 0
150 171 0
149 167 0
150 167 0
141 159 0
148 168 0
154 174 0
147 165 0
153 171 0
142 160 0
156 177 0
147 164 0
144 163 0
151 168 0
148 167 0
150 166 0
151 170 0
153 172 0
152 171 0
146 162 0
154 172 0
146 162 0
155 175 0
150 169 0
149 164 0
149 166 0
159 178 0
156 175 0
143 159 0
145 161 0
153 170 0
152 170 0
158 176 0
153 170 0
145 162 0
157 175 0
156 175 0
149 165 0
146 165 0
147 163 0
145 158 0
157 173 0
154 168 0
149 164 0
153 168 0
148 165 0
155 172 0
151 167 0
154 170 0
147 162 0
143 156 0
157 175 0
151 165 0
153 168 0
146 159 0
153 167 0
146 161 0
153 169 0
153 169 0
152 168 0
154 170 0
155 169 0
151 166 0
162 179 0
152 167 0
154 169 0
150 165 0
147 162 0
156 169 0
155 169 0
155 170 0
152 163 0
151 163 0
150 162 0
157 169 0
148 162 0
149 163 0
153 165 0
150 165 0
152 164 0
154 168 0
155 168 0
155 168 0
154 167 0
152 164 0
146 159 0
151 164 0
150 162 0
151 167 0
155 168 0
153 168 0
154 166 0
150 162 0
154 167 0
150 163 0
150 162 0
153 168 0
159 170 0
154 167 0
148 161 0
158 173 0
154 165 0
158 172 0
151 165 0
166 188 0
170 193 0
167 189 0
166 189 0
170 191 0
168 191 0
164 186 0
167 189 0
167 189 0
160 182 0
167 189 0
171 193 0
165 187 0
167 189 0
170 192 0
162 185 0
164 186 0
164 187 0
169 191 0
166 188 0
171 193 0
164 186 0
166 187 0
163 185 0
168 190 0
169 191 0
165 187 0
170 192 0
162 183 0
164 185 0
165 187 0
165 187 0
164 186 0
167 189 0
165 188 0
168 189 0
166 188 0
162 185 0
161 184 0
167 189 0
164 186 0
164 186 0
161 184 0
162 185 0
161 183 0
166 188 0
167 190 0
162 186 0
164 186 0
161 183 0
171 193 0
161 183 0
164 187 0
158 182 0
161 183 0
157 179 0
163 185 0
157 179 0
164 187 0
165 187 0
161 185 0
162 184 0
161 183 0
166 188 0
163 185 0
163 186 0
157 180 0
162 183 0
156 178 0
166 188 0
159 182 0
157 180 0
163 186 0
157 180 0
163 186 0
163 186 0
166 188 0
156 178 0
164 187 0
161 184 0
155 177 0
161 184 0
158 181 0
160 182 0
160 182 0
160 183 0
162 185 0
162 185 0
159 181 0
152 176 0
159 181 0
166 189 0
162 184 0
157 181 0
155 179 0
154 176 0
160 182 0
161 184 0
159 182 0
166 188 0
158 181 0
159 182 0
158 181 0
161 184 0
162 184 0
161 184 0
154 175 0
152 174 0
157 180 0
158 180 0
157 181 0
157 179 0
166 188 0
155 178 0
158 181 0
157 180 0
158 181 0
152 174 0
164 187 0
160 184 0
164 187 0
161 183 0
156 179 0
155 177 0
157 179 0
158 180 0
156 180 0
150 173 0
163 185 0
155 178 0
157 179 0
156 180 0
150 172 0
152 174 0
159 181 0
155 177 0
161 183 0
153 174 0
158 180 0
154 177 0
158 181 0
157 179 0
159 182 0
153 176 0
153 174 0
155 177 0
154 177 0
156 178 0
157 179 0
148 170 0
149 172 0
157 179 0
157 178 0
146 167 0
158 181 0
155 178 0
156 179 0
153 174 0
152 175 0
146 168 0
160 181 0
152 175 0
152 175 0
151 174 0
158 180 0
152 173 0
156 179 0
146 168 0
161 183 0
162 184 0
155 178 0
161 184 0
149 170 0
150 172 0
152 174 0
155 175 0
150 170 0
154 177 0
158 180 0
157 179 0
149 172 0
160 182 0
150 172 0
159 180 0
150 171 0
148 170 0
145 167 0
156 179 0
157 178 0
155 176 0
146 169 0
150 173 0
148 171 0
158 180 0
146 169 0
144 167 0
163 186 0
150 171 0
144 166 0
146 167 0
154 176 0
151 173 0
155 176 0
150 172 0
158 179 0
149 169 0
150 173 0
147 169 0
148 171 0
149 171 0
151 172 0
156 178 0
151 173 0
152 173 0
151 172 0
148 169 0
151 174 0
154 176 0
155 177 0
152 175 0
155 176 0
151 171 0
160 181 0
154 174 0
148 170 0
148 168 0
154 176 0
152 173 0
150 171 0
141 161 0
149 170 0
142 164 0
152 173 0
146 166 0
150 171 0
149 170 0
156 178 0
148 171 0
152 173 0
153 175 0
146 167 0
151 173 0
150 170 0
146 166 0
151 172 0
146 166 0
158 179 0
155 175 0
150 171 0
148 167 0
147 168 0
150 172 0
153 173 0
155 176 0
147 168 0
151 171 0
151 172 0
153 173 0
153 174 0
147 168 0
151 169 0
149 169 0
154 175 0
149 169 0
136 155 0
146 165 0
154 173 0
156 178 0
147 168 0
145 164 0
147 168 0
154 174 0
153 173 0
146 167 0
152 173 0
151 171 0
156 177 0
150 169 0
157 177 0
157 178 0
155 175 0
147 167 0
145 164 0
153 173 0
152 172 0
156 175 0
152 173 0
143 163 0
148 167 0
143 161 0
151 173 0
148 169 0
150 170 0
146 166 0
149 168 0
153 172 0
152 172 0
151 168 0
156 176 0
155 174 0
152 170 0
150 169 0
155 172 0
156 176 0
148 168 0
151 170 0
154 173 0
152 171 0
151 170 0
156 176 0
156 175 0
147 164 0
155 171 0
152 169 0
153 171 0
152 169 0
157 173 0
158 176 0
153 170 0
144 162 0
157 176 0
144 163 0
148 165 0
153 169 0
149 165 0
151 168 0
148 164 0
160 179 0
148 166 0
154 172 0
154 172 0
152 167 0
155 170 0
150 167 0
151 167 0
153 167 0
150 165 0
152 168 0
145 160 0
154 170 0
150 166 0
149 167 0
155 171 0
157 173 0
148 166 0
156 171 0
152 168 0
158 175 0
153 168 0
156 172 0
152 165 0
145 161 0
150 165 0
155 170 0
150 165 0
149 163 0
150 167 0
151 167 0
154 170 0
155 170 0
148 160 0
151 167 0
155 169 0
147 161 0
158 172 0
145 160 0
155 169 0
156 171 0
151 165 0
160 176 0
153 168 0
153 169 0
156 172 0
155 171 0
146 160 0
152 166 0
150 162 0
157 169 0
158 173 0
159 172 0
156 172 0
155 169 0
155 169 0
157 172 0
158 173 0
152 165 0
153 165 0
152 163 0
162 179 0
153 165 0
158 172 0
145 157 0
156 169 0
152 164 0
156 170 0
158 171 0
161 175 0
149 163 0
152 165 0
145 156 0
168 191 0
167 190 0
166 189 0
169 191 0
166 188 0
168 192 0
171 193 0
164 188 0
165 187 0
168 190 0
167 189 0
169 192 0
165 187 0
164 187 0
166 189 0
167 190 0
165 187 0
166 188 0
169 191 0
164 186 0
165 187 0
166 188 0
169 190 0
166 189 0
164 186 0
166 188 0
162 184 0
162 184 0
166 187 0
163 186 0
165 188 0
160 183 0
166 188 0
162 185 0
166 189 0
164 186 0
169 192 0
162 184 0
163 186 0
164 185 0
162 184 0
166 189 0
163 184 0
159 181 0
165 187 0
163 186 0
162 184 0
167 191 0
162 186 0
163 186 0
163 185 0
160 182 0
167 190 0
166 189 0
167 190 0
165 188 0
167 189 0
165 188 0
157 180 0
159 182 0
162 184 0
165 188 0
162 185 0
161 183 0
163 185 0
156 178 0
160 182 0
160 183 0
162 184 0
154 176 0
162 183 0
158 180 0
155 178 0
160 182 0
160 184 0
160 183 0
157 180 0
158 180 0
164 187 0
161 184 0
159 182 0
167 190 0
153 177 0
160 183 0
159 181 0
157 179 0
155 177 0
162 185 0
157 180 0
160 184 0
162 185 0
158 180 0
163 185 0
157 180 0
164 187 0
154 177 0
166 188 0
157 180 0
157 180 0
153 175 0
163 184 0
161 183 0
159 181 0
151 174 0
154 177 0
157 178 0
153 176 0
158 180 0
160 184 0
150 172 0
157 179 0
165 187 0
152 175 0
157 178 0
155 177 0
158 182 0
155 178 0
155 178 0
162 184 0
158 182 0
154 175 0
152 175 0
158 182 0
163 186 0
155 177 0
159 182 0
160 182 0
158 181 0
155 178 0
156 180 0
156 178 0
154 176 0
164 188 0
159 181 0
155 177 0
158 180 0
152 176 0
156 180 0
153 175 0
154 176 0
159 182 0
157 179 0
155 177 0
152 174 0
155 177 0
156 178 0
152 174 0
153 176 0
156 179 0
155 177 0
155 178 0
148 169 0
159 180 0
155 177 0
158 180 0
152 173 0
156 177 0
153 176 0
153 175 0
152 174 0
156 179 0
152 175 0
153 175 0
154 176 0
154 175 0
149 172 0
152 175 0
153 175 0
152 174 0
146 167 0
152 175 0
155 178 0
156 179 0
150 172 0
147 168 0
153 174 0
146 168 0
146 168 0
158 180 0
151 174 0
151 173 0
152 174 0
152 176 0
153 175 0
147 168 0
151 174 0
147 168 0
144 165 0
147 168 0
151 173 0
147 168 0
157 178 0
153 175 0
146 168 0
145 168 0
140 161 0
157 181 0
153 174 0
145 166 0
155 178 0
157 179 0
158 180 0
152 173 0
157 179 0
154 175 0
156 178 0
148 170 0
149 171 0
156 179 0
145 166 0
153 175 0
150 171 0
158 180 0
147 170 0
150 173 0
149 170 0
151 172 0
153 174 0
149 170 0
145 168 0
149 170 0
154 175 0
147 169 0
149 171 0
145 166 0
156 178 0
150 170 0
137 158 0
142 164 0
147 168 0
152 173 0
157 178 0
152 173 0
151 173 0
149 171 0
146 168 0
145 165 0
150 170 0
147 167 0
151 173 0
147 169 0
150 170 0
151 174 0
153 173 0
146 167 0
150 172 0
149 169 0
147 169 0
152 175 0
159 180 0
145 165 0
164 186 0
151 172 0
154 174 0
149 171 0
153 173 0
147 168 0
148 167 0
152 169 0
150 170 0
151 171 0
154 175 0
145 166 0
144 164 0
157 179 0
155 175 0
149 170 0
152 171 0
150 171 0
154 174 0
152 171 0
149 169 0
147 165 0
153 173 0
149 170 0
152 173 0
153 172 0
157 176 0
155 174 0
152 171 0
151 171 0
149 171 0
159 179 0
153 174 0
157 176 0
155 174 0
145 164 0
150 169 0
153 172 0
148 168 0
150 170 0
155 175 0
155 175 0
151 169 0
157 176 0
150 170 0
149 166 0
159 179 0
152 171 0
143 159 0
151 169 0
152 170 0
152 169 0
153 172 0
147 166 0
153 171 0
146 165 0
155 174 0
145 163 0
150 168 0
152 169 0
153 171 0
150 167 0
149 166 0
156 176 0
157 175 0
148 167 0
147 165 0
148 166 0
152 171 0
158 177 0
152 170 0
150 168 0
155 172 0
148 165 0
154 171 0
154 171 0
151 168 0
153 170 0
154 172 0
153 169 0
145 162 0
156 172 0
158 174 0
146 163 0
155 171 0
157 176 0
156 174 0
151 167 0
148 163 0
153 170 0
153 170 0
150 167 0
150 167 0
152 165 0
152 169 0
158 174 0
153 170 0
153 171 0
152 169 0
152 168 0
154 171 0
154 171 0
159 175 0
154 171 0
153 170 0
141 154 0
146 161 0
152 169 0
146 162 0
150 165 0
155 170 0
157 172 0
152 167 0
153 166 0
153 168 0
146 160 0
154 167 0
157 170 0
153 168 0
158 172 0
150 165 0
153 170 0
156 171 0
156 172 0
153 169 0
155 171 0
149 164 0
159 174 0
148 162 0
152 165 0
147 161 0
151 163 0
154 169 0
151 165 0
159 175 0
146 157 0
153 167 0
153 166 0
157 170 0
155 168 0
157 172 0
147 158 0
153 167 0
154 166 0
151 163 0
156 173 0
154 168 0
151 162 0
149 162 0
167 189 0
163 186 0
164 186 0
165 187 0
164 185 0
167 189 0
164 186 0
162 184 0
169 191 0
165 188 0
160 182 0
165 188 0
169 191 0
167 188 0
164 186 0
166 188 0
166 188 0
164 187 0
165 188 0
167 190 0
163 186 0
166 189 0
162 185 0
169 191 0
167 190 0
170 191 0
164 186 0
166 188 0
171 194 0
165 187 0
167 188 0
161 182 0
163 185 0
165 187 0
167 190 0
165 188 0
165 187 0
165 187 0
165 188 0
167 191 0
163 186 0
165 188 0
165 187 0
171 193 0
171 193 0
159 181 0
160 182 0
165 188 0
162 184 0
161 184 0
162 185 0
162 185 0
164 187 0
168 191 0
167 189 0
159 181 0
165 187 0
167 188 0
166 187 0
161 184 0
166 189 0
158 182 0
162 184 0
164 186 0
164 186 0
159 181 0
160 182 0
156 178 0
162 185 0
162 184 0
156 178 0
161 183 0
167 189 0
165 187 0
156 179 0
162 184 0
161 184 0
164 187 0
163 186 0
164 186 0
157 179 0
158 181 0
156 179 0
161 184 0
160 183 0
159 182 0
165 187 0
161 184 0
166 187 0
159 182 0
159 181 0
160 182 0
152 175 0
160 183 0
151 172 0
162 185 0
166 187 0
159 182 0
166 189 0
162 184 0
160 182 0
164 185 0
158 180 0
158 182 0
163 185 0
164 187 0
161 184 0
160 182 0
162 184 0
159 182 0
159 182 0
158 180 0
156 179 0
161 184 0
161 184 0
162 185 0
161 184 0
157 179 0
151 173 0
158 180 0
154 176 0
155 178 0
155 177 0
153 175 0
153 175 0
157 180 0
143 166 0
155 178 0
156 180 0
151 173 0
154 175 0
154 177 0
166 188 0
152 174 0
150 172 0
157 180 0
151 173 0
152 175 0
155 177 0
160 182 0
153 177 0
159 181 0
157 180 0
153 175 0
154 177 0
155 178 0
162 184 0
147 169 0
158 179 0
153 175 0
158 181 0
156 179 0
155 178 0
149 170 0
146 169 0
152 173 0
158 181 0
153 174 0
152 175 0
147 168 0
154 176 0
159 181 0
155 177 0
152 174 0
154 176 0
146 168 0
138 160 0
159 181 0
150 171 0
146 167 0
158 180 0
149 171 0
155 178 0
154 176 0
157 179 0
147 170 0
154 177 0
158 179 0
153 174 0
155 177 0
152 174 0
153 176 0
152 173 0
150 171 0
155 176 0
151 172 0
151 173 0
153 175 0
150 172 0
157 179 0
152 175 0
149 172 0
151 171 0
149 172 0
152 174 0
158 180 0
149 171 0
151 173 0
150 172 0
154 176 0
148 169 0
154 176 0
145 167 0
158 181 0
150 169 0
148 169 0
158 180 0
150 170 0
152 173 0
150 173 0
153 176 0
152 174 0
155 175 0
149 171 0
151 172 0
148 169 0
152 173 0
150 171 0
156 178 0
148 169 0
150 172 0
148 169 0
145 168 0
155 177 0
157 178 0
150 171 0
149 170 0
150 170 0
150 170 0
152 174 0
154 175 0
146 168 0
152 171 0
148 168 0
146 166 0
155 177 0
142 162 0
150 172 0
144 165 0
154 176 0
153 175 0
143 164 0
154 175 0
151 170 0
148 169 0
144 165 0
151 172 0
148 169 0
155 176 0
148 167 0
155 174 0
155 177 0
149 170 0
158 179 0
152 172 0
151 171 0
147 165 0
149 168 0
151 172 0
152 173 0
147 169 0
155 175 0
155 175 0
151 171 0
155 177 0
158 181 0
149 169 0
153 173 0
152 172 0
145 164 0
157 179 0
146 162 0
148 170 0
152 172 0
158 178 0
150 170 0
155 175 0
144 164 0
147 168 0
151 169 0
149 169 0
156 176 0
152 172 0
145 165 0
156 175 0
146 164 0
156 175 0
157 180 0
150 170 0
154 173 0
149 168 0
142 159 0
146 164 0
154 174 0
152 170 0
151 172 0
146 164 0
156 176 0
154 175 0
149 165 0
148 168 0
147 166 0
155 174 0
157 176 0
148 166 0
147 164 0
153 172 0
150 168 0
155 174 0
155 175 0
150 166 0
154 172 0
148 166 0
150 168 0
148 166 0
153 171 0
151 170 0
148 166 0
149 169 0
151 170 0
153 173 0
155 173 0
155 173 0
148 164 0
156 173 0
157 174 0
153 171 0
149 167 0
152 172 0
151 169 0
156 176 0
143 161 0
147 163 0
152 170 0
153 172 0
150 166 0
153 170 0
150 167 0
150 166 0
149 166 0
151 168 0
154 171 0
151 171 0
152 168 0
155 172 0
158 174 0
154 171 0
161 179 0
157 172 0
152 167 0
153 170 0
155 172 0
154 169 0
152 167 0
146 162 0
147 161 0
154 172 0
149 162 0
154 168 0
159 175 0
152 167 0
156 175 0
142 153 0
157 171 0
155 171 0
153 168 0
149 165 0
151 166 0
161 177 0
153 170 0
156 169 0
149 161 0
153 166 0
156 172 0
157 171 0
157 170 0
159 176 0
156 172 0
153 167 0
154 168 0
152 166 0
151 164 0
151 165 0
151 167 0
157 173 0
156 171 0
156 173 0
151 164 0
153 165 0
156 171 0
158 173 0
153 165 0
153 168 0
148 160 0
152 164 0
156 170 0
149 161 0
158 174 0
159 173 0
159 175 0
167 190 0
168 191 0
166 188 0
170 193 0
164 187 0
169 190 0
166 190 0
167 189 0
168 190 0
164 186 0
167 189 0
166 188 0
167 189 0
167 189 0
165 187 0
170 191 0
163 185 0
166 188 0
162 185 0
166 187 0
162 185 0
163 186 0
163 185 0
163 185 0
168 191 0
166 188 0
165 187 0
165 186 0
165 187 0
164 187 0
162 185 0
159 182 0
169 191 0
168 191 0
162 184 0
166 189 0
164 185 0
167 190 0
166 188 0
166 188 0
164 186 0
166 188 0
165 187 0
160 182 0
163 185 0
167 190 0
165 187 0
160 182 0
162 185 0
163 186 0
162 184 0
162 184 0
165 187 0
168 191 0
165 188 0
159 182 0
159 181 0
166 189 0
162 185 0
162 183 0
165 187 0
162 184 0
159 182 0
160 182 0
165 187 0
163 186 0
159 183 0
161 184 0
161 183 0
163 185 0
160 183 0
161 183 0
159 181 0
160 183 0
162 186 0
162 185 0
163 185 0
164 186 0
163 186 0
160 183 0
161 183 0
158 182 0
164 186 0
164 187 0
162 185 0
161 183 0
153 176 0
155 178 0
154 175 0
157 179 0
154 176 0
163 186 0
159 181 0
155 177 0
156 178 0
163 186 0
148 171 0
160 181 0
159 182 0
163 185 0
164 186 0
153 176 0
164 187 0
157 180 0
156 180 0
153 175 0
159 181 0
152 175 0
157 180 0
153 176 0
156 179 0
161 184 0
161 184 0
159 181 0
155 179 0
160 183 0
163 186 0
154 177 0
152 175 0
155 176 0
157 179 0
153 175 0
158 181 0
157 180 0
159 181 0
156 178 0
157 179 0
159 182 0
161 183 0
149 170 0
157 179 0
161 184 0
153 175 0
158 180 0
150 172 0
160 182 0
150 172 0
152 175 0
159 182 0
157 179 0
156 178 0
154 178 0
156 178 0
156 178 0
150 172 0
156 177 0
155 178 0
151 173 0
159 180 0
148 169 0
155 177 0
154 177 0
158 179 0
157 179 0
154 177 0
157 180 0
160 183 0
156 179 0
155 178 0
157 178 0
152 174 0
152 174 0
152 175 0
149 170 0
150 173 0
152 176 0
154 176 0
146 166 0
156 178 0
152 174 0
151 174 0
161 183 0
155 177 0
148 170 0
159 182 0
154 175 0
150 173 0
154 176 0
157 180 0
158 181 0
145 167 0
149 170 0
148 170 0
154 176 0
149 171 0
158 180 0
151 173 0
149 170 0
160 183 0
143 164 0
150 171 0
149 171 0
149 172 0
151 172 0
151 174 0
149 171 0
155 179 0
154 177 0
153 175 0
147 169 0
152 173 0
153 174 0
146 167 0
143 164 0
153 174 0
142 162 0
152 173 0
152 174 0
150 173 0
149 172 0
154 176 0
148 169 0
152 174 0
153 175 0
148 169 0
147 169 0
147 169 0
147 169 0
158 180 0
147 169 0
150 170 0
144 166 0
150 171 0
152 173 0
154 175 0
146 167 0
149 169 0
151 172 0
153 175 0
143 164 0
150 172 0
152 175 0
150 171 0
154 176 0
148 169 0
156 177 0
147 168 0
150 170 0
155 176 0
159 181 0
146 168 0
153 175 0
157 178 0
150 172 0
147 167 0
152 170 0
157 177 0
154 175 0
148 166 0
147 169 0
148 169 0
146 168 0
155 177 0
142 163 0
152 170 0
151 173 0
152 172 0
154 175 0
144 165 0
149 170 0
156 178 0
155 177 0
143 163 0
147 165 0
153 173 0
149 171 0
148 167 0
153 174 0
153 174 0
152 173 0
153 172 0
150 169 0
154 172 0
147 167 0
154 175 0
151 171 0
146 165 0
159 178 0
151 170 0
152 171 0
154 174 0
158 177 0
158 178 0
147 165 0
152 172 0
151 172 0
157 177 0
154 174 0
153 173 0
153 174 0
153 172 0
155 174 0
149 167 0
154 172 0
146 165 0
152 169 0
153 171 0
147 168 0
147 166 0
150 170 0
152 171 0
154 174 0
148 165 0
148 168 0
146 165 0
147 165 0
155 177 0
152 171 0
151 170 0
148 167 0
152 171 0
148 163 0
148 167 0
151 169 0
158 178 0
155 173 0
151 169 0
158 175 0
147 165 0
147 164 0
150 169 0
155 175 0
154 174 0
154 173 0
162 180 0
151 167 0
155 172 0
153 170 0
154 172 0
151 169 0
152 169 0
154 171 0
153 170 0
150 169 0
150 167 0
148 164 0
143 160 0
150 169 0
155 174 0
155 172 0
152 170 0
153 172 0
152 166 0
155 172 0
154 173 0
154 168 0
150 168 0
149 165 0
153 166 0
153 171 0
155 174 0
156 171 0
152 169 0
158 177 0
147 163 0
155 171 0
153 169 0
151 166 0
144 158 0
150 164 0
160 178 0
155 172 0
156 170 0
154 168 0
154 169 0
148 161 0
154 172 0
154 170 0
156 171 0
154 165 0
151 164 0
152 167 0
156 172 0
152 167 0
158 173 0
145 159 0
159 175 0
157 171 0
161 176 0
150 164 0
156 170 0
159 175 0
155 169 0
152 169 0
150 164 0
157 172 0
159 173 0
157 172 0
152 166 0
153 168 0
154 169 0
150 164 0
150 164 0
154 171 0
159 173 0
155 168 0
160 175 0
155 170 0
152 166 0
157 168 0
168 191 0
169 191 0
167 190 0
168 190 0
164 187 0
162 184 0
164 186 0
171 193 0
163 185 0
168 190 0
164 187 0
172 194 0
163 185 0
169 190 0
165 187 0
166 189 0
163 186 0
167 189 0
166 187 0
171 193 0
163 185 0
170 192 0
163 186 0
164 187 0
166 189 0
166 189 0
167 189 0
164 186 0
165 187 0
164 187 0
162 184 0
168 190 0
167 189 0
164 187 0
162 185 0
167 189 0
166 188 0
161 184 0
161 184 0
160 183 0
163 187 0
161 183 0
162 185 0
160 183 0
158 181 0
165 188 0
168 191 0
168 190 0
159 181 0
158 181 0
163 185 0
163 186 0
164 187 0
165 187 0
163 185 0
162 185 0
159 180 0
166 190 0
159 182 0
165 187 0
160 183 0
164 187 0
165 188 0
160 182 0
161 185 0
164 186 0
163 187 0
163 186 0
159 182 0
162 184 0
160 183 0
163 185 0
161 183 0
162 184 0
163 186 0
160 183 0
157 180 0
152 175 0
162 185 0
150 172 0
157 179 0
156 180 0
161 183 0
160 182 0
157 180 0
164 187 0
155 177 0
160 183 0
155 177 0
152 175 0
165 187 0
159 182 0
159 181 0
163 184 0
158 181 0
156 178 0
160 183 0
156 179 0
162 184 0
156 179 0
162 184 0
160 182 0
158 180 0
162 184 0
159 182 0
159 182 0
163 186 0
151 174 0
154 176 0
156 179 0
155 179 0
156 178 0
159 181 0
159 181 0
162 184 0
165 187 0
155 178 0
156 179 0
148 170 0
157 180 0
156 179 0
154 177 0
155 178 0
157 180 0
160 183 0
155 178 0
161 185 0
160 182 0
152 176 0
162 184 0
153 174 0
154 177 0
152 175 0
162 185 0
157 179 0
151 173 0
157 179 0
154 176 0
158 181 0
152 174 0
157 180 0
154 176 0
155 178 0
156 179 0
157 180 0
153 175 0
155 178 0
152 175 0
152 174 0
153 176 0
149 171 0
152 173 0
155 178 0
155 177 0
153 175 0
156 179 0
155 177 0
154 175 0
146 169 0
153 175 0
158 179 0
153 175 0
150 172 0
154 175 0
161 184 0
150 173 0
150 172 0
161 185 0
150 174 0
150 172 0
143 165 0
157 179 0
155 177 0
146 169 0
160 184 0
149 171 0
156 177 0
148 171 0
144 165 0
155 178 0
149 172 0
154 177 0
149 171 0
154 176 0
159 182 0
155 176 0
147 169 0
150 172 0
156 179 0
159 181 0
149 170 0
147 169 0
147 169 0
149 170 0
158 177 0
151 173 0
155 177 0
146 168 0
150 171 0
145 167 0
150 172 0
153 174 0
150 171 0
151 173 0
148 171 0
154 176 0
147 167 0
147 169 0
150 171 0
149 170 0
153 174 0
148 169 0
150 170 0
153 174 0
147 168 0
153 176 0
144 166 0
150 171 0
158 179 0
150 171 0
154 176 0
152 173 0
148 170 0
152 172 0
154 176 0
155 177 0
155 176 0
148 168 0
147 169 0
160 182 0
149 169 0
156 177 0
150 172 0
152 174 0
152 174 0
150 170 0
152 172 0
152 172 0
153 174 0
152 173 0
156 176 0
151 171 0
151 172 0
149 169 0
149 171 0
157 178 0
151 172 0
144 164 0
159 180 0
151 172 0
150 173 0
146 168 0
151 172 0
154 175 0
155 177 0
150 171 0
151 172 0
149 171 0
156 175 0
147 168 0
152 172 0
155 177 0
155 177 0
158 177 0
142 163 0
151 171 0
147 167 0
153 173 0
141 158 0
151 172 0
147 166 0
151 172 0
149 169 0
151 171 0
150 169 0
148 167 0
151 170 0
152 173 0
157 177 0
152 172 0
152 171 0
157 178 0
156 175 0
151 170 0
150 169 0
149 169 0
156 176 0
151 172 0
154 174 0
149 168 0
150 169 0
154 173 0
156 177 0
148 167 0
161 180 0
149 167 0
149 170 0
155 176 0
154 173 0
151 173 0
143 163 0
157 176 0
150 169 0
157 178 0
152 170 0
145 164 0
150 170 0
150 169 0
151 168 0
151 167 0
156 174 0
147 165 0
158 177 0
152 169 0
148 165 0
156 174 0
152 171 0
157 176 0
154 173 0
155 172 0
154 172 0
146 162 0
153 170 0
152 169 0
152 170 0
155 173 0
150 168 0
153 172 0
152 170 0
156 173 0
154 172 0
155 172 0
151 169 0
153 170 0
148 165 0
149 164 0
150 166 0
155 171 0
156 174 0
152 168 0
149 167 0
151 169 0
145 163 0
148 163 0
155 173 0
146 165 0
150 166 0
150 168 0
153 170 0
152 170 0
150 165 0
156 173 0
155 171 0
159 178 0
149 166 0
153 169 0
154 172 0
150 167 0
146 161 0
149 165 0
150 165 0
155 172 0
153 169 0
156 172 0
156 172 0
156 173 0
152 168 0
153 168 0
152 168 0
152 168 0
150 165 0
155 169 0
148 162 0
157 171 0
155 169 0
156 172 0
150 166 0
159 173 0
155 174 0
156 172 0
159 174 0
160 175 0
155 171 0
156 170 0
149 161 0
156 171 0
146 157 0
153 167 0
158 175 0
156 172 0
155 170 0
153 168 0
157 169 0
157 174 0
157 172 0
154 165 0
155 168 0
158 174 0
153 167 0
161 176 0
166 188 0
165 188 0
166 189 0
170 192 0
169 191 0
167 189 0
169 191 0
165 187 0
172 194 0
166 189 0
165 187 0
167 189 0
167 189 0
167 190 0
166 188 0
168 190 0
162 185 0
162 184 0
166 189 0
167 189 0
166 188 0
166 187 0
169 192 0
166 188 0
165 187 0
162 184 0
167 190 0
167 190 0
162 184 0
163 185 0
165 187 0
165 188 0
162 184 0
161 184 0
163 186 0
166 189 0
159 181 0
165 188 0
163 186 0
167 189 0
168 190 0
164 187 0
164 187 0
167 188 0
167 189 0
164 187 0
166 188 0
170 193 0
167 189 0
164 187 0
161 184 0
165 187 0
166 189 0
165 189 0
157 178 0
163 186 0
164 187 0
165 188 0
162 184 0
164 186 0
159 182 0
164 186 0
163 186 0
157 180 0
163 186 0
162 185 0
157 180 0
163 186 0
156 178 0
161 184 0
163 185 0
159 182 0
164 186 0
167 190 0
155 177 0
157 180 0
162 184 0
159 181 0
159 182 0
166 188 0
164 185 0
157 179 0
163 186 0
161 182 0
160 182 0
159 183 0
166 188 0
162 185 0
159 182 0
160 184 0
161 183 0
155 178 0
159 183 0
160 183 0
159 182 0
157 180 0
158 180 0
158 181 0
162 185 0
160 182 0
156 180 0
163 186 0
160 182 0
159 182 0
166 190 0
163 185 0
154 177 0
157 180 0
153 176 0
163 187 0
154 178 0
156 179 0
157 181 0
162 184 0
156 178 0
161 184 0
159 181 0
158 181 0
152 175 0
155 176 0
154 177 0
156 180 0
159 183 0
154 177 0
166 189 0
152 175 0
157 180 0
154 177 0
161 184 0
157 178 0
160 183 0
157 180 0
154 176 0
161 183 0
156 178 0
152 175 0
151 174 0
150 171 0
147 169 0
164 187 0
157 179 0
164 186 0
148 171 0
156 178 0
156 178 0
155 177 0
155 178 0
143 166 0
156 177 0
162 184 0
156 179 0
153 176 0
150 173 0
154 177 0
153 175 0
158 180 0
147 170 0
150 171 0
162 184 0
150 173 0
159 181 0
157 178 0
149 172 0
153 175 0
154 175 0
159 181 0
155 177 0
151 172 0
160 182 0
156 178 0
147 169 0
146 168 0
150 173 0
153 175 0
153 174 0
158 180 0
156 179 0
146 168 0
154 176 0
147 168 0
155 178 0
150 171 0
154 176 0
148 171 0
153 175 0
145 167 0
153 174 0
149 170 0
154 177 0
159 182 0
159 181 0
155 178 0
149 171 0
156 176 0
146 168 0
154 176 0
152 174 0
147 168 0
149 170 0
150 170 0
156 178 0
155 177 0
143 165 0
148 169 0
156 178 0
151 174 0
142 164 0
155 176 0
145 166 0
153 176 0
148 168 0
152 172 0
154 176 0
156 178 0
148 168 0
158 180 0
145 167 0
151 173 0
151 172 0
151 174 0
159 179 0
152 174 0
150 172 0
150 170 0
150 171 0
155 177 0
160 181 0
157 179 0
144 164 0
148 169 0
152 174 0
137 159 0
151 174 0
151 173 0
143 164 0
149 170 0
148 170 0
150 170 0
147 166 0
155 177 0
151 172 0
156 178 0
143 161 0
149 168 0
153 174 0
146 168 0
145 165 0
151 172 0
156 177 0
150 170 0
154 175 0
154 174 0
155 175 0
146 166 0
149 169 0
156 177 0
154 175 0
158 178 0
146 167 0
150 170 0
149 168 0
152 173 0
151 171 0
156 177 0
148 167 0
155 177 0
157 179 0
148 168 0
150 171 0
147 168 0
149 170 0
156 176 0
153 172 0
158 180 0
152 172 0
155 174 0
156 178 0
149 167 0
144 162 0
153 175 0
152 173 0
154 176 0
155 175 0
151 170 0
149 169 0
146 166 0
149 168 0
149 168 0
159 179 0
154 174 0
158 178 0
153 172 0
151 172 0
151 169 0
155 173 0
157 176 0
154 175 0
150 169 0
153 174 0
144 163 0
155 174 0
148 167 0
157 176 0
151 170 0
155 174 0
154 175 0
151 171 0
151 169 0
149 168 0
157 176 0
148 166 0
153 173 0
152 170 0
151 169 0
155 173 0
152 170 0
153 171 0
159 179 0
146 165 0
150 170 0
152 170 0
154 173 0
153 171 0
155 172 0
145 164 0
155 171 0
157 173 0
156 173 0
151 171 0
149 166 0
152 171 0
147 164 0
153 170 0
158 174 0
151 168 0
152 169 0
160 178 0
154 171 0
146 163 0
147 165 0
154 171 0
153 168 0
148 165 0
152 168 0
153 168 0
149 165 0
147 161 0
152 168 0
158 174 0
154 170 0
147 163 0
154 171 0
155 169 0
154 171 0
148 162 0
153 170 0
151 166 0
147 163 0
156 173 0
154 171 0
153 171 0
157 174 0
157 172 0
158 174 0
147 163 0
152 170 0
153 167 0
151 170 0
151 164 0
155 167 0
157 173 0
156 174 0
161 176 0
152 167 0
151 167 0
157 171 0
151 166 0
153 166 0
159 174 0
151 163 0
149 163 0
153 167 0
153 170 0
159 175 0
159 174 0
153 167 0
156 170 0
156 172 0
153 169 0
151 163 0
153 166 0
156 169 0
153 165 0
158 170 0
156 172 0
150 163 0
149 164 0
158 173 0
154 169 0
155 169 0
168 190 0
165 187 0
169 192 0
168 190 0
167 189 0
168 191 0
166 188 0
170 193 0
171 194 0
170 192 0
169 192 0
163 185 0
166 189 0
164 186 0
168 190 0
168 191 0
172 194 0
164 187 0
163 186 0
169 192 0
166 189 0
163 186 0
168 190 0
167 190 0
170 192 0
166 189 0
168 190 0
164 186 0
162 185 0
170 193 0
164 187 0
162 185 0
161 184 0
163 185 0
163 186 0
164 186 0
168 190 0
167 190 0
169 192 0
162 185 0
159 182 0
161 184 0
158 181 0
165 187 0
163 185 0
161 184 0
163 186 0
156 177 0
165 187 0
161 184 0
166 189 0
164 186 0
165 187 0
162 184 0
157 180 0
158 183 0
163 185 0
157 180 0
168 191 0
157 181 0
164 186 0
167 189 0
161 184 0
163 186 0
157 180 0
161 183 0
162 185 0
156 177 0
160 182 0
165 188 0
165 187 0
162 185 0
159 183 0
164 187 0
161 184 0
159 182 0
153 175 0
161 184 0
160 182 0
163 187 0
158 181 0
156 180 0
161 184 0
158 181 0
158 180 0
158 181 0
162 184 0
163 186 0
157 179 0
155 177 0
161 184 0
158 181 0
155 177 0
154 178 0
159 181 0
158 182 0
154 178 0
155 178 0
160 183 0
153 175 0
163 186 0
161 183 0
161 184 0
158 181 0
159 182 0
159 181 0
160 183 0
154 178 0
160 182 0
157 179 0
149 172 0
156 179 0
162 184 0
160 182 0
158 179 0
158 182 0
158 180 0
151 173 0
154 177 0
160 182 0
155 178 0
160 183 0
152 174 0
154 176 0
156 179 0
156 179 0
154 176 0
150 172 0
156 178 0
157 180 0
158 180 0
153 175 0
152 174 0
156 178 0
155 177 0
150 173 0
159 180 0
152 174 0
167 189 0
154 178 0
160 183 0
158 181 0
154 176 0
158 180 0
150 172 0
153 175 0
162 185 0
158 180 0
153 175 0
157 180 0
157 179 0
153 175 0
152 174 0
150 173 0
154 175 0
156 180 0
154 176 0
157 179 0
159 181 0
151 173 0
153 176 0
153 175 0
151 174 0
153 177 0
154 176 0
157 179 0
158 180 0
145 167 0
150 171 0
157 179 0
155 176 0
162 182 0
151 173 0
151 173 0
154 176 0
151 173 0
151 172 0
154 177 0
158 180 0
151 172 0
161 183 0
158 181 0
158 181 0
153 174 0
153 175 0
150 170 0
150 172 0
155 178 0
156 179 0
152 172 0
149 172 0
156 176 0
148 169 0
143 164 0
151 172 0
155 178 0
144 166 0
153 176 0
154 175 0
153 174 0
157 178 0
149 171 0
151 173 0
148 168 0
152 174 0
149 170 0
156 178 0
156 178 0
153 174 0
157 178 0
141 163 0
157 178 0
142 164 0
157 177 0
150 172 0
151 174 0
155 178 0
152 173 0
154 175 0
141 163 0
152 173 0
148 170 0
158 180 0
155 175 0
149 170 0
149 171 0
153 176 0
154 174 0
159 180 0
152 175 0
150 171 0
155 174 0
149 169 0
149 170 0
152 174 0
155 178 0
161 181 0
142 164 0
151 171 0
148 168 0
157 177 0
146 167 0
155 176 0
148 168 0
153 174 0
152 174 0
150 172 0
151 171 0
155 177 0
152 174 0
148 169 0
147 168 0
154 175 0
150 171 0
157 178 0
154 175 0
145 166 0
151 173 0
151 173 0
144 165 0
151 172 0
157 177 0
147 167 0
155 177 0
153 174 0
156 177 0
154 175 0
153 174 0
156 176 0
154 174 0
146 165 0
159 180 0
144 165 0
149 170 0
153 173 0
158 180 0
150 172 0
154 172 0
155 176 0
154 175 0
148 168 0
157 178 0
149 169 0
154 174 0
149 169 0
152 173 0
143 163 0
151 171 0
154 174 0
159 180 0
162 183 0
145 163 0
145 164 0
152 172 0
152 172 0
156 177 0
152 171 0
154 174 0
149 168 0
152 173 0
156 177 0
147 167 0
158 179 0
159 180 0
144 161 0
156 177 0
154 173 0
161 180 0
153 172 0
158 176 0
159 178 0
156 176 0
155 175 0
153 174 0
151 167 0
150 168 0
147 165 0
151 170 0
154 173 0
156 178 0
153 170 0
157 175 0
154 171 0
155 175 0
148 166 0
146 160 0
150 167 0
150 169 0
160 180 0
151 169 0
148 167 0
148 166 0
147 165 0
155 172 0
156 174 0
150 168 0
157 176 0
147 163 0
155 173 0
154 170 0
145 162 0
153 172 0
156 175 0
156 173 0
152 169 0
160 177 0
152 168 0
160 176 0
157 176 0
153 171 0
146 160 0
150 166 0
154 172 0
154 171 0
149 165 0
155 169 0
154 170 0
155 171 0
148 164 0
157 173 0
151 170 0
148 162 0
149 163 0
154 171 0
153 168 0
157 174 0
158 174 0
149 162 0
153 168 0
154 169 0
154 169 0
157 173 0
156 172 0
162 178 0
149 165 0
156 173 0
157 175 0
149 165 0
151 167 0
154 169 0
155 171 0
157 174 0
152 167 0
148 161 0
151 167 0
155 171 0
151 166 0
152 168 0
161 176 0
151 164 0
159 176 0
156 169 0
152 165 0
154 167 0
155 170 0
153 171 0
153 165 0
160 175 0
156 171 0
160 176 0
169 191 0
164 186 0
164 187 0
171 193 0
172 195 0
167 189 0
167 189 0
163 186 0
166 188 0
171 192 0
167 189 0
163 186 0
162 185 0
165 187 0
165 188 0
167 189 0
168 191 0
168 191 0
164 187 0
167 190 0
165 186 0
160 183 0
164 186 0
164 187 0
164 187 0
163 186 0
165 188 0
165 188 0
164 186 0
165 187 0
165 188 0
165 188 0
165 188 0
166 189 0
160 183 0
168 190 0
167 190 0
166 188 0
165 187 0
165 188 0
166 189 0
164 187 0
164 186 0
161 184 0
165 187 0
164 187 0
166 189 0
164 187 0
164 186 0
167 190 0
163 186 0
159 182 0
163 185 0
164 187 0
166 189 0
166 189 0
163 184 0
163 186 0
160 183 0
161 183 0
169 192 0
161 184 0
157 179 0
166 189 0
159 182 0
163 187 0
161 185 0
157 179 0
160 183 0
165 188 0
164 187 0
159 182 0
166 188 0
162 184 0
160 182 0
164 187 0
156 180 0
169 191 0
161 183 0
160 182 0
159 182 0
162 185 0
164 187 0
157 180 0
158 180 0
163 186 0
162 184 0
154 177 0
162 185 0
162 185 0
161 184 0
159 181 0
151 173 0
158 181 0
160 183 0
157 180 0
152 175 0
160 183 0
161 185 0
156 179 0
161 184 0
156 178 0
158 181 0
155 178 0
160 182 0
162 185 0
166 188 0
156 179 0
153 175 0
160 184 0
155 176 0
154 177 0
164 188 0
157 180 0
162 184 0
158 180 0
164 186 0
152 175 0
158 181 0
158 181 0
161 184 0
156 178 0
155 177 0
156 179 0
160 183 0
160 182 0
162 184 0
160 182 0
159 182 0
160 182 0
155 177 0
159 182 0
153 175 0
159 181 0
159 182 0
160 181 0
157 180 0
158 181 0
159 182 0
154 179 0
158 181 0
152 176 0
161 182 0
155 176 0
156 178 0
156 179 0
158 180 0
156 178 0
155 178 0
154 177 0
159 182 0
156 178 0
160 182 0
156 178 0
149 171 0
157 180 0
161 183 0
159 183 0
148 171 0
154 176 0
152 174 0
153 176 0
161 183 0
152 174 0
151 173 0
149 171 0
151 174 0
157 179 0
156 179 0
152 174 0
154 176 0
152 174 0
152 175 0
155 177 0
161 184 0
154 177 0
156 177 0
151 175 0
153 176 0
154 176 0
151 172 0
156 177 0
154 177 0
154 176 0
149 171 0
153 175 0
152 174 0
150 171 0
153 174 0
151 173 0
154 176 0
153 174 0
150 173 0
155 177 0
157 178 0
155 176 0
156 178 0
149 170 0
156 179 0
155 177 0
157 179 0
157 179 0
152 172 0
157 180 0
154 176 0
160 182 0
148 169 0
155 178 0
149 171 0
148 169 0
161 182 0
151 173 0
153 175 0
150 171 0
150 173 0
147 170 0
155 177 0
158 178 0
149 171 0
155 176 0
156 178 0
158 179 0
156 177 0
151 172 0
149 171 0
142 162 0
155 176 0
147 168 0
151 172 0
154 175 0
150 171 0
152 173 0
146 168 0
147 168 0
147 169 0
149 170 0
154 174 0
155 176 0
147 167 0
152 171 0
148 168 0
156 176 0
151 172 0
154 175 0
156 177 0
148 169 0
159 180 0
146 166 0
155 177 0
149 170 0
150 170 0
157 178 0
152 172 0
150 172 0
156 178 0
150 171 0
152 171 0
151 172 0
157 178 0
153 173 0
150 170 0
152 174 0
161 183 0
154 174 0
151 172 0
149 167 0
152 172 0
152 173 0
153 174 0
153 172 0
152 173 0
151 171 0
141 162 0
162 182 0
151 172 0
155 178 0
156 176 0
150 168 0
153 175 0
153 172 0
156 176 0
157 177 0
151 172 0
155 175 0
160 182 0
143 163 0
157 176 0
151 171 0
158 179 0
150 171 0
156 176 0
152 172 0
152 172 0
149 169 0
156 176 0
152 172 0
153 174 0
154 173 0
157 177 0
157 176 0
155 173 0
148 168 0
152 173 0
159 178 0
147 165 0
159 178 0
153 172 0
150 169 0
156 175 0
149 168 0
151 167 0
152 171 0
151 170 0
156 174 0
158 178 0
157 177 0
157 176 0
155 174 0
151 170 0
153 173 0
154 172 0
155 176 0
154 173 0
153 172 0
145 162 0
155 175 0
162 180 0
152 170 0
155 176 0
147 164 0
158 176 0
163 183 0
151 170 0
147 167 0
150 168 0
158 175 0
157 175 0
157 176 0
154 173 0
150 167 0
153 170 0
153 168 0
152 169 0
150 166 0
149 165 0
154 172 0
154 172 0
155 173 0
153 170 0
152 171 0
154 173 0
154 168 0
153 170 0
154 171 0
150 169 0
150 167 0
156 172 0
157 175 0
164 181 0
152 166 0
155 171 0
148 163 0
151 167 0
151 168 0
152 169 0
155 172 0
155 172 0
155 169 0
155 174 0
153 169 0
152 167 0
153 170 0
155 172 0
151 166 0
155 168 0
154 172 0
156 169 0
154 170 0
142 155 0
152 165 0
145 158 0
157 170 0
154 170 0
156 172 0
155 169 0
154 170 0
154 167 0
153 167 0
157 171 0
163 181 0
146 159 0
159 173 0
152 168 0
158 176 0
149 165 0
151 166 0
155 170 0
159 173 0
156 171 0
155 171 0
167 189 0
163 186 0
167 189 0
165 187 0
169 191 0
171 193 0
168 190 0
166 189 0
169 192 0
167 189 0
166 188 0
171 193 0
169 192 0
164 187 0
164 186 0
161 185 0
168 190 0
161 182 0
164 187 0
166 188 0
163 185 0
164 187 0
165 188 0
164 187 0
169 192 0
169 191 0
168 190 0
164 187 0
162 185 0
172 195 0
163 185 0
162 185 0
163 187 0
164 187 0
164 187 0
166 188 0
162 184 0
172 193 0
163 185 0
163 185 0
160 183 0
168 191 0
158 182 0
159 182 0
163 186 0
165 187 0
162 185 0
164 187 0
163 186 0
162 184 0
161 183 0
166 189 0
164 187 0
161 184 0
161 184 0
162 185 0
166 188 0
164 187 0
161 184 0
159 181 0
165 188 0
164 186 0
164 186 0
159 182 0
159 181 0
162 186 0
162 186 0
161 183 0
153 177 0
164 187 0
159 183 0
155 178 0
163 185 0
161 184 0
169 191 0
165 188 0
156 178 0
163 185 0
161 183 0
163 186 0
159 181 0
161 184 0
162 185 0
162 185 0
158 181 0
162 185 0
165 189 0
161 184 0
160 182 0
158 182 0
159 182 0
155 177 0
157 179 0
154 176 0
158 180 0
161 183 0
163 185 0
155 178 0
157 179 0
162 185 0
165 188 0
165 188 0
159 181 0
153 176 0
157 179 0
166 190 0
156 179 0
165 187 0
153 176 0
161 185 0
162 185 0
160 185 0
150 173 0
160 183 0
154 176 0
164 186 0
156 178 0
161 183 0
157 180 0
157 179 0
158 180 0
154 176 0
154 176 0
154 177 0
159 181 0
154 178 0
164 187 0
158 182 0
145 167 0
164 186 0
155 177 0
146 169 0
161 183 0
157 180 0
152 174 0
151 174 0
151 174 0
153 176 0
155 177 0
147 168 0
157 181 0
162 185 0
156 178 0
155 177 0
162 184 0
157 180 0
156 179 0
156 178 0
158 179 0
160 181 0
158 180 0
153 174 0
161 185 0
160 182 0
153 175 0
146 168 0
159 182 0
149 171 0
151 174 0
153 176 0
153 174 0
154 175 0
145 167 0
158 181 0
148 169 0
153 175 0
149 171 0
160 181 0
155 178 0
151 173 0
153 175 0
153 174 0
152 175 0
157 178 0
157 179 0
149 171 0
150 172 0
157 179 0
159 182 0
150 172 0
160 182 0
154 177 0
151 172 0
154 177 0
156 178 0
156 177 0
153 175 0
157 179 0
157 180 0
145 168 0
152 174 0
156 179 0
148 171 0
152 174 0
155 177 0
152 174 0
157 179 0
146 166 0
153 174 0
158 180 0
152 174 0
149 170 0
154 176 0
155 176 0
152 174 0
151 173 0
149 172 0
145 166 0
155 177 0
146 167 0
148 169 0
154 175 0
152 174 0
153 174 0
162 183 0
159 182 0
156 177 0
156 178 0
150 173 0
147 169 0
154 176 0
151 172 0
146 167 0
159 181 0
149 171 0
158 180 0
147 170 0
154 175 0
143 164 0
140 160 0
149 172 0
151 171 0
149 170 0
152 174 0
159 180 0
161 183 0
143 165 0
151 173 0
149 170 0
157 180 0
148 168 0
158 179 0
146 167 0
156 179 0
150 172 0
151 171 0
161 183 0
157 179 0
149 168 0
159 181 0
153 175 0
152 171 0
149 170 0
149 171 0
157 177 0
157 178 0
152 174 0
148 167 0
163 185 0
152 172 0
155 176 0
151 171 0
156 177 0
145 165 0
157 177 0
157 177 0
150 172 0
151 171 0
160 181 0
152 172 0
156 178 0
151 170 0
156 176 0
148 167 0
149 169 0
148 168 0
153 173 0
153 174 0
148 168 0
146 165 0
156 177 0
153 173 0
156 178 0
146 165 0
151 171 0
156 177 0
150 169 0
152 172 0
153 172 0
155 175 0
154 171 0
152 172 0
156 176 0
148 167 0
154 175 0
154 174 0
156 177 0
152 172 0
155 174 0
151 170 0
152 169 0
154 175 0
153 170 0
149 166 0
155 175 0
150 170 0
146 165 0
149 169 0
148 166 0
148 166 0
152 171 0
152 170 0
149 169 0
159 176 0
151 170 0
153 171 0
152 171 0
159 176 0
147 165 0
148 167 0
144 162 0
160 180 0
149 166 0
151 168 0
156 175 0
153 171 0
154 171 0
151 170 0
152 170 0
157 173 0
151 168 0
153 173 0
155 174 0
155 175 0
157 175 0
158 177 0
154 171 0
155 176 0
156 173 0
153 172 0
159 177 0
157 174 0
150 168 0
155 173 0
155 172 0
155 173 0
156 173 0
152 167 0
156 174 0
152 169 0
159 176 0
147 163 0
159 176 0
155 173 0
151 168 0
156 170 0
158 176 0
153 171 0
154 171 0
156 174 0
159 176 0
155 172 0
151 168 0
149 164 0
156 172 0
160 178 0
153 168 0
159 176 0
154 171 0
157 172 0
152 167 0
159 175 0
155 170 0
157 174 0
155 172 0
156 171 0
154 168 0
160 176 0
155 170 0
152 167 0
149 163 0
156 175 0
156 173 0
160 175 0
154 168 0
156 169 0
153 166 0
153 168 0
157 172 0
157 173 0
147 160 0
156 170 0
156 171 0
158 171 0
155 170 0
154 169 0
155 172 0
157 172 0
159 176 0
156 173 0
